ciel274/research-hand-sign/data/raw/hiragana/sign_language_hu_1.csv
timestamp,R_joint_0_x,R_joint_0_y,R_joint_0_z,R_joint_1_x,R_joint_1_y,R_joint_1_z,R_joint_2_x,R_joint_2_y,R_joint_2_z,R_joint_3_x,R_joint_3_y,R_joint_3_z,R_joint_4_x,R_joint_4_y,R_joint_4_z,R_joint_5_x,R_joint_5_y,R_joint_5_z,R_joint_6_x,R_joint_6_y,R_joint_6_z,R_joint_7_x,R_joint_7_y,R_joint_7_z,R_joint_8_x,R_joint_8_y,R_joint_8_z,R_joint_9_x,R_joint_9_y,R_joint_9_z,R_joint_10_x,R_joint_10_y,R_joint_10_z,R_joint_11_x,R_joint_11_y,R_joint_11_z,R_joint_12_x,R_joint_12_y,R_joint_12_z,R_joint_13_x,R_joint_13_y,R_joint_13_z,R_joint_14_x,R_joint_14_y,R_joint_14_z,R_joint_15_x,R_joint_15_y,R_joint_15_z,R_joint_16_x,R_joint_16_y,R_joint_16_z,R_joint_17_x,R_joint_17_y,R_joint_17_z,R_joint_18_x,R_joint_18_y,R_joint_18_z,R_joint_19_x,R_joint_19_y,R_joint_19_z,R_joint_20_x,R_joint_20_y,R_joint_20_z,L_joint_0_x,L_joint_0_y,L_joint_0_z,L_joint_1_x,L_joint_1_y,L_joint_1_z,L_joint_2_x,L_joint_2_y,L_joint_2_z,L_joint_3_x,L_joint_3_y,L_joint_3_z,L_joint_4_x,L_joint_4_y,L_joint_4_z,L_joint_5_x,L_joint_5_y,L_joint_5_z,L_joint_6_x,L_joint_6_y,L_joint_6_z,L_joint_7_x,L_joint_7_y,L_joint_7_z,L_joint_8_x,L_joint_8_y,L_joint_8_z,L_joint_9_x,L_joint_9_y,L_joint_9_z,L_joint_10_x,L_joint_10_y,L_joint_10_z,L_joint_11_x,L_joint_11_y,L_joint_11_z,L_joint_12_x,L_joint_12_y,L_joint_12_z,L_joint_13_x,L_joint_13_y,L_joint_13_z,L_joint_14_x,L_joint_14_y,L_joint_14_z,L_joint_15_x,L_joint_15_y,L_joint_15_z,L_joint_16_x,L_joint_16_y,L_joint_16_z,L_joint_17_x,L_joint_17_y,L_joint_17_z,L_joint_18_x,L_joint_18_y,L_joint_18_z,L_joint_19_x,L_joint_19_y,L_joint_19_z,L_joint_20_x,L_joint_20_y,L_joint_20_z
1784046309.909834,0.0,0.0,0.0,0.0,0.0,0.0,0.0,0.0,0.0,0.0,0.0,0.0,0.0,0.0,0.0,0.0,0.0,0.0,0.0,0.0,0.0,0.0,0.0,0.0,0.0,0.0,0.0,0.0,0.0,0.0,0.0,0.0,0.0,0.0,0.0,0.0,0.0,0.0,0.0,0.0,0.0,0.0,0.0,0.0,0.0,0.0,0.0,0.0,0.0,0.0,0.0,0.0,0.0,0.0,0.0,0.0,0.0,0.0,0.0,0.0,0.0,0.0,0.0,0.0,0.0,0.0,0.0,0.0,0.0,0.0,0.0,0.0,0.0,0.0,0.0,0.0,0.0,0.0,0.0,0.0,0.0,0.0,0.0,0.0,0.0,0.0,0.0,0.0,0.0,0.0,0.0,0.0,0.0,0.0,0.0,0.0,0.0,0.0,0.0,0.0,0.0,0.0,0.0,0.0,0.0,0.0,0.0,0.0,0.0,0.0,0.0,0.0,0.0,0.0,0.0,0.0,0.0,0.0,0.0,0.0,0.0,0.0,0.0,0.0,0.0,0.0
1784046310.095466,0.8549979329109192,0.7401062846183777,-1.013147112871593e-07,0.7781838178634644,0.7143319845199585,-0.0033999767620116472,0.7126874327659607,0.7550950050354004,-0.01676202192902565,0.6733197569847107,0.8359289765357971,-0.03134863078594208,0.6592199206352234,0.8970978260040283,-0.04776483774185181,0.7295693159103394,0.7214260697364807,-0.025729387998580933,0.6902420520782471,0.8391393423080444,-0.04913490638136864,0.6767613887786865,0.8590477705001831,-0.06549296528100967,0.675544261932373,0.8612499833106995,-0.07526693493127823,0.7690010666847229,0.7663900852203369,-0.037391193211078644,0.7165926694869995,0.9286882877349854,-0.058080293238162994,0.7162445783615112,0.8982012271881104,-0.06283029168844223,0.7276429533958435,0.8502909541130066,-0.06658242642879486,0.8058652281761169,0.8098095059394836,-0.048888251185417175,0.7532778382301331,0.9551165699958801,-0.06965982913970947,0.7537204623222351,0.9118804335594177,-0.06292543560266495,0.7617108225822449,0.8580541610717773,-0.056302912533283234,0.8380640745162964,0.8498759865760803,-0.059961117804050446,0.792722225189209,0.959108829498291,-0.07479424774646759,0.7944087386131287,0.9203566312789917,-0.06679201126098633,0.8021179437637329,0.8701353669166565,-0.05931183323264122,0.0,0.0,0.0,0.0,0.0,0.0,0.0,0.0,0.0,0.0,0.0,0.0,0.0,0.0,0.0,0.0,0.0,0.0,0.0,0.0,0.0,0.0,0.0,0.0,0.0,0.0,0.0,0.0,0.0,0.0,0.0,0.0,0.0,0.0,0.0,0.0,0.0,0.0,0.0,0.0,0.0,0.0,0.0,0.0,0.0,0.0,0.0,0.0,0.0,0.0,0.0,0.0,0.0,0.0,0.0,0.0,0.0,0.0,0.0,0.0,0.0,0.0,0.0
1784046310.314832,0.8119848370552063,0.4256833791732788,-1.368481150620937e-07,0.7585225701332092,0.4283946752548218,-0.004301935900002718,0.7044283747673035,0.4695858359336853,-0.01786069944500923,0.6622333526611328,0.5182785987854004,-0.02993277832865715,0.6254832744598389,0.5516427159309387,-0.04431764408946037,0.7020995020866394,0.42753952741622925,-0.051036130636930466,0.6568868160247803,0.5453964471817017,-0.06711754947900772,0.6463245153427124,0.6097254753112793,-0.06975235790014267,0.648652195930481,0.6399816274642944,-0.06952673941850662,0.7369797229766846,0.4459681808948517,-0.05865314602851868,0.6876450777053833,0.5860088467597961,-0.06889395415782928,0.6872975826263428,0.6282908916473389,-0.062027834355831146,0.6960417628288269,0.6308708786964417,-0.05943142622709274,0.7731142640113831,0.47640618681907654,-0.06420867890119553,0.7274843454360962,0.604781985282898,-0.07357601821422577,0.7287662625312805,0.620334267616272,-0.05963057652115822,0.7391203045845032,0.6003185510635376,-0.05138208717107773,0.8058815002441406,0.5168246626853943,-0.06932187080383301,0.76682448387146,0.6204624176025391,-0.08118605613708496,0.761819064617157,0.6284076571464539,-0.07369669526815414,0.7672168612480164,0.6083808541297913,-0.06714188307523727,0.0,0.0,0.0,0.0,0.0,0.0,0.0,0.0,0.0,0.0,0.0,0.0,0.0,0.0,0.0,0.0,0.0,0.0,0.0,0.0,0.0,0.0,0.0,0.0,0.0,0.0,0.0,0.0,0.0,0.0,0.0,0.0,0.0,0.0,0.0,0.0,0.0,0.0,0.0,0.0,0.0,0.0,0.0,0.0,0.0,0.0,0.0,0.0,0.0,0.0,0.0,0.0,0.0,0.0,0.0,0.0,0.0,0.0,0.0,0.0,0.0,0.0,0.0
1784046310.5066009,0.785760760307312,0.3456433415412903,-5.095963828694039e-08,0.7273311614990234,0.35028088092803955,-0.004293422680348158,0.6613372564315796,0.37766143679618835,-0.0202714204788208,0.6134085655212402,0.3945583701133728,-0.03534474968910217,0.5720140933990479,0.38950473070144653,-0.052949801087379456,0.6687685251235962,0.4058403968811035,-0.05622860789299011,0.6365463733673096,0.557778537273407,-0.08178629726171494,0.621543824672699,0.6436784863471985,-0.09482335299253464,0.6145757436752319,0.7069380283355713,-0.10360348969697952,0.7054996490478516,0.430608332157135,-0.06589647382497787,0.6744323372840881,0.5864560008049011,-0.08603288978338242,0.6874675154685974,0.5534522533416748,-0.08176328241825104,0.7016201019287109,0.4982745051383972,-0.08132783323526382,0.7459916472434998,0.4543948173522949,-0.07389938831329346,0.7111521363258362,0.5927890539169312,-0.09312058240175247,0.7243574261665344,0.5554277300834656,-0.07616295665502548,0.7363976836204529,0.5037000775337219,-0.06565796583890915,0.7814981341362,0.4735502004623413,-0.08138275891542435,0.7511120438575745,0.5799984931945801,-0.09695535898208618,0.7594955563545227,0.5496401190757751,-0.0853571966290474,0.7700234651565552,0.5086447596549988,-0.07691384106874466,0.0,0.0,0.0,0.0,0.0,0.0,0.0,0.0,0.0,0.0,0.0,0.0,0.0,0.0,0.0,0.0,0.0,0.0,0.0,0.0,0.0,0.0,0.0,0.0,0.0,0.0,0.0,0.0,0.0,0.0,0.0,0.0,0.0,0.0,0.0,0.0,0.0,0.0,0.0,0.0,0.0,0.0,0.0,0.0,0.0,0.0,0.0,0.0,0.0,0.0,0.0,0.0,0.0,0.0,0.0,0.0,0.0,0.0,0.0,0.0,0.0,0.0,0.0
1784046310.7009652,0.7601082921028137,0.3039180040359497,2.2031930058119542e-08,0.6965502500534058,0.3042585551738739,-0.0002836833300534636,0.6323124170303345,0.35417672991752625,-0.012210322543978691,0.5783079266548157,0.3849303126335144,-0.02564048394560814,0.5364574790000916,0.3664085268974304,-0.041704270988702774,0.6406885385513306,0.4533732533454895,-0.031224319711327553,0.6340511441230774,0.5992647409439087,-0.05007736757397652,0.6319805383682251,0.6861766576766968,-0.06283601373434067,0.6298646330833435,0.7494261264801025,-0.07169350981712341,0.6790978908538818,0.48368170857429504,-0.03843092918395996,0.6769490838050842,0.5875028371810913,-0.05302892252802849,0.6845524907112122,0.5421460270881653,-0.049930017441511154,0.6893459558486938,0.48524239659309387,-0.048113010823726654,0.7216132283210754,0.4977555572986603,-0.04432058706879616,0.7129013538360596,0.5761235356330872,-0.059898216277360916,0.720802903175354,0.5371158719062805,-0.04978087171912193,0.7265251278877258,0.4867134690284729,-0.04185214266180992,0.7576816082000732,0.503384530544281,-0.04941744729876518,0.7469950914382935,0.5542468428611755,-0.058886922895908356,0.7537663578987122,0.5148032903671265,-0.049266036599874496,0.7589775919914246,0.47131580114364624,-0.040932610630989075,0.0,0.0,0.0,0.0,0.0,0.0,0.0,0.0,0.0,0.0,0.0,0.0,0.0,0.0,0.0,0.0,0.0,0.0,0.0,0.0,0.0,0.0,0.0,0.0,0.0,0.0,0.0,0.0,0.0,0.0,0.0,0.0,0.0,0.0,0.0,0.0,0.0,0.0,0.0,0.0,0.0,0.0,0.0,0.0,0.0,0.0,0.0,0.0,0.0,0.0,0.0,0.0,0.0,0.0,0.0,0.0,0.0,0.0,0.0,0.0,0.0,0.0,0.0
1784046310.8833122,0.744543194770813,0.276922345161438,-3.070622511813781e-08,0.684846818447113,0.28473496437072754,-0.0028989077545702457,0.6247727870941162,0.33352527022361755,-0.013790322467684746,0.5706706643104553,0.360102117061615,-0.026010727509856224,0.5268377065658569,0.3491531312465668,-0.04065242037177086,0.6298243403434753,0.43810951709747314,-0.02258474752306938,0.628187894821167,0.5732887983322144,-0.036810971796512604,0.6286753416061401,0.655448317527771,-0.04651318117976189,0.6272863745689392,0.7177560925483704,-0.05317402631044388,0.6640263199806213,0.46480828523635864,-0.027262289077043533,0.6764364838600159,0.5552018284797668,-0.04267125949263573,0.6842238306999207,0.5122770667076111,-0.04185717552900314,0.6872243881225586,0.45653390884399414,-0.03894716128706932,0.7037698030471802,0.47758224606513977,-0.031021472066640854,0.709217369556427,0.5465636253356934,-0.043456755578517914,0.717351496219635,0.5087631344795227,-0.0345657542347908,0.7196012735366821,0.4600954055786133,-0.026378070935606956,0.7399541139602661,0.4838311970233917,-0.034745264798402786,0.7376705408096313,0.5314911007881165,-0.03747081384062767,0.7452116012573242,0.49453213810920715,-0.025810571387410164,0.7476481199264526,0.4529016613960266,-0.015902487561106682,0.0,0.0,0.0,0.0,0.0,0.0,0.0,0.0,0.0,0.0,0.0,0.0,0.0,0.0,0.0,0.0,0.0,0.0,0.0,0.0,0.0,0.0,0.0,0.0,0.0,0.0,0.0,0.0,0.0,0.0,0.0,0.0,0.0,0.0,0.0,0.0,0.0,0.0,0.0,0.0,0.0,0.0,0.0,0.0,0.0,0.0,0.0,0.0,0.0,0.0,0.0,0.0,0.0,0.0,0.0,0.0,0.0,0.0,0.0,0.0,0.0,0.0,0.0
1784046311.078923,0.7398622035980225,0.29181158542633057,5.5711939950242595e-08,0.6795393824577332,0.30962562561035156,-0.0030659751500934362,0.6215346455574036,0.36377212405204773,-0.015098925679922104,0.5680248737335205,0.38761043548583984,-0.028402090072631836,0.5250061750411987,0.3730867803096771,-0.04396162927150726,0.6316255927085876,0.4742048382759094,-0.024977438151836395,0.6322116255760193,0.6048838496208191,-0.03989794850349426,0.6331379413604736,0.684437096118927,-0.05013485252857208,0.6330479383468628,0.744890034198761,-0.05664467811584473,0.6660799384117126,0.4971659183502197,-0.029188619926571846,0.6809303760528564,0.5731672644615173,-0.04232766106724739,0.688269317150116,0.5348653793334961,-0.0396939292550087,0.6893361806869507,0.4852338135242462,-0.03647125884890556,0.7058169841766357,0.5040819048881531,-0.03245208039879799,0.7113354206085205,0.5566978454589844,-0.04401174560189247,0.7183737754821777,0.5253409147262573,-0.03601870313286781,0.7192736268043518,0.48013952374458313,-0.028763247653841972,0.7413479685783386,0.5050352811813354,-0.035559993237257004,0.7391707897186279,0.5389767289161682,-0.03771465644240379,0.7440078854560852,0.5053954124450684,-0.02667858824133873,0.7446983456611633,0.46454402804374695,-0.01719740405678749,0.0,0.0,0.0,0.0,0.0,0.0,0.0,0.0,0.0,0.0,0.0,0.0,0.0,0.0,0.0,0.0,0.0,0.0,0.0,0.0,0.0,0.0,0.0,0.0,0.0,0.0,0.0,0.0,0.0,0.0,0.0,0.0,0.0,0.0,0.0,0.0,0.0,0.0,0.0,0.0,0.0,0.0,0.0,0.0,0.0,0.0,0.0,0.0,0.0,0.0,0.0,0.0,0.0,0.0,0.0,0.0,0.0,0.0,0.0,0.0,0.0,0.0,0.0
1784046311.268561,0.7452715635299683,0.32153311371803284,5.5768389017885056e-08,0.6855676174163818,0.334160715341568,-0.0066869123838841915,0.6276434659957886,0.38746482133865356,-0.019888171926140785,0.5740722417831421,0.4166252613067627,-0.03335956484079361,0.5319892764091492,0.4085385501384735,-0.048644907772541046,0.6405829787254333,0.5043066740036011,-0.03241859748959541,0.6406540870666504,0.6330999732017517,-0.048901576548814774,0.6414162516593933,0.7129088044166565,-0.05912334471940994,0.6421507000923157,0.7732816934585571,-0.06537360697984695,0.6749919652938843,0.5294864177703857,-0.035034455358982086,0.68996262550354,0.5887062549591064,-0.04990852251648903,0.6960821747779846,0.5484646558761597,-0.0465545691549778,0.6982325315475464,0.4989696145057678,-0.04216773808002472,0.7143188714981079,0.5352072715759277,-0.036751437932252884,0.7210161685943604,0.5683543682098389,-0.05047132819890976,0.726547360420227,0.5343112945556641,-0.04285840317606926,0.7282015085220337,0.49028250575065613,-0.03524482622742653,0.7496813535690308,0.5349616408348083,-0.03852655738592148,0.7508721947669983,0.5491644740104675,-0.043332137167453766,0.7556451559066772,0.5092736482620239,-0.033512651920318604,0.7567316889762878,0.46974098682403564,-0.024201437830924988,0.0,0.0,0.0,0.0,0.0,0.0,0.0,0.0,0.0,0.0,0.0,0.0,0.0,0.0,0.0,0.0,0.0,0.0,0.0,0.0,0.0,0.0,0.0,0.0,0.0,0.0,0.0,0.0,0.0,0.0,0.0,0.0,0.0,0.0,0.0,0.0,0.0,0.0,0.0,0.0,0.0,0.0,0.0,0.0,0.0,0.0,0.0,0.0,0.0,0.0,0.0,0.0,0.0,0.0,0.0,0.0,0.0,0.0,0.0,0.0,0.0,0.0,0.0
1784046311.4495811,0.7565239667892456,0.3427172303199768,3.413137861230098e-08,0.6935211420059204,0.34679633378982544,-0.007170055527240038,0.6331459879875183,0.39891517162323,-0.01845848374068737,0.5795515775680542,0.43175700306892395,-0.029907073825597763,0.53773033618927,0.42769792675971985,-0.04328024014830589,0.6465380191802979,0.5274049639701843,-0.02930290251970291,0.6453449130058289,0.6532261967658997,-0.043910153210163116,0.6460838913917542,0.7312028408050537,-0.053473301231861115,0.6466870307922363,0.7910778522491455,-0.05977156385779381,0.6802094578742981,0.5555703639984131,-0.03121042437851429,0.7016782760620117,0.611680269241333,-0.043666865676641464,0.7091927528381348,0.5725575089454651,-0.0407039150595665,0.7097881436347961,0.525864839553833,-0.037281300872564316,0.720024049282074,0.5633607506752014,-0.03242167830467224,0.7309916019439697,0.5941585898399353,-0.04480282962322235,0.7372073531150818,0.5601704120635986,-0.03803599253296852,0.737512469291687,0.5179636478424072,-0.03137672692537308,0.7567563056945801,0.5644075870513916,-0.033852286636829376,0.7612285614013672,0.5782322287559509,-0.03903492912650108,0.7662466764450073,0.5387822985649109,-0.030487624928355217,0.7661758065223694,0.4994024932384491,-0.021935975179076195,0.0,0.0,0.0,0.0,0.0,0.0,0.0,0.0,0.0,0.0,0.0,0.0,0.0,0.0,0.0,0.0,0.0,0.0,0.0,0.0,0.0,0.0,0.0,0.0,0.0,0.0,0.0,0.0,0.0,0.0,0.0,0.0,0.0,0.0,0.0,0.0,0.0,0.0,0.0,0.0,0.0,0.0,0.0,0.0,0.0,0.0,0.0,0.0,0.0,0.0,0.0,0.0,0.0,0.0,0.0,0.0,0.0,0.0,0.0,0.0,0.0,0.0,0.0
1784046311.6523771,0.7710074782371521,0.3590533137321472,3.9896558945429206e-08,0.7064718008041382,0.35936710238456726,-0.0032581929117441177,0.6425838470458984,0.41113707423210144,-0.013163525611162186,0.5856769680976868,0.4458237886428833,-0.02396414987742901,0.5419535636901855,0.44426462054252625,-0.03700675442814827,0.6526361703872681,0.5478459596633911,-0.02123207226395607,0.6528445482254028,0.6758591532707214,-0.031130772083997726,0.656160831451416,0.755330502986908,-0.03852330520749092,0.6581237316131592,0.8163810968399048,-0.04385066777467728,0.6877858638763428,0.5806653499603271,-0.023969877511262894,0.7108260989189148,0.6333425045013428,-0.03189785033464432,0.7176271080970764,0.5928058624267578,-0.029064184054732323,0.7190112471580505,0.5437504053115845,-0.02621133252978325,0.7309423089027405,0.5922421813011169,-0.02557537518441677,0.7416963577270508,0.6210725903511047,-0.0320003442466259,0.7484076023101807,0.586269199848175,-0.025915516540408134,0.7500789761543274,0.5415797829627991,-0.020993903279304504,0.7709269523620605,0.5965954661369324,-0.027210695669054985,0.7755001783370972,0.6103435754776001,-0.027328386902809143,0.7811522483825684,0.569720447063446,-0.018593600019812584,0.7821961641311646,0.5289708971977234,-0.010664394125342369,0.0,0.0,0.0,0.0,0.0,0.0,0.0,0.0,0.0,0.0,0.0,0.0,0.0,0.0,0.0,0.0,0.0,0.0,0.0,0.0,0.0,0.0,0.0,0.0,0.0,0.0,0.0,0.0,0.0,0.0,0.0,0.0,0.0,0.0,0.0,0.0,0.0,0.0,0.0,0.0,0.0,0.0,0.0,0.0,0.0,0.0,0.0,0.0,0.0,0.0,0.0,0.0,0.0,0.0,0.0,0.0,0.0,0.0,0.0,0.0,0.0,0.0,0.0
1784046311.84427,0.77226722240448,0.36488598585128784,1.5268648567712262e-08,0.7083258032798767,0.3651300072669983,-0.0030536355916410685,0.6456092596054077,0.4152320921421051,-0.01330938283354044,0.5902594923973083,0.451734334230423,-0.024875449016690254,0.5465171933174133,0.4509161114692688,-0.03842335194349289,0.6531882882118225,0.552245020866394,-0.020206497982144356,0.6537473797798157,0.6843586564064026,-0.030738387256860733,0.6577166318893433,0.7641803026199341,-0.03904196619987488,0.6601071953773499,0.8252956867218018,-0.045016031712293625,0.6895578503608704,0.5866701602935791,-0.023549458011984825,0.7050203084945679,0.6438509225845337,-0.034465670585632324,0.7117084264755249,0.6043094992637634,-0.0343577079474926,0.7161557674407959,0.5553604960441589,-0.03285183757543564,0.731509268283844,0.6012988090515137,-0.02561827003955841,0.7357025742530823,0.6349485516548157,-0.03238562121987343,0.7437542676925659,0.6021677255630493,-0.0259386096149683,0.7498267292976379,0.5578812956809998,-0.020642565563321114,0.7703697085380554,0.6088905930519104,-0.02799518033862114,0.7700896263122559,0.6274884343147278,-0.027661142870783806,0.7764452695846558,0.5918039083480835,-0.018640173599123955,0.7804790735244751,0.5556087493896484,-0.01055675745010376,0.0,0.0,0.0,0.0,0.0,0.0,0.0,0.0,0.0,0.0,0.0,0.0,0.0,0.0,0.0,0.0,0.0,0.0,0.0,0.0,0.0,0.0,0.0,0.0,0.0,0.0,0.0,0.0,0.0,0.0,0.0,0.0,0.0,0.0,0.0,0.0,0.0,0.0,0.0,0.0,0.0,0.0,0.0,0.0,0.0,0.0,0.0,0.0,0.0,0.0,0.0,0.0,0.0,0.0,0.0,0.0,0.0,0.0,0.0,0.0,0.0,0.0,0.0
1784046312.037129,0.7682826519012451,0.3677099049091339,3.151361482878201e-08,0.7043886184692383,0.370425820350647,-0.002710591768845916,0.6427733898162842,0.4164297580718994,-0.013558023609220982,0.5883497595787048,0.45103389024734497,-0.02581879496574402,0.5446796417236328,0.4478056728839874,-0.040100131183862686,0.6519230008125305,0.5509055256843567,-0.02142336592078209,0.6529499292373657,0.6840566396713257,-0.03303399682044983,0.6562084555625916,0.7644772529602051,-0.042038511484861374,0.6582372784614563,0.825196385383606,-0.04816225543618202,0.6896569132804871,0.5863826274871826,-0.02477361634373665,0.7017825245857239,0.6453827023506165,-0.03670656681060791,0.706853449344635,0.6061505079269409,-0.036877717822790146,0.7116888165473938,0.5559767484664917,-0.03526374697685242,0.7319568395614624,0.6009482741355896,-0.02671249769628048,0.7330761551856995,0.6372501254081726,-0.03440610691905022,0.7392651438713074,0.6043014526367188,-0.028095727786421776,0.7451070547103882,0.5588332414627075,-0.022600485011935234,0.770761251449585,0.6083971261978149,-0.02874187007546425,0.7661998867988586,0.6289002299308777,-0.028191018849611282,0.7714569568634033,0.5950981378555298,-0.01854967139661312,0.7754367589950562,0.5610414743423462,-0.01013016328215599,0.0,0.0,0.0,0.0,0.0,0.0,0.0,0.0,0.0,0.0,0.0,0.0,0.0,0.0,0.0,0.0,0.0,0.0,0.0,0.0,0.0,0.0,0.0,0.0,0.0,0.0,0.0,0.0,0.0,0.0,0.0,0.0,0.0,0.0,0.0,0.0,0.0,0.0,0.0,0.0,0.0,0.0,0.0,0.0,0.0,0.0,0.0,0.0,0.0,0.0,0.0,0.0,0.0,0.0,0.0,0.0,0.0,0.0,0.0,0.0,0.0,0.0,0.0
1784046312.217418,0.7710168957710266,0.36524999141693115,4.941821529769186e-08,0.7043904662132263,0.3690091371536255,-0.0014438129728659987,0.6431833505630493,0.41410791873931885,-0.010953851975500584,0.5883767604827881,0.4482126235961914,-0.02224121429026127,0.5448701977729797,0.446479856967926,-0.035587817430496216,0.6531769037246704,0.5544257164001465,-0.017503945156931877,0.6522479057312012,0.684100866317749,-0.026442399248480797,0.6546651124954224,0.7633519172668457,-0.03348886966705322,0.6550709009170532,0.8246489763259888,-0.03860459849238396,0.6899731755256653,0.5899931192398071,-0.02099727839231491,0.7024072408676147,0.6413670778274536,-0.02888934500515461,0.7076807022094727,0.6024003624916077,-0.027350831776857376,0.711133599281311,0.5540211796760559,-0.02532167360186577,0.7326096296310425,0.6029447913169861,-0.023118048906326294,0.7336748242378235,0.6310403347015381,-0.027562374249100685,0.7399502992630005,0.5974786281585693,-0.020669814199209213,0.7450981736183167,0.5536122918128967,-0.015579035505652428,0.7723345756530762,0.6077019572257996,-0.025435421615839005,0.7673695683479309,0.6204766035079956,-0.02307782880961895,0.7721354365348816,0.583793580532074,-0.013271034695208073,0.7755966782569885,0.5475754141807556,-0.0049567571841180325,0.0,0.0,0.0,0.0,0.0,0.0,0.0,0.0,0.0,0.0,0.0,0.0,0.0,0.0,0.0,0.0,0.0,0.0,0.0,0.0,0.0,0.0,0.0,0.0,0.0,0.0,0.0,0.0,0.0,0.0,0.0,0.0,0.0,0.0,0.0,0.0,0.0,0.0,0.0,0.0,0.0,0.0,0.0,0.0,0.0,0.0,0.0,0.0,0.0,0.0,0.0,0.0,0.0,0.0,0.0,0.0,0.0,0.0,0.0,0.0,0.0,0.0,0.0
1784046312.4151628,0.7698233127593994,0.3619160056114197,3.7055276180808505e-08,0.7037969827651978,0.3645828366279602,-0.002820763038471341,0.6414202451705933,0.40834861993789673,-0.01312264148145914,0.5869048833847046,0.4424092173576355,-0.024971095845103264,0.5447756052017212,0.43943876028060913,-0.03895166516304016,0.6522347927093506,0.5493054986000061,-0.021059686318039894,0.6501722931861877,0.6808354258537292,-0.03152831643819809,0.6521292924880981,0.7608240246772766,-0.03928053379058838,0.6525126695632935,0.8214083909988403,-0.04480726644396782,0.688787579536438,0.5846685171127319,-0.02438490279018879,0.7035254240036011,0.6413225531578064,-0.033817894756793976,0.710205078125,0.6048654317855835,-0.03238479420542717,0.7138627171516418,0.5576211810112,-0.030551213771104813,0.7311335802078247,0.5982891917228699,-0.026435084640979767,0.7348946332931519,0.6309055685997009,-0.03271471709012985,0.7414706945419312,0.5986093878746033,-0.025781793519854546,0.7464688420295715,0.5548387169837952,-0.02057451568543911,0.7709413766860962,0.6038810014724731,-0.028731131926178932,0.7682753801345825,0.6199032068252563,-0.028167547658085823,0.7730657458305359,0.5835578441619873,-0.018792372196912766,0.7761738896369934,0.5470707416534424,-0.010672739706933498,0.0,0.0,0.0,0.0,0.0,0.0,0.0,0.0,0.0,0.0,0.0,0.0,0.0,0.0,0.0,0.0,0.0,0.0,0.0,0.0,0.0,0.0,0.0,0.0,0.0,0.0,0.0,0.0,0.0,0.0,0.0,0.0,0.0,0.0,0.0,0.0,0.0,0.0,0.0,0.0,0.0,0.0,0.0,0.0,0.0,0.0,0.0,0.0,0.0,0.0,0.0,0.0,0.0,0.0,0.0,0.0,0.0,0.0,0.0,0.0,0.0,0.0,0.0
1784046312.61921,0.769143283367157,0.36133861541748047,3.5146701549138015e-08,0.7040144205093384,0.36341506242752075,-0.003915921784937382,0.642723560333252,0.4077587127685547,-0.015527312643826008,0.5882605314254761,0.4421551525592804,-0.028153151273727417,0.5454510450363159,0.44159334897994995,-0.042794954031705856,0.6531112790107727,0.5474824905395508,-0.02584739215672016,0.6506583094596863,0.6812335848808289,-0.03818068653345108,0.6524507999420166,0.7626813054084778,-0.0467020720243454,0.6529842019081116,0.8245537281036377,-0.05239623785018921,0.6886856555938721,0.5824848413467407,-0.028245888650417328,0.7045117020606995,0.6381959915161133,-0.03847260773181915,0.7113417387008667,0.6005556583404541,-0.036032676696777344,0.7143223285675049,0.5523767471313477,-0.03335796669125557,0.7303684949874878,0.5960056781768799,-0.02929440699517727,0.7358706593513489,0.6258066892623901,-0.0364895761013031,0.7427576184272766,0.592362105846405,-0.029312733560800552,0.7471861839294434,0.5474149584770203,-0.02371867746114731,0.7691087126731873,0.6021358370780945,-0.030533092096447945,0.7685677409172058,0.6127089858055115,-0.0306670181453228,0.7740482091903687,0.5736239552497864,-0.021450411528348923,0.7767608761787415,0.534848153591156,-0.013253028504550457,0.0,0.0,0.0,0.0,0.0,0.0,0.0,0.0,0.0,0.0,0.0,0.0,0.0,0.0,0.0,0.0,0.0,0.0,0.0,0.0,0.0,0.0,0.0,0.0,0.0,0.0,0.0,0.0,0.0,0.0,0.0,0.0,0.0,0.0,0.0,0.0,0.0,0.0,0.0,0.0,0.0,0.0,0.0,0.0,0.0,0.0,0.0,0.0,0.0,0.0,0.0,0.0,0.0,0.0,0.0,0.0,0.0,0.0,0.0,0.0,0.0,0.0,0.0
1784046312.813909,0.7704280614852905,0.3532262444496155,3.86411649344609e-08,0.7032455205917358,0.35679078102111816,-0.0037335127126425505,0.6404025554656982,0.39901721477508545,-0.013169653713703156,0.586837887763977,0.43086427450180054,-0.023425402119755745,0.5480095148086548,0.43198657035827637,-0.035717252641916275,0.651589035987854,0.5360132455825806,-0.022397635504603386,0.6467907428741455,0.6667760014533997,-0.03237510100007057,0.646634042263031,0.7481659650802612,-0.04062223806977272,0.6450807452201843,0.8109352588653564,-0.046971868723630905,0.6882162094116211,0.5702939629554749,-0.02439563162624836,0.6994200944900513,0.6347425580024719,-0.033020567148923874,0.7069191336631775,0.59941565990448,-0.03189801052212715,0.7110423445701599,0.5515774488449097,-0.03055911511182785,0.7295079231262207,0.5853503346443176,-0.024935632944107056,0.7310637831687927,0.6247240304946899,-0.02916993759572506,0.7381759285926819,0.5929326415061951,-0.02112964726984501,0.7438740134239197,0.5475054979324341,-0.015746336430311203,0.7680191993713379,0.5917313098907471,-0.026057865470647812,0.7631629109382629,0.6111785769462585,-0.025035260245203972,0.7684371471405029,0.575147807598114,-0.015486816875636578,0.771533727645874,0.5350654721260071,-0.007284997031092644,0.0,0.0,0.0,0.0,0.0,0.0,0.0,0.0,0.0,0.0,0.0,0.0,0.0,0.0,0.0,0.0,0.0,0.0,0.0,0.0,0.0,0.0,0.0,0.0,0.0,0.0,0.0,0.0,0.0,0.0,0.0,0.0,0.0,0.0,0.0,0.0,0.0,0.0,0.0,0.0,0.0,0.0,0.0,0.0,0.0,0.0,0.0,0.0,0.0,0.0,0.0,0.0,0.0,0.0,0.0,0.0,0.0,0.0,0.0,0.0,0.0,0.0,0.0
1784046313.0048482,0.7926832437515259,0.36153268814086914,1.1243113107184399e-07,0.7234289050102234,0.34766411781311035,-0.008347251452505589,0.6604908108711243,0.3759691119194031,-0.021825967356562614,0.6031826138496399,0.3969314992427826,-0.03427225351333618,0.5580273866653442,0.3935893177986145,-0.048603277653455734,0.6570596694946289,0.48546308279037476,-0.03986447677016258,0.6336296200752258,0.6202064752578735,-0.054218556731939316,0.6171642541885376,0.698134183883667,-0.06104016676545143,0.6046515703201294,0.7605759501457214,-0.06525278091430664,0.6931546926498413,0.5289749503135681,-0.04089636355638504,0.6731948852539062,0.6168226003646851,-0.052743393927812576,0.6796792149543762,0.5801016092300415,-0.045684438198804855,0.6914783120155334,0.5272440314292908,-0.038943443447351456,0.7337573766708374,0.5553622245788574,-0.040678925812244415,0.705275297164917,0.6162459850311279,-0.0496370866894722,0.7151827216148376,0.5828292965888977,-0.03670954331755638,0.72895348072052,0.5404337048530579,-0.02660396881401539,0.7691141963005066,0.5743367671966553,-0.040740132331848145,0.7403619289398193,0.6151684522628784,-0.042046573013067245,0.7481945753097534,0.5821289420127869,-0.029658041894435883,0.7595657110214233,0.5486241579055786,-0.019793439656496048,0.0,0.0,0.0,0.0,0.0,0.0,0.0,0.0,0.0,0.0,0.0,0.0,0.0,0.0,0.0,0.0,0.0,0.0,0.0,0.0,0.0,0.0,0.0,0.0,0.0,0.0,0.0,0.0,0.0,0.0,0.0,0.0,0.0,0.0,0.0,0.0,0.0,0.0,0.0,0.0,0.0,0.0,0.0,0.0,0.0,0.0,0.0,0.0,0.0,0.0,0.0,0.0,0.0,0.0,0.0,0.0,0.0,0.0,0.0,0.0,0.0,0.0,0.0
1784046313.1996028,0.8225847482681274,0.5061315298080444,-1.3565052192632265e-08,0.7558903098106384,0.5081713199615479,0.002607494592666626,0.6850327849388123,0.5643000602722168,-0.0060554202646017075,0.6355112791061401,0.6342869400978088,-0.01450487319380045,0.592862606048584,0.6770704388618469,-0.024486979469656944,0.6695650219917297,0.5394190549850464,-0.03841251879930496,0.6330864429473877,0.689386785030365,-0.055810052901506424,0.6311092376708984,0.7563543319702148,-0.05876999720931053,0.6351800560951233,0.7918092012405396,-0.05763852968811989,0.704382061958313,0.5613546967506409,-0.049128662794828415,0.6611055135726929,0.7456448078155518,-0.06770455837249756,0.6738723516464233,0.7571392059326172,-0.06332103163003922,0.688554584980011,0.7281830906867981,-0.056851208209991455,0.7421689629554749,0.5916405320167542,-0.057516079396009445,0.7028493881225586,0.7619562149047852,-0.07064265757799149,0.7171772122383118,0.7564069032669067,-0.05430575832724571,0.7296953797340393,0.7189643383026123,-0.04007823020219803,0.7795196175575256,0.6257414817810059,-0.06499595940113068,0.7424746751785278,0.7582142353057861,-0.0724056139588356,0.7480295300483704,0.7522725462913513,-0.05989699438214302,0.7571166753768921,0.716206967830658,-0.04854317381978035,0.0,0.0,0.0,0.0,0.0,0.0,0.0,0.0,0.0,0.0,0.0,0.0,0.0,0.0,0.0,0.0,0.0,0.0,0.0,0.0,0.0,0.0,0.0,0.0,0.0,0.0,0.0,0.0,0.0,0.0,0.0,0.0,0.0,0.0,0.0,0.0,0.0,0.0,0.0,0.0,0.0,0.0,0.0,0.0,0.0,0.0,0.0,0.0,0.0,0.0,0.0,0.0,0.0,0.0,0.0,0.0,0.0,0.0,0.0,0.0,0.0,0.0,0.0
1784046313.436577,0.801712691783905,0.8602417707443237,9.647938981061088e-08,0.7521759867668152,0.8399162292480469,-0.01716596446931362,0.7001578211784363,0.8847017884254456,-0.03739994764328003,0.6646701693534851,0.9524590969085693,-0.05214828625321388,0.6406024694442749,1.0122441053390503,-0.06932228803634644,0.7056838870048523,0.8843501806259155,-0.07620949298143387,0.6578027606010437,0.9956148862838745,-0.10056161880493164,0.646665632724762,1.0513415336608887,-0.11007678508758545,0.647262692451477,1.0829777717590332,-0.11419456452131271,0.7418166995048523,0.9233186841011047,-0.07671797275543213,0.6958088278770447,1.0528620481491089,-0.09460840374231339,0.6924818158149719,1.0728850364685059,-0.09233685582876205,0.6996029615402222,1.0627655982971191,-0.09266024082899094,0.7736761569976807,0.9618024230003357,-0.0752778947353363,0.7278386950492859,1.0758107900619507,-0.08908869326114655,0.7236707806587219,1.0823301076889038,-0.07895255088806152,0.7294390797615051,1.0677649974822998,-0.07305758446455002,0.797121524810791,0.9967304468154907,-0.07400424033403397,0.7591350078582764,1.081663727760315,-0.0861949622631073,0.7541412115097046,1.0808168649673462,-0.07938136160373688,0.7589377760887146,1.066820740699768,-0.07390585541725159,0.0,0.0,0.0,0.0,0.0,0.0,0.0,0.0,0.0,0.0,0.0,0.0,0.0,0.0,0.0,0.0,0.0,0.0,0.0,0.0,0.0,0.0,0.0,0.0,0.0,0.0,0.0,0.0,0.0,0.0,0.0,0.0,0.0,0.0,0.0,0.0,0.0,0.0,0.0,0.0,0.0,0.0,0.0,0.0,0.0,0.0,0.0,0.0,0.0,0.0,0.0,0.0,0.0,0.0,0.0,0.0,0.0,0.0,0.0,0.0,0.0,0.0,0.0
