ciel274/research-hand-sign/data/raw/hiragana/sign_language_ku_3.csv
timestamp,R_joint_0_x,R_joint_0_y,R_joint_0_z,R_joint_1_x,R_joint_1_y,R_joint_1_z,R_joint_2_x,R_joint_2_y,R_joint_2_z,R_joint_3_x,R_joint_3_y,R_joint_3_z,R_joint_4_x,R_joint_4_y,R_joint_4_z,R_joint_5_x,R_joint_5_y,R_joint_5_z,R_joint_6_x,R_joint_6_y,R_joint_6_z,R_joint_7_x,R_joint_7_y,R_joint_7_z,R_joint_8_x,R_joint_8_y,R_joint_8_z,R_joint_9_x,R_joint_9_y,R_joint_9_z,R_joint_10_x,R_joint_10_y,R_joint_10_z,R_joint_11_x,R_joint_11_y,R_joint_11_z,R_joint_12_x,R_joint_12_y,R_joint_12_z,R_joint_13_x,R_joint_13_y,R_joint_13_z,R_joint_14_x,R_joint_14_y,R_joint_14_z,R_joint_15_x,R_joint_15_y,R_joint_15_z,R_joint_16_x,R_joint_16_y,R_joint_16_z,R_joint_17_x,R_joint_17_y,R_joint_17_z,R_joint_18_x,R_joint_18_y,R_joint_18_z,R_joint_19_x,R_joint_19_y,R_joint_19_z,R_joint_20_x,R_joint_20_y,R_joint_20_z,L_joint_0_x,L_joint_0_y,L_joint_0_z,L_joint_1_x,L_joint_1_y,L_joint_1_z,L_joint_2_x,L_joint_2_y,L_joint_2_z,L_joint_3_x,L_joint_3_y,L_joint_3_z,L_joint_4_x,L_joint_4_y,L_joint_4_z,L_joint_5_x,L_joint_5_y,L_joint_5_z,L_joint_6_x,L_joint_6_y,L_joint_6_z,L_joint_7_x,L_joint_7_y,L_joint_7_z,L_joint_8_x,L_joint_8_y,L_joint_8_z,L_joint_9_x,L_joint_9_y,L_joint_9_z,L_joint_10_x,L_joint_10_y,L_joint_10_z,L_joint_11_x,L_joint_11_y,L_joint_11_z,L_joint_12_x,L_joint_12_y,L_joint_12_z,L_joint_13_x,L_joint_13_y,L_joint_13_z,L_joint_14_x,L_joint_14_y,L_joint_14_z,L_joint_15_x,L_joint_15_y,L_joint_15_z,L_joint_16_x,L_joint_16_y,L_joint_16_z,L_joint_17_x,L_joint_17_y,L_joint_17_z,L_joint_18_x,L_joint_18_y,L_joint_18_z,L_joint_19_x,L_joint_19_y,L_joint_19_z,L_joint_20_x,L_joint_20_y,L_joint_20_z
1783390573.923827,0.7675758600234985,0.8333772420883179,1.5993848023754254e-07,0.7473495006561279,0.7537261843681335,0.0019664352294057608,0.7149621248245239,0.68743896484375,-0.003482423024252057,0.6857569813728333,0.6333099007606506,-0.008274950087070465,0.6644420027732849,0.5965866446495056,-0.014755387790501118,0.6920881867408752,0.7108514308929443,-0.03040255978703499,0.6309753656387329,0.6991468071937561,-0.04234010726213455,0.5959323048591614,0.6969979405403137,-0.0462673082947731,0.5680781602859497,0.6973484754562378,-0.04788471758365631,0.6855990886688232,0.7573505640029907,-0.03648873791098595,0.6189746260643005,0.7413150668144226,-0.05207915976643562,0.5771104693412781,0.7355802059173584,-0.05794483795762062,0.5479230880737305,0.7337278127670288,-0.06126959249377251,0.6814168691635132,0.8044190406799316,-0.04005156084895134,0.620415985584259,0.7847596406936646,-0.05182646960020065,0.5822215676307678,0.7746407389640808,-0.056407518684864044,0.5556620955467224,0.7686126828193665,-0.058544039726257324,0.6803258657455444,0.8493956923484802,-0.042174261063337326,0.6295811533927917,0.8282277584075928,-0.051119573414325714,0.6013233065605164,0.8167751431465149,-0.053790654987096786,0.5784814953804016,0.8087514638900757,-0.054531026631593704,0.0,0.0,0.0,0.0,0.0,0.0,0.0,0.0,0.0,0.0,0.0,0.0,0.0,0.0,0.0,0.0,0.0,0.0,0.0,0.0,0.0,0.0,0.0,0.0,0.0,0.0,0.0,0.0,0.0,0.0,0.0,0.0,0.0,0.0,0.0,0.0,0.0,0.0,0.0,0.0,0.0,0.0,0.0,0.0,0.0,0.0,0.0,0.0,0.0,0.0,0.0,0.0,0.0,0.0,0.0,0.0,0.0,0.0,0.0,0.0,0.0,0.0,0.0
1783390574.0904572,0.7661284804344177,0.8307632207870483,1.6496882437877503e-07,0.74732506275177,0.7507066130638123,0.0016184570267796516,0.7151498794555664,0.6841548681259155,-0.00396355614066124,0.6852894425392151,0.6305055618286133,-0.008651359006762505,0.6637259125709534,0.5939817428588867,-0.014946994371712208,0.691630482673645,0.7086566090583801,-0.03138996288180351,0.6298560500144958,0.6967651844024658,-0.043393999338150024,0.5948190689086914,0.6950833201408386,-0.04709639027714729,0.5673627853393555,0.6963414549827576,-0.04841117560863495,0.6845108866691589,0.7550315260887146,-0.03700921684503555,0.6169937252998352,0.7383028268814087,-0.05261298641562462,0.5756438970565796,0.7328124046325684,-0.05786897614598274,0.5469598174095154,0.731775164604187,-0.06056390330195427,0.6798293590545654,0.8015857338905334,-0.040036920458078384,0.6182370781898499,0.7811630368232727,-0.05153999850153923,0.5807240009307861,0.7714976072311401,-0.05524442717432976,0.5543973445892334,0.7661736607551575,-0.056737519800662994,0.6785686016082764,0.8461647033691406,-0.041638780385255814,0.6284637451171875,0.8249524831771851,-0.04998817294836044,0.6011028289794922,0.8135856986045837,-0.05177845433354378,0.5787979364395142,0.8057247400283813,-0.05184903368353844,0.0,0.0,0.0,0.0,0.0,0.0,0.0,0.0,0.0,0.0,0.0,0.0,0.0,0.0,0.0,0.0,0.0,0.0,0.0,0.0,0.0,0.0,0.0,0.0,0.0,0.0,0.0,0.0,0.0,0.0,0.0,0.0,0.0,0.0,0.0,0.0,0.0,0.0,0.0,0.0,0.0,0.0,0.0,0.0,0.0,0.0,0.0,0.0,0.0,0.0,0.0,0.0,0.0,0.0,0.0,0.0,0.0,0.0,0.0,0.0,0.0,0.0,0.0
1783390574.232573,0.7669382691383362,0.8295679688453674,1.4605956266677822e-07,0.7468089461326599,0.7495303153991699,0.002345992950722575,0.7140066623687744,0.6828993558883667,-0.002809251891449094,0.6848042011260986,0.6292176842689514,-0.0074390629306435585,0.664252758026123,0.5924610495567322,-0.013872514478862286,0.6913787126541138,0.7069444060325623,-0.029985647648572922,0.6308078765869141,0.6965763568878174,-0.04164698347449303,0.5960140824317932,0.6948204636573792,-0.045406222343444824,0.5682792663574219,0.6950012445449829,-0.04708855599164963,0.6851340532302856,0.7530009150505066,-0.03641599416732788,0.6188616156578064,0.7381976246833801,-0.051875319331884384,0.577186107635498,0.7326939702033997,-0.05778336897492409,0.5479119420051575,0.7305596470832825,-0.06125783175230026,0.6811674237251282,0.7998837828636169,-0.04029572755098343,0.6199437975883484,0.7806143760681152,-0.052075136452913284,0.5816150307655334,0.7706435918807983,-0.056720323860645294,0.5546073913574219,0.7642812728881836,-0.05904698371887207,0.680215060710907,0.8454170227050781,-0.04271327331662178,0.6295895576477051,0.8246543407440186,-0.0519564151763916,0.6013847589492798,0.8130192756652832,-0.054863590747117996,0.5783941745758057,0.8045170903205872,-0.0558650866150856,0.0,0.0,0.0,0.0,0.0,0.0,0.0,0.0,0.0,0.0,0.0,0.0,0.0,0.0,0.0,0.0,0.0,0.0,0.0,0.0,0.0,0.0,0.0,0.0,0.0,0.0,0.0,0.0,0.0,0.0,0.0,0.0,0.0,0.0,0.0,0.0,0.0,0.0,0.0,0.0,0.0,0.0,0.0,0.0,0.0,0.0,0.0,0.0,0.0,0.0,0.0,0.0,0.0,0.0,0.0,0.0,0.0,0.0,0.0,0.0,0.0,0.0,0.0
1783390574.388038,0.7673905491828918,0.8305116891860962,1.491455208224579e-07,0.7466568946838379,0.7507153153419495,0.0033489600755274296,0.7143808603286743,0.6851857900619507,-0.001887187478132546,0.6854764819145203,0.6315556764602661,-0.006599710322916508,0.6643170714378357,0.595625638961792,-0.013172644190490246,0.6912212371826172,0.7079205513000488,-0.031132478266954422,0.6311165690422058,0.6978322863578796,-0.04308369755744934,0.596507728099823,0.6961910724639893,-0.04678327590227127,0.5690872073173523,0.6965336799621582,-0.048213109374046326,0.6852056980133057,0.754276692867279,-0.03776097297668457,0.6192131638526917,0.7402691841125488,-0.0535186305642128,0.5777438879013062,0.7346636056900024,-0.05889790505170822,0.5491130948066711,0.7319504618644714,-0.06186006963253021,0.6813856363296509,0.8015657663345337,-0.04163204878568649,0.6204013228416443,0.7829257845878601,-0.0537901371717453,0.5820262432098389,0.772912323474884,-0.05813712254166603,0.5554541945457458,0.7661411762237549,-0.060011573135852814,0.6808344125747681,0.8467868566513062,-0.04382508248090744,0.6299020051956177,0.8265529870986938,-0.05288561061024666,0.6014547348022461,0.8152741193771362,-0.055301450192928314,0.578653872013092,0.8069536685943604,-0.055829841643571854,0.0,0.0,0.0,0.0,0.0,0.0,0.0,0.0,0.0,0.0,0.0,0.0,0.0,0.0,0.0,0.0,0.0,0.0,0.0,0.0,0.0,0.0,0.0,0.0,0.0,0.0,0.0,0.0,0.0,0.0,0.0,0.0,0.0,0.0,0.0,0.0,0.0,0.0,0.0,0.0,0.0,0.0,0.0,0.0,0.0,0.0,0.0,0.0,0.0,0.0,0.0,0.0,0.0,0.0,0.0,0.0,0.0,0.0,0.0,0.0,0.0,0.0,0.0
1783390574.526998,0.7665743231773376,0.8307674527168274,1.5933301256154664e-07,0.7461652159690857,0.7502370476722717,0.003599476767703891,0.7144342660903931,0.6850087642669678,-0.0016864979406818748,0.6855390667915344,0.6311593651771545,-0.006425078026950359,0.6639606356620789,0.5952397584915161,-0.012900647707283497,0.6912765502929688,0.7077092528343201,-0.030905572697520256,0.6306871771812439,0.6965572834014893,-0.04289919510483742,0.5958173871040344,0.6950312256813049,-0.04656783863902092,0.5681923627853394,0.6960240602493286,-0.04786469787359238,0.6846092343330383,0.7543673515319824,-0.037461668252944946,0.6183573007583618,0.7387775182723999,-0.053680334240198135,0.5765334367752075,0.7334718108177185,-0.05927359312772751,0.5477256774902344,0.7320472002029419,-0.06223040074110031,0.6803596019744873,0.8016111254692078,-0.04114547744393349,0.6199023127555847,0.7813178896903992,-0.05333157628774643,0.5817985534667969,0.7709695100784302,-0.05749275162816048,0.5554064512252808,0.7646636366844177,-0.05918057635426521,0.6796640753746033,0.8464999794960022,-0.0431099496781826,0.6294528841972351,0.8255530595779419,-0.051791924983263016,0.6015954613685608,0.8138851523399353,-0.05376254767179489,0.5789032578468323,0.8057649731636047,-0.05396434664726257,0.0,0.0,0.0,0.0,0.0,0.0,0.0,0.0,0.0,0.0,0.0,0.0,0.0,0.0,0.0,0.0,0.0,0.0,0.0,0.0,0.0,0.0,0.0,0.0,0.0,0.0,0.0,0.0,0.0,0.0,0.0,0.0,0.0,0.0,0.0,0.0,0.0,0.0,0.0,0.0,0.0,0.0,0.0,0.0,0.0,0.0,0.0,0.0,0.0,0.0,0.0,0.0,0.0,0.0,0.0,0.0,0.0,0.0,0.0,0.0,0.0,0.0,0.0
1783390574.6500401,0.7668792605400085,0.8307019472122192,1.5505946748817223e-07,0.7462959289550781,0.7500960230827332,0.0030285492539405823,0.7142778635025024,0.6843101382255554,-0.0025479195173829794,0.6853156685829163,0.6303403973579407,-0.00753065524622798,0.6642605662345886,0.5936103463172913,-0.014321651309728622,0.6915774941444397,0.7074049711227417,-0.03185760974884033,0.630958616733551,0.6970553994178772,-0.044098664075136185,0.5959983468055725,0.6952303051948547,-0.04797207936644554,0.5681673884391785,0.695796549320221,-0.04948509857058525,0.6851679682731628,0.7543527483940125,-0.03831208124756813,0.6191461682319641,0.7391349077224731,-0.05451655387878418,0.577237069606781,0.7333481311798096,-0.0601414330303669,0.5483540892601013,0.7312858700752258,-0.0632704645395279,0.6810448169708252,0.8017193078994751,-0.041981007903814316,0.6204890608787537,0.7818480730056763,-0.05433174595236778,0.582084596157074,0.771476686000824,-0.05887914076447487,0.555641233921051,0.7650754451751709,-0.06090622767806053,0.6802168488502502,0.8467240333557129,-0.043983153998851776,0.6296645402908325,0.8258408308029175,-0.0530720129609108,0.6012683510780334,0.8140498995780945,-0.055663250386714935,0.5783146023750305,0.8056853413581848,-0.056375082582235336,0.0,0.0,0.0,0.0,0.0,0.0,0.0,0.0,0.0,0.0,0.0,0.0,0.0,0.0,0.0,0.0,0.0,0.0,0.0,0.0,0.0,0.0,0.0,0.0,0.0,0.0,0.0,0.0,0.0,0.0,0.0,0.0,0.0,0.0,0.0,0.0,0.0,0.0,0.0,0.0,0.0,0.0,0.0,0.0,0.0,0.0,0.0,0.0,0.0,0.0,0.0,0.0,0.0,0.0,0.0,0.0,0.0,0.0,0.0,0.0,0.0,0.0,0.0
1783390574.791358,0.7666042447090149,0.8300004005432129,1.5894376304004254e-07,0.7461140751838684,0.7496719360351562,0.003193262964487076,0.714137852191925,0.684171199798584,-0.002119600074365735,0.6849351525306702,0.6303524374961853,-0.006833585444837809,0.6630429029464722,0.5945321917533875,-0.013302587904036045,0.6908065676689148,0.7072704434394836,-0.030908221378922462,0.6305190324783325,0.6963750123977661,-0.04292631521821022,0.5957057476043701,0.6946282386779785,-0.04671674221754074,0.5680567026138306,0.6952453851699829,-0.04810690879821777,0.6843242049217224,0.7536633014678955,-0.03727712854743004,0.618476152420044,0.7383996248245239,-0.05328613519668579,0.57661372423172,0.7328274846076965,-0.05881586670875549,0.5476187467575073,0.7309471368789673,-0.061768967658281326,0.6801968812942505,0.8008073568344116,-0.04087750241160393,0.6199698448181152,0.7811326384544373,-0.05306681990623474,0.5816959142684937,0.7708086967468262,-0.05736510083079338,0.5550495982170105,0.7643548250198364,-0.05913181230425835,0.6795158386230469,0.845650315284729,-0.04280276969075203,0.6291607022285461,0.8251613974571228,-0.05161723867058754,0.6010248064994812,0.8136341571807861,-0.05378224700689316,0.5781773924827576,0.805370032787323,-0.05410122126340866,0.0,0.0,0.0,0.0,0.0,0.0,0.0,0.0,0.0,0.0,0.0,0.0,0.0,0.0,0.0,0.0,0.0,0.0,0.0,0.0,0.0,0.0,0.0,0.0,0.0,0.0,0.0,0.0,0.0,0.0,0.0,0.0,0.0,0.0,0.0,0.0,0.0,0.0,0.0,0.0,0.0,0.0,0.0,0.0,0.0,0.0,0.0,0.0,0.0,0.0,0.0,0.0,0.0,0.0,0.0,0.0,0.0,0.0,0.0,0.0,0.0,0.0,0.0
1783390574.937411,0.7660810351371765,0.8281424641609192,1.6118504220230534e-07,0.7455782890319824,0.7479220628738403,0.002763240598142147,0.7134783864021301,0.6827822327613831,-0.002542612375691533,0.6841259002685547,0.6295707821846008,-0.007254695054143667,0.6619789004325867,0.5938782691955566,-0.013668494299054146,0.6903097629547119,0.7060484886169434,-0.03017042949795723,0.629112720489502,0.6956531405448914,-0.042040739208459854,0.5941557288169861,0.6943164467811584,-0.04581543803215027,0.5663983821868896,0.6953076720237732,-0.04723077639937401,0.6839745044708252,0.7527505159378052,-0.03646914288401604,0.6173384785652161,0.7376395463943481,-0.052298858761787415,0.5755824446678162,0.7323340773582458,-0.05801120400428772,0.5466370582580566,0.7304848432540894,-0.06106892228126526,0.679981529712677,0.8000383973121643,-0.04012548178434372,0.6189130544662476,0.7804797887802124,-0.05218634754419327,0.5807021260261536,0.7702378630638123,-0.056578006595373154,0.554084300994873,0.7636497020721436,-0.058408379554748535,0.6793164014816284,0.8449249863624573,-0.04220081493258476,0.6282365322113037,0.8240854144096375,-0.051173191517591476,0.5998913049697876,0.8126649260520935,-0.053496427834033966,0.5768970251083374,0.8045079708099365,-0.05387159809470177,0.0,0.0,0.0,0.0,0.0,0.0,0.0,0.0,0.0,0.0,0.0,0.0,0.0,0.0,0.0,0.0,0.0,0.0,0.0,0.0,0.0,0.0,0.0,0.0,0.0,0.0,0.0,0.0,0.0,0.0,0.0,0.0,0.0,0.0,0.0,0.0,0.0,0.0,0.0,0.0,0.0,0.0,0.0,0.0,0.0,0.0,0.0,0.0,0.0,0.0,0.0,0.0,0.0,0.0,0.0,0.0,0.0,0.0,0.0,0.0,0.0,0.0,0.0
1783390575.246664,0.7644680738449097,0.8259390592575073,1.634539614769892e-07,0.7443318963050842,0.7462934851646423,0.0019651660695672035,0.7120570540428162,0.6810923218727112,-0.0033867391757667065,0.682349681854248,0.6284530758857727,-0.008039145730435848,0.6602117419242859,0.5930590629577637,-0.014346017502248287,0.6885254979133606,0.7043411731719971,-0.029661444947123528,0.6273453831672668,0.6940773725509644,-0.04136760160326958,0.5925617814064026,0.692627489566803,-0.04521588608622551,0.5649364590644836,0.6937114000320435,-0.04670069366693497,0.6820544600486755,0.7510902881622314,-0.03555971384048462,0.6155310869216919,0.7364249229431152,-0.050809748470783234,0.5742703080177307,0.7317637205123901,-0.056327562779188156,0.5454070568084717,0.7306326627731323,-0.059262778609991074,0.6778677701950073,0.7984183430671692,-0.03897819295525551,0.616944432258606,0.7792432308197021,-0.050426822155714035,0.5792768597602844,0.7696828246116638,-0.05449853837490082,0.5527670383453369,0.7637638449668884,-0.056232478469610214,0.6768305897712708,0.8435320258140564,-0.040973082184791565,0.626409649848938,0.822735071182251,-0.04952429234981537,0.5986469388008118,0.8115233182907104,-0.051572367548942566,0.5760774612426758,0.8032935261726379,-0.05177101865410805,0.0,0.0,0.0,0.0,0.0,0.0,0.0,0.0,0.0,0.0,0.0,0.0,0.0,0.0,0.0,0.0,0.0,0.0,0.0,0.0,0.0,0.0,0.0,0.0,0.0,0.0,0.0,0.0,0.0,0.0,0.0,0.0,0.0,0.0,0.0,0.0,0.0,0.0,0.0,0.0,0.0,0.0,0.0,0.0,0.0,0.0,0.0,0.0,0.0,0.0,0.0,0.0,0.0,0.0,0.0,0.0,0.0,0.0,0.0,0.0,0.0,0.0,0.0
1783390575.469205,0.7647978663444519,0.8272016644477844,1.56502778736467e-07,0.7443467378616333,0.7465313673019409,0.002821700181812048,0.711969256401062,0.6809510588645935,-0.002362604718655348,0.6827456951141357,0.6273298859596252,-0.006983214057981968,0.661333441734314,0.5910762548446655,-0.013216852210462093,0.6887496113777161,0.7043831944465637,-0.02983797714114189,0.6278925538063049,0.6933537125587463,-0.041626885533332825,0.5929559469223022,0.6922717094421387,-0.04530003294348717,0.5653747916221619,0.6934829950332642,-0.0466897152364254,0.6822347044944763,0.7507815361022949,-0.03608814254403114,0.6161549687385559,0.7356566786766052,-0.052139099687337875,0.5744685530662537,0.7310186624526978,-0.05791338533163071,0.5456762909889221,0.7300630211830139,-0.060996633023023605,0.6780716776847839,0.797848105430603,-0.03968312591314316,0.6174982190132141,0.7784270644187927,-0.051718082278966904,0.5794219374656677,0.7690178751945496,-0.05596127361059189,0.5529702305793762,0.7634640336036682,-0.057704489678144455,0.6770939826965332,0.8427416086196899,-0.0417201966047287,0.6267521381378174,0.821644127368927,-0.05055985227227211,0.5987647771835327,0.8102876543998718,-0.052860092371702194,0.5760353207588196,0.8024896383285522,-0.05325530469417572,0.0,0.0,0.0,0.0,0.0,0.0,0.0,0.0,0.0,0.0,0.0,0.0,0.0,0.0,0.0,0.0,0.0,0.0,0.0,0.0,0.0,0.0,0.0,0.0,0.0,0.0,0.0,0.0,0.0,0.0,0.0,0.0,0.0,0.0,0.0,0.0,0.0,0.0,0.0,0.0,0.0,0.0,0.0,0.0,0.0,0.0,0.0,0.0,0.0,0.0,0.0,0.0,0.0,0.0,0.0,0.0,0.0,0.0,0.0,0.0,0.0,0.0,0.0
1783390575.644821,0.7646390199661255,0.8256310820579529,1.5491740157358436e-07,0.7440205812454224,0.7452937364578247,0.002258561784401536,0.7116912603378296,0.6792925596237183,-0.002663172548636794,0.6825143694877625,0.626416802406311,-0.007013884838670492,0.6606248617172241,0.5912614464759827,-0.012945185415446758,0.688522219657898,0.7029147744178772,-0.028410982340574265,0.6278219819068909,0.6925673484802246,-0.039695560932159424,0.5930598974227905,0.6913685202598572,-0.043250661343336105,0.5653797388076782,0.6922716498374939,-0.044641900807619095,0.6820017099380493,0.7491746544837952,-0.03451792150735855,0.615896463394165,0.7343985438346863,-0.04974320903420448,0.5746310353279114,0.7295811772346497,-0.055352021008729935,0.5459254384040833,0.7281979322433472,-0.05835064873099327,0.6778634786605835,0.7961586713790894,-0.038184843957424164,0.617292582988739,0.7767820954322815,-0.04959607496857643,0.5795161128044128,0.7671020030975342,-0.05369105190038681,0.5529813766479492,0.7610774636268616,-0.055403564125299454,0.676803708076477,0.8411469459533691,-0.04045001044869423,0.6261573433876038,0.820066511631012,-0.04908553510904312,0.5980814099311829,0.8090324401855469,-0.05128644406795502,0.5752624869346619,0.8012516498565674,-0.051571592688560486,0.0,0.0,0.0,0.0,0.0,0.0,0.0,0.0,0.0,0.0,0.0,0.0,0.0,0.0,0.0,0.0,0.0,0.0,0.0,0.0,0.0,0.0,0.0,0.0,0.0,0.0,0.0,0.0,0.0,0.0,0.0,0.0,0.0,0.0,0.0,0.0,0.0,0.0,0.0,0.0,0.0,0.0,0.0,0.0,0.0,0.0,0.0,0.0,0.0,0.0,0.0,0.0,0.0,0.0,0.0,0.0,0.0,0.0,0.0,0.0,0.0,0.0,0.0
1783390575.856041,0.7638669013977051,0.8234856128692627,1.5797945707163308e-07,0.7437285780906677,0.7433709502220154,0.0017481850227341056,0.7112323641777039,0.6778674125671387,-0.0034950654953718185,0.6817089915275574,0.6253035664558411,-0.008031649515032768,0.6600477695465088,0.589678943157196,-0.014155887067317963,0.6884509325027466,0.701714813709259,-0.029306767508387566,0.6275187730789185,0.691370964050293,-0.04079460725188255,0.5925683975219727,0.6900746822357178,-0.04449266567826271,0.5646769404411316,0.6910417675971985,-0.04599137604236603,0.6819509267807007,0.7480953931808472,-0.03510468825697899,0.6156221628189087,0.7334980368614197,-0.05040378496050835,0.574407160282135,0.7286902070045471,-0.05603132024407387,0.5455741882324219,0.7271997332572937,-0.05907117947936058,0.6776717901229858,0.7950441837310791,-0.03844980522990227,0.6167446970939636,0.7755960822105408,-0.049969859421253204,0.5789423584938049,0.7656663060188293,-0.05409152805805206,0.5523104667663574,0.7593876123428345,-0.05585455894470215,0.6764078736305237,0.8399445414543152,-0.040406227111816406,0.6258158087730408,0.8185607194900513,-0.04904216155409813,0.5980597734451294,0.8072563409805298,-0.051133859902620316,0.5755321979522705,0.7993216514587402,-0.05137982219457626,0.0,0.0,0.0,0.0,0.0,0.0,0.0,0.0,0.0,0.0,0.0,0.0,0.0,0.0,0.0,0.0,0.0,0.0,0.0,0.0,0.0,0.0,0.0,0.0,0.0,0.0,0.0,0.0,0.0,0.0,0.0,0.0,0.0,0.0,0.0,0.0,0.0,0.0,0.0,0.0,0.0,0.0,0.0,0.0,0.0,0.0,0.0,0.0,0.0,0.0,0.0,0.0,0.0,0.0,0.0,0.0,0.0,0.0,0.0,0.0,0.0,0.0,0.0
1783390576.038829,0.7631405591964722,0.8223198056221008,1.596415444282684e-07,0.7429201602935791,0.7428123950958252,0.0015137884765863419,0.7106925249099731,0.6773962378501892,-0.004122641868889332,0.6811749339103699,0.6248155832290649,-0.008943937718868256,0.6587629318237305,0.5901399254798889,-0.015369534492492676,0.6876541972160339,0.7005558013916016,-0.03087279573082924,0.6265547871589661,0.6906053423881531,-0.04305689409375191,0.5915003418922424,0.6894844174385071,-0.047083817422389984,0.563730776309967,0.6907627582550049,-0.048634592443704605,0.6814149022102356,0.7469150424003601,-0.03659942001104355,0.6148868799209595,0.7326064109802246,-0.052271708846092224,0.5733342170715332,0.7279335260391235,-0.057847097516059875,0.5445975065231323,0.7266595959663391,-0.06085236370563507,0.6773039698600769,0.7939901947975159,-0.03988344594836235,0.6163344979286194,0.7748481035232544,-0.05204250290989876,0.5780813694000244,0.7651396989822388,-0.05666375160217285,0.5514652729034424,0.7590863704681396,-0.0586552619934082,0.6761939525604248,0.8386637568473816,-0.04170956090092659,0.6254411339759827,0.8179727792739868,-0.05089964345097542,0.5970836877822876,0.807146430015564,-0.053526487201452255,0.5742672085762024,0.7996288537979126,-0.05411064624786377,0.0,0.0,0.0,0.0,0.0,0.0,0.0,0.0,0.0,0.0,0.0,0.0,0.0,0.0,0.0,0.0,0.0,0.0,0.0,0.0,0.0,0.0,0.0,0.0,0.0,0.0,0.0,0.0,0.0,0.0,0.0,0.0,0.0,0.0,0.0,0.0,0.0,0.0,0.0,0.0,0.0,0.0,0.0,0.0,0.0,0.0,0.0,0.0,0.0,0.0,0.0,0.0,0.0,0.0,0.0,0.0,0.0,0.0,0.0,0.0,0.0,0.0,0.0
1783390576.2267451,0.7618357539176941,0.8208128213882446,1.593326857118882e-07,0.7411395311355591,0.7406630516052246,0.0036881188862025738,0.709187924861908,0.6760826706886292,-0.001382206566631794,0.6795750856399536,0.6234627366065979,-0.005765709560364485,0.6570159196853638,0.5893619656562805,-0.011856034398078918,0.6855012774467468,0.6988276243209839,-0.03136688098311424,0.6247945427894592,0.6886274218559265,-0.0434025377035141,0.5899540185928345,0.6876481175422668,-0.046957261860370636,0.5624411106109619,0.6890383362770081,-0.048054493963718414,0.6790604591369629,0.7454773783683777,-0.03764379024505615,0.6127913594245911,0.7308504581451416,-0.05399850383400917,0.5712475776672363,0.7261029481887817,-0.059328023344278336,0.5428112745285034,0.7248994708061218,-0.061947811394929886,0.6748268008232117,0.7926920056343079,-0.04100916534662247,0.6144101023674011,0.7732107639312744,-0.05365618318319321,0.5764183402061462,0.7634183764457703,-0.05788920819759369,0.5502103567123413,0.7575433254241943,-0.059370435774326324,0.6740362048149109,0.8372965455055237,-0.042551685124635696,0.6233848929405212,0.8168545365333557,-0.05158286541700363,0.5952698588371277,0.8061543703079224,-0.05362020432949066,0.572517454624176,0.7987418174743652,-0.053680986166000366,0.0,0.0,0.0,0.0,0.0,0.0,0.0,0.0,0.0,0.0,0.0,0.0,0.0,0.0,0.0,0.0,0.0,0.0,0.0,0.0,0.0,0.0,0.0,0.0,0.0,0.0,0.0,0.0,0.0,0.0,0.0,0.0,0.0,0.0,0.0,0.0,0.0,0.0,0.0,0.0,0.0,0.0,0.0,0.0,0.0,0.0,0.0,0.0,0.0,0.0,0.0,0.0,0.0,0.0,0.0,0.0,0.0,0.0,0.0,0.0,0.0,0.0,0.0
1783390576.453857,0.7597886919975281,0.8172251582145691,1.5431258759690536e-07,0.7382916212081909,0.7370496988296509,0.0054940516129136086,0.706230103969574,0.6738672256469727,0.0007808649679645896,0.6767069697380066,0.62110435962677,-0.003563749138265848,0.6545565724372864,0.5863549709320068,-0.009811002761125565,0.6826601624488831,0.6968702077865601,-0.030873330309987068,0.6223407983779907,0.6871390342712402,-0.04286862164735794,0.5875861644744873,0.6864233016967773,-0.046344731003046036,0.5602389574050903,0.6880065202713013,-0.047308146953582764,0.6765149235725403,0.7429217100143433,-0.037780579179525375,0.610865592956543,0.7296354174613953,-0.053798478096723557,0.5694966316223145,0.7252512574195862,-0.058644987642765045,0.5414248704910278,0.7238346934318542,-0.06099538505077362,0.6726853251457214,0.7901455760002136,-0.041579414159059525,0.6125842332839966,0.7723897099494934,-0.054188672453165054,0.5745150446891785,0.7631418704986572,-0.05820338800549507,0.5482683777809143,0.757160484790802,-0.05956452339887619,0.6723852753639221,0.8348081111907959,-0.04330205172300339,0.6220999956130981,0.8156688809394836,-0.05195017158985138,0.5941932797431946,0.8049976229667664,-0.05350075662136078,0.5716036558151245,0.7972443103790283,-0.05332434922456741,0.0,0.0,0.0,0.0,0.0,0.0,0.0,0.0,0.0,0.0,0.0,0.0,0.0,0.0,0.0,0.0,0.0,0.0,0.0,0.0,0.0,0.0,0.0,0.0,0.0,0.0,0.0,0.0,0.0,0.0,0.0,0.0,0.0,0.0,0.0,0.0,0.0,0.0,0.0,0.0,0.0,0.0,0.0,0.0,0.0,0.0,0.0,0.0,0.0,0.0,0.0,0.0,0.0,0.0,0.0,0.0,0.0,0.0,0.0,0.0,0.0,0.0,0.0
1783390576.631588,0.7589742541313171,0.8171805143356323,1.5319770341193362e-07,0.7384608387947083,0.73667311668396,0.0037773465737700462,0.705697774887085,0.6724756956100464,-0.0008535721572116017,0.6760827302932739,0.6203119158744812,-0.005049094557762146,0.6544145345687866,0.5854762196540833,-0.011016251519322395,0.6824284791946411,0.6956214308738708,-0.029087096452713013,0.6214986443519592,0.686030387878418,-0.04031742736697197,0.5867353677749634,0.6857637166976929,-0.043571315705776215,0.5593185424804688,0.6875007748603821,-0.044728465378284454,0.6763588190078735,0.7418686747550964,-0.035757385194301605,0.6092806458473206,0.7283992171287537,-0.05101865902543068,0.5680403113365173,0.7239072322845459,-0.056265681982040405,0.539469838142395,0.7220777869224548,-0.059000302106142044,0.6725295186042786,0.789082407951355,-0.03969792276620865,0.610882043838501,0.7708432674407959,-0.05114687606692314,0.5728355050086975,0.7611132860183716,-0.055071402341127396,0.546125590801239,0.7541579604148865,-0.05671704187989235,0.6720690131187439,0.8343831896781921,-0.04199504852294922,0.6211304068565369,0.8150385618209839,-0.05048884451389313,0.5931462049484253,0.8042669296264648,-0.05242159962654114,0.5704470872879028,0.7960768938064575,-0.05259309336543083,0.0,0.0,0.0,0.0,0.0,0.0,0.0,0.0,0.0,0.0,0.0,0.0,0.0,0.0,0.0,0.0,0.0,0.0,0.0,0.0,0.0,0.0,0.0,0.0,0.0,0.0,0.0,0.0,0.0,0.0,0.0,0.0,0.0,0.0,0.0,0.0,0.0,0.0,0.0,0.0,0.0,0.0,0.0,0.0,0.0,0.0,0.0,0.0,0.0,0.0,0.0,0.0,0.0,0.0,0.0,0.0,0.0,0.0,0.0,0.0,0.0,0.0,0.0
1783390576.8201652,0.7592599987983704,0.8181031346321106,1.4577851459307567e-07,0.7386013269424438,0.7379916310310364,0.0034361411817371845,0.7058844566345215,0.6730499863624573,-0.0012877986300736666,0.6765267848968506,0.6207026839256287,-0.005631001200526953,0.6554238200187683,0.585182249546051,-0.011814571917057037,0.6822701096534729,0.6968622803688049,-0.028867769986391068,0.6217062473297119,0.6869077682495117,-0.04004199430346489,0.5869160890579224,0.6863886117935181,-0.04350421205163002,0.5594184398651123,0.6878489851951599,-0.044988539069890976,0.6762948036193848,0.7428000569343567,-0.035600434988737106,0.6096240282058716,0.7289037108421326,-0.05067983269691467,0.5684006214141846,0.7240996360778809,-0.05631880834698677,0.53962242603302,0.7220892906188965,-0.05953212454915047,0.6725280284881592,0.7898476123809814,-0.03967761620879173,0.6109254956245422,0.7713510394096375,-0.050953105092048645,0.5728482007980347,0.7620208263397217,-0.05523890629410744,0.5459612011909485,0.7558587193489075,-0.057354237884283066,0.6720731854438782,0.8354978561401367,-0.042187586426734924,0.6213786005973816,0.8157873749732971,-0.05098104476928711,0.5931442379951477,0.8052354454994202,-0.0534931980073452,0.5699231624603271,0.7974119186401367,-0.05417541787028313,0.0,0.0,0.0,0.0,0.0,0.0,0.0,0.0,0.0,0.0,0.0,0.0,0.0,0.0,0.0,0.0,0.0,0.0,0.0,0.0,0.0,0.0,0.0,0.0,0.0,0.0,0.0,0.0,0.0,0.0,0.0,0.0,0.0,0.0,0.0,0.0,0.0,0.0,0.0,0.0,0.0,0.0,0.0,0.0,0.0,0.0,0.0,0.0,0.0,0.0,0.0,0.0,0.0,0.0,0.0,0.0,0.0,0.0,0.0,0.0,0.0,0.0,0.0
1783390576.9751759,0.7611916065216064,0.8209503293037415,1.4046040064386034e-07,0.7401055097579956,0.7411109805107117,0.0034463624469935894,0.7073764204978943,0.676270604133606,-0.0015392330242320895,0.6784955859184265,0.6226738691329956,-0.006210205610841513,0.6576083898544312,0.5862587094306946,-0.012757571414113045,0.6837179660797119,0.6984577178955078,-0.02892836555838585,0.6239615678787231,0.6884291768074036,-0.0403258241713047,0.5896482467651367,0.6880766749382019,-0.044137414544820786,0.5624071359634399,0.689503014087677,-0.04583267867565155,0.6777714490890503,0.7446661591529846,-0.03572320193052292,0.6116592884063721,0.7314027547836304,-0.05064782500267029,0.5704411268234253,0.7269343137741089,-0.05639009550213814,0.5418004393577576,0.724765419960022,-0.059785038232803345,0.6740987300872803,0.7920568585395813,-0.03989667817950249,0.6126784086227417,0.7737928628921509,-0.051214806735515594,0.5744690895080566,0.764769434928894,-0.05571034550666809,0.5478835701942444,0.7588552832603455,-0.05795035511255264,0.6736792922019958,0.8373556137084961,-0.04248351231217384,0.6224974393844604,0.8169130086898804,-0.05124535411596298,0.593990683555603,0.8060781359672546,-0.05382863059639931,0.5708063244819641,0.798141360282898,-0.05457451939582825,0.0,0.0,0.0,0.0,0.0,0.0,0.0,0.0,0.0,0.0,0.0,0.0,0.0,0.0,0.0,0.0,0.0,0.0,0.0,0.0,0.0,0.0,0.0,0.0,0.0,0.0,0.0,0.0,0.0,0.0,0.0,0.0,0.0,0.0,0.0,0.0,0.0,0.0,0.0,0.0,0.0,0.0,0.0,0.0,0.0,0.0,0.0,0.0,0.0,0.0,0.0,0.0,0.0,0.0,0.0,0.0,0.0,0.0,0.0,0.0,0.0,0.0,0.0
1783390577.142077,0.7618551254272461,0.8209524154663086,1.5060805935718236e-07,0.7407405376434326,0.7406325340270996,0.0037555822636932135,0.708148181438446,0.6761062145233154,-0.0010604046983644366,0.6791250109672546,0.6227793097496033,-0.005476510617882013,0.6578055620193481,0.5872985124588013,-0.011666340753436089,0.6851610541343689,0.6988951563835144,-0.029581252485513687,0.6246856451034546,0.6887573599815369,-0.04111553728580475,0.5898744463920593,0.6877683401107788,-0.044617053121328354,0.5621678829193115,0.6888022422790527,-0.04596836864948273,0.6787388324737549,0.7451225519180298,-0.03632713854312897,0.6125219464302063,0.7313898801803589,-0.0521676242351532,0.5709146857261658,0.7266133427619934,-0.05784866213798523,0.5421094298362732,0.7249072194099426,-0.060942817479372025,0.6747291088104248,0.7925248146057129,-0.04029493033885956,0.6137889623641968,0.7739454507827759,-0.05232001468539238,0.5755764245986938,0.764301061630249,-0.05662235990166664,0.5489725470542908,0.758080780506134,-0.05845199152827263,0.6740691065788269,0.8379920721054077,-0.04258493334054947,0.6229978799819946,0.8175226449966431,-0.0515516996383667,0.5948064923286438,0.8061640858650208,-0.05387309566140175,0.5718981027603149,0.7979862093925476,-0.05430270731449127,0.0,0.0,0.0,0.0,0.0,0.0,0.0,0.0,0.0,0.0,0.0,0.0,0.0,0.0,0.0,0.0,0.0,0.0,0.0,0.0,0.0,0.0,0.0,0.0,0.0,0.0,0.0,0.0,0.0,0.0,0.0,0.0,0.0,0.0,0.0,0.0,0.0,0.0,0.0,0.0,0.0,0.0,0.0,0.0,0.0,0.0,0.0,0.0,0.0,0.0,0.0,0.0,0.0,0.0,0.0,0.0,0.0,0.0,0.0,0.0,0.0,0.0,0.0
1783390577.333618,0.7609906196594238,0.8207553625106812,1.5356549454281776e-07,0.7411342859268188,0.7415724396705627,0.0018641921924427152,0.7082259058952332,0.6764232516288757,-0.003372592618688941,0.6788501143455505,0.6239244937896729,-0.00796147808432579,0.6577296257019043,0.5885685086250305,-0.014255344867706299,0.6851566433906555,0.7002797722816467,-0.029876448214054108,0.6245238184928894,0.6896685361862183,-0.04135251045227051,0.5896373987197876,0.6882631182670593,-0.04504913464188576,0.5618932247161865,0.6891006827354431,-0.04666406661272049,0.6790196895599365,0.7466276288032532,-0.03590179979801178,0.6125649213790894,0.7320690155029297,-0.05096714571118355,0.5713719725608826,0.7267856597900391,-0.056618038564920425,0.5424190163612366,0.724641740322113,-0.0599062405526638,0.6749881505966187,0.7935342788696289,-0.039455026388168335,0.6137768030166626,0.7743979096412659,-0.05084279924631119,0.5757947564125061,0.7645085453987122,-0.055356379598379135,0.5489580035209656,0.7581379413604736,-0.05763719230890274,0.6738799214363098,0.8386327028274536,-0.0416109599173069,0.6234104037284851,0.8182504773139954,-0.05053868889808655,0.5952658653259277,0.8074174523353577,-0.053296737372875214,0.5723301768302917,0.7996387481689453,-0.054189860820770264,0.0,0.0,0.0,0.0,0.0,0.0,0.0,0.0,0.0,0.0,0.0,0.0,0.0,0.0,0.0,0.0,0.0,0.0,0.0,0.0,0.0,0.0,0.0,0.0,0.0,0.0,0.0,0.0,0.0,0.0,0.0,0.0,0.0,0.0,0.0,0.0,0.0,0.0,0.0,0.0,0.0,0.0,0.0,0.0,0.0,0.0,0.0,0.0,0.0,0.0,0.0,0.0,0.0,0.0,0.0,0.0,0.0,0.0,0.0,0.0,0.0,0.0,0.0
