ciel274/research-hand-sign/data/raw/hiragana/sign_language_su_2.csv
timestamp,R_joint_0_x,R_joint_0_y,R_joint_0_z,R_joint_1_x,R_joint_1_y,R_joint_1_z,R_joint_2_x,R_joint_2_y,R_joint_2_z,R_joint_3_x,R_joint_3_y,R_joint_3_z,R_joint_4_x,R_joint_4_y,R_joint_4_z,R_joint_5_x,R_joint_5_y,R_joint_5_z,R_joint_6_x,R_joint_6_y,R_joint_6_z,R_joint_7_x,R_joint_7_y,R_joint_7_z,R_joint_8_x,R_joint_8_y,R_joint_8_z,R_joint_9_x,R_joint_9_y,R_joint_9_z,R_joint_10_x,R_joint_10_y,R_joint_10_z,R_joint_11_x,R_joint_11_y,R_joint_11_z,R_joint_12_x,R_joint_12_y,R_joint_12_z,R_joint_13_x,R_joint_13_y,R_joint_13_z,R_joint_14_x,R_joint_14_y,R_joint_14_z,R_joint_15_x,R_joint_15_y,R_joint_15_z,R_joint_16_x,R_joint_16_y,R_joint_16_z,R_joint_17_x,R_joint_17_y,R_joint_17_z,R_joint_18_x,R_joint_18_y,R_joint_18_z,R_joint_19_x,R_joint_19_y,R_joint_19_z,R_joint_20_x,R_joint_20_y,R_joint_20_z,L_joint_0_x,L_joint_0_y,L_joint_0_z,L_joint_1_x,L_joint_1_y,L_joint_1_z,L_joint_2_x,L_joint_2_y,L_joint_2_z,L_joint_3_x,L_joint_3_y,L_joint_3_z,L_joint_4_x,L_joint_4_y,L_joint_4_z,L_joint_5_x,L_joint_5_y,L_joint_5_z,L_joint_6_x,L_joint_6_y,L_joint_6_z,L_joint_7_x,L_joint_7_y,L_joint_7_z,L_joint_8_x,L_joint_8_y,L_joint_8_z,L_joint_9_x,L_joint_9_y,L_joint_9_z,L_joint_10_x,L_joint_10_y,L_joint_10_z,L_joint_11_x,L_joint_11_y,L_joint_11_z,L_joint_12_x,L_joint_12_y,L_joint_12_z,L_joint_13_x,L_joint_13_y,L_joint_13_z,L_joint_14_x,L_joint_14_y,L_joint_14_z,L_joint_15_x,L_joint_15_y,L_joint_15_z,L_joint_16_x,L_joint_16_y,L_joint_16_z,L_joint_17_x,L_joint_17_y,L_joint_17_z,L_joint_18_x,L_joint_18_y,L_joint_18_z,L_joint_19_x,L_joint_19_y,L_joint_19_z,L_joint_20_x,L_joint_20_y,L_joint_20_z
1783390726.991572,0.6848211288452148,0.5418802499771118,2.4300047130054736e-07,0.6445267796516418,0.5530243515968323,-0.0008418296929448843,0.6066482067108154,0.5945917367935181,-0.006311110220849514,0.5738983154296875,0.62687087059021,-0.012191984802484512,0.5463947057723999,0.6300451159477234,-0.018906965851783752,0.6132544279098511,0.6557101607322693,-0.023039735853672028,0.5911580324172974,0.7473737597465515,-0.031525809317827225,0.5782724022865295,0.7963019013404846,-0.034398891031742096,0.5681158900260925,0.8361106514930725,-0.035987723618745804,0.6358076333999634,0.675072968006134,-0.02688901126384735,0.6230491995811462,0.7752350568771362,-0.0354766845703125,0.6168040037155151,0.8331657648086548,-0.037462130188941956,0.6142461895942688,0.8755495548248291,-0.03903663530945778,0.66064453125,0.6833770275115967,-0.02868557535111904,0.653937816619873,0.7552958130836487,-0.03504856303334236,0.6540430188179016,0.7266378402709961,-0.027333920821547508,0.656541645526886,0.6953970193862915,-0.02021998167037964,0.6836242079734802,0.6838257312774658,-0.030504608526825905,0.6771258115768433,0.7335893511772156,-0.03265076130628586,0.677022397518158,0.7100151777267456,-0.02420932799577713,0.6787199974060059,0.6851541996002197,-0.016448570415377617,0.0,0.0,0.0,0.0,0.0,0.0,0.0,0.0,0.0,0.0,0.0,0.0,0.0,0.0,0.0,0.0,0.0,0.0,0.0,0.0,0.0,0.0,0.0,0.0,0.0,0.0,0.0,0.0,0.0,0.0,0.0,0.0,0.0,0.0,0.0,0.0,0.0,0.0,0.0,0.0,0.0,0.0,0.0,0.0,0.0,0.0,0.0,0.0,0.0,0.0,0.0,0.0,0.0,0.0,0.0,0.0,0.0,0.0,0.0,0.0,0.0,0.0,0.0
1783390727.176553,0.6852618455886841,0.547380268573761,2.519608415241237e-07,0.6447950601577759,0.5587247610092163,-0.00020760108600370586,0.6066333651542664,0.6005352735519409,-0.0057000694796442986,0.5736535787582397,0.6331033110618591,-0.011613326147198677,0.5459704399108887,0.6364458203315735,-0.01830974407494068,0.6137896776199341,0.6610884070396423,-0.02318153716623783,0.591757595539093,0.7556831240653992,-0.031225072219967842,0.5788909196853638,0.8049902319908142,-0.03345862030982971,0.5686451196670532,0.844477653503418,-0.03453269973397255,0.6364315152168274,0.6799885630607605,-0.02718384936451912,0.623452365398407,0.7825233340263367,-0.03556801378726959,0.6173616051673889,0.8411694765090942,-0.037120454013347626,0.6147552132606506,0.883372962474823,-0.03832908719778061,0.6612235307693481,0.6883257627487183,-0.02899787575006485,0.6537848114967346,0.7621020674705505,-0.034686047583818436,0.6538841724395752,0.7334852814674377,-0.026387028396129608,0.6562665700912476,0.7019453644752502,-0.018971042707562447,0.6839308142662048,0.6888675689697266,-0.030781054869294167,0.6768101453781128,0.7397023439407349,-0.03196721896529198,0.6766507029533386,0.7158832550048828,-0.022916333749890327,0.6783734560012817,0.6908044219017029,-0.014840387739241123,0.0,0.0,0.0,0.0,0.0,0.0,0.0,0.0,0.0,0.0,0.0,0.0,0.0,0.0,0.0,0.0,0.0,0.0,0.0,0.0,0.0,0.0,0.0,0.0,0.0,0.0,0.0,0.0,0.0,0.0,0.0,0.0,0.0,0.0,0.0,0.0,0.0,0.0,0.0,0.0,0.0,0.0,0.0,0.0,0.0,0.0,0.0,0.0,0.0,0.0,0.0,0.0,0.0,0.0,0.0,0.0,0.0,0.0,0.0,0.0,0.0,0.0,0.0
1783390727.337013,0.6853262186050415,0.5432718992233276,2.1351213774778444e-07,0.6436982154846191,0.5574718713760376,0.003111166413873434,0.6054582595825195,0.5981486439704895,-0.0009830027120187879,0.572095513343811,0.6288478374481201,-0.006103654392063618,0.5448015928268433,0.6317790150642395,-0.0121514443308115,0.6121620535850525,0.6600055694580078,-0.01978560909628868,0.591002345085144,0.7512425780296326,-0.02755177579820156,0.5789204239845276,0.8008053302764893,-0.030370008200407028,0.5687171816825867,0.8401053547859192,-0.03201565146446228,0.6355779767036438,0.6782620549201965,-0.02502622827887535,0.623792290687561,0.7789308428764343,-0.033430181443691254,0.61788409948349,0.8365501761436462,-0.03537604585289955,0.6148396134376526,0.8783628940582275,-0.03699187934398651,0.6606343388557434,0.6850366592407227,-0.02769508957862854,0.6529622077941895,0.7580870985984802,-0.032505493611097336,0.6532812714576721,0.7302602529525757,-0.02338850498199463,0.655825674533844,0.6998078227043152,-0.015639038756489754,0.6838271021842957,0.6828993558883667,-0.030142052099108696,0.6751384139060974,0.7351279854774475,-0.03027515485882759,0.6749307513237,0.7112910151481628,-0.020119789987802505,0.6765764355659485,0.6857877969741821,-0.011327103711664677,0.0,0.0,0.0,0.0,0.0,0.0,0.0,0.0,0.0,0.0,0.0,0.0,0.0,0.0,0.0,0.0,0.0,0.0,0.0,0.0,0.0,0.0,0.0,0.0,0.0,0.0,0.0,0.0,0.0,0.0,0.0,0.0,0.0,0.0,0.0,0.0,0.0,0.0,0.0,0.0,0.0,0.0,0.0,0.0,0.0,0.0,0.0,0.0,0.0,0.0,0.0,0.0,0.0,0.0,0.0,0.0,0.0,0.0,0.0,0.0,0.0,0.0,0.0
1783390727.465046,0.6846135258674622,0.5463576912879944,2.3689058537001983e-07,0.6444464921951294,0.5577728748321533,-0.001560712931677699,0.6058394312858582,0.6009656190872192,-0.0071307215839624405,0.5720266699790955,0.6330063343048096,-0.01301579549908638,0.5442661046981812,0.6351065039634705,-0.019849510863423347,0.6133562922477722,0.6622475385665894,-0.02321718819439411,0.5918498635292053,0.7555710673332214,-0.031120672821998596,0.5793280005455017,0.8046355843544006,-0.03327411785721779,0.5694339275360107,0.8440572023391724,-0.034293465316295624,0.6359477043151855,0.6809428930282593,-0.026733998209238052,0.6242489814758301,0.7827630639076233,-0.03485231101512909,0.6185063123703003,0.8404245376586914,-0.0361802913248539,0.6159377098083496,0.8820182681083679,-0.037144023925065994,0.6607586741447449,0.6883784532546997,-0.028305334970355034,0.6541644930839539,0.7580124735832214,-0.03499291464686394,0.654705286026001,0.7291751503944397,-0.027778450399637222,0.6572955846786499,0.6978183388710022,-0.02082282491028309,0.6838809251785278,0.6884344816207886,-0.029895050451159477,0.6766873002052307,0.7373077869415283,-0.032557327300310135,0.6769918203353882,0.7130313515663147,-0.024539463222026825,0.6790340542793274,0.6874332427978516,-0.017000310122966766,0.0,0.0,0.0,0.0,0.0,0.0,0.0,0.0,0.0,0.0,0.0,0.0,0.0,0.0,0.0,0.0,0.0,0.0,0.0,0.0,0.0,0.0,0.0,0.0,0.0,0.0,0.0,0.0,0.0,0.0,0.0,0.0,0.0,0.0,0.0,0.0,0.0,0.0,0.0,0.0,0.0,0.0,0.0,0.0,0.0,0.0,0.0,0.0,0.0,0.0,0.0,0.0,0.0,0.0,0.0,0.0,0.0,0.0,0.0,0.0,0.0,0.0,0.0
1783390727.606842,0.6863011121749878,0.5462131500244141,2.3152053074682044e-07,0.6455174684524536,0.5578898191452026,-0.0006434830138459802,0.6070221066474915,0.6003569960594177,-0.005850338842719793,0.5734372138977051,0.6329094171524048,-0.011526614427566528,0.5454123020172119,0.6358470320701599,-0.018145764246582985,0.6142680644989014,0.6631878614425659,-0.022374968975782394,0.5924744606018066,0.7547301054000854,-0.030454494059085846,0.5799259543418884,0.8044639229774475,-0.032997921109199524,0.5700578689575195,0.8445332050323486,-0.03433103486895561,0.636974573135376,0.682264506816864,-0.02638055942952633,0.6247137784957886,0.7830995917320251,-0.03450765833258629,0.6188600063323975,0.8402469754219055,-0.0358540341258049,0.6164509057998657,0.8816826343536377,-0.03686664253473282,0.6617065668106079,0.689644992351532,-0.028391750529408455,0.6552861332893372,0.7598254680633545,-0.03464122861623764,0.6553638577461243,0.7321535348892212,-0.027163458988070488,0.6577414870262146,0.7011881470680237,-0.020154498517513275,0.6847389936447144,0.6893670558929443,-0.030408155173063278,0.6775476932525635,0.7390380501747131,-0.03249239921569824,0.6772905588150024,0.7157753705978394,-0.02418084256350994,0.6788562536239624,0.6902772188186646,-0.01649056002497673,0.0,0.0,0.0,0.0,0.0,0.0,0.0,0.0,0.0,0.0,0.0,0.0,0.0,0.0,0.0,0.0,0.0,0.0,0.0,0.0,0.0,0.0,0.0,0.0,0.0,0.0,0.0,0.0,0.0,0.0,0.0,0.0,0.0,0.0,0.0,0.0,0.0,0.0,0.0,0.0,0.0,0.0,0.0,0.0,0.0,0.0,0.0,0.0,0.0,0.0,0.0,0.0,0.0,0.0,0.0,0.0,0.0,0.0,0.0,0.0,0.0,0.0,0.0
1783390727.773348,0.6858082413673401,0.5436668395996094,2.2825807377557794e-07,0.644727349281311,0.5569431185722351,0.000357802928192541,0.6063929796218872,0.599332869052887,-0.004977799486368895,0.5729602575302124,0.6307247281074524,-0.010811369866132736,0.5452457666397095,0.6331141591072083,-0.017625905573368073,0.6139528155326843,0.6595879197120667,-0.023173177614808083,0.5925720930099487,0.7529736757278442,-0.031131204217672348,0.5803778171539307,0.8028582334518433,-0.0334261953830719,0.5702648162841797,0.8425436615943909,-0.034576110541820526,0.6374191641807556,0.6780623197555542,-0.027592631056904793,0.6253283023834229,0.7809491157531738,-0.03585226833820343,0.6189676523208618,0.8383841514587402,-0.03702540695667267,0.6158900260925293,0.8799302577972412,-0.03798976168036461,0.6624753475189209,0.6850632429122925,-0.029701098799705505,0.6542962789535522,0.759033203125,-0.03557509556412697,0.6533260345458984,0.7320492267608643,-0.027272282168269157,0.6557254195213318,0.7014573812484741,-0.019826849922537804,0.685757577419281,0.6838683485984802,-0.03170686215162277,0.6769415736198425,0.7375419735908508,-0.03304477408528328,0.6758496165275574,0.7148383855819702,-0.023653920739889145,0.6776576042175293,0.6890736222267151,-0.015300626866519451,0.0,0.0,0.0,0.0,0.0,0.0,0.0,0.0,0.0,0.0,0.0,0.0,0.0,0.0,0.0,0.0,0.0,0.0,0.0,0.0,0.0,0.0,0.0,0.0,0.0,0.0,0.0,0.0,0.0,0.0,0.0,0.0,0.0,0.0,0.0,0.0,0.0,0.0,0.0,0.0,0.0,0.0,0.0,0.0,0.0,0.0,0.0,0.0,0.0,0.0,0.0,0.0,0.0,0.0,0.0,0.0,0.0,0.0,0.0,0.0,0.0,0.0,0.0
1783390727.950096,0.6859988570213318,0.543449878692627,2.3812856397853466e-07,0.6450642943382263,0.5558001399040222,-0.0009768374729901552,0.6070680022239685,0.5992411971092224,-0.006528816185891628,0.5738783478736877,0.6316803693771362,-0.012407700531184673,0.5460662245750427,0.6349349617958069,-0.019187338650226593,0.6145570278167725,0.6594724059104919,-0.02355334907770157,0.5929660201072693,0.7520895600318909,-0.03172866255044937,0.5801653265953064,0.8014692068099976,-0.0342487171292305,0.5699938535690308,0.8412097096443176,-0.03556790202856064,0.6375481486320496,0.6785722970962524,-0.027393657714128494,0.6251781582832336,0.7803398966789246,-0.035791415721178055,0.618778645992279,0.8377912640571594,-0.037298232316970825,0.6158660650253296,0.879582405090332,-0.03844379261136055,0.6624133586883545,0.6862866282463074,-0.029134266078472137,0.6546071171760559,0.7578765749931335,-0.03555277734994888,0.6541836261749268,0.7299658060073853,-0.027853641659021378,0.6566712856292725,0.6989861130714417,-0.02066209726035595,0.6853936910629272,0.6860132813453674,-0.03085951879620552,0.6771404147148132,0.737328827381134,-0.033000554889440536,0.6766249537467957,0.7139058113098145,-0.024341339245438576,0.6786234378814697,0.6881533265113831,-0.01638634502887726,0.0,0.0,0.0,0.0,0.0,0.0,0.0,0.0,0.0,0.0,0.0,0.0,0.0,0.0,0.0,0.0,0.0,0.0,0.0,0.0,0.0,0.0,0.0,0.0,0.0,0.0,0.0,0.0,0.0,0.0,0.0,0.0,0.0,0.0,0.0,0.0,0.0,0.0,0.0,0.0,0.0,0.0,0.0,0.0,0.0,0.0,0.0,0.0,0.0,0.0,0.0,0.0,0.0,0.0,0.0,0.0,0.0,0.0,0.0,0.0,0.0,0.0,0.0
1783390728.11339,0.6858923435211182,0.5528156757354736,2.641207572651183e-07,0.6449788808822632,0.565036952495575,-0.0004903316730633378,0.6064417958259583,0.6075931787490845,-0.00609613349661231,0.5733500123023987,0.6396137475967407,-0.011797831393778324,0.546118974685669,0.6432374715805054,-0.01836761087179184,0.6149542927742004,0.6697660684585571,-0.024547526612877846,0.5928704142570496,0.7637601494789124,-0.03235461935400963,0.5802537798881531,0.813045859336853,-0.034573305398225784,0.5701825618743896,0.8525410294532776,-0.035587459802627563,0.638446033000946,0.6873746514320374,-0.027850672602653503,0.6254556179046631,0.7890297174453735,-0.035125039517879486,0.61940997838974,0.8471954464912415,-0.03552062436938286,0.6165879964828491,0.8888563513755798,-0.03616543114185333,0.663398027420044,0.6947846412658691,-0.02894723042845726,0.6546660661697388,0.7681975364685059,-0.03335203602910042,0.654259443283081,0.7413422465324402,-0.024571780115365982,0.6569291949272156,0.7099109888076782,-0.01721717230975628,0.6860809922218323,0.6951144933700562,-0.030085470527410507,0.6774927377700806,0.7448241114616394,-0.030472783371806145,0.6772487759590149,0.7216271162033081,-0.021281180903315544,0.6793867945671082,0.6963092088699341,-0.013303695246577263,0.0,0.0,0.0,0.0,0.0,0.0,0.0,0.0,0.0,0.0,0.0,0.0,0.0,0.0,0.0,0.0,0.0,0.0,0.0,0.0,0.0,0.0,0.0,0.0,0.0,0.0,0.0,0.0,0.0,0.0,0.0,0.0,0.0,0.0,0.0,0.0,0.0,0.0,0.0,0.0,0.0,0.0,0.0,0.0,0.0,0.0,0.0,0.0,0.0,0.0,0.0,0.0,0.0,0.0,0.0,0.0,0.0,0.0,0.0,0.0,0.0,0.0,0.0
1783390728.278682,0.6883166432380676,0.563275933265686,2.694601448638423e-07,0.6472339034080505,0.5783765912055969,-0.002187174279242754,0.6100908517837524,0.6197107434272766,-0.008425227366387844,0.577532172203064,0.6534875631332397,-0.014522206038236618,0.5494164228439331,0.6579416394233704,-0.02136211097240448,0.6201961636543274,0.6822890639305115,-0.023262154310941696,0.6004838347434998,0.7756800055503845,-0.031287383288145065,0.5889707207679749,0.8252033591270447,-0.03401040658354759,0.5802052021026611,0.8654582500457764,-0.03512293100357056,0.6447278261184692,0.701115608215332,-0.02585700713098049,0.6324268579483032,0.8046126961708069,-0.03265805542469025,0.6252654194831848,0.8619211912155151,-0.03360365703701973,0.6214278936386108,0.9035743474960327,-0.03442756459116936,0.6697098016738892,0.7091730237007141,-0.026566652581095695,0.659655749797821,0.7804020643234253,-0.03175254538655281,0.6571946740150452,0.7538207173347473,-0.02477346919476986,0.6586465835571289,0.7234377264976501,-0.018295641988515854,0.6914424896240234,0.7104822993278503,-0.027384912595152855,0.680513858795166,0.7559837102890015,-0.028640855103731155,0.6792136430740356,0.7324267029762268,-0.020505839958786964,0.6809766292572021,0.7078421115875244,-0.013003869913518429,0.0,0.0,0.0,0.0,0.0,0.0,0.0,0.0,0.0,0.0,0.0,0.0,0.0,0.0,0.0,0.0,0.0,0.0,0.0,0.0,0.0,0.0,0.0,0.0,0.0,0.0,0.0,0.0,0.0,0.0,0.0,0.0,0.0,0.0,0.0,0.0,0.0,0.0,0.0,0.0,0.0,0.0,0.0,0.0,0.0,0.0,0.0,0.0,0.0,0.0,0.0,0.0,0.0,0.0,0.0,0.0,0.0,0.0,0.0,0.0,0.0,0.0,0.0
1783390728.40183,0.6899455189704895,0.5685562491416931,2.852555098797893e-07,0.6490885615348816,0.5806928873062134,-0.002762887626886368,0.6123166680335999,0.6241852045059204,-0.008538885973393917,0.5798020362854004,0.6592673659324646,-0.013911720365285873,0.5521367788314819,0.6648564338684082,-0.019979773089289665,0.6206739544868469,0.6874150633811951,-0.025068718940019608,0.6021506190299988,0.7851753234863281,-0.03274928778409958,0.5911454558372498,0.8362298011779785,-0.0348946787416935,0.5829846262931824,0.87767493724823,-0.035758744925260544,0.645068883895874,0.7057799696922302,-0.027375884354114532,0.6331713795661926,0.8096376657485962,-0.034590475261211395,0.6271327137947083,0.8683120012283325,-0.03541469946503639,0.6245339512825012,0.9100973606109619,-0.03602765500545502,0.6705276370048523,0.7137261033058167,-0.02771238423883915,0.6623438000679016,0.7870319485664368,-0.032754771411418915,0.6607577204704285,0.7603840827941895,-0.0248903539031744,0.6624526381492615,0.7293296456336975,-0.017781732603907585,0.6931579113006592,0.7143775224685669,-0.028254378587007523,0.6844304203987122,0.7604507803916931,-0.029745223000645638,0.6836256980895996,0.7361077666282654,-0.021405108273029327,0.685174286365509,0.7106960415840149,-0.013670661486685276,0.0,0.0,0.0,0.0,0.0,0.0,0.0,0.0,0.0,0.0,0.0,0.0,0.0,0.0,0.0,0.0,0.0,0.0,0.0,0.0,0.0,0.0,0.0,0.0,0.0,0.0,0.0,0.0,0.0,0.0,0.0,0.0,0.0,0.0,0.0,0.0,0.0,0.0,0.0,0.0,0.0,0.0,0.0,0.0,0.0,0.0,0.0,0.0,0.0,0.0,0.0,0.0,0.0,0.0,0.0,0.0,0.0,0.0,0.0,0.0,0.0,0.0,0.0
1783390728.5334709,0.6915499567985535,0.5730679035186768,2.863910708583717e-07,0.6503496766090393,0.5874571204185486,-0.002135154791176319,0.6137473583221436,0.6327482461929321,-0.007777463644742966,0.5808206796646118,0.6681346893310547,-0.013169229961931705,0.5522422790527344,0.670609712600708,-0.019213281571865082,0.6234525442123413,0.6960301399230957,-0.02435295842587948,0.6043033599853516,0.7941993474960327,-0.031634777784347534,0.5931146144866943,0.8448609709739685,-0.03357473388314247,0.5846021175384521,0.8852750062942505,-0.03429948166012764,0.6482570171356201,0.7145056128501892,-0.02647624909877777,0.6357297897338867,0.8183897137641907,-0.033140718936920166,0.6289305090904236,0.8773182034492493,-0.03379441797733307,0.6256921291351318,0.9190360903739929,-0.034394316375255585,0.6738813519477844,0.7222856283187866,-0.026532674208283424,0.6639940142631531,0.7929454445838928,-0.030324488878250122,0.6619539856910706,0.7658430933952332,-0.02223200350999832,0.6637542843818665,0.7346534729003906,-0.015250437892973423,0.6962144374847412,0.722775399684906,-0.02682040072977543,0.6863616704940796,0.7658163905143738,-0.026830090209841728,0.6849184036254883,0.7422211766242981,-0.018401600420475006,0.6863987445831299,0.7178128361701965,-0.010895526967942715,0.0,0.0,0.0,0.0,0.0,0.0,0.0,0.0,0.0,0.0,0.0,0.0,0.0,0.0,0.0,0.0,0.0,0.0,0.0,0.0,0.0,0.0,0.0,0.0,0.0,0.0,0.0,0.0,0.0,0.0,0.0,0.0,0.0,0.0,0.0,0.0,0.0,0.0,0.0,0.0,0.0,0.0,0.0,0.0,0.0,0.0,0.0,0.0,0.0,0.0,0.0,0.0,0.0,0.0,0.0,0.0,0.0,0.0,0.0,0.0,0.0,0.0,0.0
1783390728.673528,0.6924664974212646,0.5818257927894592,3.0849309951008763e-07,0.6502534747123718,0.5954195857048035,-0.0037753586657345295,0.6143736839294434,0.6407049298286438,-0.009893419221043587,0.5821979641914368,0.6769502758979797,-0.015596525743603706,0.5541181564331055,0.6836398243904114,-0.02186523750424385,0.6248897314071655,0.7065515518188477,-0.025061961263418198,0.6065011024475098,0.8042325973510742,-0.033054620027542114,0.5956625938415527,0.8562265038490295,-0.035722680389881134,0.5878828763961792,0.8979663848876953,-0.0368075855076313,0.650493323802948,0.725083589553833,-0.02658458612859249,0.6383023262023926,0.8277761936187744,-0.034012891352176666,0.6317766904830933,0.8882928490638733,-0.03558259457349777,0.6291959881782532,0.9317878484725952,-0.03660155087709427,0.676459550857544,0.7326700091362,-0.02620704099535942,0.6669144630432129,0.801415205001831,-0.031176412478089333,0.664243757724762,0.7741356492042542,-0.02411281317472458,0.6658579111099243,0.7430611252784729,-0.017433276399970055,0.6987623572349548,0.7328268885612488,-0.0261515025049448,0.688387393951416,0.7733506560325623,-0.027353204786777496,0.6868675351142883,0.748546302318573,-0.01949424110352993,0.6887186169624329,0.7230470776557922,-0.012020929716527462,0.0,0.0,0.0,0.0,0.0,0.0,0.0,0.0,0.0,0.0,0.0,0.0,0.0,0.0,0.0,0.0,0.0,0.0,0.0,0.0,0.0,0.0,0.0,0.0,0.0,0.0,0.0,0.0,0.0,0.0,0.0,0.0,0.0,0.0,0.0,0.0,0.0,0.0,0.0,0.0,0.0,0.0,0.0,0.0,0.0,0.0,0.0,0.0,0.0,0.0,0.0,0.0,0.0,0.0,0.0,0.0,0.0,0.0,0.0,0.0,0.0,0.0,0.0
1783390728.802685,0.694983720779419,0.5836170315742493,3.2124532367561187e-07,0.6532142162322998,0.5985620617866516,-0.0031021602917462587,0.6173284649848938,0.6437709331512451,-0.008876832202076912,0.5847270488739014,0.6813821792602539,-0.014406044967472553,0.5560358166694641,0.6871410608291626,-0.020403137430548668,0.6264997124671936,0.7104977369308472,-0.023514656350016594,0.6085464358329773,0.8096601963043213,-0.031175291165709496,0.5975332856178284,0.860969603061676,-0.033435072749853134,0.5889620184898376,0.9016788005828857,-0.03406256437301636,0.6523463129997253,0.7304481863975525,-0.025130514055490494,0.6399635076522827,0.8334553837776184,-0.03228193148970604,0.6326410174369812,0.8935971260070801,-0.03379033878445625,0.6292294263839722,0.9362348318099976,-0.03448760136961937,0.6785774827003479,0.7389928102493286,-0.02478477545082569,0.6684291958808899,0.8065710067749023,-0.02917005494236946,0.6655742526054382,0.7802529335021973,-0.022138921543955803,0.6675930023193359,0.7491682767868042,-0.015322466380894184,0.7011910676956177,0.7392389178276062,-0.024759288877248764,0.6904488801956177,0.7755391597747803,-0.025138715282082558,0.6884185075759888,0.7511264681816101,-0.017293095588684082,0.6902442574501038,0.7261756658554077,-0.009687419980764389,0.0,0.0,0.0,0.0,0.0,0.0,0.0,0.0,0.0,0.0,0.0,0.0,0.0,0.0,0.0,0.0,0.0,0.0,0.0,0.0,0.0,0.0,0.0,0.0,0.0,0.0,0.0,0.0,0.0,0.0,0.0,0.0,0.0,0.0,0.0,0.0,0.0,0.0,0.0,0.0,0.0,0.0,0.0,0.0,0.0,0.0,0.0,0.0,0.0,0.0,0.0,0.0,0.0,0.0,0.0,0.0,0.0,0.0,0.0,0.0,0.0,0.0,0.0
1783390728.9394739,0.6973631978034973,0.5861086249351501,3.1068455541571893e-07,0.6551603674888611,0.6007627248764038,-0.0009698665817268193,0.6186783909797668,0.6447257995605469,-0.006216367240995169,0.5855052471160889,0.6804776787757874,-0.011486695148050785,0.5571323037147522,0.6834640502929688,-0.017339840531349182,0.6280655860900879,0.7107301354408264,-0.02383776381611824,0.6085659861564636,0.8104397058486938,-0.031189696863293648,0.5975368618965149,0.8619704246520996,-0.03287316858768463,0.5888145565986633,0.9024276733398438,-0.03323216363787651,0.6539062857627869,0.7310380935668945,-0.026184042915701866,0.6409128904342651,0.8367924094200134,-0.03315485268831253,0.6338468790054321,0.8962743878364563,-0.034140244126319885,0.6306630969047546,0.9379686713218689,-0.0346410870552063,0.6800835728645325,0.7392112016677856,-0.026114117354154587,0.6702002286911011,0.8093537092208862,-0.029337232932448387,0.6678792238235474,0.7816436290740967,-0.021220723167061806,0.6702750325202942,0.7492021918296814,-0.014062449336051941,0.7027763724327087,0.7384676337242126,-0.026213569566607475,0.6937074065208435,0.7748348116874695,-0.025490595027804375,0.6916006207466125,0.7497674226760864,-0.017073484137654305,0.6931987404823303,0.7244760990142822,-0.009325839579105377,0.0,0.0,0.0,0.0,0.0,0.0,0.0,0.0,0.0,0.0,0.0,0.0,0.0,0.0,0.0,0.0,0.0,0.0,0.0,0.0,0.0,0.0,0.0,0.0,0.0,0.0,0.0,0.0,0.0,0.0,0.0,0.0,0.0,0.0,0.0,0.0,0.0,0.0,0.0,0.0,0.0,0.0,0.0,0.0,0.0,0.0,0.0,0.0,0.0,0.0,0.0,0.0,0.0,0.0,0.0,0.0,0.0,0.0,0.0,0.0,0.0,0.0,0.0
1783390729.106001,0.6982024312019348,0.585951030254364,3.081715078678826e-07,0.6555503606796265,0.6002232432365417,-0.003058722009882331,0.6186935305595398,0.64573073387146,-0.008682702668011189,0.5853926539421082,0.6809911131858826,-0.01407757680863142,0.5569138526916504,0.684942364692688,-0.020087454468011856,0.6295219659805298,0.7122793793678284,-0.02407369203865528,0.6091189980506897,0.8107724189758301,-0.031464964151382446,0.5979998707771301,0.8619978427886963,-0.0333099327981472,0.5893876552581787,0.9027462005615234,-0.03370346873998642,0.6554412245750427,0.7326191067695618,-0.0258627962321043,0.6415352821350098,0.8374278545379639,-0.032630085945129395,0.6340005397796631,0.8958460688591003,-0.03341512009501457,0.6303960680961609,0.9375925660133362,-0.03365118429064751,0.6813715696334839,0.740410566329956,-0.02566779963672161,0.6701499223709106,0.809319019317627,-0.030400598421692848,0.6675965785980225,0.7825406193733215,-0.023532506078481674,0.67007976770401,0.7507895827293396,-0.016795357689261436,0.7039740681648254,0.7396175265312195,-0.025698648765683174,0.6926518678665161,0.7797210216522217,-0.026436783373355865,0.6904290318489075,0.755746603012085,-0.01846921630203724,0.6923296451568604,0.7299087047576904,-0.010838753543794155,0.0,0.0,0.0,0.0,0.0,0.0,0.0,0.0,0.0,0.0,0.0,0.0,0.0,0.0,0.0,0.0,0.0,0.0,0.0,0.0,0.0,0.0,0.0,0.0,0.0,0.0,0.0,0.0,0.0,0.0,0.0,0.0,0.0,0.0,0.0,0.0,0.0,0.0,0.0,0.0,0.0,0.0,0.0,0.0,0.0,0.0,0.0,0.0,0.0,0.0,0.0,0.0,0.0,0.0,0.0,0.0,0.0,0.0,0.0,0.0,0.0,0.0,0.0
1783390729.3151119,0.6956838965415955,0.5814119577407837,3.0048596499909763e-07,0.6526501774787903,0.5972891449928284,-0.0022299112752079964,0.6160402894020081,0.6436150670051575,-0.007967637851834297,0.5835504531860352,0.6799024343490601,-0.013837283477187157,0.5549160242080688,0.6837077736854553,-0.020277036353945732,0.6270534992218018,0.709719717502594,-0.02380676008760929,0.6080198884010315,0.808128297328949,-0.03186054900288582,0.5973721146583557,0.8599458336830139,-0.03425227850675583,0.5889641642570496,0.900879979133606,-0.035129088908433914,0.6534428000450134,0.7291274070739746,-0.026314232498407364,0.6411113142967224,0.8326106667518616,-0.034333519637584686,0.6340389847755432,0.8913384675979614,-0.03601673245429993,0.630774974822998,0.9335682988166809,-0.036845818161964417,0.6796470284461975,0.735421895980835,-0.02669970877468586,0.6692015528678894,0.8043118119239807,-0.032095156610012054,0.6667394638061523,0.7761849164962769,-0.02484053559601307,0.669303297996521,0.7442666888237,-0.01779974438250065,0.7021984457969666,0.732347846031189,-0.027296341955661774,0.6915438771247864,0.7705032229423523,-0.028379593044519424,0.6891157627105713,0.7455812692642212,-0.020222242921590805,0.6908271908760071,0.719287633895874,-0.012383594177663326,0.0,0.0,0.0,0.0,0.0,0.0,0.0,0.0,0.0,0.0,0.0,0.0,0.0,0.0,0.0,0.0,0.0,0.0,0.0,0.0,0.0,0.0,0.0,0.0,0.0,0.0,0.0,0.0,0.0,0.0,0.0,0.0,0.0,0.0,0.0,0.0,0.0,0.0,0.0,0.0,0.0,0.0,0.0,0.0,0.0,0.0,0.0,0.0,0.0,0.0,0.0,0.0,0.0,0.0,0.0,0.0,0.0,0.0,0.0,0.0,0.0,0.0,0.0
1783390729.470967,0.6932927966117859,0.5873114466667175,2.976020709866134e-07,0.6511659026145935,0.6049004197120667,-0.0008162166923284531,0.6162437200546265,0.6509470343589783,-0.006211011204868555,0.5845839977264404,0.6900466084480286,-0.01162058673799038,0.5559967756271362,0.699135422706604,-0.017492277547717094,0.6266457438468933,0.7168864011764526,-0.023902257904410362,0.6098259687423706,0.8194092512130737,-0.03184689208865166,0.5997803807258606,0.8723947405815125,-0.03423859179019928,0.5921952724456787,0.9140059947967529,-0.03508656471967697,0.6529564261436462,0.7346770167350769,-0.025953982025384903,0.6424160003662109,0.8402130603790283,-0.0328744500875473,0.636887788772583,0.8999015688896179,-0.03377768397331238,0.6348022818565369,0.9413325786590576,-0.034526530653238297,0.6793557405471802,0.7412710785865784,-0.025711432099342346,0.670609176158905,0.814890444278717,-0.028372807428240776,0.6676674485206604,0.7889543771743774,-0.01971866749227047,0.6692672967910767,0.7567277550697327,-0.012612203136086464,0.7018399238586426,0.7397557497024536,-0.02571442350745201,0.6936525702476501,0.7765105366706848,-0.02463175356388092,0.6912487745285034,0.752656877040863,-0.01628418080508709,0.6921958923339844,0.7279366254806519,-0.008797367103397846,0.0,0.0,0.0,0.0,0.0,0.0,0.0,0.0,0.0,0.0,0.0,0.0,0.0,0.0,0.0,0.0,0.0,0.0,0.0,0.0,0.0,0.0,0.0,0.0,0.0,0.0,0.0,0.0,0.0,0.0,0.0,0.0,0.0,0.0,0.0,0.0,0.0,0.0,0.0,0.0,0.0,0.0,0.0,0.0,0.0,0.0,0.0,0.0,0.0,0.0,0.0,0.0,0.0,0.0,0.0,0.0,0.0,0.0,0.0,0.0,0.0,0.0,0.0
1783390729.60497,0.6934763789176941,0.5922732949256897,3.032579911632638e-07,0.651116132736206,0.6101231575012207,-0.001418143743649125,0.6166281700134277,0.6595988869667053,-0.0067227245308458805,0.5851229429244995,0.7010636925697327,-0.012119277380406857,0.5557072162628174,0.7081012725830078,-0.018034840002655983,0.6280932426452637,0.7273038625717163,-0.022754717618227005,0.6118053197860718,0.8293536901473999,-0.030186612159013748,0.6023456454277039,0.8826168775558472,-0.032316260039806366,0.5954407453536987,0.9244047403335571,-0.03298952803015709,0.6545764803886414,0.7444676756858826,-0.024580655619502068,0.6442769169807434,0.8489413261413574,-0.031150080263614655,0.6389475464820862,0.9095957279205322,-0.03213411197066307,0.6372031569480896,0.952082633972168,-0.032793570309877396,0.6809289455413818,0.7501948475837708,-0.02425631694495678,0.6720626354217529,0.819653332233429,-0.026767252013087273,0.6685014963150024,0.7928944230079651,-0.018614955246448517,0.66962730884552,0.7609498500823975,-0.011687561869621277,0.7033448815345764,0.7480211853981018,-0.024246757850050926,0.6946781873703003,0.784268856048584,-0.022770578041672707,0.691963791847229,0.7601946592330933,-0.014434536918997765,0.6927204132080078,0.7351504564285278,-0.006954023148864508,0.0,0.0,0.0,0.0,0.0,0.0,0.0,0.0,0.0,0.0,0.0,0.0,0.0,0.0,0.0,0.0,0.0,0.0,0.0,0.0,0.0,0.0,0.0,0.0,0.0,0.0,0.0,0.0,0.0,0.0,0.0,0.0,0.0,0.0,0.0,0.0,0.0,0.0,0.0,0.0,0.0,0.0,0.0,0.0,0.0,0.0,0.0,0.0,0.0,0.0,0.0,0.0,0.0,0.0,0.0,0.0,0.0,0.0,0.0,0.0,0.0,0.0,0.0
1783390729.7349088,0.6928046941757202,0.5978624224662781,3.0374246762221446e-07,0.6504528522491455,0.6187697649002075,-0.0030471370555460453,0.6166082620620728,0.6694141626358032,-0.008624207228422165,0.5866186022758484,0.7141768932342529,-0.013841984793543816,0.5579944252967834,0.726245105266571,-0.01935451105237007,0.6310495734214783,0.7367977499961853,-0.022696686908602715,0.6162067651748657,0.8393967747688293,-0.029705606400966644,0.6077678203582764,0.8929879069328308,-0.03166186437010765,0.6018012166023254,0.9351924061775208,-0.032249584794044495,0.6582636833190918,0.7532483339309692,-0.023450812324881554,0.6506226658821106,0.8597332835197449,-0.029700087383389473,0.6459415555000305,0.9199824333190918,-0.030376611277461052,0.6445935964584351,0.962224006652832,-0.030802493914961815,0.6848034858703613,0.757473886013031,-0.022288868203759193,0.6762391328811646,0.8310520648956299,-0.025372132658958435,0.6714390516281128,0.8045423030853271,-0.017425891011953354,0.6717870831489563,0.7730646729469299,-0.010481628589332104,0.706712543964386,0.7536218762397766,-0.02148238755762577,0.6972823143005371,0.7933998703956604,-0.020815230906009674,0.6939972639083862,0.7696840167045593,-0.012679683975875378,0.6946153044700623,0.7447100281715393,-0.0052267699502408504,0.0,0.0,0.0,0.0,0.0,0.0,0.0,0.0,0.0,0.0,0.0,0.0,0.0,0.0,0.0,0.0,0.0,0.0,0.0,0.0,0.0,0.0,0.0,0.0,0.0,0.0,0.0,0.0,0.0,0.0,0.0,0.0,0.0,0.0,0.0,0.0,0.0,0.0,0.0,0.0,0.0,0.0,0.0,0.0,0.0,0.0,0.0,0.0,0.0,0.0,0.0,0.0,0.0,0.0,0.0,0.0,0.0,0.0,0.0,0.0,0.0,0.0,0.0
1783390729.8659751,0.6925942897796631,0.5963453054428101,3.091575138114422e-07,0.6512027978897095,0.6198881268501282,-0.004985970910638571,0.6182284355163574,0.6724212765693665,-0.01203143410384655,0.5881685614585876,0.7193894982337952,-0.018264280632138252,0.5588447451591492,0.7335705757141113,-0.024835024029016495,0.6346243619918823,0.7380826473236084,-0.026822613552212715,0.62191241979599,0.8425045609474182,-0.03535444289445877,0.6148403882980347,0.8983017206192017,-0.0381966307759285,0.6103025078773499,0.9429425001144409,-0.03919395059347153,0.6623476147651672,0.7520365118980408,-0.0273657888174057,0.6558670997619629,0.8608540892601013,-0.035378459841012955,0.6528947949409485,0.9234901666641235,-0.03640354424715042,0.6531992554664612,0.9680156111717224,-0.03677891194820404,0.6887610554695129,0.7542011737823486,-0.0260016992688179,0.6807968020439148,0.8274123668670654,-0.03106132335960865,0.6757420897483826,0.8019123077392578,-0.023256007581949234,0.6754513382911682,0.770783543586731,-0.015827618539333344,0.7106444835662842,0.7494961023330688,-0.025048507377505302,0.7000910043716431,0.7953141331672668,-0.02553495019674301,0.6966271996498108,0.772327721118927,-0.01689390279352665,0.6968492865562439,0.7467291951179504,-0.00879721064120531,0.0,0.0,0.0,0.0,0.0,0.0,0.0,0.0,0.0,0.0,0.0,0.0,0.0,0.0,0.0,0.0,0.0,0.0,0.0,0.0,0.0,0.0,0.0,0.0,0.0,0.0,0.0,0.0,0.0,0.0,0.0,0.0,0.0,0.0,0.0,0.0,0.0,0.0,0.0,0.0,0.0,0.0,0.0,0.0,0.0,0.0,0.0,0.0,0.0,0.0,0.0,0.0,0.0,0.0,0.0,0.0,0.0,0.0,0.0,0.0,0.0,0.0,0.0
1783390730.0348108,0.6921390295028687,0.5914958715438843,3.15426660790763e-07,0.6507788300514221,0.6189479231834412,-0.007490572519600391,0.6205278635025024,0.6758205890655518,-0.015864335000514984,0.5923341512680054,0.7255253195762634,-0.022927697747945786,0.5634428262710571,0.7428014278411865,-0.03049878217279911,0.6422500610351562,0.7380181550979614,-0.030949054285883904,0.6324571967124939,0.8443939685821533,-0.041301365941762924,0.6270662546157837,0.9019514322280884,-0.045594628900289536,0.6241427063941956,0.947393000125885,-0.04743656516075134,0.6719468832015991,0.7475947141647339,-0.030846809968352318,0.6675193905830383,0.8594574928283691,-0.0394006073474884,0.665014386177063,0.9218730330467224,-0.04027281701564789,0.6660071015357971,0.9678457379341125,-0.040599238127470016,0.6979451775550842,0.7450800538063049,-0.02908150665462017,0.6901645064353943,0.8227410316467285,-0.03584597632288933,0.6816133260726929,0.8008902668952942,-0.029262663796544075,0.6794541478157043,0.7709411978721619,-0.02260010316967964,0.7187322378158569,0.7361984848976135,-0.02782570756971836,0.7058358788490295,0.7878272533416748,-0.030541278421878815,0.7001190781593323,0.7664675712585449,-0.022807065397500992,0.699399471282959,0.7391119003295898,-0.015234305523335934,0.0,0.0,0.0,0.0,0.0,0.0,0.0,0.0,0.0,0.0,0.0,0.0,0.0,0.0,0.0,0.0,0.0,0.0,0.0,0.0,0.0,0.0,0.0,0.0,0.0,0.0,0.0,0.0,0.0,0.0,0.0,0.0,0.0,0.0,0.0,0.0,0.0,0.0,0.0,0.0,0.0,0.0,0.0,0.0,0.0,0.0,0.0,0.0,0.0,0.0,0.0,0.0,0.0,0.0,0.0,0.0,0.0,0.0,0.0,0.0,0.0,0.0,0.0
1783390730.169493,0.6942359209060669,0.5867653489112854,3.6665178981820645e-07,0.6535434722900391,0.6186233162879944,-0.008226165547966957,0.6241934299468994,0.6781840920448303,-0.016959253698587418,0.5971958041191101,0.7314450740814209,-0.023787522688508034,0.5683853030204773,0.7498049139976501,-0.03066769614815712,0.6498934626579285,0.737193763256073,-0.03386868163943291,0.6439713835716248,0.8480154871940613,-0.043578989803791046,0.6408936381340027,0.9064532518386841,-0.04696647822856903,0.6401333808898926,0.951732337474823,-0.048378363251686096,0.6794241070747375,0.7452101111412048,-0.032444875687360764,0.6778337955474854,0.8604977130889893,-0.04055456444621086,0.6768128871917725,0.9250950217247009,-0.0411909781396389,0.6794993281364441,0.9708282351493835,-0.041435569524765015,0.7052600383758545,0.7405115962028503,-0.0289849154651165,0.6987892985343933,0.8208628296852112,-0.03320522606372833,0.6887350678443909,0.7976523041725159,-0.02520950511097908,0.6858533620834351,0.7661144137382507,-0.018040701746940613,0.725023627281189,0.7299038767814636,-0.026255710050463676,0.7136937975883484,0.7762999534606934,-0.027238445356488228,0.7066227197647095,0.7542535662651062,-0.019770195707678795,0.7052624821662903,0.72743821144104,-0.0125697897747159,0.0,0.0,0.0,0.0,0.0,0.0,0.0,0.0,0.0,0.0,0.0,0.0,0.0,0.0,0.0,0.0,0.0,0.0,0.0,0.0,0.0,0.0,0.0,0.0,0.0,0.0,0.0,0.0,0.0,0.0,0.0,0.0,0.0,0.0,0.0,0.0,0.0,0.0,0.0,0.0,0.0,0.0,0.0,0.0,0.0,0.0,0.0,0.0,0.0,0.0,0.0,0.0,0.0,0.0,0.0,0.0,0.0,0.0,0.0,0.0,0.0,0.0,0.0
1783390730.393049,0.6961759924888611,0.5849056839942932,3.764584448617825e-07,0.6554390788078308,0.6183660626411438,-0.005729226395487785,0.6274100542068481,0.6783000826835632,-0.013303217478096485,0.6025320291519165,0.730817973613739,-0.01904953084886074,0.5749492049217224,0.748238742351532,-0.024600783362984657,0.6522814035415649,0.7374565005302429,-0.03479551523923874,0.6486572623252869,0.8499634861946106,-0.04410548508167267,0.6463803648948669,0.9089635610580444,-0.04598512127995491,0.645395815372467,0.9539034962654114,-0.0458969846367836,0.6827684044837952,0.7433992028236389,-0.033848755061626434,0.6838517785072327,0.8602040410041809,-0.042822252959012985,0.6836687922477722,0.9259788393974304,-0.04223133623600006,0.6863205432891846,0.9723160266876221,-0.04099847748875618,0.7089229822158813,0.7394005060195923,-0.030276812613010406,0.7015888690948486,0.8193510174751282,-0.03324339911341667,0.6924582123756409,0.7977301478385925,-0.022714553400874138,0.690960705280304,0.7675422430038452,-0.013540731742978096,0.7287079691886902,0.7297585606575012,-0.027301831170916557,0.7175166010856628,0.7779852151870728,-0.024646958336234093,0.7108879685401917,0.7590929865837097,-0.014227505773305893,0.7105205655097961,0.7336004972457886,-0.0050522563979029655,0.0,0.0,0.0,0.0,0.0,0.0,0.0,0.0,0.0,0.0,0.0,0.0,0.0,0.0,0.0,0.0,0.0,0.0,0.0,0.0,0.0,0.0,0.0,0.0,0.0,0.0,0.0,0.0,0.0,0.0,0.0,0.0,0.0,0.0,0.0,0.0,0.0,0.0,0.0,0.0,0.0,0.0,0.0,0.0,0.0,0.0,0.0,0.0,0.0,0.0,0.0,0.0,0.0,0.0,0.0,0.0,0.0,0.0,0.0,0.0,0.0,0.0,0.0
1783390730.566562,0.6969601511955261,0.5553673505783081,3.3274608313149656e-07,0.6563329100608826,0.5918666124343872,-0.005974761210381985,0.6296079158782959,0.6541889905929565,-0.014331899583339691,0.6042181849479675,0.7068395018577576,-0.021405838429927826,0.5776985287666321,0.7282411456108093,-0.028817422688007355,0.654148519039154,0.7082006931304932,-0.03481210395693779,0.6502642035484314,0.8209850788116455,-0.045407459139823914,0.649285614490509,0.881362795829773,-0.048082347959280014,0.6495314836502075,0.9280014038085938,-0.04864272102713585,0.6857889294624329,0.7134749889373779,-0.03591804578900337,0.6867331266403198,0.832194447517395,-0.046558428555727005,0.6882352828979492,0.8984332084655762,-0.04716648533940315,0.6922139525413513,0.9455409049987793,-0.046727415174245834,0.7128692269325256,0.7083619236946106,-0.03460726514458656,0.7070233821868896,0.7952224016189575,-0.041446149349212646,0.696803867816925,0.7781447172164917,-0.03346196934580803,0.6937794089317322,0.7488511800765991,-0.025728626176714897,0.733879804611206,0.6960847973823547,-0.03368423879146576,0.7230361104011536,0.7508826851844788,-0.03509099408984184,0.7146180272102356,0.7349956631660461,-0.02618160843849182,0.7119826078414917,0.7101590037345886,-0.01781219244003296,0.0,0.0,0.0,0.0,0.0,0.0,0.0,0.0,0.0,0.0,0.0,0.0,0.0,0.0,0.0,0.0,0.0,0.0,0.0,0.0,0.0,0.0,0.0,0.0,0.0,0.0,0.0,0.0,0.0,0.0,0.0,0.0,0.0,0.0,0.0,0.0,0.0,0.0,0.0,0.0,0.0,0.0,0.0,0.0,0.0,0.0,0.0,0.0,0.0,0.0,0.0,0.0,0.0,0.0,0.0,0.0,0.0,0.0,0.0,0.0,0.0,0.0,0.0
1783390730.768932,0.6961276531219482,0.5269186496734619,3.315947481041803e-07,0.6565219759941101,0.5660679340362549,-0.0035221432335674763,0.6299477219581604,0.6267896294593811,-0.011857117526233196,0.6045351624488831,0.6794946193695068,-0.019132276996970177,0.5777387022972107,0.6989078521728516,-0.026718294247984886,0.6545507311820984,0.6788330078125,-0.03516904264688492,0.651178240776062,0.7921562194824219,-0.04541477560997009,0.6508967876434326,0.8511989116668701,-0.04739690572023392,0.6515645980834961,0.8969058990478516,-0.047473762184381485,0.6860246658325195,0.68315190076828,-0.037242792546749115,0.6864521503448486,0.8026816844940186,-0.04808323085308075,0.6873007416725159,0.8682512044906616,-0.04791761562228203,0.6905609965324402,0.9138227701187134,-0.04693523421883583,0.7131877541542053,0.678256094455719,-0.036532361060380936,0.7069545388221741,0.7670804262161255,-0.04239773377776146,0.6952912211418152,0.7528189420700073,-0.03329791873693466,0.6911748051643372,0.7246943712234497,-0.02508527971804142,0.7338300943374634,0.6669867038726807,-0.03600682318210602,0.7231115102767944,0.72608482837677,-0.03579610213637352,0.713499128818512,0.7139556407928467,-0.02601091004908085,0.7095779776573181,0.6913949847221375,-0.017370618879795074,0.0,0.0,0.0,0.0,0.0,0.0,0.0,0.0,0.0,0.0,0.0,0.0,0.0,0.0,0.0,0.0,0.0,0.0,0.0,0.0,0.0,0.0,0.0,0.0,0.0,0.0,0.0,0.0,0.0,0.0,0.0,0.0,0.0,0.0,0.0,0.0,0.0,0.0,0.0,0.0,0.0,0.0,0.0,0.0,0.0,0.0,0.0,0.0,0.0,0.0,0.0,0.0,0.0,0.0,0.0,0.0,0.0,0.0,0.0,0.0,0.0,0.0,0.0
1783390730.905715,0.6966567039489746,0.48795852065086365,3.03154990888288e-07,0.6564871668815613,0.5273053646087646,-0.004401299171149731,0.6312896013259888,0.5874577760696411,-0.013173934072256088,0.6059150695800781,0.6367310881614685,-0.020467614755034447,0.5799587965011597,0.6561781167984009,-0.028377145528793335,0.6555416584014893,0.6341286301612854,-0.038738589733839035,0.6538225412368774,0.7480010390281677,-0.04925759136676788,0.6533144116401672,0.8054026961326599,-0.05083869770169258,0.6539514064788818,0.851017415523529,-0.050361234694719315,0.6861352920532227,0.637306272983551,-0.04065283015370369,0.6873437762260437,0.7601232528686523,-0.051308974623680115,0.6883876919746399,0.8250378370285034,-0.04993161931633949,0.6914682984352112,0.8698837757110596,-0.04812104254961014,0.7126705050468445,0.6326568722724915,-0.039827100932598114,0.708157479763031,0.7216946482658386,-0.04680351912975311,0.6977687478065491,0.7087884545326233,-0.038017671555280685,0.6936466097831726,0.6812583804130554,-0.02977939136326313,0.7336963415145874,0.6239338517189026,-0.039076067507267,0.7244648933410645,0.6891909241676331,-0.04001830518245697,0.7158482670783997,0.6764537692070007,-0.030203577131032944,0.7124214768409729,0.6531425714492798,-0.021597258746623993,0.0,0.0,0.0,0.0,0.0,0.0,0.0,0.0,0.0,0.0,0.0,0.0,0.0,0.0,0.0,0.0,0.0,0.0,0.0,0.0,0.0,0.0,0.0,0.0,0.0,0.0,0.0,0.0,0.0,0.0,0.0,0.0,0.0,0.0,0.0,0.0,0.0,0.0,0.0,0.0,0.0,0.0,0.0,0.0,0.0,0.0,0.0,0.0,0.0,0.0,0.0,0.0,0.0,0.0,0.0,0.0,0.0,0.0,0.0,0.0,0.0,0.0,0.0
1783390731.036279,0.6982691287994385,0.4553672969341278,3.062920086449594e-07,0.6594882011413574,0.4943042993545532,-0.004242244642227888,0.6324726939201355,0.5533577799797058,-0.013148006983101368,0.6065630912780762,0.6010485887527466,-0.020650673657655716,0.5808651447296143,0.6178746223449707,-0.028803251683712006,0.6570746302604675,0.5953826308250427,-0.039032310247421265,0.6558298468589783,0.7074772119522095,-0.050324421375989914,0.6550145149230957,0.7645998597145081,-0.052164334803819656,0.65484619140625,0.8099163770675659,-0.051623836159706116,0.6872278451919556,0.598821222782135,-0.04127110540866852,0.6893837451934814,0.7221850752830505,-0.052589476108551025,0.6898825168609619,0.7869303822517395,-0.050825007259845734,0.6922932267189026,0.8324711918830872,-0.048407118767499924,0.7132630944252014,0.5952342748641968,-0.04079097509384155,0.7093396186828613,0.6857735514640808,-0.04884406924247742,0.69993656873703,0.6704027652740479,-0.03940059617161751,0.6967087984085083,0.6422763466835022,-0.030124938115477562,0.7337091565132141,0.5870644450187683,-0.040342867374420166,0.7247060537338257,0.6536640524864197,-0.04172342270612717,0.7169774174690247,0.6391187310218811,-0.031094400212168694,0.7143815755844116,0.6146846413612366,-0.02158406190574169,0.0,0.0,0.0,0.0,0.0,0.0,0.0,0.0,0.0,0.0,0.0,0.0,0.0,0.0,0.0,0.0,0.0,0.0,0.0,0.0,0.0,0.0,0.0,0.0,0.0,0.0,0.0,0.0,0.0,0.0,0.0,0.0,0.0,0.0,0.0,0.0,0.0,0.0,0.0,0.0,0.0,0.0,0.0,0.0,0.0,0.0,0.0,0.0,0.0,0.0,0.0,0.0,0.0,0.0,0.0,0.0,0.0,0.0,0.0,0.0,0.0,0.0,0.0
1783390731.176399,0.6984934210777283,0.42585882544517517,3.266835619797348e-07,0.6607344150543213,0.4638933539390564,-0.007107792422175407,0.6337096691131592,0.5254002809524536,-0.016784289851784706,0.6072977185249329,0.5727577805519104,-0.024709580466151237,0.5810685157775879,0.5868164896965027,-0.03322300687432289,0.6590559482574463,0.5635374784469604,-0.04014189541339874,0.6565518379211426,0.6750368475914001,-0.0518665574491024,0.6552841663360596,0.7324345111846924,-0.05436597764492035,0.6553534269332886,0.7774600386619568,-0.05440670996904373,0.6894890666007996,0.566667377948761,-0.041394565254449844,0.6902514100074768,0.689361572265625,-0.053018637001514435,0.6908574104309082,0.7552209496498108,-0.05267127603292465,0.6943415999412537,0.803244411945343,-0.05131571739912033,0.7150912284851074,0.5636997818946838,-0.040183380246162415,0.7102385759353638,0.659277081489563,-0.04940676689147949,0.6996605396270752,0.6429270505905151,-0.04178760200738907,0.6963960528373718,0.6140466928482056,-0.03360302001237869,0.7342155575752258,0.5560314655303955,-0.03922439366579056,0.7242802977561951,0.622088611125946,-0.042651381343603134,0.7157967686653137,0.607032835483551,-0.03390084207057953,0.7130601406097412,0.5817647576332092,-0.025448746979236603,0.0,0.0,0.0,0.0,0.0,0.0,0.0,0.0,0.0,0.0,0.0,0.0,0.0,0.0,0.0,0.0,0.0,0.0,0.0,0.0,0.0,0.0,0.0,0.0,0.0,0.0,0.0,0.0,0.0,0.0,0.0,0.0,0.0,0.0,0.0,0.0,0.0,0.0,0.0,0.0,0.0,0.0,0.0,0.0,0.0,0.0,0.0,0.0,0.0,0.0,0.0,0.0,0.0,0.0,0.0,0.0,0.0,0.0,0.0,0.0,0.0,0.0,0.0
1783390731.394887,0.695432722568512,0.4100089371204376,3.612751413584192e-07,0.6581435203552246,0.44681617617607117,-0.006275576073676348,0.6311361789703369,0.506291925907135,-0.015748418867588043,0.6053400635719299,0.555016040802002,-0.023377884179353714,0.579590380191803,0.5722693800926208,-0.031261444091796875,0.6545860767364502,0.5431475043296814,-0.03978818655014038,0.6517370343208313,0.6543056964874268,-0.051073554903268814,0.650485634803772,0.7116506099700928,-0.05318516865372658,0.6500738859176636,0.756582498550415,-0.05299047380685806,0.6847177743911743,0.5478003621101379,-0.0406339205801487,0.6869990229606628,0.6690537333488464,-0.052327096462249756,0.6869542598724365,0.7341290712356567,-0.05186336115002632,0.6891943216323853,0.7806785702705383,-0.05037708207964897,0.7104266285896301,0.5456388592720032,-0.03878770023584366,0.7057751417160034,0.6399070024490356,-0.04673078656196594,0.6958423852920532,0.6235973238945007,-0.037905897945165634,0.693325936794281,0.5947480797767639,-0.0291177649050951,0.7294670343399048,0.5388110876083374,-0.03719697520136833,0.7198637127876282,0.5997363328933716,-0.03890172019600868,0.7116616368293762,0.5851412415504456,-0.029444459825754166,0.7091470956802368,0.5614046454429626,-0.020654499530792236,0.0,0.0,0.0,0.0,0.0,0.0,0.0,0.0,0.0,0.0,0.0,0.0,0.0,0.0,0.0,0.0,0.0,0.0,0.0,0.0,0.0,0.0,0.0,0.0,0.0,0.0,0.0,0.0,0.0,0.0,0.0,0.0,0.0,0.0,0.0,0.0,0.0,0.0,0.0,0.0,0.0,0.0,0.0,0.0,0.0,0.0,0.0,0.0,0.0,0.0,0.0,0.0,0.0,0.0,0.0,0.0,0.0,0.0,0.0,0.0,0.0,0.0,0.0
1783390731.585311,0.693476676940918,0.40475550293922424,3.656488729575358e-07,0.6556594371795654,0.4394134283065796,-0.008743966929614544,0.6273207068443298,0.49947628378868103,-0.01910175010561943,0.6005836725234985,0.5467859506607056,-0.02748287096619606,0.5739145874977112,0.5609635710716248,-0.03626391291618347,0.6517687439918518,0.5346959829330444,-0.04012469947338104,0.6482416987419128,0.6443861126899719,-0.05129760131239891,0.6466383934020996,0.7008902430534363,-0.05375856161117554,0.6460851430892944,0.7451891303062439,-0.053982801735401154,0.6809693574905396,0.5390804409980774,-0.0404307059943676,0.6831990480422974,0.65986567735672,-0.05110840126872063,0.6835081577301025,0.7246556282043457,-0.05087680742144585,0.6861764192581177,0.7716478109359741,-0.04999677836894989,0.7059674859046936,0.5361169576644897,-0.038520969450473785,0.7004809975624084,0.6302456259727478,-0.04749471694231033,0.6903995275497437,0.611739993095398,-0.0400712713599205,0.6879010200500488,0.5822442173957825,-0.03211699053645134,0.72492516040802,0.5298346877098083,-0.03696109354496002,0.7139437794685364,0.5974285006523132,-0.04060334712266922,0.704431414604187,0.5821248292922974,-0.03206619247794151,0.7016928791999817,0.5573339462280273,-0.02386907860636711,0.0,0.0,0.0,0.0,0.0,0.0,0.0,0.0,0.0,0.0,0.0,0.0,0.0,0.0,0.0,0.0,0.0,0.0,0.0,0.0,0.0,0.0,0.0,0.0,0.0,0.0,0.0,0.0,0.0,0.0,0.0,0.0,0.0,0.0,0.0,0.0,0.0,0.0,0.0,0.0,0.0,0.0,0.0,0.0,0.0,0.0,0.0,0.0,0.0,0.0,0.0,0.0,0.0,0.0,0.0,0.0,0.0,0.0,0.0,0.0,0.0,0.0,0.0
1783390731.7788641,0.6937851309776306,0.41127142310142517,3.909144368208217e-07,0.6564889550209045,0.4444429874420166,-0.0074781510047614574,0.6281073093414307,0.5031382441520691,-0.017612898722290993,0.6020381450653076,0.5507276654243469,-0.025379443541169167,0.5737488269805908,0.5628651976585388,-0.03352619335055351,0.6522026062011719,0.5384531021118164,-0.041830841451883316,0.6459468007087708,0.6486983299255371,-0.052409637719392776,0.6435671448707581,0.7055000066757202,-0.05387735739350319,0.6426801085472107,0.7501513957977295,-0.053328875452280045,0.681189239025116,0.5445643067359924,-0.041480086743831635,0.6814570426940918,0.6666237711906433,-0.05111876502633095,0.6817700266838074,0.7325242757797241,-0.04901966080069542,0.6856239438056946,0.7808175683021545,-0.04683082178235054,0.7062010765075684,0.5443468689918518,-0.038444049656391144,0.7002954483032227,0.6374487280845642,-0.04464295133948326,0.6896214485168457,0.6166765689849854,-0.034638162702322006,0.687168300151825,0.5865098834037781,-0.025430575013160706,0.7259254455566406,0.5395103693008423,-0.03573688492178917,0.7148054242134094,0.601625382900238,-0.03673911467194557,0.7073899507522583,0.5830422043800354,-0.026626871898770332,0.7063816785812378,0.5575774908065796,-0.017509333789348602,0.0,0.0,0.0,0.0,0.0,0.0,0.0,0.0,0.0,0.0,0.0,0.0,0.0,0.0,0.0,0.0,0.0,0.0,0.0,0.0,0.0,0.0,0.0,0.0,0.0,0.0,0.0,0.0,0.0,0.0,0.0,0.0,0.0,0.0,0.0,0.0,0.0,0.0,0.0,0.0,0.0,0.0,0.0,0.0,0.0,0.0,0.0,0.0,0.0,0.0,0.0,0.0,0.0,0.0,0.0,0.0,0.0,0.0,0.0,0.0,0.0,0.0,0.0
1783390731.939502,0.6965373158454895,0.4288085401058197,4.151257826379151e-07,0.6584482789039612,0.4625941514968872,-0.007593636400997639,0.6303408145904541,0.5200225114822388,-0.018771326169371605,0.6042032837867737,0.5655542612075806,-0.0275722723454237,0.5777814984321594,0.578406572341919,-0.036876291036605835,0.6559647917747498,0.5572202205657959,-0.044473934918642044,0.6501390337944031,0.6669585108757019,-0.056705206632614136,0.6474282145500183,0.7225791215896606,-0.05945419520139694,0.6468376517295837,0.7675355076789856,-0.0596918947994709,0.6867675185203552,0.5608251094818115,-0.044864222407341,0.6852824091911316,0.6836391091346741,-0.0559375174343586,0.6848429441452026,0.7485815286636353,-0.05459628999233246,0.6880042552947998,0.7976936101913452,-0.05308493226766586,0.7125966548919678,0.5601638555526733,-0.042518455535173416,0.7045516967773438,0.6579797863960266,-0.0504763163626194,0.6923452019691467,0.6427451372146606,-0.04129168018698692,0.6886575818061829,0.6150683760643005,-0.03265955299139023,0.7321143746376038,0.5556347966194153,-0.040428392589092255,0.7178722023963928,0.6226217150688171,-0.04319274052977562,0.7078521251678467,0.6093374490737915,-0.0337412990629673,0.7049200534820557,0.5861244201660156,-0.02499629184603691,0.0,0.0,0.0,0.0,0.0,0.0,0.0,0.0,0.0,0.0,0.0,0.0,0.0,0.0,0.0,0.0,0.0,0.0,0.0,0.0,0.0,0.0,0.0,0.0,0.0,0.0,0.0,0.0,0.0,0.0,0.0,0.0,0.0,0.0,0.0,0.0,0.0,0.0,0.0,0.0,0.0,0.0,0.0,0.0,0.0,0.0,0.0,0.0,0.0,0.0,0.0,0.0,0.0,0.0,0.0,0.0,0.0,0.0,0.0,0.0,0.0,0.0,0.0
1783390732.10909,0.7015013694763184,0.43502551317214966,4.198311103209562e-07,0.6626020669937134,0.46576792001724243,-0.008988356217741966,0.6335899233818054,0.5240655541419983,-0.019052136689424515,0.6061261296272278,0.5695621967315674,-0.02632722817361355,0.579285204410553,0.5806593298912048,-0.03384054824709892,0.6583603024482727,0.5600791573524475,-0.0435333177447319,0.6512854695320129,0.6740871667861938,-0.053679950535297394,0.6492650508880615,0.7321587800979614,-0.05417495220899582,0.6490852236747742,0.7772386074066162,-0.05264311283826828,0.6886758804321289,0.5663294792175293,-0.04235996678471565,0.6874731779098511,0.6928025484085083,-0.05196227878332138,0.6869783401489258,0.759526252746582,-0.049462541937828064,0.6902095079421997,0.808050274848938,-0.046585213392972946,0.7141960859298706,0.566166877746582,-0.03853680193424225,0.7056297659873962,0.6615017652511597,-0.04589443281292915,0.6949894428253174,0.6386936902999878,-0.036817289888858795,0.6928348541259766,0.6070765256881714,-0.027622535824775696,0.7332554459571838,0.5618007183074951,-0.03499400243163109,0.718940794467926,0.6255754828453064,-0.03729536756873131,0.7114073634147644,0.6050198674201965,-0.027873173356056213,0.7107000350952148,0.5779337286949158,-0.01887577772140503,0.0,0.0,0.0,0.0,0.0,0.0,0.0,0.0,0.0,0.0,0.0,0.0,0.0,0.0,0.0,0.0,0.0,0.0,0.0,0.0,0.0,0.0,0.0,0.0,0.0,0.0,0.0,0.0,0.0,0.0,0.0,0.0,0.0,0.0,0.0,0.0,0.0,0.0,0.0,0.0,0.0,0.0,0.0,0.0,0.0,0.0,0.0,0.0,0.0,0.0,0.0,0.0,0.0,0.0,0.0,0.0,0.0,0.0,0.0,0.0,0.0,0.0,0.0
1783390732.2798588,0.7020670175552368,0.4346064627170563,3.8974906146904686e-07,0.6627068519592285,0.4658471941947937,-0.009820675477385521,0.6330620646476746,0.5232914090156555,-0.02055143006145954,0.6044057607650757,0.5671926140785217,-0.02857043594121933,0.5771976709365845,0.5776253342628479,-0.036910004913806915,0.6583855748176575,0.5609880685806274,-0.04357847943902016,0.6512618660926819,0.6717067360877991,-0.05440765246748924,0.6487956643104553,0.7290069460868835,-0.05601618066430092,0.648065984249115,0.7741951942443848,-0.05552797392010689,0.688568115234375,0.5676014423370361,-0.04294191673398018,0.6870124936103821,0.6924076080322266,-0.05295198783278465,0.6861292719841003,0.7584001421928406,-0.051466964185237885,0.6885579824447632,0.8061261773109436,-0.04962914064526558,0.7140095829963684,0.5668098330497742,-0.03987041115760803,0.7043748497962952,0.6608647704124451,-0.048178184777498245,0.6938959360122681,0.6397796273231506,-0.03993735834956169,0.6918646693229675,0.6090350151062012,-0.03145288676023483,0.7327719330787659,0.562018632888794,-0.0371827632188797,0.7182360887527466,0.6275219321250916,-0.040606286376714706,0.7096338272094727,0.6092883944511414,-0.03169829025864601,0.7086179256439209,0.5836548209190369,-0.02318691462278366,0.0,0.0,0.0,0.0,0.0,0.0,0.0,0.0,0.0,0.0,0.0,0.0,0.0,0.0,0.0,0.0,0.0,0.0,0.0,0.0,0.0,0.0,0.0,0.0,0.0,0.0,0.0,0.0,0.0,0.0,0.0,0.0,0.0,0.0,0.0,0.0,0.0,0.0,0.0,0.0,0.0,0.0,0.0,0.0,0.0,0.0,0.0,0.0,0.0,0.0,0.0,0.0,0.0,0.0,0.0,0.0,0.0,0.0,0.0,0.0,0.0,0.0,0.0
1783390732.4404821,0.7013665437698364,0.44014015793800354,4.0086402464112325e-07,0.6629748940467834,0.4729570150375366,-0.007127550430595875,0.6333436369895935,0.5310977697372437,-0.017022360116243362,0.606001615524292,0.5768983960151672,-0.02447608672082424,0.5780453085899353,0.5874402523040771,-0.03223928436636925,0.6578137278556824,0.5690920352935791,-0.04231030121445656,0.6505835056304932,0.6811031103134155,-0.052783481776714325,0.6475871801376343,0.7384614944458008,-0.054059986025094986,0.6462662816047668,0.7839783430099487,-0.05337553471326828,0.6879523396492004,0.5762805342674255,-0.042228274047374725,0.6864908337593079,0.7008768916130066,-0.051776327192783356,0.6856796741485596,0.7673624157905579,-0.04941727593541145,0.6886317729949951,0.8160699605941772,-0.04706130921840668,0.7138310074806213,0.5767656564712524,-0.039385851472616196,0.7053483128547668,0.6718281507492065,-0.04578426852822304,0.6944229006767273,0.6496101021766663,-0.03561505302786827,0.6922308802604675,0.6182297468185425,-0.026228854432702065,0.7338977456092834,0.5720793008804321,-0.036818064749240875,0.7202938795089722,0.6355094313621521,-0.038128554821014404,0.7126970291137695,0.6162722706794739,-0.027941960841417313,0.7120500206947327,0.5902524590492249,-0.01869979128241539,0.0,0.0,0.0,0.0,0.0,0.0,0.0,0.0,0.0,0.0,0.0,0.0,0.0,0.0,0.0,0.0,0.0,0.0,0.0,0.0,0.0,0.0,0.0,0.0,0.0,0.0,0.0,0.0,0.0,0.0,0.0,0.0,0.0,0.0,0.0,0.0,0.0,0.0,0.0,0.0,0.0,0.0,0.0,0.0,0.0,0.0,0.0,0.0,0.0,0.0,0.0,0.0,0.0,0.0,0.0,0.0,0.0,0.0,0.0,0.0,0.0,0.0,0.0
1783390732.595812,0.7009173631668091,0.46268603205680847,4.636504797872476e-07,0.6633656024932861,0.49825382232666016,-0.010886806063354015,0.6361167430877686,0.5571582317352295,-0.023310985416173935,0.6100484132766724,0.6028915643692017,-0.03299747034907341,0.5840583443641663,0.6187459230422974,-0.042793553322553635,0.6633167862892151,0.598553478717804,-0.045750509947538376,0.657636821269989,0.7105714678764343,-0.05898866802453995,0.6555620431900024,0.7687956690788269,-0.06267775595188141,0.655718982219696,0.8156092166900635,-0.06327560544013977,0.6953606605529785,0.6020400524139404,-0.04522860050201416,0.693207323551178,0.7275058031082153,-0.05725724622607231,0.6926097869873047,0.7957897782325745,-0.05654900521039963,0.6954159140586853,0.8462554216384888,-0.055031485855579376,0.7217369675636292,0.6004307866096497,-0.04243721812963486,0.7120800018310547,0.6958253979682922,-0.05219026282429695,0.7010678052902222,0.6785866618156433,-0.043713245540857315,0.6981841325759888,0.6504145264625549,-0.03476182371377945,0.7411037683486938,0.5956819653511047,-0.04017467051744461,0.7248235940933228,0.665642261505127,-0.044182565063238144,0.715899646282196,0.6490002274513245,-0.034539200365543365,0.71415114402771,0.6232664585113525,-0.025140812620520592,0.0,0.0,0.0,0.0,0.0,0.0,0.0,0.0,0.0,0.0,0.0,0.0,0.0,0.0,0.0,0.0,0.0,0.0,0.0,0.0,0.0,0.0,0.0,0.0,0.0,0.0,0.0,0.0,0.0,0.0,0.0,0.0,0.0,0.0,0.0,0.0,0.0,0.0,0.0,0.0,0.0,0.0,0.0,0.0,0.0,0.0,0.0,0.0,0.0,0.0,0.0,0.0,0.0,0.0,0.0,0.0,0.0,0.0,0.0,0.0,0.0,0.0,0.0
1783390732.750411,0.7036025524139404,0.5042535662651062,5.728479095523653e-07,0.6634529829025269,0.5452518463134766,-0.010710988193750381,0.6363661885261536,0.6069723963737488,-0.02343929000198841,0.6102561950683594,0.6592875719070435,-0.03300074487924576,0.5828962922096252,0.6774661540985107,-0.042423222213983536,0.6679710149765015,0.6519325971603394,-0.04670203849673271,0.6638280153274536,0.769574761390686,-0.05936034768819809,0.6633235216140747,0.8318455815315247,-0.062311362475156784,0.6633261442184448,0.8809326887130737,-0.06211471930146217,0.7009124755859375,0.6565492749214172,-0.04476508870720863,0.6996318101882935,0.7825716137886047,-0.05621490254998207,0.6976915597915649,0.8523203134536743,-0.05552631616592407,0.6976675391197205,0.902013897895813,-0.0535554438829422,0.7271424531936646,0.6547908186912537,-0.0398261696100235,0.7143983244895935,0.7472794055938721,-0.047050535678863525,0.7017853260040283,0.7349658608436584,-0.03819294646382332,0.6978436708450317,0.707061231136322,-0.029259106144309044,0.7456304430961609,0.6474083065986633,-0.03539673984050751,0.7268827557563782,0.7095940113067627,-0.036406345665454865,0.716827392578125,0.696246325969696,-0.02589188702404499,0.7139309644699097,0.6722792983055115,-0.015765618532896042,0.0,0.0,0.0,0.0,0.0,0.0,0.0,0.0,0.0,0.0,0.0,0.0,0.0,0.0,0.0,0.0,0.0,0.0,0.0,0.0,0.0,0.0,0.0,0.0,0.0,0.0,0.0,0.0,0.0,0.0,0.0,0.0,0.0,0.0,0.0,0.0,0.0,0.0,0.0,0.0,0.0,0.0,0.0,0.0,0.0,0.0,0.0,0.0,0.0,0.0,0.0,0.0,0.0,0.0,0.0,0.0,0.0,0.0,0.0,0.0,0.0,0.0,0.0
1783390732.910866,0.7046282887458801,0.5649780631065369,5.924473498453153e-07,0.6622675061225891,0.625724732875824,-0.008094968274235725,0.6358234286308289,0.6988568305969238,-0.017388885840773582,0.6127969622612,0.762031614780426,-0.02306162379682064,0.5832818746566772,0.7896944284439087,-0.028337448835372925,0.6731196641921997,0.7500174045562744,-0.03354949876666069,0.6716530919075012,0.8570635318756104,-0.037654463201761246,0.6721951365470886,0.9139858484268188,-0.03787430375814438,0.6719768047332764,0.9597777724266052,-0.037000056356191635,0.708302915096283,0.7529661059379578,-0.02927139215171337,0.7075031995773315,0.8625347018241882,-0.02998121827840805,0.7053119540214539,0.9254739284515381,-0.02649477869272232,0.7028337121009827,0.969333827495575,-0.023956038057804108,0.7369351983070374,0.7488295435905457,-0.022217173129320145,0.7243886590003967,0.8360472321510315,-0.01864689402282238,0.7125626802444458,0.8483917117118835,-0.010250034742057323,0.7064893841743469,0.8414114117622375,-0.004599689040333033,0.756521463394165,0.7397106885910034,-0.015671171247959137,0.7387654185295105,0.797799825668335,-0.010424917563796043,0.7269803285598755,0.8019517660140991,-0.0007883885991759598,0.7201986312866211,0.7960532903671265,0.007496174890547991,0.0,0.0,0.0,0.0,0.0,0.0,0.0,0.0,0.0,0.0,0.0,0.0,0.0,0.0,0.0,0.0,0.0,0.0,0.0,0.0,0.0,0.0,0.0,0.0,0.0,0.0,0.0,0.0,0.0,0.0,0.0,0.0,0.0,0.0,0.0,0.0,0.0,0.0,0.0,0.0,0.0,0.0,0.0,0.0,0.0,0.0,0.0,0.0,0.0,0.0,0.0,0.0,0.0,0.0,0.0,0.0,0.0,0.0,0.0,0.0,0.0,0.0,0.0
1783390733.095692,0.7070385813713074,0.624367356300354,6.440461106649309e-07,0.6610611081123352,0.6855546236038208,-0.007581917569041252,0.6352229714393616,0.761437714099884,-0.016334235668182373,0.6109811067581177,0.8333637118339539,-0.021681560203433037,0.5788522958755493,0.8671451210975647,-0.026790635660290718,0.6747508645057678,0.8300661444664001,-0.03256252780556679,0.6739665269851685,0.9448038339614868,-0.035404421389102936,0.6737053394317627,1.0029170513153076,-0.03397635743021965,0.6730908155441284,1.0488264560699463,-0.03183410316705704,0.7133919596672058,0.8345887064933777,-0.02811441943049431,0.7143828868865967,0.9516503214836121,-0.027824461460113525,0.7109245657920837,1.010594129562378,-0.02288874052464962,0.7079089283943176,1.0485726594924927,-0.018961695954203606,0.7455788850784302,0.8269554972648621,-0.020751269534230232,0.7323716282844543,0.9142579436302185,-0.01671978272497654,0.7185318470001221,0.9076430797576904,-0.007563003804534674,0.7123125791549683,0.8823701739311218,-0.0008512408239766955,0.7674344182014465,0.811555027961731,-0.013762508518993855,0.7494208216667175,0.8619423508644104,-0.007256226614117622,0.7366501688957214,0.8553910255432129,0.0027326014824211597,0.7302786111831665,0.8389556407928467,0.011576675809919834,0.0,0.0,0.0,0.0,0.0,0.0,0.0,0.0,0.0,0.0,0.0,0.0,0.0,0.0,0.0,0.0,0.0,0.0,0.0,0.0,0.0,0.0,0.0,0.0,0.0,0.0,0.0,0.0,0.0,0.0,0.0,0.0,0.0,0.0,0.0,0.0,0.0,0.0,0.0,0.0,0.0,0.0,0.0,0.0,0.0,0.0,0.0,0.0,0.0,0.0,0.0,0.0,0.0,0.0,0.0,0.0,0.0,0.0,0.0,0.0,0.0,0.0,0.0
1783390733.616296,0.7080994248390198,0.6224238276481628,5.626517349810456e-07,0.6607629656791687,0.6695549488067627,-0.016076870262622833,0.6346151828765869,0.744791567325592,-0.02887784317135811,0.6079785227775574,0.8148689270019531,-0.03697158023715019,0.574098527431488,0.848390519618988,-0.04467187821865082,0.6737111210823059,0.8152501583099365,-0.048952486366033554,0.6721693277359009,0.949585497379303,-0.05775616690516472,0.6708229780197144,1.0165319442749023,-0.05706679821014404,0.6709581613540649,1.06424880027771,-0.05420221760869026,0.7144033908843994,0.8169763088226318,-0.04290415346622467,0.7151402831077576,0.956082820892334,-0.0474705807864666,0.7121973633766174,1.021389126777649,-0.041514281183481216,0.7122446894645691,1.0586310625076294,-0.036235108971595764,0.7477670907974243,0.8073782324790955,-0.034723877906799316,0.7314984798431396,0.8994324803352356,-0.0356326587498188,0.717145562171936,0.8788067698478699,-0.025434251874685287,0.7129561305046082,0.8426101207733154,-0.01702142506837845,0.7719498872756958,0.7949429154396057,-0.027767062187194824,0.7502275109291077,0.8523752689361572,-0.02415383607149124,0.7394397854804993,0.8346331119537354,-0.014005535282194614,0.7375193238258362,0.8092170357704163,-0.005225225817412138,0.0,0.0,0.0,0.0,0.0,0.0,0.0,0.0,0.0,0.0,0.0,0.0,0.0,0.0,0.0,0.0,0.0,0.0,0.0,0.0,0.0,0.0,0.0,0.0,0.0,0.0,0.0,0.0,0.0,0.0,0.0,0.0,0.0,0.0,0.0,0.0,0.0,0.0,0.0,0.0,0.0,0.0,0.0,0.0,0.0,0.0,0.0,0.0,0.0,0.0,0.0,0.0,0.0,0.0,0.0,0.0,0.0,0.0,0.0,0.0,0.0,0.0,0.0
1783390734.6174421,0.7182969450950623,0.5285007357597351,4.110901556941826e-07,0.6711125373840332,0.5685962438583374,-0.02297099307179451,0.6465663313865662,0.6290283203125,-0.04568099603056908,0.6205122470855713,0.6790096759796143,-0.06097113713622093,0.5918295979499817,0.6918976902961731,-0.07621371746063232,0.6921213269233704,0.6780330538749695,-0.09115206450223923,0.6968479156494141,0.8133394122123718,-0.1176944300532341,0.6973636150360107,0.8787412643432617,-0.13079963624477386,0.7019699811935425,0.9320081472396851,-0.13873958587646484,0.7302518486976624,0.6687144637107849,-0.08419770002365112,0.7296237349510193,0.8258633613586426,-0.10601840168237686,0.7252374887466431,0.9014571309089661,-0.10709237307310104,0.7288950681686401,0.957862377166748,-0.10901600122451782,0.758216142654419,0.6579104065895081,-0.0734625980257988,0.7497093677520752,0.7918511629104614,-0.08601269870996475,0.7242227792739868,0.7807209491729736,-0.07535117864608765,0.7099700570106506,0.7485448718070984,-0.06717666983604431,0.7756879329681396,0.6479166150093079,-0.06390175968408585,0.7586265802383423,0.7485411167144775,-0.07214121520519257,0.73809415102005,0.7457263469696045,-0.06563594192266464,0.7246352434158325,0.7248837351799011,-0.06010957062244415,0.0,0.0,0.0,0.0,0.0,0.0,0.0,0.0,0.0,0.0,0.0,0.0,0.0,0.0,0.0,0.0,0.0,0.0,0.0,0.0,0.0,0.0,0.0,0.0,0.0,0.0,0.0,0.0,0.0,0.0,0.0,0.0,0.0,0.0,0.0,0.0,0.0,0.0,0.0,0.0,0.0,0.0,0.0,0.0,0.0,0.0,0.0,0.0,0.0,0.0,0.0,0.0,0.0,0.0,0.0,0.0,0.0,0.0,0.0,0.0,0.0,0.0,0.0
1783390734.8139598,0.7096052169799805,0.4474147856235504,5.747498903474479e-07,0.6666823029518127,0.48961755633354187,-0.02639370784163475,0.643927276134491,0.5543657541275024,-0.05068328231573105,0.6177046298980713,0.6131270527839661,-0.06660617142915726,0.5892978310585022,0.6369248628616333,-0.0823495164513588,0.690171480178833,0.5976310968399048,-0.09076803177595139,0.6962593197822571,0.737780749797821,-0.1142309308052063,0.696179211139679,0.8104826807975769,-0.12514330446720123,0.7004914283752441,0.8669713139533997,-0.13129790127277374,0.7279536128044128,0.5924540758132935,-0.08101893961429596,0.7334242463111877,0.7519886493682861,-0.09848497807979584,0.7291817665100098,0.83272784948349,-0.09940583258867264,0.7311722040176392,0.8914300203323364,-0.10135616362094879,0.755837082862854,0.5871643424034119,-0.06733927130699158,0.7551534175872803,0.7312918901443481,-0.07542651891708374,0.7316669225692749,0.7384281158447266,-0.06765467673540115,0.7166630029678345,0.7189786434173584,-0.06301473081111908,0.7726959586143494,0.5817410349845886,-0.05516713857650757,0.7561038136482239,0.6742887496948242,-0.06083882600069046,0.7353450059890747,0.681850790977478,-0.05663180723786354,0.7213961482048035,0.6732079386711121,-0.053176090121269226,0.0,0.0,0.0,0.0,0.0,0.0,0.0,0.0,0.0,0.0,0.0,0.0,0.0,0.0,0.0,0.0,0.0,0.0,0.0,0.0,0.0,0.0,0.0,0.0,0.0,0.0,0.0,0.0,0.0,0.0,0.0,0.0,0.0,0.0,0.0,0.0,0.0,0.0,0.0,0.0,0.0,0.0,0.0,0.0,0.0,0.0,0.0,0.0,0.0,0.0,0.0,0.0,0.0,0.0,0.0,0.0,0.0,0.0,0.0,0.0,0.0,0.0,0.0
1783390735.0171142,0.7111359238624573,0.4274996519088745,6.72367320930789e-07,0.6671321988105774,0.47323769330978394,-0.02703189104795456,0.6437057852745056,0.5438746213912964,-0.04919227585196495,0.6197574138641357,0.6041010618209839,-0.06319161504507065,0.5912621021270752,0.6239855885505676,-0.0765705332159996,0.6919698715209961,0.5811128616333008,-0.0838325023651123,0.6976198554039001,0.7202942967414856,-0.104690320789814,0.6996178030967712,0.7944303750991821,-0.1114167794585228,0.7044754028320312,0.8501259088516235,-0.11405816674232483,0.7305091023445129,0.5783820748329163,-0.07390445470809937,0.7349107265472412,0.7363295555114746,-0.09354104846715927,0.7315020561218262,0.8194159865379333,-0.09357066452503204,0.7337901592254639,0.8788985013961792,-0.09256675094366074,0.7587677836418152,0.5755804181098938,-0.06058259308338165,0.7548666596412659,0.7156633138656616,-0.0723668709397316,0.7314453125,0.7287654876708984,-0.06513027101755142,0.7174931168556213,0.7180882096290588,-0.05852966010570526,0.7761424779891968,0.572243332862854,-0.04880547523498535,0.7564145922660828,0.6630816459655762,-0.05580988898873329,0.7364773154258728,0.6735652685165405,-0.05156245455145836,0.7236230969429016,0.6694392561912537,-0.04693187400698662,0.0,0.0,0.0,0.0,0.0,0.0,0.0,0.0,0.0,0.0,0.0,0.0,0.0,0.0,0.0,0.0,0.0,0.0,0.0,0.0,0.0,0.0,0.0,0.0,0.0,0.0,0.0,0.0,0.0,0.0,0.0,0.0,0.0,0.0,0.0,0.0,0.0,0.0,0.0,0.0,0.0,0.0,0.0,0.0,0.0,0.0,0.0,0.0,0.0,0.0,0.0,0.0,0.0,0.0,0.0,0.0,0.0,0.0,0.0,0.0,0.0,0.0,0.0
1783390735.174818,0.7130581140518188,0.40626055002212524,6.518047825920803e-07,0.668048083782196,0.45240461826324463,-0.02706712856888771,0.6440702080726624,0.5226761698722839,-0.04962518438696861,0.6199343204498291,0.581980288028717,-0.06366061419248581,0.591055691242218,0.6005919575691223,-0.07704570144414902,0.690252423286438,0.5574894547462463,-0.0857938602566719,0.6972641348838806,0.694622278213501,-0.10693172365427017,0.6990528106689453,0.7697740793228149,-0.11347047984600067,0.702755868434906,0.8258792161941528,-0.11598281562328339,0.7292081117630005,0.5581216812133789,-0.07560231536626816,0.7338840961456299,0.7141960859298706,-0.09492645412683487,0.7300348281860352,0.7976739406585693,-0.09411725401878357,0.7307630777359009,0.8587722778320312,-0.0925474539399147,0.7571704387664795,0.5581927299499512,-0.062011945992708206,0.7537465691566467,0.6962542533874512,-0.07248028367757797,0.7332416772842407,0.7271421551704407,-0.06636949628591537,0.7203760743141174,0.7334498167037964,-0.06143825873732567,0.7739831805229187,0.5561966300010681,-0.05002714693546295,0.7527217864990234,0.6431460976600647,-0.05654041841626167,0.7332451939582825,0.661687970161438,-0.05366157367825508,0.7199240326881409,0.6663190722465515,-0.0504533089697361,0.0,0.0,0.0,0.0,0.0,0.0,0.0,0.0,0.0,0.0,0.0,0.0,0.0,0.0,0.0,0.0,0.0,0.0,0.0,0.0,0.0,0.0,0.0,0.0,0.0,0.0,0.0,0.0,0.0,0.0,0.0,0.0,0.0,0.0,0.0,0.0,0.0,0.0,0.0,0.0,0.0,0.0,0.0,0.0,0.0,0.0,0.0,0.0,0.0,0.0,0.0,0.0,0.0,0.0,0.0,0.0,0.0,0.0,0.0,0.0,0.0,0.0,0.0
1783390735.347302,0.709538459777832,0.39606791734695435,6.538189722959942e-07,0.6650301814079285,0.4423767328262329,-0.027303028851747513,0.641457200050354,0.5115931034088135,-0.04979262128472328,0.6169109344482422,0.570797860622406,-0.06367520242929459,0.5891106128692627,0.5881845951080322,-0.07699791342020035,0.6891019940376282,0.5427200794219971,-0.08430203050374985,0.6947523951530457,0.6795212626457214,-0.10384336858987808,0.6969789862632751,0.7535110116004944,-0.10873457789421082,0.7007138133049011,0.8081672787666321,-0.10974986851215363,0.7279574275016785,0.5433064699172974,-0.07411961257457733,0.7309863567352295,0.7002515196800232,-0.09229107946157455,0.7278640270233154,0.783699095249176,-0.09117678552865982,0.7281379699707031,0.8429473638534546,-0.08898276090621948,0.7553485631942749,0.5447991490364075,-0.060589492321014404,0.7495706677436829,0.681357204914093,-0.07009246200323105,0.7328866124153137,0.725932776927948,-0.0654284656047821,0.7228766679763794,0.7475961446762085,-0.06184225529432297,0.7715145945549011,0.5450459718704224,-0.048577770590782166,0.7495669722557068,0.6303086876869202,-0.05317537114024162,0.7310316562652588,0.6530534625053406,-0.04947711527347565,0.7184218764305115,0.6635713577270508,-0.04606253653764725,0.0,0.0,0.0,0.0,0.0,0.0,0.0,0.0,0.0,0.0,0.0,0.0,0.0,0.0,0.0,0.0,0.0,0.0,0.0,0.0,0.0,0.0,0.0,0.0,0.0,0.0,0.0,0.0,0.0,0.0,0.0,0.0,0.0,0.0,0.0,0.0,0.0,0.0,0.0,0.0,0.0,0.0,0.0,0.0,0.0,0.0,0.0,0.0,0.0,0.0,0.0,0.0,0.0,0.0,0.0,0.0,0.0,0.0,0.0,0.0,0.0,0.0,0.0
1783390735.518791,0.7084680199623108,0.4014221429824829,7.178987289080396e-07,0.6657523512840271,0.44690653681755066,-0.02679724432528019,0.6424063444137573,0.5136317014694214,-0.05047718435525894,0.6174401044845581,0.5725465416908264,-0.0658005028963089,0.5912371873855591,0.59427809715271,-0.08068647980690002,0.6877575516700745,0.5508790016174316,-0.08716639876365662,0.6930355429649353,0.6861271858215332,-0.10954306274652481,0.6951014399528503,0.7618351578712463,-0.11814292520284653,0.6997133493423462,0.8208399415016174,-0.12221956253051758,0.7268005013465881,0.5508407950401306,-0.07728935033082962,0.7299079895019531,0.7050672769546509,-0.09769367426633835,0.7263780832290649,0.7903016805648804,-0.09967745840549469,0.7274332046508789,0.8543816804885864,-0.1006108745932579,0.7551935911178589,0.5509634613990784,-0.06354602426290512,0.7501010298728943,0.689903736114502,-0.07403050363063812,0.7304120659828186,0.7184916734695435,-0.06802528351545334,0.717713475227356,0.7260647416114807,-0.06377840042114258,0.7724854946136475,0.549277126789093,-0.051309578120708466,0.7498661875724792,0.6362928152084351,-0.05646783113479614,0.7295854687690735,0.6540321707725525,-0.051997262984514236,0.7152911424636841,0.6608948111534119,-0.04810382425785065,0.0,0.0,0.0,0.0,0.0,0.0,0.0,0.0,0.0,0.0,0.0,0.0,0.0,0.0,0.0,0.0,0.0,0.0,0.0,0.0,0.0,0.0,0.0,0.0,0.0,0.0,0.0,0.0,0.0,0.0,0.0,0.0,0.0,0.0,0.0,0.0,0.0,0.0,0.0,0.0,0.0,0.0,0.0,0.0,0.0,0.0,0.0,0.0,0.0,0.0,0.0,0.0,0.0,0.0,0.0,0.0,0.0,0.0,0.0,0.0,0.0,0.0,0.0
1783390735.6785321,0.7088585495948792,0.4060679078102112,7.306395559680823e-07,0.6676523089408875,0.45125046372413635,-0.02614125795662403,0.642769455909729,0.5187051892280579,-0.050572000443935394,0.6168953776359558,0.5807347297668457,-0.06670760363340378,0.5885988473892212,0.6008875966072083,-0.08247141540050507,0.6863663196563721,0.5529091954231262,-0.08901063352823257,0.6839811205863953,0.6892548203468323,-0.11239530891180038,0.6818041801452637,0.7649266123771667,-0.1222112849354744,0.6830098628997803,0.8244478702545166,-0.12739937007427216,0.7262012958526611,0.5557504892349243,-0.0795813724398613,0.7256694436073303,0.708587646484375,-0.09950552880764008,0.7221611738204956,0.7923107743263245,-0.10120736807584763,0.7245466113090515,0.8547403216362,-0.10248348861932755,0.7550784349441528,0.5566239356994629,-0.06597407907247543,0.7469488382339478,0.6961305141448975,-0.07444359362125397,0.7258050441741943,0.7191345691680908,-0.0655614510178566,0.7132982611656189,0.7192239761352539,-0.05998969450592995,0.7717845439910889,0.5535953640937805,-0.05409935489296913,0.7470755577087402,0.6390270590782166,-0.057659752666950226,0.726089358329773,0.6554175019264221,-0.05150507390499115,0.7125691771507263,0.6601772904396057,-0.046633459627628326,0.0,0.0,0.0,0.0,0.0,0.0,0.0,0.0,0.0,0.0,0.0,0.0,0.0,0.0,0.0,0.0,0.0,0.0,0.0,0.0,0.0,0.0,0.0,0.0,0.0,0.0,0.0,0.0,0.0,0.0,0.0,0.0,0.0,0.0,0.0,0.0,0.0,0.0,0.0,0.0,0.0,0.0,0.0,0.0,0.0,0.0,0.0,0.0,0.0,0.0,0.0,0.0,0.0,0.0,0.0,0.0,0.0,0.0,0.0,0.0,0.0,0.0,0.0
1783390735.893568,0.7111703753471375,0.41061490774154663,7.314200161090412e-07,0.6698929071426392,0.45491716265678406,-0.02513815648853779,0.6433961987495422,0.522412121295929,-0.05030344799160957,0.6160491704940796,0.5878073573112488,-0.06686495989561081,0.5857731699943542,0.6096912026405334,-0.08300996571779251,0.6838512420654297,0.5516005754470825,-0.09249632805585861,0.6738783121109009,0.6839037537574768,-0.1148965060710907,0.6685468554496765,0.7577394247055054,-0.12350153177976608,0.6683268547058105,0.8154341578483582,-0.12791840732097626,0.7240893840789795,0.5570194721221924,-0.08339538425207138,0.7202780246734619,0.7102420926094055,-0.10291671007871628,0.71734219789505,0.7941179275512695,-0.10396479070186615,0.7216573357582092,0.8556353449821472,-0.10498284548521042,0.7536946535110474,0.5605722069740295,-0.0693647637963295,0.7425458431243896,0.7012892961502075,-0.07638334482908249,0.7224647402763367,0.7198225855827332,-0.0653543621301651,0.7129822373390198,0.7157917022705078,-0.058728575706481934,0.7702692747116089,0.560651421546936,-0.05687083303928375,0.7438968420028687,0.6497495174407959,-0.05790285766124725,0.7234705686569214,0.6595549583435059,-0.04880739003419876,0.711571455001831,0.6569640040397644,-0.042192403227090836,0.0,0.0,0.0,0.0,0.0,0.0,0.0,0.0,0.0,0.0,0.0,0.0,0.0,0.0,0.0,0.0,0.0,0.0,0.0,0.0,0.0,0.0,0.0,0.0,0.0,0.0,0.0,0.0,0.0,0.0,0.0,0.0,0.0,0.0,0.0,0.0,0.0,0.0,0.0,0.0,0.0,0.0,0.0,0.0,0.0,0.0,0.0,0.0,0.0,0.0,0.0,0.0,0.0,0.0,0.0,0.0,0.0,0.0,0.0,0.0,0.0,0.0,0.0
1783390736.08324,0.713212251663208,0.41182348132133484,7.153230967560376e-07,0.6718948483467102,0.4590054750442505,-0.01743370108306408,0.6424457430839539,0.5289394855499268,-0.03884917497634888,0.6127983927726746,0.5926339626312256,-0.053242940455675125,0.5806443691253662,0.6116482019424438,-0.06712464243173599,0.6826040148735046,0.5553322434425354,-0.08393160998821259,0.6678271889686584,0.684093713760376,-0.10506220906972885,0.6592878103256226,0.7581436634063721,-0.11309337615966797,0.6559509634971619,0.8129929304122925,-0.11699002981185913,0.723237156867981,0.560800313949585,-0.07820159941911697,0.7204071879386902,0.7148959040641785,-0.09732402861118317,0.7186715006828308,0.8000568747520447,-0.09998723119497299,0.7238039374351501,0.8577523827552795,-0.10216742753982544,0.7534165978431702,0.5653224587440491,-0.066830113530159,0.7444230914115906,0.7120068669319153,-0.07311885058879852,0.7246858477592468,0.7287899851799011,-0.06289829313755035,0.7161437273025513,0.7195966839790344,-0.05679289624094963,0.7696581482887268,0.5665948987007141,-0.05623149499297142,0.7423474192619324,0.6537357568740845,-0.0561077818274498,0.7219342589378357,0.65757155418396,-0.04668629541993141,0.7107899785041809,0.6480528116226196,-0.039661914110183716,0.0,0.0,0.0,0.0,0.0,0.0,0.0,0.0,0.0,0.0,0.0,0.0,0.0,0.0,0.0,0.0,0.0,0.0,0.0,0.0,0.0,0.0,0.0,0.0,0.0,0.0,0.0,0.0,0.0,0.0,0.0,0.0,0.0,0.0,0.0,0.0,0.0,0.0,0.0,0.0,0.0,0.0,0.0,0.0,0.0,0.0,0.0,0.0,0.0,0.0,0.0,0.0,0.0,0.0,0.0,0.0,0.0,0.0,0.0,0.0,0.0,0.0,0.0
1783390736.248262,0.7153087258338928,0.41848042607307434,7.100876473487006e-07,0.6728460192680359,0.4629339575767517,-0.01872001402080059,0.6414428949356079,0.5341418385505676,-0.04015062004327774,0.6094335913658142,0.5959720611572266,-0.05418072268366814,0.5761816501617432,0.6129366755485535,-0.06804095953702927,0.6814822554588318,0.5621475577354431,-0.08464229851961136,0.6645830273628235,0.6924915909767151,-0.10508493334054947,0.6551201939582825,0.7658600211143494,-0.11151506751775742,0.6501976847648621,0.8197160959243774,-0.11382618546485901,0.7206844091415405,0.5687060356140137,-0.0782952681183815,0.717876672744751,0.7247419357299805,-0.09813681989908218,0.7161267995834351,0.8106341361999512,-0.09887267649173737,0.7201488614082336,0.8696256875991821,-0.0988457128405571,0.7500429153442383,0.5739436745643616,-0.06668507307767868,0.7409898638725281,0.7138468027114868,-0.07438522577285767,0.7234874963760376,0.7306253910064697,-0.06336003541946411,0.7162108421325684,0.720746636390686,-0.05559419095516205,0.7668009996414185,0.575236976146698,-0.0559062734246254,0.7432400584220886,0.6710641980171204,-0.05617711693048477,0.7243369817733765,0.6803591847419739,-0.0456676222383976,0.713580310344696,0.6730387806892395,-0.03751928359270096,0.0,0.0,0.0,0.0,0.0,0.0,0.0,0.0,0.0,0.0,0.0,0.0,0.0,0.0,0.0,0.0,0.0,0.0,0.0,0.0,0.0,0.0,0.0,0.0,0.0,0.0,0.0,0.0,0.0,0.0,0.0,0.0,0.0,0.0,0.0,0.0,0.0,0.0,0.0,0.0,0.0,0.0,0.0,0.0,0.0,0.0,0.0,0.0,0.0,0.0,0.0,0.0,0.0,0.0,0.0,0.0,0.0,0.0,0.0,0.0,0.0,0.0,0.0
1783390736.412033,0.714552640914917,0.42795151472091675,6.725624643877381e-07,0.6694664359092712,0.46704965829849243,-0.016809599474072456,0.6319765448570251,0.5393071174621582,-0.036726146936416626,0.597348153591156,0.6005315780639648,-0.05116552487015724,0.5624313950538635,0.615547239780426,-0.06582170724868774,0.6652160882949829,0.5725026726722717,-0.07271189987659454,0.6456822752952576,0.7009612321853638,-0.09320418536663055,0.6342535018920898,0.7712147235870361,-0.10010012239217758,0.6275511384010315,0.8262420892715454,-0.10265514999628067,0.7033610343933105,0.5837250351905823,-0.06958269327878952,0.6982395052909851,0.7369523644447327,-0.08802535384893417,0.6964178681373596,0.8215270638465881,-0.08867909014225006,0.7013706564903259,0.8842595815658569,-0.08836591988801956,0.734102189540863,0.5870339274406433,-0.06236398592591286,0.7131227254867554,0.7094144821166992,-0.07319431751966476,0.6921679377555847,0.7000076770782471,-0.062262751162052155,0.6847079396247864,0.671427845954895,-0.0525100901722908,0.7553568482398987,0.5847899913787842,-0.05600665509700775,0.7275561094284058,0.667182445526123,-0.05854037031531334,0.7116897106170654,0.6556607484817505,-0.04719589650630951,0.7058743834495544,0.6328905820846558,-0.03743428736925125,0.0,0.0,0.0,0.0,0.0,0.0,0.0,0.0,0.0,0.0,0.0,0.0,0.0,0.0,0.0,0.0,0.0,0.0,0.0,0.0,0.0,0.0,0.0,0.0,0.0,0.0,0.0,0.0,0.0,0.0,0.0,0.0,0.0,0.0,0.0,0.0,0.0,0.0,0.0,0.0,0.0,0.0,0.0,0.0,0.0,0.0,0.0,0.0,0.0,0.0,0.0,0.0,0.0,0.0,0.0,0.0,0.0,0.0,0.0,0.0,0.0,0.0,0.0
1783390736.5659509,0.7053917646408081,0.43706902861595154,5.763500325883797e-07,0.6587204337120056,0.47837910056114197,-0.012464046478271484,0.6231491565704346,0.5522952675819397,-0.028184231370687485,0.5896071195602417,0.6134697198867798,-0.03971106931567192,0.5547629594802856,0.6326720714569092,-0.05120112746953964,0.6551954746246338,0.5842288136482239,-0.06181991472840309,0.6318999528884888,0.7137386798858643,-0.07788882404565811,0.6205751895904541,0.7809357047080994,-0.08112774789333344,0.6132408380508423,0.8310776948928833,-0.08116418123245239,0.6922575235366821,0.5952369570732117,-0.05987361818552017,0.6863198280334473,0.744696319103241,-0.0748772919178009,0.6832858324050903,0.8255233764648438,-0.07333192229270935,0.6861326694488525,0.8848824501037598,-0.07150273025035858,0.7228897213935852,0.5981757044792175,-0.054171524941921234,0.7031671404838562,0.7181752324104309,-0.06313607096672058,0.6852414608001709,0.705390214920044,-0.052158985286951065,0.6810893416404724,0.6739328503608704,-0.0425788052380085,0.7448469996452332,0.5961145162582397,-0.04903017356991768,0.7197918891906738,0.6718764901161194,-0.05207259580492973,0.7067201137542725,0.6574289798736572,-0.04185336083173752,0.7039151787757874,0.6310282349586487,-0.03250740468502045,0.0,0.0,0.0,0.0,0.0,0.0,0.0,0.0,0.0,0.0,0.0,0.0,0.0,0.0,0.0,0.0,0.0,0.0,0.0,0.0,0.0,0.0,0.0,0.0,0.0,0.0,0.0,0.0,0.0,0.0,0.0,0.0,0.0,0.0,0.0,0.0,0.0,0.0,0.0,0.0,0.0,0.0,0.0,0.0,0.0,0.0,0.0,0.0,0.0,0.0,0.0,0.0,0.0,0.0,0.0,0.0,0.0,0.0,0.0,0.0,0.0,0.0,0.0
1783390736.716604,0.7006765007972717,0.443078875541687,5.530192197511496e-07,0.6550405621528625,0.48137032985687256,-0.01193523220717907,0.6207807064056396,0.5566482543945312,-0.02686232328414917,0.5875769257545471,0.6195784211158752,-0.03834877908229828,0.552141547203064,0.6371098160743713,-0.05000143125653267,0.649376630783081,0.588656485080719,-0.05766817554831505,0.6275057792663574,0.7168575525283813,-0.07295592874288559,0.6165058016777039,0.7834627032279968,-0.07551169395446777,0.609216570854187,0.8335110545158386,-0.07476567476987839,0.6859014630317688,0.5981757640838623,-0.056654252111911774,0.6788231730461121,0.7453442811965942,-0.07075131684541702,0.6761038899421692,0.8274874091148376,-0.06899934262037277,0.6790446639060974,0.8876017928123474,-0.0667252466082573,0.7165403366088867,0.6002827286720276,-0.05228095129132271,0.698818027973175,0.7123216986656189,-0.06205332279205322,0.6848422884941101,0.6911700367927551,-0.05125977098941803,0.6832457184791565,0.6545917987823486,-0.0409218929708004,0.7390078902244568,0.5984184741973877,-0.048445697873830795,0.7170569896697998,0.6746920347213745,-0.05173406004905701,0.7069175839424133,0.6542558073997498,-0.04079550504684448,0.7060799598693848,0.622807502746582,-0.03054456040263176,0.0,0.0,0.0,0.0,0.0,0.0,0.0,0.0,0.0,0.0,0.0,0.0,0.0,0.0,0.0,0.0,0.0,0.0,0.0,0.0,0.0,0.0,0.0,0.0,0.0,0.0,0.0,0.0,0.0,0.0,0.0,0.0,0.0,0.0,0.0,0.0,0.0,0.0,0.0,0.0,0.0,0.0,0.0,0.0,0.0,0.0,0.0,0.0,0.0,0.0,0.0,0.0,0.0,0.0,0.0,0.0,0.0,0.0,0.0,0.0,0.0,0.0,0.0
1783390737.01376,0.7013965249061584,0.44982436299324036,5.460342435981147e-07,0.6553292870521545,0.48614436388015747,-0.011635488830506802,0.6208491325378418,0.5612967014312744,-0.025681978091597557,0.5878970623016357,0.6230313181877136,-0.0361945666372776,0.5525490045547485,0.6394551396369934,-0.046800099313259125,0.647948682308197,0.5918670892715454,-0.05669564753770828,0.6265454292297363,0.7198796272277832,-0.07128625363111496,0.615821361541748,0.7857757210731506,-0.07311443239450455,0.6085749864578247,0.8356006145477295,-0.07171987742185593,0.6847402453422546,0.6042482852935791,-0.05501246079802513,0.6776521801948547,0.7520502209663391,-0.06899262964725494,0.673346996307373,0.8314667344093323,-0.06692128628492355,0.674322783946991,0.8884298801422119,-0.0639023408293724,0.7150120139122009,0.6078196167945862,-0.04987058416008949,0.6951825618743896,0.7151207327842712,-0.05937696620821953,0.6818875670433044,0.6922240853309631,-0.04851491004228592,0.6810822486877441,0.6555548906326294,-0.037684325128793716,0.7365845441818237,0.6070663332939148,-0.045198794454336166,0.7119983434677124,0.6787166595458984,-0.047463998198509216,0.7025447487831116,0.6577200293540955,-0.036130741238594055,0.7024503350257874,0.6269165873527527,-0.025452986359596252,0.0,0.0,0.0,0.0,0.0,0.0,0.0,0.0,0.0,0.0,0.0,0.0,0.0,0.0,0.0,0.0,0.0,0.0,0.0,0.0,0.0,0.0,0.0,0.0,0.0,0.0,0.0,0.0,0.0,0.0,0.0,0.0,0.0,0.0,0.0,0.0,0.0,0.0,0.0,0.0,0.0,0.0,0.0,0.0,0.0,0.0,0.0,0.0,0.0,0.0,0.0,0.0,0.0,0.0,0.0,0.0,0.0,0.0,0.0,0.0,0.0,0.0,0.0
1783390737.1928809,0.7029626965522766,0.4478661119937897,5.155596340955526e-07,0.6566431522369385,0.4821305572986603,-0.01132193673402071,0.6218092441558838,0.5558998584747314,-0.024724185466766357,0.5878435373306274,0.6167556643486023,-0.03487466275691986,0.5532240271568298,0.634971559047699,-0.04521184787154198,0.6469897031784058,0.592202365398407,-0.05344029888510704,0.6273499131202698,0.7193270325660706,-0.06774107366800308,0.6163631081581116,0.7839522957801819,-0.07027262449264526,0.6090223789215088,0.8331602811813354,-0.0694894790649414,0.6833633184432983,0.6043846607208252,-0.05209561064839363,0.6771365404129028,0.7504602670669556,-0.06549160927534103,0.6730130314826965,0.8299664258956909,-0.06465505808591843,0.6740491390228271,0.8870879411697388,-0.06278198212385178,0.713580846786499,0.6073596477508545,-0.04758797585964203,0.6959770917892456,0.7133429646492004,-0.05741218104958534,0.6831387281417847,0.6900008916854858,-0.04835742339491844,0.6822197437286377,0.6530201435089111,-0.03881058469414711,0.7352531552314758,0.6059077978134155,-0.04346427693963051,0.712353527545929,0.6772714257240295,-0.046618737280368805,0.7031865119934082,0.6551557779312134,-0.036390408873558044,0.7029134035110474,0.6236134171485901,-0.02650914341211319,0.0,0.0,0.0,0.0,0.0,0.0,0.0,0.0,0.0,0.0,0.0,0.0,0.0,0.0,0.0,0.0,0.0,0.0,0.0,0.0,0.0,0.0,0.0,0.0,0.0,0.0,0.0,0.0,0.0,0.0,0.0,0.0,0.0,0.0,0.0,0.0,0.0,0.0,0.0,0.0,0.0,0.0,0.0,0.0,0.0,0.0,0.0,0.0,0.0,0.0,0.0,0.0,0.0,0.0,0.0,0.0,0.0,0.0,0.0,0.0,0.0,0.0,0.0
1783390737.378026,0.701223611831665,0.4425051808357239,4.949739604853676e-07,0.6562396287918091,0.4793873131275177,-0.01150185614824295,0.6207501888275146,0.5522966384887695,-0.025992166250944138,0.5861939191818237,0.6098198294639587,-0.03702268376946449,0.5509856343269348,0.6239811182022095,-0.0483933724462986,0.645840048789978,0.5840144753456116,-0.057519976049661636,0.6268001198768616,0.7129235863685608,-0.07260440289974213,0.6166365742683411,0.7783878445625305,-0.0755268782377243,0.6098909378051758,0.8288255333900452,-0.07526921480894089,0.6829735040664673,0.595481276512146,-0.056529365479946136,0.6761623620986938,0.7428562045097351,-0.06989304721355438,0.6711574792861938,0.8215243220329285,-0.06855771690607071,0.6714408993721008,0.8769140839576721,-0.06700115650892258,0.7132232189178467,0.5984087586402893,-0.05223685875535011,0.6963059306144714,0.7091576457023621,-0.06141776964068413,0.681397020816803,0.6917182207107544,-0.052603308111429214,0.6787006855010986,0.656110405921936,-0.0440872460603714,0.7348026633262634,0.5969644784927368,-0.04838940501213074,0.7124766111373901,0.6714795231819153,-0.051980454474687576,0.7004235982894897,0.6551851034164429,-0.04302741587162018,0.6976240873336792,0.6271382570266724,-0.034559473395347595,0.0,0.0,0.0,0.0,0.0,0.0,0.0,0.0,0.0,0.0,0.0,0.0,0.0,0.0,0.0,0.0,0.0,0.0,0.0,0.0,0.0,0.0,0.0,0.0,0.0,0.0,0.0,0.0,0.0,0.0,0.0,0.0,0.0,0.0,0.0,0.0,0.0,0.0,0.0,0.0,0.0,0.0,0.0,0.0,0.0,0.0,0.0,0.0,0.0,0.0,0.0,0.0,0.0,0.0,0.0,0.0,0.0,0.0,0.0,0.0,0.0,0.0,0.0
1783390737.539359,0.7006850242614746,0.44360339641571045,5.1359228336878e-07,0.6557075381278992,0.47977414727211,-0.011569340713322163,0.6200925707817078,0.55157071352005,-0.026049891486763954,0.58598393201828,0.6106367111206055,-0.037212271243333817,0.550333559513092,0.626704216003418,-0.04858553037047386,0.6454471945762634,0.5840805768966675,-0.05586975812911987,0.6280897855758667,0.7137752175331116,-0.07051628082990646,0.6181321144104004,0.7791755199432373,-0.07273954153060913,0.6111546754837036,0.8297831416130066,-0.07173249125480652,0.6820356845855713,0.5966780781745911,-0.054403092712163925,0.6769726872444153,0.743857741355896,-0.06822793185710907,0.6737399697303772,0.8231528997421265,-0.06683747470378876,0.6750951409339905,0.8802999258041382,-0.06449837237596512,0.712226390838623,0.6003009080886841,-0.0495307594537735,0.695854663848877,0.705825686454773,-0.05878547206521034,0.68404620885849,0.682111918926239,-0.04833216965198517,0.6831997632980347,0.645253598690033,-0.03796089068055153,0.7337195873260498,0.5998353362083435,-0.04515422135591507,0.7121860980987549,0.6672283411026001,-0.047506995499134064,0.7039727568626404,0.6442821621894836,-0.036525316536426544,0.7039310932159424,0.6135643720626831,-0.026162421330809593,0.0,0.0,0.0,0.0,0.0,0.0,0.0,0.0,0.0,0.0,0.0,0.0,0.0,0.0,0.0,0.0,0.0,0.0,0.0,0.0,0.0,0.0,0.0,0.0,0.0,0.0,0.0,0.0,0.0,0.0,0.0,0.0,0.0,0.0,0.0,0.0,0.0,0.0,0.0,0.0,0.0,0.0,0.0,0.0,0.0,0.0,0.0,0.0,0.0,0.0,0.0,0.0,0.0,0.0,0.0,0.0,0.0,0.0,0.0,0.0,0.0,0.0,0.0
1783390737.723139,0.7000294923782349,0.4463818073272705,5.172382202545123e-07,0.655694305896759,0.48230743408203125,-0.011737781576812267,0.6201643347740173,0.5548727512359619,-0.025952056050300598,0.5858306288719177,0.6140487790107727,-0.036526329815387726,0.550132691860199,0.6292633414268494,-0.0472470223903656,0.6461632251739502,0.5861502289772034,-0.05670297145843506,0.6274921298027039,0.7177574038505554,-0.0707385465502739,0.6173999905586243,0.7832436561584473,-0.07223465293645859,0.6101627945899963,0.8338612914085388,-0.07065891474485397,0.6824468970298767,0.5988668203353882,-0.054509662091732025,0.6759529709815979,0.7468000054359436,-0.06756412237882614,0.6728086471557617,0.8268307447433472,-0.06543759256601334,0.6740651726722717,0.884320855140686,-0.06271437555551529,0.712066650390625,0.6040807366371155,-0.04886343330144882,0.6946592926979065,0.7107427716255188,-0.05695614218711853,0.6822846531867981,0.6908458471298218,-0.04676849767565727,0.6807844042778015,0.655601978302002,-0.03694862127304077,0.7334519624710083,0.6058809757232666,-0.04373650625348091,0.7117704153060913,0.675227165222168,-0.04520675912499428,0.7030618786811829,0.6553623676300049,-0.03466355428099632,0.7019987106323242,0.6262955069541931,-0.024893751367926598,0.0,0.0,0.0,0.0,0.0,0.0,0.0,0.0,0.0,0.0,0.0,0.0,0.0,0.0,0.0,0.0,0.0,0.0,0.0,0.0,0.0,0.0,0.0,0.0,0.0,0.0,0.0,0.0,0.0,0.0,0.0,0.0,0.0,0.0,0.0,0.0,0.0,0.0,0.0,0.0,0.0,0.0,0.0,0.0,0.0,0.0,0.0,0.0,0.0,0.0,0.0,0.0,0.0,0.0,0.0,0.0,0.0,0.0,0.0,0.0,0.0,0.0,0.0
