ciel274/research-hand-sign/data/raw/hiragana/sign_language_i_1.csv
timestamp,R_joint_0_x,R_joint_0_y,R_joint_0_z,R_joint_1_x,R_joint_1_y,R_joint_1_z,R_joint_2_x,R_joint_2_y,R_joint_2_z,R_joint_3_x,R_joint_3_y,R_joint_3_z,R_joint_4_x,R_joint_4_y,R_joint_4_z,R_joint_5_x,R_joint_5_y,R_joint_5_z,R_joint_6_x,R_joint_6_y,R_joint_6_z,R_joint_7_x,R_joint_7_y,R_joint_7_z,R_joint_8_x,R_joint_8_y,R_joint_8_z,R_joint_9_x,R_joint_9_y,R_joint_9_z,R_joint_10_x,R_joint_10_y,R_joint_10_z,R_joint_11_x,R_joint_11_y,R_joint_11_z,R_joint_12_x,R_joint_12_y,R_joint_12_z,R_joint_13_x,R_joint_13_y,R_joint_13_z,R_joint_14_x,R_joint_14_y,R_joint_14_z,R_joint_15_x,R_joint_15_y,R_joint_15_z,R_joint_16_x,R_joint_16_y,R_joint_16_z,R_joint_17_x,R_joint_17_y,R_joint_17_z,R_joint_18_x,R_joint_18_y,R_joint_18_z,R_joint_19_x,R_joint_19_y,R_joint_19_z,R_joint_20_x,R_joint_20_y,R_joint_20_z,L_joint_0_x,L_joint_0_y,L_joint_0_z,L_joint_1_x,L_joint_1_y,L_joint_1_z,L_joint_2_x,L_joint_2_y,L_joint_2_z,L_joint_3_x,L_joint_3_y,L_joint_3_z,L_joint_4_x,L_joint_4_y,L_joint_4_z,L_joint_5_x,L_joint_5_y,L_joint_5_z,L_joint_6_x,L_joint_6_y,L_joint_6_z,L_joint_7_x,L_joint_7_y,L_joint_7_z,L_joint_8_x,L_joint_8_y,L_joint_8_z,L_joint_9_x,L_joint_9_y,L_joint_9_z,L_joint_10_x,L_joint_10_y,L_joint_10_z,L_joint_11_x,L_joint_11_y,L_joint_11_z,L_joint_12_x,L_joint_12_y,L_joint_12_z,L_joint_13_x,L_joint_13_y,L_joint_13_z,L_joint_14_x,L_joint_14_y,L_joint_14_z,L_joint_15_x,L_joint_15_y,L_joint_15_z,L_joint_16_x,L_joint_16_y,L_joint_16_z,L_joint_17_x,L_joint_17_y,L_joint_17_z,L_joint_18_x,L_joint_18_y,L_joint_18_z,L_joint_19_x,L_joint_19_y,L_joint_19_z,L_joint_20_x,L_joint_20_y,L_joint_20_z
1783345013.5266392,0.7220374941825867,0.8415806889533997,-4.443155035005475e-07,0.6713207364082336,0.8289219737052917,-0.010600038804113865,0.628716766834259,0.7435017824172974,-0.013791978359222412,0.6330162286758423,0.6757447123527527,-0.01926247589290142,0.6621522903442383,0.6663821339607239,-0.0215184073895216,0.6486354470252991,0.652777910232544,-0.00330707267858088,0.6377028822898865,0.5826830267906189,-0.023660171777009964,0.6497036814689636,0.6481965184211731,-0.03296259790658951,0.6592690944671631,0.7017149925231934,-0.03460507467389107,0.6799739003181458,0.6368354558944702,-0.005733781028538942,0.6755220890045166,0.5782021880149841,-0.034388646483421326,0.6799419522285461,0.6621686816215515,-0.04229235649108887,0.6807159781455994,0.7222341299057007,-0.03860211744904518,0.710171639919281,0.6305739879608154,-0.011421489529311657,0.7074310183525085,0.577221155166626,-0.035485971719026566,0.7041270136833191,0.6581136584281921,-0.034675512462854385,0.6992164254188538,0.7197640538215637,-0.024876074865460396,0.7376977205276489,0.6275390982627869,-0.018320761620998383,0.7353670597076416,0.5473284721374512,-0.029980987310409546,0.73160719871521,0.49396011233329773,-0.03229450806975365,0.7265709042549133,0.44124895334243774,-0.030215194448828697,0.0,0.0,0.0,0.0,0.0,0.0,0.0,0.0,0.0,0.0,0.0,0.0,0.0,0.0,0.0,0.0,0.0,0.0,0.0,0.0,0.0,0.0,0.0,0.0,0.0,0.0,0.0,0.0,0.0,0.0,0.0,0.0,0.0,0.0,0.0,0.0,0.0,0.0,0.0,0.0,0.0,0.0,0.0,0.0,0.0,0.0,0.0,0.0,0.0,0.0,0.0,0.0,0.0,0.0,0.0,0.0,0.0,0.0,0.0,0.0,0.0,0.0,0.0
1783345013.719255,0.7215191721916199,0.8437666893005371,-4.4166819179736194e-07,0.6694876551628113,0.8300771713256836,-0.010263748466968536,0.627819836139679,0.7454430460929871,-0.013558871112763882,0.633242130279541,0.6762065291404724,-0.019412200897932053,0.661605954170227,0.6642468571662903,-0.022240567952394485,0.6479583978652954,0.655366063117981,-0.0021455835085362196,0.637878954410553,0.585245668888092,-0.022416915744543076,0.6491488218307495,0.6513769030570984,-0.0321987047791481,0.6581321954727173,0.7053174376487732,-0.03437488526105881,0.6788191795349121,0.6396902203559875,-0.005114302039146423,0.6746054291725159,0.5827909111976624,-0.03356955945491791,0.6785504221916199,0.6651167273521423,-0.04215112701058388,0.6795849204063416,0.7243741154670715,-0.03930119052529335,0.7087884545326233,0.6331396698951721,-0.011377298273146152,0.7066141366958618,0.5778816342353821,-0.035425953567028046,0.7031039595603943,0.6572526097297668,-0.03487745299935341,0.6984348893165588,0.7183805108070374,-0.025525925680994987,0.736084520816803,0.6296903491020203,-0.018879931420087814,0.7342817783355713,0.5486017465591431,-0.030373064801096916,0.7310316562652588,0.49541571736335754,-0.032399825751781464,0.7265529036521912,0.44303733110427856,-0.030255543068051338,0.0,0.0,0.0,0.0,0.0,0.0,0.0,0.0,0.0,0.0,0.0,0.0,0.0,0.0,0.0,0.0,0.0,0.0,0.0,0.0,0.0,0.0,0.0,0.0,0.0,0.0,0.0,0.0,0.0,0.0,0.0,0.0,0.0,0.0,0.0,0.0,0.0,0.0,0.0,0.0,0.0,0.0,0.0,0.0,0.0,0.0,0.0,0.0,0.0,0.0,0.0,0.0,0.0,0.0,0.0,0.0,0.0,0.0,0.0,0.0,0.0,0.0,0.0
1783345013.88594,0.7207674980163574,0.8425093293190002,-4.3523442627702025e-07,0.6680569052696228,0.8283663392066956,-0.01062850933521986,0.6264414191246033,0.742121160030365,-0.013820553198456764,0.6330099701881409,0.6729919910430908,-0.019580313935875893,0.6632763743400574,0.661034345626831,-0.02229887619614601,0.6475006937980652,0.651796817779541,-0.0015029769856482744,0.637305498123169,0.58304762840271,-0.021556012332439423,0.6490231156349182,0.6487324833869934,-0.031086018308997154,0.658095121383667,0.7015299797058105,-0.033077169209718704,0.6786029934883118,0.6355752348899841,-0.004283249378204346,0.6746062636375427,0.5780596137046814,-0.032976847141981125,0.6789735555648804,0.6625036001205444,-0.04158186540007591,0.679701566696167,0.7228277921676636,-0.038354236632585526,0.7088425159454346,0.6291902661323547,-0.010422870516777039,0.7062407732009888,0.575071394443512,-0.03460557386279106,0.7030813694000244,0.6565442681312561,-0.033989518880844116,0.6983341574668884,0.7184560894966125,-0.024237152189016342,0.7365660071372986,0.6265332102775574,-0.017840679734945297,0.7341691255569458,0.5459577441215515,-0.029216185212135315,0.7308086156845093,0.4928732216358185,-0.03110247477889061,0.7260858416557312,0.44030213356018066,-0.02867289073765278,0.0,0.0,0.0,0.0,0.0,0.0,0.0,0.0,0.0,0.0,0.0,0.0,0.0,0.0,0.0,0.0,0.0,0.0,0.0,0.0,0.0,0.0,0.0,0.0,0.0,0.0,0.0,0.0,0.0,0.0,0.0,0.0,0.0,0.0,0.0,0.0,0.0,0.0,0.0,0.0,0.0,0.0,0.0,0.0,0.0,0.0,0.0,0.0,0.0,0.0,0.0,0.0,0.0,0.0,0.0,0.0,0.0,0.0,0.0,0.0,0.0,0.0,0.0
1783345014.206462,0.7199673056602478,0.8395814299583435,-4.3797257376354537e-07,0.6675697565078735,0.8252906203269958,-0.010103138163685799,0.6257310509681702,0.7392945289611816,-0.0130000626668334,0.631793200969696,0.6705919504165649,-0.018486037850379944,0.6621875166893005,0.6607027649879456,-0.020902501419186592,0.6471071243286133,0.6495202779769897,-0.0012204617960378528,0.6364442706108093,0.5808014273643494,-0.020953787490725517,0.6479524374008179,0.647015392780304,-0.030318040400743484,0.6571453809738159,0.6993420720100403,-0.032316308468580246,0.6782262921333313,0.6333130598068237,-0.00413120212033391,0.6731445789337158,0.5749604105949402,-0.03237861767411232,0.6774815917015076,0.6584022641181946,-0.04059729725122452,0.6788498163223267,0.7181605100631714,-0.037235673516988754,0.7083637118339539,0.626896321773529,-0.010339802131056786,0.7049164772033691,0.5721933841705322,-0.03391019254922867,0.7018508911132812,0.6526619791984558,-0.032959356904029846,0.6977164149284363,0.7143252491950989,-0.023205585777759552,0.7360853552818298,0.6240938901901245,-0.017832187935709953,0.7334299087524414,0.5436796545982361,-0.02886526845395565,0.7296710014343262,0.49030837416648865,-0.030748484656214714,0.724737286567688,0.4375985860824585,-0.028507348150014877,0.0,0.0,0.0,0.0,0.0,0.0,0.0,0.0,0.0,0.0,0.0,0.0,0.0,0.0,0.0,0.0,0.0,0.0,0.0,0.0,0.0,0.0,0.0,0.0,0.0,0.0,0.0,0.0,0.0,0.0,0.0,0.0,0.0,0.0,0.0,0.0,0.0,0.0,0.0,0.0,0.0,0.0,0.0,0.0,0.0,0.0,0.0,0.0,0.0,0.0,0.0,0.0,0.0,0.0,0.0,0.0,0.0,0.0,0.0,0.0,0.0,0.0,0.0
1783345014.420994,0.720253586769104,0.8381145000457764,-4.3721388465201017e-07,0.6673672795295715,0.8229598999023438,-0.010562876239418983,0.6256226897239685,0.7362658977508545,-0.013655079528689384,0.6310320496559143,0.667649507522583,-0.019247114658355713,0.6599087119102478,0.6546483039855957,-0.02166902646422386,0.6465816497802734,0.6482356190681458,-0.0017689273227006197,0.6362085342407227,0.5786163210868835,-0.021249888464808464,0.6478906869888306,0.6450707912445068,-0.03018100932240486,0.6567031145095825,0.6976738572120667,-0.031890369951725006,0.6778116226196289,0.6315586566925049,-0.004490468185395002,0.6727357506752014,0.5734506249427795,-0.032413918524980545,0.6771978735923767,0.6570276021957397,-0.04059937223792076,0.6782033443450928,0.7165660858154297,-0.037353817373514175,0.708066999912262,0.624769389629364,-0.01049264520406723,0.7043750882148743,0.570021390914917,-0.03395009785890579,0.7013991475105286,0.6508685350418091,-0.03311283141374588,0.6969771981239319,0.7128759622573853,-0.02350311353802681,0.7357590794563293,0.6218246221542358,-0.017775511369109154,0.7328183650970459,0.541522204875946,-0.028849363327026367,0.729139506816864,0.4882262349128723,-0.03077748417854309,0.7241103649139404,0.43583640456199646,-0.028552928939461708,0.0,0.0,0.0,0.0,0.0,0.0,0.0,0.0,0.0,0.0,0.0,0.0,0.0,0.0,0.0,0.0,0.0,0.0,0.0,0.0,0.0,0.0,0.0,0.0,0.0,0.0,0.0,0.0,0.0,0.0,0.0,0.0,0.0,0.0,0.0,0.0,0.0,0.0,0.0,0.0,0.0,0.0,0.0,0.0,0.0,0.0,0.0,0.0,0.0,0.0,0.0,0.0,0.0,0.0,0.0,0.0,0.0,0.0,0.0,0.0,0.0,0.0,0.0
1783345014.575158,0.7195101380348206,0.8379077315330505,-4.344798014699336e-07,0.6662533283233643,0.8231028914451599,-0.010809368453919888,0.6248747110366821,0.7363533973693848,-0.014089738018810749,0.6312651634216309,0.6665205955505371,-0.019916344434022903,0.6600518226623535,0.6522534489631653,-0.022642236202955246,0.6455904841423035,0.6488630175590515,-0.001853761961683631,0.6355358362197876,0.5784475803375244,-0.021926885470747948,0.6471837162971497,0.6452982425689697,-0.031432654708623886,0.6558013558387756,0.6980119347572327,-0.0334918349981308,0.6767956614494324,0.6324234008789062,-0.004653975833207369,0.6723302602767944,0.5738999843597412,-0.03312375396490097,0.6766766905784607,0.6572561264038086,-0.04169828072190285,0.6774391531944275,0.7165829539299011,-0.03868770971894264,0.7068948149681091,0.6256511211395264,-0.010832976549863815,0.7041991353034973,0.5706681609153748,-0.03476862236857414,0.700922429561615,0.6513521671295166,-0.034105829894542694,0.696019172668457,0.7130340933799744,-0.024549420922994614,0.7343797087669373,0.6222641468048096,-0.01833530329167843,0.7317395806312561,0.5416038036346436,-0.029613886028528214,0.7284013032913208,0.48829033970832825,-0.03152201697230339,0.7235860824584961,0.4357827603816986,-0.02926066890358925,0.0,0.0,0.0,0.0,0.0,0.0,0.0,0.0,0.0,0.0,0.0,0.0,0.0,0.0,0.0,0.0,0.0,0.0,0.0,0.0,0.0,0.0,0.0,0.0,0.0,0.0,0.0,0.0,0.0,0.0,0.0,0.0,0.0,0.0,0.0,0.0,0.0,0.0,0.0,0.0,0.0,0.0,0.0,0.0,0.0,0.0,0.0,0.0,0.0,0.0,0.0,0.0,0.0,0.0,0.0,0.0,0.0,0.0,0.0,0.0,0.0,0.0,0.0
1783345014.7657611,0.7193970680236816,0.8373976945877075,-4.408376526043867e-07,0.666330873966217,0.8231112957000732,-0.010443205013871193,0.6246642470359802,0.7369892001152039,-0.013491902500391006,0.6308969259262085,0.6672976016998291,-0.01918177679181099,0.6600242853164673,0.653028130531311,-0.02180873230099678,0.6455516815185547,0.6479827761650085,-0.0011225228663533926,0.6355627179145813,0.577943742275238,-0.021095268428325653,0.6468734741210938,0.6445485353469849,-0.030677227303385735,0.6553326845169067,0.6974407434463501,-0.03281513974070549,0.6764937043190002,0.6320497989654541,-0.0039423140697181225,0.6722040176391602,0.5738711953163147,-0.03219602257013321,0.6765192151069641,0.6574576497077942,-0.04080106317996979,0.6771929264068604,0.7166945934295654,-0.03789210692048073,0.7064531445503235,0.6253892183303833,-0.0101379519328475,0.7036036252975464,0.5698256492614746,-0.03394528105854988,0.7003414034843445,0.6504389643669128,-0.0333273746073246,0.6954889297485352,0.7119647860527039,-0.023873072117567062,0.7339515089988708,0.6221163272857666,-0.017626041546463966,0.731549859046936,0.5415983200073242,-0.029016030952334404,0.7281007766723633,0.4887772500514984,-0.031093519181013107,0.7230218648910522,0.4363996982574463,-0.028937969356775284,0.0,0.0,0.0,0.0,0.0,0.0,0.0,0.0,0.0,0.0,0.0,0.0,0.0,0.0,0.0,0.0,0.0,0.0,0.0,0.0,0.0,0.0,0.0,0.0,0.0,0.0,0.0,0.0,0.0,0.0,0.0,0.0,0.0,0.0,0.0,0.0,0.0,0.0,0.0,0.0,0.0,0.0,0.0,0.0,0.0,0.0,0.0,0.0,0.0,0.0,0.0,0.0,0.0,0.0,0.0,0.0,0.0,0.0,0.0,0.0,0.0,0.0,0.0
1783345014.923124,0.718995213508606,0.837934136390686,-4.4211327576704207e-07,0.6662256121635437,0.82329261302948,-0.009999456815421581,0.6248718500137329,0.7372572422027588,-0.012831553816795349,0.630401074886322,0.6675010323524475,-0.018415087834000587,0.6581250429153442,0.6516143083572388,-0.020994121208786964,0.6456989049911499,0.6489067673683167,-0.0005428928998298943,0.6351908445358276,0.5786462426185608,-0.020778801292181015,0.6467763781547546,0.6438900232315063,-0.030723145231604576,0.6556320190429688,0.6974149942398071,-0.03298775479197502,0.6764293313026428,0.6331865787506104,-0.003561407560482621,0.6717345118522644,0.5752701759338379,-0.031946856528520584,0.6761305332183838,0.6578975915908813,-0.040755562484264374,0.6771009564399719,0.7174932956695557,-0.03798481449484825,0.7062890529632568,0.6265259385108948,-0.009979471564292908,0.7031007409095764,0.5701539516448975,-0.03389205411076546,0.6998376846313477,0.6500625610351562,-0.033323220908641815,0.6953590512275696,0.7117313146591187,-0.023910900577902794,0.733585774898529,0.6230249404907227,-0.01765991933643818,0.7314784526824951,0.5423423647880554,-0.029250606894493103,0.7279201745986938,0.4893992245197296,-0.03143582120537758,0.722930908203125,0.43718624114990234,-0.029326463118195534,0.0,0.0,0.0,0.0,0.0,0.0,0.0,0.0,0.0,0.0,0.0,0.0,0.0,0.0,0.0,0.0,0.0,0.0,0.0,0.0,0.0,0.0,0.0,0.0,0.0,0.0,0.0,0.0,0.0,0.0,0.0,0.0,0.0,0.0,0.0,0.0,0.0,0.0,0.0,0.0,0.0,0.0,0.0,0.0,0.0,0.0,0.0,0.0,0.0,0.0,0.0,0.0,0.0,0.0,0.0,0.0,0.0,0.0,0.0,0.0,0.0,0.0,0.0
1783345015.087113,0.7186775207519531,0.8382554650306702,-4.3859196807716216e-07,0.6654865741729736,0.8231065273284912,-0.009994852356612682,0.6244072318077087,0.7369152307510376,-0.012870343402028084,0.6306256055831909,0.6673963665962219,-0.018575649708509445,0.6587847471237183,0.6519241333007812,-0.02132384665310383,0.6455954909324646,0.6486967206001282,-0.00010191707406193018,0.6353386640548706,0.5788780450820923,-0.02024550549685955,0.6465874910354614,0.6446216702461243,-0.030262799933552742,0.6551745533943176,0.6979779005050659,-0.032617200165987015,0.6764445900917053,0.6329693794250488,-0.0032234839163720608,0.6717411875724792,0.5749910473823547,-0.0316813588142395,0.6758784055709839,0.6579636931419373,-0.04074263200163841,0.6767921447753906,0.7179115414619446,-0.0380883663892746,0.7063595056533813,0.6263207197189331,-0.009754324331879616,0.7030773758888245,0.5700533986091614,-0.033641546964645386,0.6996027231216431,0.6504780054092407,-0.033225130289793015,0.6950359344482422,0.7125394940376282,-0.02386973612010479,0.7337327599525452,0.6229051947593689,-0.01755981706082821,0.7317400574684143,0.5421894788742065,-0.028940077871084213,0.7281314134597778,0.4890654683113098,-0.031060947105288506,0.7229394912719727,0.43660545349121094,-0.028925493359565735,0.0,0.0,0.0,0.0,0.0,0.0,0.0,0.0,0.0,0.0,0.0,0.0,0.0,0.0,0.0,0.0,0.0,0.0,0.0,0.0,0.0,0.0,0.0,0.0,0.0,0.0,0.0,0.0,0.0,0.0,0.0,0.0,0.0,0.0,0.0,0.0,0.0,0.0,0.0,0.0,0.0,0.0,0.0,0.0,0.0,0.0,0.0,0.0,0.0,0.0,0.0,0.0,0.0,0.0,0.0,0.0,0.0,0.0,0.0,0.0,0.0,0.0,0.0
1783345015.2173922,0.7185676693916321,0.8376872539520264,-4.349282392013265e-07,0.665219783782959,0.8227856755256653,-0.010120640508830547,0.6241922974586487,0.7370800375938416,-0.01322819385677576,0.6307023167610168,0.6679087281227112,-0.019128507003188133,0.6593194007873535,0.6532115936279297,-0.022074170410633087,0.6452091336250305,0.6490070223808289,-0.000653108290862292,0.6351191997528076,0.5787851214408875,-0.020697923377156258,0.6465872526168823,0.6445744633674622,-0.03055700846016407,0.6552145481109619,0.6978344321250916,-0.03283190354704857,0.6762526631355286,0.6330288648605347,-0.0037330039776861668,0.6716648936271667,0.5749675631523132,-0.03202582150697708,0.676154613494873,0.6582033634185791,-0.04091908037662506,0.6772222518920898,0.7181597948074341,-0.03819069638848305,0.7062760591506958,0.6262288093566895,-0.010172422975301743,0.7030263543128967,0.5699782967567444,-0.033885031938552856,0.6997955441474915,0.6504339575767517,-0.03328920900821686,0.6952832341194153,0.7125343680381775,-0.02385745756328106,0.7336981296539307,0.6228073835372925,-0.017887305468320847,0.7314169406890869,0.5423027873039246,-0.02901046723127365,0.7280099987983704,0.4895678162574768,-0.030843498185276985,0.7230725288391113,0.437468558549881,-0.028537901118397713,0.0,0.0,0.0,0.0,0.0,0.0,0.0,0.0,0.0,0.0,0.0,0.0,0.0,0.0,0.0,0.0,0.0,0.0,0.0,0.0,0.0,0.0,0.0,0.0,0.0,0.0,0.0,0.0,0.0,0.0,0.0,0.0,0.0,0.0,0.0,0.0,0.0,0.0,0.0,0.0,0.0,0.0,0.0,0.0,0.0,0.0,0.0,0.0,0.0,0.0,0.0,0.0,0.0,0.0,0.0,0.0,0.0,0.0,0.0,0.0,0.0,0.0,0.0
1783345015.3596091,0.7189077138900757,0.837862491607666,-4.36631182765268e-07,0.6658072471618652,0.8235303163528442,-0.010181788355112076,0.6243559122085571,0.7373775243759155,-0.013276230543851852,0.6306766271591187,0.6680876016616821,-0.019153840839862823,0.6598144769668579,0.6546463966369629,-0.02202867530286312,0.6454089283943176,0.648198664188385,-0.0005873789195902646,0.6349297165870667,0.5780866146087646,-0.020690498873591423,0.6464707255363464,0.6438521146774292,-0.030560363084077835,0.6554096937179565,0.6968276500701904,-0.03284363076090813,0.6764297485351562,0.6324458718299866,-0.0036771795712411404,0.6715394854545593,0.5739477872848511,-0.03200474753975868,0.6760797500610352,0.657293438911438,-0.04070262610912323,0.6773353219032288,0.7170963287353516,-0.03779313713312149,0.7065721750259399,0.6260201930999756,-0.010186546482145786,0.7029158473014832,0.5697827935218811,-0.033935315907001495,0.6997576951980591,0.6499515771865845,-0.03332318738102913,0.695499837398529,0.711647093296051,-0.023851189762353897,0.7342897653579712,0.6229079961776733,-0.017998376861214638,0.731960117816925,0.5419396758079529,-0.029177775606513023,0.7282046675682068,0.4888288378715515,-0.03116930089890957,0.7230300903320312,0.43648943305015564,-0.028984736651182175,0.0,0.0,0.0,0.0,0.0,0.0,0.0,0.0,0.0,0.0,0.0,0.0,0.0,0.0,0.0,0.0,0.0,0.0,0.0,0.0,0.0,0.0,0.0,0.0,0.0,0.0,0.0,0.0,0.0,0.0,0.0,0.0,0.0,0.0,0.0,0.0,0.0,0.0,0.0,0.0,0.0,0.0,0.0,0.0,0.0,0.0,0.0,0.0,0.0,0.0,0.0,0.0,0.0,0.0,0.0,0.0,0.0,0.0,0.0,0.0,0.0,0.0,0.0
1783345015.523417,0.7184700965881348,0.8384982347488403,-4.333763001795887e-07,0.6654398441314697,0.8233160972595215,-0.010138499550521374,0.6243646144866943,0.7374415993690491,-0.013289564289152622,0.631203830242157,0.6679641008377075,-0.019220080226659775,0.6601649522781372,0.6539115905761719,-0.02220969833433628,0.6451036930084229,0.6489683985710144,-0.000533611630089581,0.6348028779029846,0.5788772702217102,-0.020648041740059853,0.6464284658432007,0.6441490054130554,-0.030689533799886703,0.6551926136016846,0.6970379948616028,-0.03312499821186066,0.6759809255599976,0.6332196593284607,-0.0036761986557394266,0.6712378263473511,0.5750303864479065,-0.03189169615507126,0.6756379008293152,0.657599151134491,-0.04078841954469681,0.6765299439430237,0.7170231938362122,-0.038145773112773895,0.7059947848320007,0.6267726421356201,-0.010209960862994194,0.7026523947715759,0.570167601108551,-0.03395041450858116,0.6993861198425293,0.6502642631530762,-0.03336568549275398,0.694822371006012,0.7119950652122498,-0.02397824637591839,0.733507513999939,0.623710036277771,-0.018032625317573547,0.7313677668571472,0.5428066849708557,-0.029181763529777527,0.7279276251792908,0.48975613713264465,-0.031026070937514305,0.7229396104812622,0.4372805953025818,-0.028766464442014694,0.0,0.0,0.0,0.0,0.0,0.0,0.0,0.0,0.0,0.0,0.0,0.0,0.0,0.0,0.0,0.0,0.0,0.0,0.0,0.0,0.0,0.0,0.0,0.0,0.0,0.0,0.0,0.0,0.0,0.0,0.0,0.0,0.0,0.0,0.0,0.0,0.0,0.0,0.0,0.0,0.0,0.0,0.0,0.0,0.0,0.0,0.0,0.0,0.0,0.0,0.0,0.0,0.0,0.0,0.0,0.0,0.0,0.0,0.0,0.0,0.0,0.0,0.0
1783345015.6655948,0.7192246913909912,0.8380588293075562,-4.4097618001615047e-07,0.6661374568939209,0.8235695958137512,-0.009887590073049068,0.6247951984405518,0.737740695476532,-0.012809820473194122,0.630462110042572,0.6683370471000671,-0.018596243113279343,0.6586341261863708,0.6534717679023743,-0.021392857655882835,0.6456617116928101,0.6486267447471619,-3.256385025451891e-05,0.6350029706954956,0.5783392786979675,-0.02008223719894886,0.646638035774231,0.6436519026756287,-0.029918886721134186,0.6554943919181824,0.6964566111564636,-0.032119736075401306,0.6764485239982605,0.6328094005584717,-0.0032209022901952267,0.6716465353965759,0.5747219920158386,-0.03148012235760689,0.6759686470031738,0.6582180857658386,-0.040324509143829346,0.6767257452011108,0.7177690863609314,-0.037540074437856674,0.7065087556838989,0.6261489391326904,-0.00979718379676342,0.703014612197876,0.5698380470275879,-0.03368650749325752,0.6996212601661682,0.6507759094238281,-0.03310990706086159,0.6949841380119324,0.712591826915741,-0.02361525595188141,0.7341845631599426,0.6228755712509155,-0.017619451507925987,0.7318416237831116,0.5418747663497925,-0.028872983530163765,0.72820645570755,0.48881709575653076,-0.030757740139961243,0.7232121825218201,0.4363032877445221,-0.02843720093369484,0.0,0.0,0.0,0.0,0.0,0.0,0.0,0.0,0.0,0.0,0.0,0.0,0.0,0.0,0.0,0.0,0.0,0.0,0.0,0.0,0.0,0.0,0.0,0.0,0.0,0.0,0.0,0.0,0.0,0.0,0.0,0.0,0.0,0.0,0.0,0.0,0.0,0.0,0.0,0.0,0.0,0.0,0.0,0.0,0.0,0.0,0.0,0.0,0.0,0.0,0.0,0.0,0.0,0.0,0.0,0.0,0.0,0.0,0.0,0.0,0.0,0.0,0.0
1783345015.81117,0.7185289859771729,0.8378257751464844,-4.3479815303726355e-07,0.6655786037445068,0.8231467604637146,-0.010200539603829384,0.6246420741081238,0.7373366951942444,-0.0133428405970335,0.6311691999435425,0.6675713062286377,-0.01924947462975979,0.6599699854850769,0.6528549194335938,-0.022200502455234528,0.645176112651825,0.6495652198791504,-0.0006617838516831398,0.6346235275268555,0.5788364410400391,-0.020898323506116867,0.6465703248977661,0.6441136002540588,-0.03095795214176178,0.6555651426315308,0.6972646117210388,-0.03334715589880943,0.676047146320343,0.6335160136222839,-0.0036982805468142033,0.6714596748352051,0.5749703049659729,-0.03207006677985191,0.6759488582611084,0.6577333211898804,-0.040965285152196884,0.6768248081207275,0.7174475193023682,-0.038284167647361755,0.7061048746109009,0.6267758011817932,-0.01013101078569889,0.7028669714927673,0.570193350315094,-0.034010402858257294,0.6996098160743713,0.650425374507904,-0.03338828682899475,0.6949923634529114,0.7122474908828735,-0.023949885740876198,0.7336951494216919,0.6233783960342407,-0.01784883812069893,0.7317594885826111,0.542497456073761,-0.02914312295615673,0.7283231019973755,0.48947572708129883,-0.031027551740407944,0.7232404351234436,0.43707069754600525,-0.02877095527946949,0.0,0.0,0.0,0.0,0.0,0.0,0.0,0.0,0.0,0.0,0.0,0.0,0.0,0.0,0.0,0.0,0.0,0.0,0.0,0.0,0.0,0.0,0.0,0.0,0.0,0.0,0.0,0.0,0.0,0.0,0.0,0.0,0.0,0.0,0.0,0.0,0.0,0.0,0.0,0.0,0.0,0.0,0.0,0.0,0.0,0.0,0.0,0.0,0.0,0.0,0.0,0.0,0.0,0.0,0.0,0.0,0.0,0.0,0.0,0.0,0.0,0.0,0.0
1783345015.983104,0.7180941104888916,0.8376471996307373,-4.356492695478664e-07,0.6651111245155334,0.8222385048866272,-0.010002597235143185,0.6242843270301819,0.7368650436401367,-0.013121235184371471,0.6303012371063232,0.6678344011306763,-0.018976882100105286,0.6585185527801514,0.6527348756790161,-0.021848171949386597,0.6451981663703918,0.649040162563324,-0.0007821780745871365,0.6349213123321533,0.5784456729888916,-0.0208430178463459,0.6464988589286804,0.644416332244873,-0.030722742900252342,0.6552811861038208,0.6978157162666321,-0.032996952533721924,0.6760126352310181,0.6331943273544312,-0.003853617236018181,0.6712646484375,0.5746504068374634,-0.03211851418018341,0.6754783391952515,0.6577098965644836,-0.04100021347403526,0.6764235496520996,0.7176636457443237,-0.038322772830724716,0.7060521245002747,0.6265507936477661,-0.01024666242301464,0.7026127576828003,0.5702710151672363,-0.033960409462451935,0.6990547180175781,0.651113748550415,-0.033256229013204575,0.6943195462226868,0.7134431004524231,-0.023796426132321358,0.7336828708648682,0.6233349442481995,-0.017895212396979332,0.7317057847976685,0.5423973798751831,-0.029011186212301254,0.7282338738441467,0.48933976888656616,-0.030767502263188362,0.7231177091598511,0.43695351481437683,-0.028442643582820892,0.0,0.0,0.0,0.0,0.0,0.0,0.0,0.0,0.0,0.0,0.0,0.0,0.0,0.0,0.0,0.0,0.0,0.0,0.0,0.0,0.0,0.0,0.0,0.0,0.0,0.0,0.0,0.0,0.0,0.0,0.0,0.0,0.0,0.0,0.0,0.0,0.0,0.0,0.0,0.0,0.0,0.0,0.0,0.0,0.0,0.0,0.0,0.0,0.0,0.0,0.0,0.0,0.0,0.0,0.0,0.0,0.0,0.0,0.0,0.0,0.0,0.0,0.0
1783345016.164845,0.7178250551223755,0.83784019947052,-4.3381493242122815e-07,0.6645510792732239,0.8219376802444458,-0.009244697168469429,0.6238429546356201,0.7378343343734741,-0.012130715884268284,0.6292204260826111,0.6700429320335388,-0.01793668046593666,0.6561057567596436,0.6555314064025879,-0.020872032269835472,0.6450937390327454,0.6501634120941162,0.0002384258696110919,0.6348859071731567,0.5802109241485596,-0.019652627408504486,0.6460939049720764,0.6454883813858032,-0.0297617856413126,0.6545180082321167,0.6985622644424438,-0.03223653882741928,0.6757538914680481,0.634674608707428,-0.003275530645623803,0.6706280708312988,0.5766037106513977,-0.031024182215332985,0.6744537353515625,0.6580438017845154,-0.040153224021196365,0.6752464771270752,0.7171965837478638,-0.03784125670790672,0.7055806517601013,0.6280677914619446,-0.01005842536687851,0.7021315693855286,0.5717086791992188,-0.03330685570836067,0.6984667778015137,0.6510450839996338,-0.032753873616456985,0.6938467025756836,0.712538480758667,-0.023570137098431587,0.732999324798584,0.6247269511222839,-0.018060872331261635,0.7309451103210449,0.5439817905426025,-0.02880958653986454,0.7275585532188416,0.49118170142173767,-0.030389713123440742,0.7227408289909363,0.43925929069519043,-0.028024453669786453,0.0,0.0,0.0,0.0,0.0,0.0,0.0,0.0,0.0,0.0,0.0,0.0,0.0,0.0,0.0,0.0,0.0,0.0,0.0,0.0,0.0,0.0,0.0,0.0,0.0,0.0,0.0,0.0,0.0,0.0,0.0,0.0,0.0,0.0,0.0,0.0,0.0,0.0,0.0,0.0,0.0,0.0,0.0,0.0,0.0,0.0,0.0,0.0,0.0,0.0,0.0,0.0,0.0,0.0,0.0,0.0,0.0,0.0,0.0,0.0,0.0,0.0,0.0
1783345016.312021,0.7183703780174255,0.8378468751907349,-4.4051785152987577e-07,0.6650961637496948,0.8231645226478577,-0.009910647757351398,0.6241222023963928,0.736639142036438,-0.012689334340393543,0.6306189298629761,0.6661337614059448,-0.018169289454817772,0.6600703001022339,0.6514124274253845,-0.020623739808797836,0.645089864730835,0.6483871340751648,-0.0005955102969892323,0.6347016096115112,0.578370213508606,-0.02040104940533638,0.6462990641593933,0.6441885828971863,-0.02985413186252117,0.6551873683929443,0.696835994720459,-0.031847357749938965,0.6762357354164124,0.632281482219696,-0.003613285720348358,0.6714009046554565,0.5735682845115662,-0.03170699253678322,0.6757479310035706,0.657754123210907,-0.04004666954278946,0.6767056584358215,0.7176417708396912,-0.036856163293123245,0.706392228603363,0.6257663369178772,-0.010000192560255527,0.7029038071632385,0.5709600448608398,-0.03372027352452278,0.6991186141967773,0.6519140601158142,-0.0330200269818306,0.6942771673202515,0.7136931419372559,-0.023452766239643097,0.734287440776825,0.6227009296417236,-0.01763107441365719,0.7317798733711243,0.5417364835739136,-0.028946299105882645,0.7281148433685303,0.4885024428367615,-0.031015411019325256,0.7231194972991943,0.436227947473526,-0.02884605899453163,0.0,0.0,0.0,0.0,0.0,0.0,0.0,0.0,0.0,0.0,0.0,0.0,0.0,0.0,0.0,0.0,0.0,0.0,0.0,0.0,0.0,0.0,0.0,0.0,0.0,0.0,0.0,0.0,0.0,0.0,0.0,0.0,0.0,0.0,0.0,0.0,0.0,0.0,0.0,0.0,0.0,0.0,0.0,0.0,0.0,0.0,0.0,0.0,0.0,0.0,0.0,0.0,0.0,0.0,0.0,0.0,0.0,0.0,0.0,0.0,0.0,0.0,0.0
1783345016.4426298,0.7184163928031921,0.8376896977424622,-4.335136907229753e-07,0.6659687757492065,0.8233364224433899,-0.010333689860999584,0.6244543194770813,0.7367856502532959,-0.01343533955514431,0.630850613117218,0.6664341688156128,-0.019088292494416237,0.6605566143989563,0.6537625789642334,-0.02162371203303337,0.6444796919822693,0.6486738920211792,-0.0011811497388407588,0.6341509819030762,0.5781468152999878,-0.021090062335133553,0.646081805229187,0.6442250609397888,-0.030815744772553444,0.655195415019989,0.6970655918121338,-0.03309008479118347,0.6756281852722168,0.6323404312133789,-0.003966591786593199,0.67076176404953,0.5727641582489014,-0.0318356417119503,0.6753191351890564,0.6557841300964355,-0.040154118090867996,0.6765380501747131,0.7151641845703125,-0.03712204843759537,0.7057555317878723,0.6256058812141418,-0.010099563747644424,0.7023344039916992,0.568757176399231,-0.033222656697034836,0.6989650130271912,0.6486799716949463,-0.03213633596897125,0.6945043802261353,0.7104416489601135,-0.02257588878273964,0.7334452867507935,0.6224637031555176,-0.017568306997418404,0.7311121821403503,0.5418553948402405,-0.028288958594202995,0.7276629209518433,0.4887910783290863,-0.029999731108546257,0.7228341102600098,0.43632397055625916,-0.027771348133683205,0.0,0.0,0.0,0.0,0.0,0.0,0.0,0.0,0.0,0.0,0.0,0.0,0.0,0.0,0.0,0.0,0.0,0.0,0.0,0.0,0.0,0.0,0.0,0.0,0.0,0.0,0.0,0.0,0.0,0.0,0.0,0.0,0.0,0.0,0.0,0.0,0.0,0.0,0.0,0.0,0.0,0.0,0.0,0.0,0.0,0.0,0.0,0.0,0.0,0.0,0.0,0.0,0.0,0.0,0.0,0.0,0.0,0.0,0.0,0.0,0.0,0.0,0.0
1783345016.583174,0.7184233069419861,0.8371574878692627,-4.354177747245558e-07,0.6660361886024475,0.8227308988571167,-0.01031440682709217,0.6246094107627869,0.7359005212783813,-0.013302945531904697,0.6305046081542969,0.6652387976646423,-0.01888742856681347,0.6596548557281494,0.650546133518219,-0.021362941712141037,0.6444762349128723,0.6481096148490906,-0.0010761667508631945,0.6339641213417053,0.5772596001625061,-0.02125365100800991,0.6459481716156006,0.6424086689949036,-0.031066203489899635,0.6551581621170044,0.695732831954956,-0.03325096145272255,0.6756294369697571,0.6318642497062683,-0.003889143466949463,0.6709713935852051,0.5721237063407898,-0.03216942027211189,0.6754220128059387,0.6546608209609985,-0.040746789425611496,0.6764444708824158,0.7145991921424866,-0.03777052089571953,0.705854594707489,0.6250738501548767,-0.010079189203679562,0.7024643421173096,0.5682905912399292,-0.03375280275940895,0.6990767121315002,0.6484007239341736,-0.032923098653554916,0.694420576095581,0.7105437517166138,-0.023353761062026024,0.7334940433502197,0.6219019293785095,-0.017566794529557228,0.7311785221099854,0.541454553604126,-0.028790835291147232,0.7275059819221497,0.48841750621795654,-0.030726782977581024,0.7224465608596802,0.4360872805118561,-0.028521785512566566,0.0,0.0,0.0,0.0,0.0,0.0,0.0,0.0,0.0,0.0,0.0,0.0,0.0,0.0,0.0,0.0,0.0,0.0,0.0,0.0,0.0,0.0,0.0,0.0,0.0,0.0,0.0,0.0,0.0,0.0,0.0,0.0,0.0,0.0,0.0,0.0,0.0,0.0,0.0,0.0,0.0,0.0,0.0,0.0,0.0,0.0,0.0,0.0,0.0,0.0,0.0,0.0,0.0,0.0,0.0,0.0,0.0,0.0,0.0,0.0,0.0,0.0,0.0
1783345016.716531,0.718513548374176,0.8369315266609192,-4.3676524796865124e-07,0.666174590587616,0.8222470283508301,-0.010065735317766666,0.6247637867927551,0.735878050327301,-0.013079939410090446,0.6303159594535828,0.6652452945709229,-0.018808715045452118,0.6588809490203857,0.6501280665397644,-0.02150784246623516,0.6446596384048462,0.6483167409896851,-0.0006679156795144081,0.6340575218200684,0.5774034857749939,-0.02079055644571781,0.6460394263267517,0.6421487331390381,-0.03072981722652912,0.655278742313385,0.6955838203430176,-0.033009253442287445,0.6756482720375061,0.6321080327033997,-0.0036263875663280487,0.6710044145584106,0.5729678869247437,-0.03175683692097664,0.6756600737571716,0.6550865173339844,-0.040516745299100876,0.6768015027046204,0.7149133086204529,-0.037756938487291336,0.7057672739028931,0.6251189112663269,-0.009934527799487114,0.7026734948158264,0.567905843257904,-0.03356262668967247,0.6994348764419556,0.6475880742073059,-0.032852500677108765,0.6948185563087463,0.7096835374832153,-0.02340766042470932,0.7332606315612793,0.621645450592041,-0.017511827871203423,0.7310273051261902,0.5410499572753906,-0.028617041185498238,0.7274945378303528,0.4880731701850891,-0.030447503551840782,0.7225506901741028,0.4360400438308716,-0.0281909741461277,0.0,0.0,0.0,0.0,0.0,0.0,0.0,0.0,0.0,0.0,0.0,0.0,0.0,0.0,0.0,0.0,0.0,0.0,0.0,0.0,0.0,0.0,0.0,0.0,0.0,0.0,0.0,0.0,0.0,0.0,0.0,0.0,0.0,0.0,0.0,0.0,0.0,0.0,0.0,0.0,0.0,0.0,0.0,0.0,0.0,0.0,0.0,0.0,0.0,0.0,0.0,0.0,0.0,0.0,0.0,0.0,0.0,0.0,0.0,0.0,0.0,0.0,0.0
1783345016.8590531,0.7186112999916077,0.8374671339988708,-4.366519306131522e-07,0.6663581132888794,0.8225525617599487,-0.010051396675407887,0.6249931454658508,0.7353063821792603,-0.012969191186130047,0.6306824684143066,0.6644098162651062,-0.01858587935566902,0.6594745516777039,0.6495603919029236,-0.021126478910446167,0.6448096036911011,0.6479051113128662,-0.00048516213428229094,0.6340903639793396,0.5767859220504761,-0.020646587014198303,0.6462429165840149,0.6415077447891235,-0.030602755025029182,0.6556973457336426,0.69486004114151,-0.03288143873214722,0.6758347749710083,0.6317268013954163,-0.0034239015076309443,0.6710293292999268,0.5722373723983765,-0.03148747980594635,0.6758058667182922,0.6544905304908752,-0.04006979987025261,0.677002489566803,0.7141733765602112,-0.037161607295274734,0.7060030698776245,0.6248592138290405,-0.009757356718182564,0.7027522921562195,0.5670027732849121,-0.033208444714546204,0.6996634602546692,0.6466935276985168,-0.03230112046003342,0.6952077746391296,0.7088680267333984,-0.02274281345307827,0.7335683703422546,0.621544599533081,-0.017393125221133232,0.7312730550765991,0.5407999753952026,-0.028430812060832977,0.7276204228401184,0.48795074224472046,-0.03025243617594242,0.7225754261016846,0.4361390769481659,-0.02799048461019993,0.0,0.0,0.0,0.0,0.0,0.0,0.0,0.0,0.0,0.0,0.0,0.0,0.0,0.0,0.0,0.0,0.0,0.0,0.0,0.0,0.0,0.0,0.0,0.0,0.0,0.0,0.0,0.0,0.0,0.0,0.0,0.0,0.0,0.0,0.0,0.0,0.0,0.0,0.0,0.0,0.0,0.0,0.0,0.0,0.0,0.0,0.0,0.0,0.0,0.0,0.0,0.0,0.0,0.0,0.0,0.0,0.0,0.0,0.0,0.0,0.0,0.0,0.0
1783345016.9889522,0.7190143465995789,0.8376484513282776,-4.3702721086447127e-07,0.6665716767311096,0.8222936391830444,-0.009721648879349232,0.6254324913024902,0.7353659272193909,-0.012562944553792477,0.6308908462524414,0.6647630929946899,-0.018203509971499443,0.6591172814369202,0.649412989616394,-0.02082850970327854,0.6451371908187866,0.6482383608818054,6.196757749421522e-05,0.6343492269515991,0.5770987272262573,-0.020127173513174057,0.6464616656303406,0.6416219472885132,-0.030322963371872902,0.6557724475860596,0.6949162483215332,-0.03273529186844826,0.6759623289108276,0.632298469543457,-0.0030328917782753706,0.6711305379867554,0.5730100274085999,-0.03098548762500286,0.6756457090377808,0.6546487808227539,-0.03985092416405678,0.6765648126602173,0.7143253684043884,-0.03718509152531624,0.7060239911079407,0.6252964735031128,-0.009480394423007965,0.7027797102928162,0.5672099590301514,-0.03285139054059982,0.699612557888031,0.6466459631919861,-0.03202953562140465,0.6951184272766113,0.7088651657104492,-0.022532757371664047,0.7335155606269836,0.6217319965362549,-0.01719771698117256,0.7312380075454712,0.5410513877868652,-0.028056278824806213,0.7278107404708862,0.4882408082485199,-0.029697231948375702,0.7230176329612732,0.43644094467163086,-0.02729860506951809,0.0,0.0,0.0,0.0,0.0,0.0,0.0,0.0,0.0,0.0,0.0,0.0,0.0,0.0,0.0,0.0,0.0,0.0,0.0,0.0,0.0,0.0,0.0,0.0,0.0,0.0,0.0,0.0,0.0,0.0,0.0,0.0,0.0,0.0,0.0,0.0,0.0,0.0,0.0,0.0,0.0,0.0,0.0,0.0,0.0,0.0,0.0,0.0,0.0,0.0,0.0,0.0,0.0,0.0,0.0,0.0,0.0,0.0,0.0,0.0,0.0,0.0,0.0
1783345017.148693,0.7194324135780334,0.8374997973442078,-4.3660014625857e-07,0.666673481464386,0.8227541446685791,-0.010104577988386154,0.625231146812439,0.7355024814605713,-0.0129837766289711,0.6309106349945068,0.6644352078437805,-0.018562186509370804,0.6596545577049255,0.6488356590270996,-0.021085232496261597,0.6451931595802307,0.6481173634529114,-0.0002979021519422531,0.6345189213752747,0.5772026777267456,-0.020549921318888664,0.646658182144165,0.6416873931884766,-0.030688133090734482,0.6559054851531982,0.6951009035110474,-0.03303065896034241,0.6760898232460022,0.6319442391395569,-0.0031716623343527317,0.6714787483215332,0.5729047060012817,-0.03134435415267944,0.6759849786758423,0.654753565788269,-0.040177375078201294,0.6768138408660889,0.7145687937736511,-0.03739819675683975,0.7060867547988892,0.6248461604118347,-0.009431719779968262,0.7029988765716553,0.5675236582756042,-0.03309955447912216,0.6998451352119446,0.6474541425704956,-0.032313842326402664,0.6952783465385437,0.7098827958106995,-0.022722188383340836,0.7334966063499451,0.621325671672821,-0.01697561889886856,0.7312135696411133,0.5408892631530762,-0.028085410594940186,0.7277083992958069,0.48809579014778137,-0.029827650636434555,0.7227610945701599,0.43615296483039856,-0.027429161593317986,0.0,0.0,0.0,0.0,0.0,0.0,0.0,0.0,0.0,0.0,0.0,0.0,0.0,0.0,0.0,0.0,0.0,0.0,0.0,0.0,0.0,0.0,0.0,0.0,0.0,0.0,0.0,0.0,0.0,0.0,0.0,0.0,0.0,0.0,0.0,0.0,0.0,0.0,0.0,0.0,0.0,0.0,0.0,0.0,0.0,0.0,0.0,0.0,0.0,0.0,0.0,0.0,0.0,0.0,0.0,0.0,0.0,0.0,0.0,0.0,0.0,0.0,0.0
1783345017.295285,0.7196071147918701,0.8367550373077393,-4.3467147747833224e-07,0.6668627858161926,0.8221715688705444,-0.010535253211855888,0.6255366206169128,0.7350389361381531,-0.013825574889779091,0.6321454048156738,0.6646509766578674,-0.019764980301260948,0.6626608967781067,0.6529622077941895,-0.022588573396205902,0.6449499726295471,0.6452644467353821,-0.0006720233359374106,0.6344707012176514,0.5752497911453247,-0.020984968170523643,0.6466697454452515,0.6412195563316345,-0.030936628580093384,0.6560473442077637,0.693881094455719,-0.0331806056201458,0.6761011481285095,0.6292548775672913,-0.003488820046186447,0.6715558171272278,0.570945143699646,-0.031999170780181885,0.6764724850654602,0.6544317007064819,-0.04060890153050423,0.6778534650802612,0.7140035629272461,-0.037484146654605865,0.7063825130462646,0.6228104829788208,-0.009748035110533237,0.7033472061157227,0.5676482915878296,-0.03375492990016937,0.700363278388977,0.6486958265304565,-0.032964084297418594,0.6960461139678955,0.7107487916946411,-0.023156138136982918,0.7343938946723938,0.6200337409973145,-0.01732669584453106,0.7319008708000183,0.5395090579986572,-0.028371989727020264,0.7283259630203247,0.48672324419021606,-0.03004695288836956,0.723388671875,0.4343976378440857,-0.027547938749194145,0.0,0.0,0.0,0.0,0.0,0.0,0.0,0.0,0.0,0.0,0.0,0.0,0.0,0.0,0.0,0.0,0.0,0.0,0.0,0.0,0.0,0.0,0.0,0.0,0.0,0.0,0.0,0.0,0.0,0.0,0.0,0.0,0.0,0.0,0.0,0.0,0.0,0.0,0.0,0.0,0.0,0.0,0.0,0.0,0.0,0.0,0.0,0.0,0.0,0.0,0.0,0.0,0.0,0.0,0.0,0.0,0.0,0.0,0.0,0.0,0.0,0.0,0.0
