ciel274/research-hand-sign/data/raw/hiragana/sign_language_ra_2.csv
timestamp,R_joint_0_x,R_joint_0_y,R_joint_0_z,R_joint_1_x,R_joint_1_y,R_joint_1_z,R_joint_2_x,R_joint_2_y,R_joint_2_z,R_joint_3_x,R_joint_3_y,R_joint_3_z,R_joint_4_x,R_joint_4_y,R_joint_4_z,R_joint_5_x,R_joint_5_y,R_joint_5_z,R_joint_6_x,R_joint_6_y,R_joint_6_z,R_joint_7_x,R_joint_7_y,R_joint_7_z,R_joint_8_x,R_joint_8_y,R_joint_8_z,R_joint_9_x,R_joint_9_y,R_joint_9_z,R_joint_10_x,R_joint_10_y,R_joint_10_z,R_joint_11_x,R_joint_11_y,R_joint_11_z,R_joint_12_x,R_joint_12_y,R_joint_12_z,R_joint_13_x,R_joint_13_y,R_joint_13_z,R_joint_14_x,R_joint_14_y,R_joint_14_z,R_joint_15_x,R_joint_15_y,R_joint_15_z,R_joint_16_x,R_joint_16_y,R_joint_16_z,R_joint_17_x,R_joint_17_y,R_joint_17_z,R_joint_18_x,R_joint_18_y,R_joint_18_z,R_joint_19_x,R_joint_19_y,R_joint_19_z,R_joint_20_x,R_joint_20_y,R_joint_20_z,L_joint_0_x,L_joint_0_y,L_joint_0_z,L_joint_1_x,L_joint_1_y,L_joint_1_z,L_joint_2_x,L_joint_2_y,L_joint_2_z,L_joint_3_x,L_joint_3_y,L_joint_3_z,L_joint_4_x,L_joint_4_y,L_joint_4_z,L_joint_5_x,L_joint_5_y,L_joint_5_z,L_joint_6_x,L_joint_6_y,L_joint_6_z,L_joint_7_x,L_joint_7_y,L_joint_7_z,L_joint_8_x,L_joint_8_y,L_joint_8_z,L_joint_9_x,L_joint_9_y,L_joint_9_z,L_joint_10_x,L_joint_10_y,L_joint_10_z,L_joint_11_x,L_joint_11_y,L_joint_11_z,L_joint_12_x,L_joint_12_y,L_joint_12_z,L_joint_13_x,L_joint_13_y,L_joint_13_z,L_joint_14_x,L_joint_14_y,L_joint_14_z,L_joint_15_x,L_joint_15_y,L_joint_15_z,L_joint_16_x,L_joint_16_y,L_joint_16_z,L_joint_17_x,L_joint_17_y,L_joint_17_z,L_joint_18_x,L_joint_18_y,L_joint_18_z,L_joint_19_x,L_joint_19_y,L_joint_19_z,L_joint_20_x,L_joint_20_y,L_joint_20_z
1784047034.8324502,0.6919035315513611,0.9718191027641296,3.2682925166227506e-07,0.6366378664970398,0.915425181388855,-0.018997693434357643,0.617091953754425,0.8075909614562988,-0.025198359042406082,0.6420409083366394,0.7133615016937256,-0.035618048161268234,0.6726380586624146,0.6457691788673401,-0.043848857283592224,0.6521872282028198,0.6858689785003662,0.01416020281612873,0.6513667106628418,0.5749318599700928,0.0012767479056492448,0.6559629440307617,0.5019728541374207,-0.009942980483174324,0.6631959676742554,0.43456482887268066,-0.01950419880449772,0.6851260662078857,0.6748891472816467,0.007272827439010143,0.672387957572937,0.5461140871047974,-0.013813698664307594,0.6585655212402344,0.4727422595024109,-0.03018544614315033,0.6537737250328064,0.41115593910217285,-0.03959772363305092,0.715324342250824,0.6902369856834412,-0.004706934094429016,0.7189532518386841,0.575130820274353,-0.039908040314912796,0.7017415761947632,0.6544830799102783,-0.043731939047575,0.6930060982704163,0.7251784205436707,-0.03575562685728073,0.7464558482170105,0.7256746888160706,-0.01890748366713524,0.745618462562561,0.6357722878456116,-0.046474389731884,0.726011335849762,0.6794890761375427,-0.04744688794016838,0.7109301686286926,0.7383456230163574,-0.04162973538041115,0.0,0.0,0.0,0.0,0.0,0.0,0.0,0.0,0.0,0.0,0.0,0.0,0.0,0.0,0.0,0.0,0.0,0.0,0.0,0.0,0.0,0.0,0.0,0.0,0.0,0.0,0.0,0.0,0.0,0.0,0.0,0.0,0.0,0.0,0.0,0.0,0.0,0.0,0.0,0.0,0.0,0.0,0.0,0.0,0.0,0.0,0.0,0.0,0.0,0.0,0.0,0.0,0.0,0.0,0.0,0.0,0.0,0.0,0.0,0.0,0.0,0.0,0.0
1784047035.172939,0.6899693608283997,0.9828736782073975,3.245048105782189e-07,0.6356156468391418,0.9223641157150269,-0.017240561544895172,0.6179202795028687,0.8046031594276428,-0.023268023505806923,0.6438170075416565,0.7113568186759949,-0.034332819283008575,0.6744502782821655,0.6462746262550354,-0.043913569301366806,0.6503607034683228,0.6805831789970398,0.012166806496679783,0.6488901972770691,0.575541615486145,-0.004031060729175806,0.6541416049003601,0.5005587935447693,-0.01845911704003811,0.6637824177742004,0.43182045221328735,-0.030217062681913376,0.6826504468917847,0.6695951223373413,0.003127803560346365,0.6696639060974121,0.540086567401886,-0.020551521331071854,0.652025043964386,0.4666944742202759,-0.04033629223704338,0.6456785798072815,0.40424644947052,-0.05230104550719261,0.7140598297119141,0.6868568062782288,-0.010526728816330433,0.7206860184669495,0.5712319016456604,-0.04830820485949516,0.697792112827301,0.6508245468139648,-0.05510716885328293,0.6855045557022095,0.7239541411399841,-0.04919543117284775,0.7467386722564697,0.7253695130348206,-0.02604665420949459,0.7437999248504639,0.6396864652633667,-0.05580775439739227,0.7215414643287659,0.6857751607894897,-0.057808831334114075,0.7066917419433594,0.7465385794639587,-0.052617933601140976,0.0,0.0,0.0,0.0,0.0,0.0,0.0,0.0,0.0,0.0,0.0,0.0,0.0,0.0,0.0,0.0,0.0,0.0,0.0,0.0,0.0,0.0,0.0,0.0,0.0,0.0,0.0,0.0,0.0,0.0,0.0,0.0,0.0,0.0,0.0,0.0,0.0,0.0,0.0,0.0,0.0,0.0,0.0,0.0,0.0,0.0,0.0,0.0,0.0,0.0,0.0,0.0,0.0,0.0,0.0,0.0,0.0,0.0,0.0,0.0,0.0,0.0,0.0
1784047035.597447,0.6882926821708679,0.9846036434173584,2.9552106184382865e-07,0.6361309289932251,0.9163123369216919,-0.018272461369633675,0.6190925240516663,0.8028419017791748,-0.02557310275733471,0.6453529596328735,0.7108448147773743,-0.03754094988107681,0.6744861006736755,0.6454789638519287,-0.048520419746637344,0.6513167023658752,0.6814026236534119,0.008648206479847431,0.651150643825531,0.5724191069602966,-0.008233483880758286,0.65546715259552,0.4974652826786041,-0.023129284381866455,0.6645069718360901,0.4269542992115021,-0.03485552966594696,0.6823915839195251,0.6733642816543579,0.0007712322985753417,0.6691547632217407,0.542299747467041,-0.021570056676864624,0.6516889929771423,0.4705869257450104,-0.04012977331876755,0.6451360583305359,0.40807226300239563,-0.05171851068735123,0.7136439085006714,0.6928221583366394,-0.011691116727888584,0.7218844890594482,0.5758401155471802,-0.04916633293032646,0.699460506439209,0.6519402861595154,-0.057734668254852295,0.6868923902511597,0.7247695922851562,-0.053666625171899796,0.7459632754325867,0.7324408292770386,-0.025868313387036324,0.7456403374671936,0.6450768709182739,-0.056143827736377716,0.7221027612686157,0.6894159913063049,-0.059216275811195374,0.705521285533905,0.7493752837181091,-0.05517132952809334,0.0,0.0,0.0,0.0,0.0,0.0,0.0,0.0,0.0,0.0,0.0,0.0,0.0,0.0,0.0,0.0,0.0,0.0,0.0,0.0,0.0,0.0,0.0,0.0,0.0,0.0,0.0,0.0,0.0,0.0,0.0,0.0,0.0,0.0,0.0,0.0,0.0,0.0,0.0,0.0,0.0,0.0,0.0,0.0,0.0,0.0,0.0,0.0,0.0,0.0,0.0,0.0,0.0,0.0,0.0,0.0,0.0,0.0,0.0,0.0,0.0,0.0,0.0
1784047035.945772,0.6914975047111511,0.9912432432174683,3.044143568331492e-07,0.638861894607544,0.9230987429618835,-0.01850108988583088,0.6204723715782166,0.8084317445755005,-0.025883328169584274,0.6478621363639832,0.7160302400588989,-0.038211870938539505,0.6810225248336792,0.6512792706489563,-0.049429889768362045,0.6534021496772766,0.6859368085861206,0.010369042865931988,0.6539140939712524,0.577966570854187,-0.006915431935340166,0.65980064868927,0.5018417239189148,-0.02235315926373005,0.6701064705848694,0.43015575408935547,-0.03459641709923744,0.685386598110199,0.6752638816833496,0.001988688949495554,0.6717274785041809,0.5445525646209717,-0.02112806774675846,0.6542062163352966,0.471352219581604,-0.04015323519706726,0.6474640369415283,0.4069956839084625,-0.05184033140540123,0.7169660329818726,0.6934753656387329,-0.011236255057156086,0.7245234847068787,0.5765003561973572,-0.04981837794184685,0.7033737301826477,0.6551456451416016,-0.058368388563394547,0.6922047734260559,0.7301411032676697,-0.05376360937952995,0.7493730783462524,0.7337605953216553,-0.02627127431333065,0.7493457794189453,0.6459466218948364,-0.057005491107702255,0.7258573770523071,0.6909309029579163,-0.05996778979897499,0.7095734477043152,0.7529391050338745,-0.05564067140221596,0.0,0.0,0.0,0.0,0.0,0.0,0.0,0.0,0.0,0.0,0.0,0.0,0.0,0.0,0.0,0.0,0.0,0.0,0.0,0.0,0.0,0.0,0.0,0.0,0.0,0.0,0.0,0.0,0.0,0.0,0.0,0.0,0.0,0.0,0.0,0.0,0.0,0.0,0.0,0.0,0.0,0.0,0.0,0.0,0.0,0.0,0.0,0.0,0.0,0.0,0.0,0.0,0.0,0.0,0.0,0.0,0.0,0.0,0.0,0.0,0.0,0.0,0.0
1784047036.2123919,0.692013680934906,0.9917539358139038,2.984839682085294e-07,0.6383311748504639,0.9216616749763489,-0.017983155325055122,0.621751070022583,0.8078253269195557,-0.024947496131062508,0.650281548500061,0.7159656882286072,-0.03693552687764168,0.6828786134719849,0.651350736618042,-0.04788590967655182,0.6544376611709595,0.6898539066314697,0.010378501377999783,0.6549730896949768,0.5836110711097717,-0.007182333618402481,0.6605789065361023,0.5058271288871765,-0.02278890646994114,0.6713600158691406,0.43238112330436707,-0.0352213978767395,0.6866920590400696,0.6782337427139282,0.0019102132646366954,0.6727589964866638,0.5494159460067749,-0.02213323675096035,0.6550683975219727,0.4762042760848999,-0.04176831617951393,0.6490423679351807,0.4106505215167999,-0.053932614624500275,0.7182937860488892,0.6948723793029785,-0.011248561553657055,0.7259402871131897,0.581139087677002,-0.05004558712244034,0.703792154788971,0.6593917012214661,-0.05823527276515961,0.6921131610870361,0.7322108745574951,-0.05346059799194336,0.750933825969696,0.7342331409454346,-0.026217566803097725,0.7508605718612671,0.6480444669723511,-0.055969368666410446,0.7272416353225708,0.693097710609436,-0.05804481729865074,0.7112558484077454,0.7538667321205139,-0.05334840714931488,0.0,0.0,0.0,0.0,0.0,0.0,0.0,0.0,0.0,0.0,0.0,0.0,0.0,0.0,0.0,0.0,0.0,0.0,0.0,0.0,0.0,0.0,0.0,0.0,0.0,0.0,0.0,0.0,0.0,0.0,0.0,0.0,0.0,0.0,0.0,0.0,0.0,0.0,0.0,0.0,0.0,0.0,0.0,0.0,0.0,0.0,0.0,0.0,0.0,0.0,0.0,0.0,0.0,0.0,0.0,0.0,0.0,0.0,0.0,0.0,0.0,0.0,0.0
1784047036.449674,0.6923536062240601,0.9927777647972107,3.1097434316507133e-07,0.6389207243919373,0.9242336750030518,-0.01698547601699829,0.6226558089256287,0.8071593046188354,-0.023359091952443123,0.6516989469528198,0.7151912450790405,-0.03486067056655884,0.6847344636917114,0.65140700340271,-0.04513734579086304,0.6557941436767578,0.6844635605812073,0.012730061076581478,0.6561586856842041,0.5789400935173035,-0.0032440463546663523,0.6616506576538086,0.503371000289917,-0.017721176147460938,0.6720190048217773,0.43229231238365173,-0.02942085638642311,0.6882659196853638,0.6743810772895813,0.003923351410776377,0.674593985080719,0.5450588464736938,-0.018944524228572845,0.6565413475036621,0.472873330116272,-0.037523385137319565,0.6497052311897278,0.4093003571033478,-0.048630114644765854,0.7203033566474915,0.6926118731498718,-0.009600023739039898,0.7277624011039734,0.5780326724052429,-0.04783063009381294,0.7049870491027832,0.6584922075271606,-0.05553450435400009,0.6926923394203186,0.7329594492912292,-0.050062477588653564,0.753209114074707,0.7331889271736145,-0.02483605593442917,0.7519297003746033,0.6475815176963806,-0.05449405685067177,0.7280941009521484,0.6938440799713135,-0.056468598544597626,0.712111234664917,0.7555806040763855,-0.05132780224084854,0.0,0.0,0.0,0.0,0.0,0.0,0.0,0.0,0.0,0.0,0.0,0.0,0.0,0.0,0.0,0.0,0.0,0.0,0.0,0.0,0.0,0.0,0.0,0.0,0.0,0.0,0.0,0.0,0.0,0.0,0.0,0.0,0.0,0.0,0.0,0.0,0.0,0.0,0.0,0.0,0.0,0.0,0.0,0.0,0.0,0.0,0.0,0.0,0.0,0.0,0.0,0.0,0.0,0.0,0.0,0.0,0.0,0.0,0.0,0.0,0.0,0.0,0.0
1784047036.684476,0.6930423378944397,0.9907255172729492,2.9833751113983453e-07,0.6385335922241211,0.9225006699562073,-0.015973450616002083,0.6227517127990723,0.8049642443656921,-0.02125753089785576,0.6521530747413635,0.7131057977676392,-0.03231431543827057,0.6871964335441589,0.6524567604064941,-0.041727215051651,0.6567182540893555,0.6838515400886536,0.014912024140357971,0.6566682457923889,0.5820897817611694,-0.0018021175637841225,0.6631613373756409,0.5047358274459839,-0.016785582527518272,0.6746214032173157,0.4332897663116455,-0.02915467694401741,0.6900303363800049,0.6717033982276917,0.005115795880556107,0.6753602027893066,0.5458663702011108,-0.020898450165987015,0.6569228768348694,0.4731563329696655,-0.04107178375124931,0.6504670977592468,0.40975403785705566,-0.052788812667131424,0.7220121026039124,0.6885059475898743,-0.009336050599813461,0.7283915877342224,0.5800264477729797,-0.04854799062013626,0.7060028314590454,0.665479302406311,-0.05257657542824745,0.6940948963165283,0.7389917969703674,-0.0440824031829834,0.7554026246070862,0.7288188338279724,-0.025822680443525314,0.7542513608932495,0.6456868648529053,-0.05417073890566826,0.7299717664718628,0.6934146285057068,-0.0530242919921875,0.7132397890090942,0.7541516423225403,-0.04554508998990059,0.0,0.0,0.0,0.0,0.0,0.0,0.0,0.0,0.0,0.0,0.0,0.0,0.0,0.0,0.0,0.0,0.0,0.0,0.0,0.0,0.0,0.0,0.0,0.0,0.0,0.0,0.0,0.0,0.0,0.0,0.0,0.0,0.0,0.0,0.0,0.0,0.0,0.0,0.0,0.0,0.0,0.0,0.0,0.0,0.0,0.0,0.0,0.0,0.0,0.0,0.0,0.0,0.0,0.0,0.0,0.0,0.0,0.0,0.0,0.0,0.0,0.0,0.0
1784047036.916627,0.6937620639801025,0.9939827919006348,3.0724638122592296e-07,0.6400066018104553,0.9243542551994324,-0.018127692863345146,0.6240684390068054,0.8069586753845215,-0.02444574236869812,0.6542200446128845,0.7147247195243835,-0.03593752905726433,0.6889240741729736,0.6524196863174438,-0.04602756351232529,0.6564089059829712,0.6876494884490967,0.012696908786892891,0.6574934720993042,0.5810739994049072,-0.0042913490906357765,0.6644940376281738,0.5037437081336975,-0.019431229680776596,0.6760828495025635,0.4321078956127167,-0.03158934786915779,0.6894830465316772,0.6760242581367493,0.004063659813255072,0.6750977635383606,0.546277642250061,-0.020268749445676804,0.6576718688011169,0.47316545248031616,-0.0398964062333107,0.6518844366073608,0.40887391567230225,-0.05160883441567421,0.7216631174087524,0.6935685276985168,-0.009479544125497341,0.7294155955314636,0.5799599289894104,-0.04862270876765251,0.70823073387146,0.662555456161499,-0.05548536032438278,0.6968778371810913,0.7368914484977722,-0.04920414835214615,0.754993200302124,0.7341923117637634,-0.0249867532402277,0.7553390264511108,0.6477440595626831,-0.05473385751247406,0.732014000415802,0.6935599446296692,-0.05602924898266792,0.7155940532684326,0.7538911700248718,-0.050395019352436066,0.0,0.0,0.0,0.0,0.0,0.0,0.0,0.0,0.0,0.0,0.0,0.0,0.0,0.0,0.0,0.0,0.0,0.0,0.0,0.0,0.0,0.0,0.0,0.0,0.0,0.0,0.0,0.0,0.0,0.0,0.0,0.0,0.0,0.0,0.0,0.0,0.0,0.0,0.0,0.0,0.0,0.0,0.0,0.0,0.0,0.0,0.0,0.0,0.0,0.0,0.0,0.0,0.0,0.0,0.0,0.0,0.0,0.0,0.0,0.0,0.0,0.0,0.0
1784047037.136672,0.696466326713562,0.9939466714859009,3.017284768702666e-07,0.6432473063468933,0.9243789911270142,-0.019318358972668648,0.6265658140182495,0.8084052205085754,-0.02674894593656063,0.6562316417694092,0.7158056497573853,-0.038975510746240616,0.6906455755233765,0.6527223587036133,-0.04993638023734093,0.6573563814163208,0.6898494958877563,0.00962468795478344,0.6578433513641357,0.580528974533081,-0.008244061842560768,0.6639645099639893,0.5036591291427612,-0.023785267025232315,0.6745924949645996,0.43160468339920044,-0.035963770002126694,0.6904323101043701,0.6783497929573059,0.0016471859999001026,0.6761677265167236,0.5467329025268555,-0.02224978804588318,0.6590361595153809,0.4731532633304596,-0.041382111608982086,0.6529196500778198,0.40714773535728455,-0.0529656745493412,0.72305828332901,0.6957051157951355,-0.011246292851865292,0.7309845089912415,0.5807629227638245,-0.0503641813993454,0.7098426818847656,0.6631790995597839,-0.05796775594353676,0.6981935501098633,0.7385438084602356,-0.05242466926574707,0.7567710280418396,0.7354305982589722,-0.026097428053617477,0.7568563222885132,0.6496056318283081,-0.056384067982435226,0.7331026792526245,0.6953909397125244,-0.058355335146188736,0.7160325050354004,0.7555631399154663,-0.05329769477248192,0.0,0.0,0.0,0.0,0.0,0.0,0.0,0.0,0.0,0.0,0.0,0.0,0.0,0.0,0.0,0.0,0.0,0.0,0.0,0.0,0.0,0.0,0.0,0.0,0.0,0.0,0.0,0.0,0.0,0.0,0.0,0.0,0.0,0.0,0.0,0.0,0.0,0.0,0.0,0.0,0.0,0.0,0.0,0.0,0.0,0.0,0.0,0.0,0.0,0.0,0.0,0.0,0.0,0.0,0.0,0.0,0.0,0.0,0.0,0.0,0.0,0.0,0.0
