ciel274/research-hand-sign/data/raw/hiragana/sign_language_te_1.csv
timestamp,R_joint_0_x,R_joint_0_y,R_joint_0_z,R_joint_1_x,R_joint_1_y,R_joint_1_z,R_joint_2_x,R_joint_2_y,R_joint_2_z,R_joint_3_x,R_joint_3_y,R_joint_3_z,R_joint_4_x,R_joint_4_y,R_joint_4_z,R_joint_5_x,R_joint_5_y,R_joint_5_z,R_joint_6_x,R_joint_6_y,R_joint_6_z,R_joint_7_x,R_joint_7_y,R_joint_7_z,R_joint_8_x,R_joint_8_y,R_joint_8_z,R_joint_9_x,R_joint_9_y,R_joint_9_z,R_joint_10_x,R_joint_10_y,R_joint_10_z,R_joint_11_x,R_joint_11_y,R_joint_11_z,R_joint_12_x,R_joint_12_y,R_joint_12_z,R_joint_13_x,R_joint_13_y,R_joint_13_z,R_joint_14_x,R_joint_14_y,R_joint_14_z,R_joint_15_x,R_joint_15_y,R_joint_15_z,R_joint_16_x,R_joint_16_y,R_joint_16_z,R_joint_17_x,R_joint_17_y,R_joint_17_z,R_joint_18_x,R_joint_18_y,R_joint_18_z,R_joint_19_x,R_joint_19_y,R_joint_19_z,R_joint_20_x,R_joint_20_y,R_joint_20_z,L_joint_0_x,L_joint_0_y,L_joint_0_z,L_joint_1_x,L_joint_1_y,L_joint_1_z,L_joint_2_x,L_joint_2_y,L_joint_2_z,L_joint_3_x,L_joint_3_y,L_joint_3_z,L_joint_4_x,L_joint_4_y,L_joint_4_z,L_joint_5_x,L_joint_5_y,L_joint_5_z,L_joint_6_x,L_joint_6_y,L_joint_6_z,L_joint_7_x,L_joint_7_y,L_joint_7_z,L_joint_8_x,L_joint_8_y,L_joint_8_z,L_joint_9_x,L_joint_9_y,L_joint_9_z,L_joint_10_x,L_joint_10_y,L_joint_10_z,L_joint_11_x,L_joint_11_y,L_joint_11_z,L_joint_12_x,L_joint_12_y,L_joint_12_z,L_joint_13_x,L_joint_13_y,L_joint_13_z,L_joint_14_x,L_joint_14_y,L_joint_14_z,L_joint_15_x,L_joint_15_y,L_joint_15_z,L_joint_16_x,L_joint_16_y,L_joint_16_z,L_joint_17_x,L_joint_17_y,L_joint_17_z,L_joint_18_x,L_joint_18_y,L_joint_18_z,L_joint_19_x,L_joint_19_y,L_joint_19_z,L_joint_20_x,L_joint_20_y,L_joint_20_z
1783390943.928093,0.6996766924858093,0.8564481735229492,1.8286000624812004e-07,0.6557159423828125,0.8212344646453857,-0.012692514806985855,0.6314753890037537,0.7416931986808777,-0.01592666655778885,0.6297401785850525,0.6681461930274963,-0.0190582312643528,0.632631778717041,0.6137646436691284,-0.021532773971557617,0.6554940342903137,0.6423543691635132,0.0018422098364681005,0.6493819952011108,0.5637577176094055,-0.007602386642247438,0.6482388377189636,0.5160040259361267,-0.018134068697690964,0.6490048766136169,0.4730762839317322,-0.026700282469391823,0.6785885691642761,0.6334711909294128,-0.0012166857486590743,0.6734488606452942,0.5448565483093262,-0.00867125578224659,0.6714667677879333,0.4916134178638458,-0.018124140799045563,0.6696405410766602,0.4434255063533783,-0.02577500231564045,0.699969470500946,0.6424159407615662,-0.0075062778778374195,0.6967697143554688,0.558114767074585,-0.01600084826350212,0.6937638521194458,0.505719780921936,-0.022750109434127808,0.690460741519928,0.4584888517856598,-0.028475984930992126,0.7229276299476624,0.6648320555686951,-0.01581486687064171,0.7214068174362183,0.6002945303916931,-0.02413320541381836,0.7192938327789307,0.557159960269928,-0.028034966439008713,0.7161819338798523,0.5156821012496948,-0.0313444584608078,0.0,0.0,0.0,0.0,0.0,0.0,0.0,0.0,0.0,0.0,0.0,0.0,0.0,0.0,0.0,0.0,0.0,0.0,0.0,0.0,0.0,0.0,0.0,0.0,0.0,0.0,0.0,0.0,0.0,0.0,0.0,0.0,0.0,0.0,0.0,0.0,0.0,0.0,0.0,0.0,0.0,0.0,0.0,0.0,0.0,0.0,0.0,0.0,0.0,0.0,0.0,0.0,0.0,0.0,0.0,0.0,0.0,0.0,0.0,0.0,0.0,0.0,0.0
1783390944.077121,0.6993462443351746,0.8533214926719666,1.9142397889027052e-07,0.6552104949951172,0.8161420822143555,-0.012229654006659985,0.6302284598350525,0.736798107624054,-0.014904812909662724,0.6278511881828308,0.6640505194664001,-0.017584212124347687,0.6323471665382385,0.6121248006820679,-0.019539855420589447,0.655307948589325,0.6373120546340942,0.0037030179519206285,0.6491149067878723,0.5587397217750549,-0.004608060233294964,0.6481377482414246,0.5111703276634216,-0.014675426296889782,0.6490227580070496,0.46788856387138367,-0.02305498719215393,0.6783132553100586,0.6295472383499146,0.0007796109421178699,0.6725595593452454,0.5415415167808533,-0.0057072872295975685,0.6707960367202759,0.4884202480316162,-0.014910567551851273,0.6695351600646973,0.44026270508766174,-0.02243204414844513,0.699757993221283,0.6386783719062805,-0.005372311919927597,0.6960986256599426,0.5545098781585693,-0.012905538082122803,0.6933450698852539,0.5021734237670898,-0.019500598311424255,0.6907535195350647,0.4551765024662018,-0.025182805955410004,0.7232241630554199,0.6604865193367004,-0.013555227778851986,0.7212501168251038,0.5951100587844849,-0.02090800367295742,0.7191276550292969,0.5517281293869019,-0.024454355239868164,0.716404139995575,0.5097283124923706,-0.027595320716500282,0.0,0.0,0.0,0.0,0.0,0.0,0.0,0.0,0.0,0.0,0.0,0.0,0.0,0.0,0.0,0.0,0.0,0.0,0.0,0.0,0.0,0.0,0.0,0.0,0.0,0.0,0.0,0.0,0.0,0.0,0.0,0.0,0.0,0.0,0.0,0.0,0.0,0.0,0.0,0.0,0.0,0.0,0.0,0.0,0.0,0.0,0.0,0.0,0.0,0.0,0.0,0.0,0.0,0.0,0.0,0.0,0.0,0.0,0.0,0.0,0.0,0.0,0.0
1783390944.2279758,0.6988639831542969,0.850642204284668,1.8457534167737322e-07,0.6553868055343628,0.8150493502616882,-0.012763408944010735,0.6305170655250549,0.7352153658866882,-0.01549497153609991,0.6286832690238953,0.6620658040046692,-0.01807335391640663,0.6326054334640503,0.6100485920906067,-0.01993759535253048,0.6552704572677612,0.6352026462554932,0.0031562375370413065,0.6489930748939514,0.5573431253433228,-0.005152527708560228,0.6480002403259277,0.5102100372314453,-0.015269915573298931,0.6488612294197083,0.46724754571914673,-0.02370982989668846,0.6785715818405151,0.6272598505020142,0.0005239056772552431,0.6730363368988037,0.5393399000167847,-0.005943947471678257,0.6714074611663818,0.4863918721675873,-0.015191750600934029,0.6700584888458252,0.43826642632484436,-0.02287440188229084,0.6998435258865356,0.6363023519515991,-0.0053963931277394295,0.6966456174850464,0.5529700517654419,-0.012953637167811394,0.6942238211631775,0.5008140802383423,-0.019746268168091774,0.6918767094612122,0.4544808268547058,-0.025662226602435112,0.7230149507522583,0.6577690243721008,-0.01338850799947977,0.7213110327720642,0.5928252935409546,-0.020812908187508583,0.7194972634315491,0.5495830774307251,-0.024647582322359085,0.7170381546020508,0.5080005526542664,-0.028113102540373802,0.0,0.0,0.0,0.0,0.0,0.0,0.0,0.0,0.0,0.0,0.0,0.0,0.0,0.0,0.0,0.0,0.0,0.0,0.0,0.0,0.0,0.0,0.0,0.0,0.0,0.0,0.0,0.0,0.0,0.0,0.0,0.0,0.0,0.0,0.0,0.0,0.0,0.0,0.0,0.0,0.0,0.0,0.0,0.0,0.0,0.0,0.0,0.0,0.0,0.0,0.0,0.0,0.0,0.0,0.0,0.0,0.0,0.0,0.0,0.0,0.0,0.0,0.0
1783390944.384058,0.6989006996154785,0.8496014475822449,1.7777495031623403e-07,0.655470609664917,0.813839316368103,-0.012438070960342884,0.6312835216522217,0.7337145209312439,-0.015193415805697441,0.6294996738433838,0.6605038046836853,-0.017862878739833832,0.6321457028388977,0.6075241565704346,-0.019856812432408333,0.6558408737182617,0.6345183253288269,0.0030369325540959835,0.6497611999511719,0.5562133193016052,-0.005434038117527962,0.6484138369560242,0.5089215040206909,-0.015577747486531734,0.648785412311554,0.4660455584526062,-0.02398092858493328,0.6791830062866211,0.6262996792793274,0.0002188114740420133,0.6737959980964661,0.5380576252937317,-0.006370028480887413,0.6716960668563843,0.48500704765319824,-0.015601078048348427,0.669747531414032,0.4372316300868988,-0.02323349006474018,0.7003833055496216,0.6350131034851074,-0.005815763957798481,0.6971198320388794,0.5512539744377136,-0.01328418031334877,0.6942395567893982,0.49876606464385986,-0.019899969920516014,0.6912936568260193,0.4522055387496948,-0.025727346539497375,0.7232358455657959,0.6564233303070068,-0.013895785436034203,0.7218010425567627,0.5913553833961487,-0.02125244401395321,0.7198733687400818,0.5477910041809082,-0.024973295629024506,0.7171599268913269,0.506168007850647,-0.02832990325987339,0.0,0.0,0.0,0.0,0.0,0.0,0.0,0.0,0.0,0.0,0.0,0.0,0.0,0.0,0.0,0.0,0.0,0.0,0.0,0.0,0.0,0.0,0.0,0.0,0.0,0.0,0.0,0.0,0.0,0.0,0.0,0.0,0.0,0.0,0.0,0.0,0.0,0.0,0.0,0.0,0.0,0.0,0.0,0.0,0.0,0.0,0.0,0.0,0.0,0.0,0.0,0.0,0.0,0.0,0.0,0.0,0.0,0.0,0.0,0.0,0.0,0.0,0.0
1783390944.530922,0.6992804408073425,0.8492609262466431,1.8454576888871088e-07,0.6555092930793762,0.8131110072135925,-0.012616179883480072,0.6312992572784424,0.733232319355011,-0.015514744445681572,0.6294742822647095,0.6601272821426392,-0.018336275592446327,0.6326523423194885,0.6072630882263184,-0.020417595282197,0.6556520462036133,0.635103702545166,0.0029276160057634115,0.649529755115509,0.5563316345214844,-0.005730298813432455,0.6484692096710205,0.5087255835533142,-0.01585759036242962,0.6492139101028442,0.46521851420402527,-0.024199368432164192,0.6788285970687866,0.6270341873168945,0.000165831865160726,0.6733978390693665,0.5389209389686584,-0.006637691054493189,0.6716482639312744,0.4852195382118225,-0.01573137938976288,0.6704370379447937,0.43630555272102356,-0.02313932217657566,0.7002156972885132,0.6357197165489197,-0.005867393687367439,0.6966164708137512,0.55251544713974,-0.013550866395235062,0.6943598985671997,0.5004428029060364,-0.01991850882768631,0.6922253966331482,0.45376887917518616,-0.025412550196051598,0.7233315110206604,0.6568453311920166,-0.013976877555251122,0.7217497229576111,0.5923642516136169,-0.021381938830018044,0.7200137376785278,0.5492437481880188,-0.024905359372496605,0.7176961898803711,0.5077941417694092,-0.02802124246954918,0.0,0.0,0.0,0.0,0.0,0.0,0.0,0.0,0.0,0.0,0.0,0.0,0.0,0.0,0.0,0.0,0.0,0.0,0.0,0.0,0.0,0.0,0.0,0.0,0.0,0.0,0.0,0.0,0.0,0.0,0.0,0.0,0.0,0.0,0.0,0.0,0.0,0.0,0.0,0.0,0.0,0.0,0.0,0.0,0.0,0.0,0.0,0.0,0.0,0.0,0.0,0.0,0.0,0.0,0.0,0.0,0.0,0.0,0.0,0.0,0.0,0.0,0.0
1783390944.687732,0.6990364789962769,0.8486064076423645,1.819539647840429e-07,0.655001699924469,0.8137032389640808,-0.012639828026294708,0.6308352947235107,0.7336689233779907,-0.015223407186567783,0.6295607686042786,0.6603724360466003,-0.0176735520362854,0.6327388882637024,0.6084038615226746,-0.019405482336878777,0.6556060314178467,0.6351591944694519,0.003329623257741332,0.6494392156600952,0.5567197799682617,-0.004756598733365536,0.6481134295463562,0.5093499422073364,-0.014628568664193153,0.6484299302101135,0.46597757935523987,-0.02293800190091133,0.6788762211799622,0.6268422603607178,0.0006154224975034595,0.6729351282119751,0.5388999581336975,-0.00574647868052125,0.6709219813346863,0.4854569137096405,-0.01488789077848196,0.6692309379577637,0.4364728331565857,-0.02251225896179676,0.6999788880348206,0.6354344487190247,-0.005357011687010527,0.6964066028594971,0.5525097250938416,-0.012785717844963074,0.6939942836761475,0.5006639361381531,-0.019388442859053612,0.6915508508682251,0.45409727096557617,-0.02521958388388157,0.7229881882667542,0.6560996770858765,-0.013397161848843098,0.7212293744087219,0.5915268063545227,-0.020700905472040176,0.7196962237358093,0.5485827922821045,-0.02435886301100254,0.7175580859184265,0.5070112943649292,-0.027722926810383797,0.0,0.0,0.0,0.0,0.0,0.0,0.0,0.0,0.0,0.0,0.0,0.0,0.0,0.0,0.0,0.0,0.0,0.0,0.0,0.0,0.0,0.0,0.0,0.0,0.0,0.0,0.0,0.0,0.0,0.0,0.0,0.0,0.0,0.0,0.0,0.0,0.0,0.0,0.0,0.0,0.0,0.0,0.0,0.0,0.0,0.0,0.0,0.0,0.0,0.0,0.0,0.0,0.0,0.0,0.0,0.0,0.0,0.0,0.0,0.0,0.0,0.0,0.0
1783390944.845998,0.6979790925979614,0.8490106463432312,1.7785394845759583e-07,0.6539098024368286,0.8137427568435669,-0.011943629942834377,0.6291101574897766,0.7332965731620789,-0.013964250683784485,0.6274866461753845,0.660770833492279,-0.016083326190710068,0.6300178170204163,0.6094292402267456,-0.01755584217607975,0.6540861129760742,0.6355881094932556,0.004654435440897942,0.6473673582077026,0.5585025548934937,-0.003156316699460149,0.6460898518562317,0.5117385983467102,-0.012929633259773254,0.6467983722686768,0.46894216537475586,-0.021179357543587685,0.676980197429657,0.6270434260368347,0.0015906073385849595,0.6706517338752747,0.5400745272636414,-0.0046197641640901566,0.668355405330658,0.4865265190601349,-0.013850840739905834,0.6667019724845886,0.4376215636730194,-0.021527988836169243,0.6980694532394409,0.6352975964546204,-0.004755739122629166,0.6942190527915955,0.55296790599823,-0.012155347503721714,0.6914568543434143,0.5011498332023621,-0.01898261345922947,0.6887933611869812,0.45457401871681213,-0.02493254467844963,0.7211511135101318,0.6558279395103455,-0.013120939023792744,0.7193796634674072,0.5915504693984985,-0.020406465977430344,0.7178706526756287,0.5486147999763489,-0.024178646504878998,0.7157671451568604,0.5070690512657166,-0.02762874960899353,0.0,0.0,0.0,0.0,0.0,0.0,0.0,0.0,0.0,0.0,0.0,0.0,0.0,0.0,0.0,0.0,0.0,0.0,0.0,0.0,0.0,0.0,0.0,0.0,0.0,0.0,0.0,0.0,0.0,0.0,0.0,0.0,0.0,0.0,0.0,0.0,0.0,0.0,0.0,0.0,0.0,0.0,0.0,0.0,0.0,0.0,0.0,0.0,0.0,0.0,0.0,0.0,0.0,0.0,0.0,0.0,0.0,0.0,0.0,0.0,0.0,0.0,0.0
1783390944.990565,0.6965009570121765,0.8489899635314941,1.7859291290278634e-07,0.6529648900032043,0.8132652044296265,-0.011847410351037979,0.6287954449653625,0.7336359620094299,-0.014300977811217308,0.6268929243087769,0.6615525484085083,-0.016845766454935074,0.6288802623748779,0.6092134118080139,-0.01876423880457878,0.6528934836387634,0.6366392374038696,0.003300867974758148,0.6461050510406494,0.5584967136383057,-0.00496469484642148,0.6446026563644409,0.5112943053245544,-0.014731193892657757,0.6450863480567932,0.46836769580841064,-0.022794004529714584,0.6757617592811584,0.6281352043151855,0.00021525306510739028,0.6691906452178955,0.5404433608055115,-0.006337922066450119,0.6665893793106079,0.48669809103012085,-0.015388976782560349,0.6646735668182373,0.43802472949028015,-0.02275552786886692,0.6970906257629395,0.6360298991203308,-0.006004251539707184,0.6927366256713867,0.5529095530509949,-0.01343375351279974,0.6895456910133362,0.5010207295417786,-0.019852329045534134,0.6864084005355835,0.4545536935329437,-0.025394754484295845,0.7200568318367004,0.6562033891677856,-0.014205919578671455,0.7180160284042358,0.5915256142616272,-0.021432368084788322,0.7160874009132385,0.5482317209243774,-0.024870220571756363,0.7134933471679688,0.5068632960319519,-0.027914419770240784,0.0,0.0,0.0,0.0,0.0,0.0,0.0,0.0,0.0,0.0,0.0,0.0,0.0,0.0,0.0,0.0,0.0,0.0,0.0,0.0,0.0,0.0,0.0,0.0,0.0,0.0,0.0,0.0,0.0,0.0,0.0,0.0,0.0,0.0,0.0,0.0,0.0,0.0,0.0,0.0,0.0,0.0,0.0,0.0,0.0,0.0,0.0,0.0,0.0,0.0,0.0,0.0,0.0,0.0,0.0,0.0,0.0,0.0,0.0,0.0,0.0,0.0,0.0
1783390945.155369,0.6971635222434998,0.8483809232711792,1.762764298973707e-07,0.6535943746566772,0.8142421841621399,-0.011726836673915386,0.6289066076278687,0.7335755825042725,-0.013911783695220947,0.6266815066337585,0.6611918210983276,-0.0161624513566494,0.6286948323249817,0.6097136735916138,-0.017789006233215332,0.652031660079956,0.6352871060371399,0.0034436904825270176,0.6454005241394043,0.5574896335601807,-0.004618972539901733,0.6437073349952698,0.510296642780304,-0.01423058845102787,0.6437416672706604,0.4672222435474396,-0.022275924682617188,0.6751040816307068,0.6264964938163757,0.0002736138121690601,0.6687800288200378,0.5392906665802002,-0.006108835339546204,0.6662847399711609,0.48581597208976746,-0.015006912872195244,0.6642431616783142,0.43727242946624756,-0.022297922521829605,0.696591317653656,0.6346670985221863,-0.006037080194801092,0.6926145553588867,0.5518502593040466,-0.01344885490834713,0.6897140741348267,0.5001193881034851,-0.019955463707447052,0.6865576505661011,0.45317965745925903,-0.025605160742998123,0.7194775938987732,0.6552612781524658,-0.014307813718914986,0.7176424264907837,0.5907830595970154,-0.02175724133849144,0.7158907055854797,0.5476533770561218,-0.02539348416030407,0.7134242653846741,0.5059904456138611,-0.02858448401093483,0.0,0.0,0.0,0.0,0.0,0.0,0.0,0.0,0.0,0.0,0.0,0.0,0.0,0.0,0.0,0.0,0.0,0.0,0.0,0.0,0.0,0.0,0.0,0.0,0.0,0.0,0.0,0.0,0.0,0.0,0.0,0.0,0.0,0.0,0.0,0.0,0.0,0.0,0.0,0.0,0.0,0.0,0.0,0.0,0.0,0.0,0.0,0.0,0.0,0.0,0.0,0.0,0.0,0.0,0.0,0.0,0.0,0.0,0.0,0.0,0.0,0.0,0.0
1783390945.286598,0.6965798139572144,0.8483973741531372,1.8115767375093128e-07,0.6526203751564026,0.8128867149353027,-0.011756699532270432,0.6282867789268494,0.7328335046768188,-0.013925488106906414,0.6259828805923462,0.6606544256210327,-0.016213433817029,0.6283780336380005,0.6092615127563477,-0.017925750464200974,0.6519941687583923,0.6359267830848694,0.00411850493401289,0.645563006401062,0.5579065680503845,-0.003808781737461686,0.643950343132019,0.5105483531951904,-0.013479660265147686,0.6439854502677917,0.4672924280166626,-0.021558696404099464,0.6752302050590515,0.6270143389701843,0.0010053524747490883,0.669139564037323,0.5397829413414001,-0.005142019130289555,0.6665652394294739,0.4864060878753662,-0.014160840772092342,0.6642442941665649,0.4377500116825104,-0.021600589156150818,0.6965818405151367,0.634781002998352,-0.0052750553004443645,0.6927240490913391,0.5525645017623901,-0.012314120307564735,0.6898230910301208,0.5014269948005676,-0.018626494333148003,0.686703085899353,0.4555574953556061,-0.024204201996326447,0.7192299365997314,0.6548306941986084,-0.013571111485362053,0.7172004580497742,0.5905742049217224,-0.02043977379798889,0.7158708572387695,0.547819972038269,-0.023675832897424698,0.7139497995376587,0.5068680047988892,-0.02666662447154522,0.0,0.0,0.0,0.0,0.0,0.0,0.0,0.0,0.0,0.0,0.0,0.0,0.0,0.0,0.0,0.0,0.0,0.0,0.0,0.0,0.0,0.0,0.0,0.0,0.0,0.0,0.0,0.0,0.0,0.0,0.0,0.0,0.0,0.0,0.0,0.0,0.0,0.0,0.0,0.0,0.0,0.0,0.0,0.0,0.0,0.0,0.0,0.0,0.0,0.0,0.0,0.0,0.0,0.0,0.0,0.0,0.0,0.0,0.0,0.0,0.0,0.0,0.0
1783390945.4273999,0.6966391205787659,0.8482325673103333,1.7711350608351495e-07,0.652524471282959,0.8138917088508606,-0.011600757017731667,0.6282906532287598,0.7329695224761963,-0.013459835201501846,0.6261802315711975,0.6604632139205933,-0.015450148843228817,0.6278461217880249,0.6089944839477539,-0.016818830743432045,0.6517150402069092,0.6353843808174133,0.004571976140141487,0.6449993252754211,0.5575253963470459,-0.002992625581100583,0.6432495713233948,0.5103611350059509,-0.012416797690093517,0.6432173848152161,0.4672417938709259,-0.020384641364216805,0.6747231483459473,0.6262243390083313,0.0014674731064587831,0.6680770516395569,0.5391889214515686,-0.004463058430701494,0.6652846932411194,0.4858502149581909,-0.013365546241402626,0.6629663705825806,0.43742072582244873,-0.020728634670376778,0.6959701776504517,0.6340434551239014,-0.004804255440831184,0.691678524017334,0.5515337586402893,-0.0117697324603796,0.6885677576065063,0.5001454949378967,-0.018204718828201294,0.6853388547897339,0.4537631869316101,-0.02390349470078945,0.7186400294303894,0.6542360186576843,-0.01306630577892065,0.7165048718452454,0.5900636911392212,-0.02009628154337406,0.7148684859275818,0.5471187829971313,-0.023581549525260925,0.7126719951629639,0.505677342414856,-0.0267445370554924,0.0,0.0,0.0,0.0,0.0,0.0,0.0,0.0,0.0,0.0,0.0,0.0,0.0,0.0,0.0,0.0,0.0,0.0,0.0,0.0,0.0,0.0,0.0,0.0,0.0,0.0,0.0,0.0,0.0,0.0,0.0,0.0,0.0,0.0,0.0,0.0,0.0,0.0,0.0,0.0,0.0,0.0,0.0,0.0,0.0,0.0,0.0,0.0,0.0,0.0,0.0,0.0,0.0,0.0,0.0,0.0,0.0,0.0,0.0,0.0,0.0,0.0,0.0
1783390946.072077,0.6963756680488586,0.8474084138870239,1.79114863385621e-07,0.6526351571083069,0.8125751614570618,-0.011564734391868114,0.6284030079841614,0.7323253750801086,-0.013714090920984745,0.6263837218284607,0.6601670384407043,-0.01603364758193493,0.6275288462638855,0.6083772778511047,-0.017753377556800842,0.6512845158576965,0.6349777579307556,0.00396939180791378,0.6446229815483093,0.5574178099632263,-0.0042822291143238544,0.6433539986610413,0.5101944804191589,-0.014095149002969265,0.644048810005188,0.46702197194099426,-0.022209426388144493,0.6740478873252869,0.6259875297546387,0.0007278404664248228,0.6676937341690063,0.5389420986175537,-0.0057792821899056435,0.6655154824256897,0.4855824410915375,-0.01476216595619917,0.6640854477882385,0.43697190284729004,-0.022083517163991928,0.6953701972961426,0.6338061094284058,-0.005706252064555883,0.6911759972572327,0.5515515804290771,-0.013188770972192287,0.6884332299232483,0.5001103281974792,-0.01959937810897827,0.6856881380081177,0.4536110460758209,-0.025128915905952454,0.7183698415756226,0.654028058052063,-0.014130350202322006,0.7162721753120422,0.5894438028335571,-0.021497324109077454,0.7144774198532104,0.5464240312576294,-0.025021204724907875,0.7119380235671997,0.5049592852592468,-0.02812168560922146,0.0,0.0,0.0,0.0,0.0,0.0,0.0,0.0,0.0,0.0,0.0,0.0,0.0,0.0,0.0,0.0,0.0,0.0,0.0,0.0,0.0,0.0,0.0,0.0,0.0,0.0,0.0,0.0,0.0,0.0,0.0,0.0,0.0,0.0,0.0,0.0,0.0,0.0,0.0,0.0,0.0,0.0,0.0,0.0,0.0,0.0,0.0,0.0,0.0,0.0,0.0,0.0,0.0,0.0,0.0,0.0,0.0,0.0,0.0,0.0,0.0,0.0,0.0
1783390946.294562,0.6982080936431885,0.8461687564849854,1.7654573980507848e-07,0.6547467708587646,0.813258945941925,-0.012044633738696575,0.6304320693016052,0.7335071563720703,-0.014318185858428478,0.629092276096344,0.6606696248054504,-0.016535546630620956,0.6309769153594971,0.6078088283538818,-0.01812962256371975,0.653084933757782,0.6344563364982605,0.003147790441289544,0.6463075280189514,0.5563639998435974,-0.005142251495271921,0.6450551152229309,0.5091570615768433,-0.014879705384373665,0.6458015441894531,0.4664038121700287,-0.022920159623026848,0.6763374209403992,0.6259665489196777,0.00018783700943458825,0.6703195571899414,0.5384984016418457,-0.006479161791503429,0.6682923436164856,0.48547813296318054,-0.015651514753699303,0.6669101119041443,0.4371582865715027,-0.023153260350227356,0.6975934505462646,0.6343364715576172,-0.0059492941945791245,0.6938636302947998,0.5523339509963989,-0.01382974162697792,0.691038191318512,0.5008966326713562,-0.020618986338377,0.6884029507637024,0.4547916054725647,-0.026385294273495674,0.7203810214996338,0.6549302339553833,-0.014051711186766624,0.71867835521698,0.5902706980705261,-0.021783124655485153,0.7171037793159485,0.5474901795387268,-0.025624938309192657,0.7149080634117126,0.5062985420227051,-0.028968771919608116,0.0,0.0,0.0,0.0,0.0,0.0,0.0,0.0,0.0,0.0,0.0,0.0,0.0,0.0,0.0,0.0,0.0,0.0,0.0,0.0,0.0,0.0,0.0,0.0,0.0,0.0,0.0,0.0,0.0,0.0,0.0,0.0,0.0,0.0,0.0,0.0,0.0,0.0,0.0,0.0,0.0,0.0,0.0,0.0,0.0,0.0,0.0,0.0,0.0,0.0,0.0,0.0,0.0,0.0,0.0,0.0,0.0,0.0,0.0,0.0,0.0,0.0,0.0
1783390946.537895,0.6974177360534668,0.8456048965454102,1.9295379161121673e-07,0.6535728573799133,0.8106831312179565,-0.012735010124742985,0.6287983059883118,0.7324475646018982,-0.01573113165795803,0.6262710094451904,0.6601541638374329,-0.01864967867732048,0.6303579211235046,0.6076961755752563,-0.020850472152233124,0.65265291929245,0.6340457201004028,0.0031076634768396616,0.6464622616767883,0.5556465983390808,-0.005142259877175093,0.6449061632156372,0.5078413486480713,-0.015041260980069637,0.6450380086898804,0.46428269147872925,-0.02329457551240921,0.6756557822227478,0.6254128217697144,0.00045579622383229434,0.6693450808525085,0.5380476713180542,-0.006100488360971212,0.6667103171348572,0.4845861494541168,-0.015372563153505325,0.6644709706306458,0.4360007345676422,-0.02297060936689377,0.6968384385108948,0.6332772970199585,-0.005401909351348877,0.6926345229148865,0.550601065158844,-0.012864502146840096,0.6894456148147583,0.49868708848953247,-0.01949635148048401,0.6862480044364929,0.4521588385105133,-0.02525215782225132,0.7197132110595703,0.6531863212585449,-0.01330697350203991,0.7178202271461487,0.5889407992362976,-0.020553894340991974,0.7161316871643066,0.5459223389625549,-0.02413305826485157,0.713787853717804,0.5046798586845398,-0.02733195200562477,0.0,0.0,0.0,0.0,0.0,0.0,0.0,0.0,0.0,0.0,0.0,0.0,0.0,0.0,0.0,0.0,0.0,0.0,0.0,0.0,0.0,0.0,0.0,0.0,0.0,0.0,0.0,0.0,0.0,0.0,0.0,0.0,0.0,0.0,0.0,0.0,0.0,0.0,0.0,0.0,0.0,0.0,0.0,0.0,0.0,0.0,0.0,0.0,0.0,0.0,0.0,0.0,0.0,0.0,0.0,0.0,0.0,0.0,0.0,0.0,0.0,0.0,0.0
1783390946.686075,0.6965590715408325,0.8451842665672302,1.8037290772099368e-07,0.6529865264892578,0.8104411363601685,-0.011515329591929913,0.6284813284873962,0.731650173664093,-0.014047294855117798,0.6260598301887512,0.6598729491233826,-0.01672603189945221,0.6289786696434021,0.6083226799964905,-0.01884099654853344,0.6520178914070129,0.6335718035697937,0.0034041220787912607,0.6457176804542542,0.555936872959137,-0.004913145210593939,0.6443734169006348,0.5089858174324036,-0.014781489036977291,0.6447644233703613,0.46603456139564514,-0.02299676649272442,0.6750169992446899,0.6250355839729309,5.6952383602038026e-05,0.6689609885215759,0.5379737615585327,-0.0065416330471634865,0.6665100455284119,0.4848671853542328,-0.01561244297772646,0.6645199060440063,0.43644365668296814,-0.023058008402585983,0.6963565945625305,0.6332218050956726,-0.00640120729804039,0.6922500133514404,0.5507433414459229,-0.01392788253724575,0.6892500519752502,0.49958571791648865,-0.02031564526259899,0.6861863732337952,0.4534805417060852,-0.02587864361703396,0.7192268967628479,0.6537105441093445,-0.014814076945185661,0.7171797752380371,0.5892055630683899,-0.022198956459760666,0.7153699994087219,0.5463266372680664,-0.025692377239465714,0.7129147052764893,0.5049735307693481,-0.028806472197175026,0.0,0.0,0.0,0.0,0.0,0.0,0.0,0.0,0.0,0.0,0.0,0.0,0.0,0.0,0.0,0.0,0.0,0.0,0.0,0.0,0.0,0.0,0.0,0.0,0.0,0.0,0.0,0.0,0.0,0.0,0.0,0.0,0.0,0.0,0.0,0.0,0.0,0.0,0.0,0.0,0.0,0.0,0.0,0.0,0.0,0.0,0.0,0.0,0.0,0.0,0.0,0.0,0.0,0.0,0.0,0.0,0.0,0.0,0.0,0.0,0.0,0.0,0.0
1783390946.872776,0.6965364813804626,0.8453236818313599,1.7797380280626385e-07,0.6529432535171509,0.8106032609939575,-0.01149003766477108,0.6285920143127441,0.7315482497215271,-0.013846480287611485,0.6266201138496399,0.660034716129303,-0.016363423317670822,0.6290619969367981,0.6084023118019104,-0.018300727009773254,0.6519012451171875,0.6331764459609985,0.0038523992989212275,0.6451684832572937,0.5559722185134888,-0.004400657489895821,0.6437495946884155,0.5091830492019653,-0.014290064573287964,0.6442493200302124,0.46628469228744507,-0.0224947277456522,0.6748155355453491,0.6246541738510132,0.0005481162806972861,0.6686341166496277,0.5380403399467468,-0.006061819847673178,0.6663278341293335,0.48495233058929443,-0.01520767156034708,0.6646546125411987,0.4366074800491333,-0.022663475945591927,0.6961415410041809,0.6329279541969299,-0.00592103973031044,0.6919089555740356,0.5509203672409058,-0.013593485578894615,0.6889196038246155,0.4996877610683441,-0.02023433707654476,0.6860374808311462,0.4535349905490875,-0.025880614295601845,0.7189967632293701,0.6534534692764282,-0.014343311078846455,0.7167945504188538,0.5886203050613403,-0.02196032740175724,0.7147411704063416,0.54545658826828,-0.025743737816810608,0.7121215462684631,0.5037422776222229,-0.02900843136012554,0.0,0.0,0.0,0.0,0.0,0.0,0.0,0.0,0.0,0.0,0.0,0.0,0.0,0.0,0.0,0.0,0.0,0.0,0.0,0.0,0.0,0.0,0.0,0.0,0.0,0.0,0.0,0.0,0.0,0.0,0.0,0.0,0.0,0.0,0.0,0.0,0.0,0.0,0.0,0.0,0.0,0.0,0.0,0.0,0.0,0.0,0.0,0.0,0.0,0.0,0.0,0.0,0.0,0.0,0.0,0.0,0.0,0.0,0.0,0.0,0.0,0.0,0.0
1783390947.176407,0.6972885131835938,0.845022976398468,1.7284465059219656e-07,0.653772234916687,0.8105401992797852,-0.01133472565561533,0.6293389797210693,0.7311640381813049,-0.013370453380048275,0.6274267435073853,0.6592892408370972,-0.015532917343080044,0.6293569803237915,0.6081084609031677,-0.0170837864279747,0.6525523662567139,0.632213294506073,0.0044717020355165005,0.6458286643028259,0.5558681488037109,-0.0033301739022135735,0.644291341304779,0.5094089508056641,-0.013070739805698395,0.6445391178131104,0.46680518984794617,-0.021228957921266556,0.675417959690094,0.6234956979751587,0.0012581709306687117,0.6690375804901123,0.5373725891113281,-0.004863354377448559,0.6663705706596375,0.48480257391929626,-0.013841226696968079,0.6641232371330261,0.43715333938598633,-0.02123609185218811,0.6965288519859314,0.6316826939582825,-0.005104861222207546,0.6924951672554016,0.5500676035881042,-0.012311235070228577,0.6892497539520264,0.4987180531024933,-0.018805431202054024,0.6860007643699646,0.45277372002601624,-0.024459507316350937,0.7192085981369019,0.6524257063865662,-0.013430334627628326,0.7174010276794434,0.5883604884147644,-0.020599402487277985,0.7156289219856262,0.5455843210220337,-0.02414928562939167,0.7131509780883789,0.5044426321983337,-0.027321690693497658,0.0,0.0,0.0,0.0,0.0,0.0,0.0,0.0,0.0,0.0,0.0,0.0,0.0,0.0,0.0,0.0,0.0,0.0,0.0,0.0,0.0,0.0,0.0,0.0,0.0,0.0,0.0,0.0,0.0,0.0,0.0,0.0,0.0,0.0,0.0,0.0,0.0,0.0,0.0,0.0,0.0,0.0,0.0,0.0,0.0,0.0,0.0,0.0,0.0,0.0,0.0,0.0,0.0,0.0,0.0,0.0,0.0,0.0,0.0,0.0,0.0,0.0,0.0
1783390947.3623412,0.6970466375350952,0.8436447381973267,1.748594655737179e-07,0.6539467573165894,0.8081421852111816,-0.010632531717419624,0.6296558380126953,0.7297406792640686,-0.012643976137042046,0.6277942657470703,0.6588236093521118,-0.01491515152156353,0.6302117705345154,0.608314573764801,-0.016599949449300766,0.6524465084075928,0.6313536763191223,0.004241982940584421,0.6454047560691833,0.5539880990982056,-0.0036620008759200573,0.6442101001739502,0.5074418187141418,-0.013184613548219204,0.6450207233428955,0.46525144577026367,-0.02107086591422558,0.6751807332038879,0.6230952739715576,0.0007021208293735981,0.668786883354187,0.5361668467521667,-0.005548168905079365,0.6666275858879089,0.48343729972839355,-0.014323774725198746,0.6651809811592102,0.43603765964508057,-0.021472835913300514,0.6964412331581116,0.6313962340354919,-0.00588137237355113,0.6921769380569458,0.5493158102035522,-0.0131307328119874,0.6892871856689453,0.4980749189853668,-0.019470708444714546,0.6865318417549133,0.4523329436779022,-0.024935174733400345,0.7193683981895447,0.6520165801048279,-0.014340884983539581,0.7173668742179871,0.5875599384307861,-0.021502219140529633,0.7153775095939636,0.5446026921272278,-0.024946972727775574,0.7127720713615417,0.5033739805221558,-0.027977969497442245,0.0,0.0,0.0,0.0,0.0,0.0,0.0,0.0,0.0,0.0,0.0,0.0,0.0,0.0,0.0,0.0,0.0,0.0,0.0,0.0,0.0,0.0,0.0,0.0,0.0,0.0,0.0,0.0,0.0,0.0,0.0,0.0,0.0,0.0,0.0,0.0,0.0,0.0,0.0,0.0,0.0,0.0,0.0,0.0,0.0,0.0,0.0,0.0,0.0,0.0,0.0,0.0,0.0,0.0,0.0,0.0,0.0,0.0,0.0,0.0,0.0,0.0,0.0
