ciel274/research-hand-sign/data/raw/hiragana/sign_language_ka_3.csv
timestamp,R_joint_0_x,R_joint_0_y,R_joint_0_z,R_joint_1_x,R_joint_1_y,R_joint_1_z,R_joint_2_x,R_joint_2_y,R_joint_2_z,R_joint_3_x,R_joint_3_y,R_joint_3_z,R_joint_4_x,R_joint_4_y,R_joint_4_z,R_joint_5_x,R_joint_5_y,R_joint_5_z,R_joint_6_x,R_joint_6_y,R_joint_6_z,R_joint_7_x,R_joint_7_y,R_joint_7_z,R_joint_8_x,R_joint_8_y,R_joint_8_z,R_joint_9_x,R_joint_9_y,R_joint_9_z,R_joint_10_x,R_joint_10_y,R_joint_10_z,R_joint_11_x,R_joint_11_y,R_joint_11_z,R_joint_12_x,R_joint_12_y,R_joint_12_z,R_joint_13_x,R_joint_13_y,R_joint_13_z,R_joint_14_x,R_joint_14_y,R_joint_14_z,R_joint_15_x,R_joint_15_y,R_joint_15_z,R_joint_16_x,R_joint_16_y,R_joint_16_z,R_joint_17_x,R_joint_17_y,R_joint_17_z,R_joint_18_x,R_joint_18_y,R_joint_18_z,R_joint_19_x,R_joint_19_y,R_joint_19_z,R_joint_20_x,R_joint_20_y,R_joint_20_z,L_joint_0_x,L_joint_0_y,L_joint_0_z,L_joint_1_x,L_joint_1_y,L_joint_1_z,L_joint_2_x,L_joint_2_y,L_joint_2_z,L_joint_3_x,L_joint_3_y,L_joint_3_z,L_joint_4_x,L_joint_4_y,L_joint_4_z,L_joint_5_x,L_joint_5_y,L_joint_5_z,L_joint_6_x,L_joint_6_y,L_joint_6_z,L_joint_7_x,L_joint_7_y,L_joint_7_z,L_joint_8_x,L_joint_8_y,L_joint_8_z,L_joint_9_x,L_joint_9_y,L_joint_9_z,L_joint_10_x,L_joint_10_y,L_joint_10_z,L_joint_11_x,L_joint_11_y,L_joint_11_z,L_joint_12_x,L_joint_12_y,L_joint_12_z,L_joint_13_x,L_joint_13_y,L_joint_13_z,L_joint_14_x,L_joint_14_y,L_joint_14_z,L_joint_15_x,L_joint_15_y,L_joint_15_z,L_joint_16_x,L_joint_16_y,L_joint_16_z,L_joint_17_x,L_joint_17_y,L_joint_17_z,L_joint_18_x,L_joint_18_y,L_joint_18_z,L_joint_19_x,L_joint_19_y,L_joint_19_z,L_joint_20_x,L_joint_20_y,L_joint_20_z
1783390512.2106571,0.696943461894989,0.7794315814971924,-3.4533169923633977e-07,0.6515398621559143,0.7045352458953857,-0.0010307072661817074,0.6373642683029175,0.6072148680686951,-0.0013019739417359233,0.6333215832710266,0.5304021239280701,-0.006524911615997553,0.6247745752334595,0.46428853273391724,-0.011922125704586506,0.6709827780723572,0.5239945650100708,0.008819712325930595,0.6383916735649109,0.4382461607456207,-0.00846393033862114,0.6194865107536316,0.38569408655166626,-0.02006140723824501,0.6026811599731445,0.3340534269809723,-0.02776286192238331,0.6921237111091614,0.5239158868789673,-0.0024342306423932314,0.6294940114021301,0.4975559115409851,-0.03492414578795433,0.5864015817642212,0.5058304071426392,-0.04880012199282646,0.5555365681648254,0.5051929354667664,-0.05139794573187828,0.7099043130874634,0.5404371619224548,-0.015600815415382385,0.6405362486839294,0.5540146231651306,-0.04882625862956047,0.6444904208183289,0.6376287341117859,-0.045740511268377304,0.6583389043807983,0.6878373622894287,-0.03379989415407181,0.7229741215705872,0.5716806054115295,-0.029616598039865494,0.6646086573600769,0.5810437202453613,-0.05172933638095856,0.6666495203971863,0.6374732255935669,-0.04688410460948944,0.6819741725921631,0.6684386730194092,-0.03664325177669525,0.0,0.0,0.0,0.0,0.0,0.0,0.0,0.0,0.0,0.0,0.0,0.0,0.0,0.0,0.0,0.0,0.0,0.0,0.0,0.0,0.0,0.0,0.0,0.0,0.0,0.0,0.0,0.0,0.0,0.0,0.0,0.0,0.0,0.0,0.0,0.0,0.0,0.0,0.0,0.0,0.0,0.0,0.0,0.0,0.0,0.0,0.0,0.0,0.0,0.0,0.0,0.0,0.0,0.0,0.0,0.0,0.0,0.0,0.0,0.0,0.0,0.0,0.0
1783390512.389977,0.6964522004127502,0.7762258052825928,-3.384264175565477e-07,0.6512902975082397,0.7035955786705017,-0.002235245192423463,0.6362719535827637,0.6071734428405762,-0.0029180056881159544,0.6327030658721924,0.5303569436073303,-0.008286703377962112,0.6225681900978088,0.46340858936309814,-0.013648487627506256,0.668077290058136,0.5221860408782959,0.008036662824451923,0.6365014910697937,0.43433335423469543,-0.009814715944230556,0.6176390647888184,0.37993934750556946,-0.021867860108613968,0.6006171703338623,0.3281711935997009,-0.029739469289779663,0.6899470686912537,0.5215885043144226,-0.002790945814922452,0.6287302374839783,0.4953164756298065,-0.035862091928720474,0.5854792594909668,0.501920223236084,-0.04995698854327202,0.5543609857559204,0.5002756118774414,-0.0525052547454834,0.7085554599761963,0.5387717485427856,-0.01568407379090786,0.6411280035972595,0.5537440180778503,-0.0490356981754303,0.643501341342926,0.6367867588996887,-0.04581961780786514,0.6559193730354309,0.6864283680915833,-0.03383278101682663,0.7227399349212646,0.5708996653556824,-0.0295852180570364,0.666047215461731,0.5802505612373352,-0.05151528865098953,0.6670175790786743,0.6366791725158691,-0.04636243358254433,0.6812898516654968,0.6677011251449585,-0.0359053909778595,0.0,0.0,0.0,0.0,0.0,0.0,0.0,0.0,0.0,0.0,0.0,0.0,0.0,0.0,0.0,0.0,0.0,0.0,0.0,0.0,0.0,0.0,0.0,0.0,0.0,0.0,0.0,0.0,0.0,0.0,0.0,0.0,0.0,0.0,0.0,0.0,0.0,0.0,0.0,0.0,0.0,0.0,0.0,0.0,0.0,0.0,0.0,0.0,0.0,0.0,0.0,0.0,0.0,0.0,0.0,0.0,0.0,0.0,0.0,0.0,0.0,0.0,0.0
1783390512.57498,0.6979162096977234,0.7751203775405884,-3.4033891438411956e-07,0.6526521444320679,0.7032079100608826,-0.003567684208974242,0.6362894773483276,0.6058158278465271,-0.004825168289244175,0.6311938762664795,0.52754807472229,-0.010401010513305664,0.620322048664093,0.4608907699584961,-0.016019102185964584,0.6691395044326782,0.5218667387962341,0.0049708387814462185,0.6364095211029053,0.43547943234443665,-0.013248700648546219,0.6174364686012268,0.3818410634994507,-0.025083748623728752,0.6008145213127136,0.3288991153240204,-0.03281243145465851,0.6906592845916748,0.5216068029403687,-0.004904609639197588,0.6276710033416748,0.4957897365093231,-0.0377747043967247,0.5849824547767639,0.5028678178787231,-0.051254477351903915,0.5546836853027344,0.5000184774398804,-0.05366665497422218,0.7091277837753296,0.5385022163391113,-0.01681917905807495,0.6409426927566528,0.5533588528633118,-0.05080753564834595,0.6433214545249939,0.6381682753562927,-0.04744431748986244,0.6556763648986816,0.6892872452735901,-0.03513204678893089,0.7233068346977234,0.5697197318077087,-0.02978562004864216,0.6665356755256653,0.5786833167076111,-0.05234440788626671,0.6669124960899353,0.6353946328163147,-0.04756100848317146,0.6806889176368713,0.6672067642211914,-0.037241313606500626,0.0,0.0,0.0,0.0,0.0,0.0,0.0,0.0,0.0,0.0,0.0,0.0,0.0,0.0,0.0,0.0,0.0,0.0,0.0,0.0,0.0,0.0,0.0,0.0,0.0,0.0,0.0,0.0,0.0,0.0,0.0,0.0,0.0,0.0,0.0,0.0,0.0,0.0,0.0,0.0,0.0,0.0,0.0,0.0,0.0,0.0,0.0,0.0,0.0,0.0,0.0,0.0,0.0,0.0,0.0,0.0,0.0,0.0,0.0,0.0,0.0,0.0,0.0
1783390512.712505,0.696664035320282,0.7748003005981445,-3.4997279385606817e-07,0.652321457862854,0.7046534419059753,-0.0036732929293066263,0.6363821625709534,0.6078863739967346,-0.004866332281380892,0.6314367055892944,0.5294029712677002,-0.010296929627656937,0.6214306354522705,0.46242207288742065,-0.015697745606303215,0.6688705086708069,0.522808313369751,0.005103229079395533,0.6361056566238403,0.4369491934776306,-0.013180403038859367,0.6165876388549805,0.384525865316391,-0.024975255131721497,0.5991257429122925,0.3334917426109314,-0.03256077319383621,0.6899860501289368,0.5221102833747864,-0.004648162052035332,0.6273045539855957,0.4962490200996399,-0.03772592917084694,0.5841014981269836,0.5038290023803711,-0.05114522948861122,0.5529734492301941,0.5016694664955139,-0.053348854184150696,0.7081747055053711,0.5384606719017029,-0.016487982124090195,0.6405104398727417,0.5537728667259216,-0.050521526485681534,0.6434969305992126,0.6381313800811768,-0.04720441997051239,0.6561312675476074,0.6886412501335144,-0.03489309176802635,0.7222331166267395,0.5690073370933533,-0.029372062534093857,0.6654103398323059,0.5791832208633423,-0.051923833787441254,0.6662172079086304,0.635707437992096,-0.04718717932701111,0.6802643537521362,0.6669845581054688,-0.03689545765519142,0.0,0.0,0.0,0.0,0.0,0.0,0.0,0.0,0.0,0.0,0.0,0.0,0.0,0.0,0.0,0.0,0.0,0.0,0.0,0.0,0.0,0.0,0.0,0.0,0.0,0.0,0.0,0.0,0.0,0.0,0.0,0.0,0.0,0.0,0.0,0.0,0.0,0.0,0.0,0.0,0.0,0.0,0.0,0.0,0.0,0.0,0.0,0.0,0.0,0.0,0.0,0.0,0.0,0.0,0.0,0.0,0.0,0.0,0.0,0.0,0.0,0.0,0.0
1783390512.854392,0.6967253684997559,0.7747877240180969,-3.463639188794332e-07,0.6528283357620239,0.7040959596633911,-0.0028908681124448776,0.6370134949684143,0.6059697270393372,-0.0038457715418189764,0.6323583126068115,0.5282320380210876,-0.009224898181855679,0.6224103569984436,0.4614589810371399,-0.014572552405297756,0.6690252423286438,0.5220035314559937,0.005460487212985754,0.6365470886230469,0.43382537364959717,-0.012785721570253372,0.6175196766853333,0.3801772892475128,-0.024460947141051292,0.6005600094795227,0.3295455574989319,-0.03180469572544098,0.6903061270713806,0.5218324065208435,-0.004632305353879929,0.627973735332489,0.49809256196022034,-0.0372556671500206,0.5859631299972534,0.5052664279937744,-0.0503656230866909,0.5560479164123535,0.5025866031646729,-0.05235472321510315,0.7088139057159424,0.5389078855514526,-0.01677495241165161,0.6412290334701538,0.5549395084381104,-0.05025732144713402,0.643555223941803,0.6389943361282349,-0.04668877646327019,0.6555041670799255,0.6894546747207642,-0.03422010689973831,0.7231561541557312,0.5706349611282349,-0.029898572713136673,0.6666525602340698,0.5792304873466492,-0.05185875669121742,0.6672397255897522,0.6355473399162292,-0.04663310945034027,0.6808705925941467,0.6673887372016907,-0.035938117653131485,0.0,0.0,0.0,0.0,0.0,0.0,0.0,0.0,0.0,0.0,0.0,0.0,0.0,0.0,0.0,0.0,0.0,0.0,0.0,0.0,0.0,0.0,0.0,0.0,0.0,0.0,0.0,0.0,0.0,0.0,0.0,0.0,0.0,0.0,0.0,0.0,0.0,0.0,0.0,0.0,0.0,0.0,0.0,0.0,0.0,0.0,0.0,0.0,0.0,0.0,0.0,0.0,0.0,0.0,0.0,0.0,0.0,0.0,0.0,0.0,0.0,0.0,0.0
1783390512.985041,0.6982099413871765,0.7766838073730469,-3.3268111110373866e-07,0.6542261242866516,0.7063389420509338,-0.003265487030148506,0.6381977796554565,0.6097233891487122,-0.004403587896376848,0.6339019536972046,0.5323566198348999,-0.009977955371141434,0.6251986622810364,0.4676964581012726,-0.015479473397135735,0.6695340275764465,0.5232059955596924,0.005170718301087618,0.6378496289253235,0.4350038170814514,-0.012938117608428001,0.6195859313011169,0.3812832534313202,-0.024436891078948975,0.6035341024398804,0.3292376399040222,-0.03176554664969444,0.6908373832702637,0.5220698118209839,-0.004738532472401857,0.6298996806144714,0.49602288007736206,-0.03735960274934769,0.5880581140518188,0.5026998519897461,-0.0504821352660656,0.5583177208900452,0.5000284314155579,-0.05244036391377449,0.7095717191696167,0.5383091568946838,-0.016652913764119148,0.6425374746322632,0.5533865094184875,-0.04997193068265915,0.644677996635437,0.6373102068901062,-0.046376172453165054,0.6566998362541199,0.6881376504898071,-0.03393736109137535,0.7239913940429688,0.5692168474197388,-0.029637498781085014,0.667920708656311,0.5779553651809692,-0.05139515548944473,0.6682140827178955,0.6342626810073853,-0.046224165707826614,0.6818080544471741,0.6661108732223511,-0.03563033789396286,0.0,0.0,0.0,0.0,0.0,0.0,0.0,0.0,0.0,0.0,0.0,0.0,0.0,0.0,0.0,0.0,0.0,0.0,0.0,0.0,0.0,0.0,0.0,0.0,0.0,0.0,0.0,0.0,0.0,0.0,0.0,0.0,0.0,0.0,0.0,0.0,0.0,0.0,0.0,0.0,0.0,0.0,0.0,0.0,0.0,0.0,0.0,0.0,0.0,0.0,0.0,0.0,0.0,0.0,0.0,0.0,0.0,0.0,0.0,0.0,0.0,0.0,0.0
1783390513.1546712,0.698348343372345,0.7745077013969421,-3.2859247767191846e-07,0.6544070243835449,0.7034168243408203,-0.0024168137460947037,0.6397807598114014,0.6071821451187134,-0.0033754613250494003,0.6363041996955872,0.5299419164657593,-0.008971313945949078,0.6288766860961914,0.4639350473880768,-0.0145575487986207,0.6707296967506409,0.521658718585968,0.006598697975277901,0.6391351222991943,0.433788001537323,-0.011092297732830048,0.6208389401435852,0.3808644115924835,-0.022488830611109734,0.6049600839614868,0.32965657114982605,-0.02979400008916855,0.6921969056129456,0.5205355882644653,-0.0037302596028894186,0.6308633089065552,0.4934592843055725,-0.036655277013778687,0.5879631638526917,0.4994315505027771,-0.050307709723711014,0.5572827458381653,0.49740058183670044,-0.05248938500881195,0.7107537984848022,0.5367724299430847,-0.015983186662197113,0.6427950263023376,0.5508385300636292,-0.04947258532047272,0.6450505256652832,0.6342970132827759,-0.04629766196012497,0.6573492288589478,0.6852349638938904,-0.0340578556060791,0.7248965501785278,0.5675997734069824,-0.029182007536292076,0.6678691506385803,0.5758428573608398,-0.05120301991701126,0.6683283448219299,0.6325370669364929,-0.046182215213775635,0.6820574998855591,0.6648883819580078,-0.035648442804813385,0.0,0.0,0.0,0.0,0.0,0.0,0.0,0.0,0.0,0.0,0.0,0.0,0.0,0.0,0.0,0.0,0.0,0.0,0.0,0.0,0.0,0.0,0.0,0.0,0.0,0.0,0.0,0.0,0.0,0.0,0.0,0.0,0.0,0.0,0.0,0.0,0.0,0.0,0.0,0.0,0.0,0.0,0.0,0.0,0.0,0.0,0.0,0.0,0.0,0.0,0.0,0.0,0.0,0.0,0.0,0.0,0.0,0.0,0.0,0.0,0.0,0.0,0.0
1783390513.318665,0.6970748901367188,0.7740618586540222,-3.3148063494081725e-07,0.6534239649772644,0.703190267086029,-0.003088771365582943,0.6373537182807922,0.6067757606506348,-0.004183332901448011,0.6327045559883118,0.5302032828330994,-0.009675813838839531,0.6246867775917053,0.4663068354129791,-0.015114675275981426,0.6688852310180664,0.5212312340736389,0.005553715396672487,0.6380199193954468,0.4337684214115143,-0.012641198001801968,0.6195201277732849,0.38052091002464294,-0.02429981343448162,0.6028496623039246,0.3294711410999298,-0.03171443194150925,0.6905630826950073,0.5203278660774231,-0.004406645894050598,0.6305317878723145,0.4926726520061493,-0.03757130727171898,0.5885878801345825,0.4997941553592682,-0.05091535672545433,0.5586192011833191,0.4977478086948395,-0.05279919132590294,0.7095402479171753,0.5366345643997192,-0.016342630609869957,0.6428872346878052,0.5507792234420776,-0.05013401061296463,0.645103931427002,0.6344040632247925,-0.046804215759038925,0.6572760343551636,0.6851685047149658,-0.03436484560370445,0.7241670489311218,0.567503809928894,-0.029246298596262932,0.6677509546279907,0.5766401886940002,-0.05136173963546753,0.6686496138572693,0.6329932808876038,-0.0463150255382061,0.682720422744751,0.6646879315376282,-0.03571806102991104,0.0,0.0,0.0,0.0,0.0,0.0,0.0,0.0,0.0,0.0,0.0,0.0,0.0,0.0,0.0,0.0,0.0,0.0,0.0,0.0,0.0,0.0,0.0,0.0,0.0,0.0,0.0,0.0,0.0,0.0,0.0,0.0,0.0,0.0,0.0,0.0,0.0,0.0,0.0,0.0,0.0,0.0,0.0,0.0,0.0,0.0,0.0,0.0,0.0,0.0,0.0,0.0,0.0,0.0,0.0,0.0,0.0,0.0,0.0,0.0,0.0,0.0,0.0
1783390513.4529228,0.6959508657455444,0.7736367583274841,-3.426031298658927e-07,0.6515615582466125,0.7018054723739624,-0.0016489489935338497,0.6361103653907776,0.6064966917037964,-0.0022104214876890182,0.631410539150238,0.5302056670188904,-0.007497038226574659,0.6243782043457031,0.4666464030742645,-0.01297038234770298,0.6682946085929871,0.5216336846351624,0.006913688499480486,0.6367086172103882,0.43515244126319885,-0.01054076012223959,0.6180795431137085,0.38144609332084656,-0.02207801677286625,0.6016073226928711,0.3291996717453003,-0.029723744839429855,0.689807116985321,0.5206489562988281,-0.0038572456687688828,0.6284450888633728,0.49251309037208557,-0.03643779084086418,0.5857483148574829,0.49941661953926086,-0.0498369075357914,0.5552160143852234,0.49845775961875916,-0.05194370076060295,0.7082757949829102,0.536535382270813,-0.01647433638572693,0.6404260993003845,0.5498114228248596,-0.049927037209272385,0.6434760093688965,0.6330857276916504,-0.04695204272866249,0.656587541103363,0.6848284602165222,-0.03493495658040047,0.7220694422721863,0.5672041773796082,-0.029967673122882843,0.6647648811340332,0.5767881274223328,-0.05257207900285721,0.6656284928321838,0.6331853866577148,-0.048178695142269135,0.6798460483551025,0.6661908626556396,-0.038090724498033524,0.0,0.0,0.0,0.0,0.0,0.0,0.0,0.0,0.0,0.0,0.0,0.0,0.0,0.0,0.0,0.0,0.0,0.0,0.0,0.0,0.0,0.0,0.0,0.0,0.0,0.0,0.0,0.0,0.0,0.0,0.0,0.0,0.0,0.0,0.0,0.0,0.0,0.0,0.0,0.0,0.0,0.0,0.0,0.0,0.0,0.0,0.0,0.0,0.0,0.0,0.0,0.0,0.0,0.0,0.0,0.0,0.0,0.0,0.0,0.0,0.0,0.0,0.0
1783390513.585515,0.6950884461402893,0.7713837027549744,-3.3821373790487996e-07,0.6509299278259277,0.700261116027832,-0.0025989345740526915,0.6358873248100281,0.6037304401397705,-0.0035588901955634356,0.6319167017936707,0.5263014435768127,-0.009039617143571377,0.6223214864730835,0.45890748500823975,-0.01444365456700325,0.6680814623832703,0.519436240196228,0.006650193128734827,0.6360325813293457,0.43222302198410034,-0.01142844744026661,0.617244303226471,0.37912529706954956,-0.02318246103823185,0.6005525588989258,0.3281407952308655,-0.030763650313019753,0.6896554827690125,0.5191832780838013,-0.0038473051972687244,0.628387451171875,0.49217137694358826,-0.03730395436286926,0.585181713104248,0.4989478886127472,-0.051022499799728394,0.5540908575057983,0.4974069595336914,-0.05320439860224724,0.7079850435256958,0.5362282991409302,-0.016409236937761307,0.6401532292366028,0.5507599711418152,-0.05027021840214729,0.6429288983345032,0.6339536905288696,-0.04695825278759003,0.6557039022445679,0.6838435530662537,-0.03467121347784996,0.7218626737594604,0.5676682591438293,-0.02993747964501381,0.664760172367096,0.5768980383872986,-0.05219590291380882,0.6660940051078796,0.6325151324272156,-0.047244563698768616,0.6805866360664368,0.6630901098251343,-0.03685053810477257,0.0,0.0,0.0,0.0,0.0,0.0,0.0,0.0,0.0,0.0,0.0,0.0,0.0,0.0,0.0,0.0,0.0,0.0,0.0,0.0,0.0,0.0,0.0,0.0,0.0,0.0,0.0,0.0,0.0,0.0,0.0,0.0,0.0,0.0,0.0,0.0,0.0,0.0,0.0,0.0,0.0,0.0,0.0,0.0,0.0,0.0,0.0,0.0,0.0,0.0,0.0,0.0,0.0,0.0,0.0,0.0,0.0,0.0,0.0,0.0,0.0,0.0,0.0
1783390513.719887,0.6959832906723022,0.7710264921188354,-3.256356535530358e-07,0.6520083546638489,0.7007218599319458,-0.002964008366689086,0.6362960338592529,0.6062958836555481,-0.003952219616621733,0.6324111819267273,0.5303630828857422,-0.009394110180437565,0.6251034736633301,0.4667495787143707,-0.014763632789254189,0.6680637001991272,0.5198485255241394,0.005676211789250374,0.637021541595459,0.43280646204948425,-0.012004615738987923,0.6191674470901489,0.3796093165874481,-0.023155951872467995,0.603513240814209,0.32808828353881836,-0.03023374453186989,0.6894036531448364,0.5188130736351013,-0.004147682338953018,0.6290796399116516,0.49066659808158875,-0.036742202937603,0.5871548652648926,0.4963621199131012,-0.049932967871427536,0.5572966933250427,0.49422335624694824,-0.05172817036509514,0.7079936265945435,0.5349624156951904,-0.015885863453149796,0.6411370038986206,0.549645185470581,-0.049287255853414536,0.6430317163467407,0.6332274079322815,-0.04605483263731003,0.6548298597335815,0.6843520402908325,-0.03364168480038643,0.7222247123718262,0.5659463405609131,-0.02858353964984417,0.666334331035614,0.5744572281837463,-0.05042482167482376,0.6666743159294128,0.6307581067085266,-0.04539961740374565,0.6801237463951111,0.6631419062614441,-0.03478012606501579,0.0,0.0,0.0,0.0,0.0,0.0,0.0,0.0,0.0,0.0,0.0,0.0,0.0,0.0,0.0,0.0,0.0,0.0,0.0,0.0,0.0,0.0,0.0,0.0,0.0,0.0,0.0,0.0,0.0,0.0,0.0,0.0,0.0,0.0,0.0,0.0,0.0,0.0,0.0,0.0,0.0,0.0,0.0,0.0,0.0,0.0,0.0,0.0,0.0,0.0,0.0,0.0,0.0,0.0,0.0,0.0,0.0,0.0,0.0,0.0,0.0,0.0,0.0
1783390513.8495739,0.695146918296814,0.7692345976829529,-3.251251712299563e-07,0.6510787606239319,0.698688268661499,-0.00230733142234385,0.6361322999000549,0.6028996706008911,-0.002885319059714675,0.6330803036689758,0.5261144638061523,-0.00807308591902256,0.6250684857368469,0.4610760509967804,-0.013263806700706482,0.6679746508598328,0.5188817381858826,0.006974826101213694,0.6373437643051147,0.43194982409477234,-0.010462487116456032,0.6194038391113281,0.3791767358779907,-0.021768471226096153,0.6036314964294434,0.32805341482162476,-0.02908468246459961,0.6895878911018372,0.518347978591919,-0.003227249253541231,0.629051685333252,0.49206042289733887,-0.03540718927979469,0.5872777104377747,0.49755343794822693,-0.04869930073618889,0.5576157569885254,0.49344730377197266,-0.05090432986617088,0.7083548903465271,0.5347334146499634,-0.015392784960567951,0.641533613204956,0.5485449433326721,-0.04859335348010063,0.6438442468643188,0.6323314309120178,-0.045307036489248276,0.6560474038124084,0.6825036406517029,-0.03311312571167946,0.7227628827095032,0.565521240234375,-0.02847941592335701,0.6667949557304382,0.5746803879737854,-0.05038190633058548,0.6673369407653809,0.6311018466949463,-0.045478783547878265,0.6811612248420715,0.6620334982872009,-0.03510565310716629,0.0,0.0,0.0,0.0,0.0,0.0,0.0,0.0,0.0,0.0,0.0,0.0,0.0,0.0,0.0,0.0,0.0,0.0,0.0,0.0,0.0,0.0,0.0,0.0,0.0,0.0,0.0,0.0,0.0,0.0,0.0,0.0,0.0,0.0,0.0,0.0,0.0,0.0,0.0,0.0,0.0,0.0,0.0,0.0,0.0,0.0,0.0,0.0,0.0,0.0,0.0,0.0,0.0,0.0,0.0,0.0,0.0,0.0,0.0,0.0,0.0,0.0,0.0
1783390513.988553,0.6956295371055603,0.7692503929138184,-3.268354760166403e-07,0.6514018177986145,0.6979895830154419,-0.002842194400727749,0.6361221075057983,0.602701723575592,-0.0037139528430998325,0.6323456168174744,0.5265650749206543,-0.009087227284908295,0.6237120628356934,0.4613122344017029,-0.01445103995501995,0.6687177419662476,0.5186821222305298,0.006584993563592434,0.6376733183860779,0.43141263723373413,-0.011103256605565548,0.6194356679916382,0.3778991401195526,-0.022623956203460693,0.6033535599708557,0.3261081278324127,-0.030076107010245323,0.6901647448539734,0.5181301832199097,-0.0034216525964438915,0.6293293833732605,0.4913521707057953,-0.035875458270311356,0.587250292301178,0.4970827102661133,-0.04927636310458183,0.5573464035987854,0.4926467537879944,-0.05143463611602783,0.7086950540542603,0.5344691276550293,-0.015429227612912655,0.6419314742088318,0.5483449101448059,-0.04891720414161682,0.6440630555152893,0.6319419741630554,-0.04567739740014076,0.6560340523719788,0.6817078590393066,-0.033398162573575974,0.7227979898452759,0.5652557015419006,-0.0283794142305851,0.6667561531066895,0.5735741257667542,-0.05041874200105667,0.6672481894493103,0.6302247643470764,-0.04531552270054817,0.6810007095336914,0.6616854667663574,-0.03470122441649437,0.0,0.0,0.0,0.0,0.0,0.0,0.0,0.0,0.0,0.0,0.0,0.0,0.0,0.0,0.0,0.0,0.0,0.0,0.0,0.0,0.0,0.0,0.0,0.0,0.0,0.0,0.0,0.0,0.0,0.0,0.0,0.0,0.0,0.0,0.0,0.0,0.0,0.0,0.0,0.0,0.0,0.0,0.0,0.0,0.0,0.0,0.0,0.0,0.0,0.0,0.0,0.0,0.0,0.0,0.0,0.0,0.0,0.0,0.0,0.0,0.0,0.0,0.0
1783390514.118249,0.6946680545806885,0.7690773010253906,-3.301035178537859e-07,0.6509166359901428,0.6990391612052917,-0.003264521947130561,0.6353868842124939,0.6023849844932556,-0.003932579420506954,0.6311603784561157,0.5250231027603149,-0.00894833728671074,0.6222268342971802,0.4596000015735626,-0.01393023319542408,0.6673465967178345,0.5192761421203613,0.006311124190688133,0.6368292570114136,0.4325498342514038,-0.011275311931967735,0.6189074516296387,0.3792893886566162,-0.02253728359937668,0.6030586957931519,0.3273104131221771,-0.029817258939146996,0.6887074112892151,0.5184305906295776,-0.0034127773251384497,0.6288833618164062,0.4913799464702606,-0.03641488030552864,0.5869871377944946,0.4980214536190033,-0.049714166671037674,0.5570400953292847,0.4954056143760681,-0.05154945328831673,0.7071643471717834,0.5343242883682251,-0.01519500557333231,0.6411723494529724,0.5491949319839478,-0.04907432198524475,0.6438199281692505,0.6328531503677368,-0.04601756110787392,0.6562469601631165,0.6831968426704407,-0.0337352380156517,0.7213547229766846,0.5641878247261047,-0.027962040156126022,0.665465235710144,0.5746703743934631,-0.05027466639876366,0.6663364171981812,0.6310065388679504,-0.045655958354473114,0.6803888082504272,0.6620202660560608,-0.035392310470342636,0.0,0.0,0.0,0.0,0.0,0.0,0.0,0.0,0.0,0.0,0.0,0.0,0.0,0.0,0.0,0.0,0.0,0.0,0.0,0.0,0.0,0.0,0.0,0.0,0.0,0.0,0.0,0.0,0.0,0.0,0.0,0.0,0.0,0.0,0.0,0.0,0.0,0.0,0.0,0.0,0.0,0.0,0.0,0.0,0.0,0.0,0.0,0.0,0.0,0.0,0.0,0.0,0.0,0.0,0.0,0.0,0.0,0.0,0.0,0.0,0.0,0.0,0.0
1783390514.258971,0.6915245056152344,0.7789570093154907,-3.5916468732466456e-07,0.6472644209861755,0.7044556736946106,-0.0034351027570664883,0.6327221393585205,0.6055362820625305,-0.004005082417279482,0.6284472346305847,0.5262870192527771,-0.008914243429899216,0.6183731555938721,0.4567966163158417,-0.01409819908440113,0.6685376763343811,0.5256535410881042,0.007007743697613478,0.6370549201965332,0.44193804264068604,-0.010176398791372776,0.6182026863098145,0.3884108066558838,-0.02191072143614292,0.601215660572052,0.3362833857536316,-0.029765833169221878,0.6892768740653992,0.5258734226226807,-0.002451387932524085,0.6258044242858887,0.5018324851989746,-0.032274678349494934,0.5840170979499817,0.5096127390861511,-0.04467328265309334,0.5539358854293823,0.5067223906517029,-0.04716439172625542,0.7062197923660278,0.5435572862625122,-0.014157894998788834,0.6360428929328918,0.5572249293327332,-0.04601353779435158,0.6395277976989746,0.6395582556724548,-0.04300891235470772,0.6524279117584229,0.6909740567207336,-0.03164644166827202,0.7180464267730713,0.5745697617530823,-0.026971805840730667,0.6590754389762878,0.5866527557373047,-0.04873322322964668,0.6604574918746948,0.6399922370910645,-0.04483365640044212,0.6750338673591614,0.6709858775138855,-0.03546777740120888,0.0,0.0,0.0,0.0,0.0,0.0,0.0,0.0,0.0,0.0,0.0,0.0,0.0,0.0,0.0,0.0,0.0,0.0,0.0,0.0,0.0,0.0,0.0,0.0,0.0,0.0,0.0,0.0,0.0,0.0,0.0,0.0,0.0,0.0,0.0,0.0,0.0,0.0,0.0,0.0,0.0,0.0,0.0,0.0,0.0,0.0,0.0,0.0,0.0,0.0,0.0,0.0,0.0,0.0,0.0,0.0,0.0,0.0,0.0,0.0,0.0,0.0,0.0
1783390514.416242,0.6924711465835571,0.7787175178527832,-3.394590066818637e-07,0.6465670466423035,0.7064832448959351,-0.0025689168833196163,0.6313374042510986,0.6098847985267639,-0.0033453362993896008,0.6273971796035767,0.5324466228485107,-0.008709586225450039,0.6167414784431458,0.4649035930633545,-0.014039910398423672,0.6647637486457825,0.5268979668617249,0.008374517783522606,0.6340218186378479,0.4403237998485565,-0.009051541797816753,0.6154083609580994,0.3876207172870636,-0.020915374159812927,0.5982663631439209,0.3369719684123993,-0.028702452778816223,0.6861348152160645,0.5267642140388489,-0.002181766554713249,0.6260582804679871,0.49926114082336426,-0.03400523215532303,0.5835378170013428,0.5049766898155212,-0.047585371881723404,0.5526733994483948,0.5019630789756775,-0.05007516220211983,0.703982949256897,0.544161856174469,-0.014945507980883121,0.6373002529144287,0.5588444471359253,-0.04757252335548401,0.6396210193634033,0.6415204405784607,-0.04472215846180916,0.6518948674201965,0.690841019153595,-0.03322868049144745,0.717021107673645,0.5755545496940613,-0.02874714508652687,0.6609388589859009,0.5864274501800537,-0.05052619054913521,0.6622490286827087,0.6420753598213196,-0.04603921249508858,0.6769624948501587,0.6724591255187988,-0.036208972334861755,0.0,0.0,0.0,0.0,0.0,0.0,0.0,0.0,0.0,0.0,0.0,0.0,0.0,0.0,0.0,0.0,0.0,0.0,0.0,0.0,0.0,0.0,0.0,0.0,0.0,0.0,0.0,0.0,0.0,0.0,0.0,0.0,0.0,0.0,0.0,0.0,0.0,0.0,0.0,0.0,0.0,0.0,0.0,0.0,0.0,0.0,0.0,0.0,0.0,0.0,0.0,0.0,0.0,0.0,0.0,0.0,0.0,0.0,0.0,0.0,0.0,0.0,0.0
1783390514.5503209,0.6942693591117859,0.774299681186676,-3.134509825031273e-07,0.6488966941833496,0.7043044567108154,-0.0018529377412050962,0.6339948773384094,0.6114796996116638,-0.0029151844792068005,0.6311063766479492,0.5364782810211182,-0.008749389089643955,0.6248883605003357,0.4738224744796753,-0.01454517524689436,0.6650421023368835,0.5236085653305054,0.006850552279502153,0.633287787437439,0.4342484474182129,-0.010922388173639774,0.6150028705596924,0.3805742859840393,-0.022438686341047287,0.5985597968101501,0.3299632966518402,-0.029785586521029472,0.6862707138061523,0.5220997929573059,-0.0038469007704406977,0.6259593367576599,0.493778258562088,-0.03690719231963158,0.5835486650466919,0.5000658631324768,-0.050545915961265564,0.55333012342453,0.49926093220710754,-0.05248976871371269,0.7045846581459045,0.537926971912384,-0.01637703739106655,0.6369588971138,0.5530474185943604,-0.049351900815963745,0.6397960186004639,0.6354358792304993,-0.046166934072971344,0.6525571346282959,0.6852126121520996,-0.03407139331102371,0.7181534767150879,0.5691708326339722,-0.029820038005709648,0.6617350578308105,0.5804361701011658,-0.05142171308398247,0.6635002493858337,0.6363991498947144,-0.04629381373524666,0.6782553195953369,0.6674506664276123,-0.0357213169336319,0.0,0.0,0.0,0.0,0.0,0.0,0.0,0.0,0.0,0.0,0.0,0.0,0.0,0.0,0.0,0.0,0.0,0.0,0.0,0.0,0.0,0.0,0.0,0.0,0.0,0.0,0.0,0.0,0.0,0.0,0.0,0.0,0.0,0.0,0.0,0.0,0.0,0.0,0.0,0.0,0.0,0.0,0.0,0.0,0.0,0.0,0.0,0.0,0.0,0.0,0.0,0.0,0.0,0.0,0.0,0.0,0.0,0.0,0.0,0.0,0.0,0.0,0.0
1783390514.697493,0.6943605542182922,0.7743605375289917,-3.156074797061592e-07,0.6495310068130493,0.7041810750961304,-0.00351511687040329,0.6348090767860413,0.6097912788391113,-0.004633659962564707,0.6313045024871826,0.5329380631446838,-0.01011181715875864,0.6239150166511536,0.46889787912368774,-0.015460281632840633,0.6674140095710754,0.5247381925582886,0.005210395902395248,0.6351566910743713,0.43700215220451355,-0.012404496781527996,0.6170518398284912,0.3838357925415039,-0.02314571850001812,0.6019744277000427,0.3319976031780243,-0.029875600710511208,0.6878681182861328,0.5234742164611816,-0.0041487631388008595,0.6265658736228943,0.4974226653575897,-0.03673757240176201,0.5840060114860535,0.5028636455535889,-0.04977889358997345,0.55401211977005,0.4984878599643707,-0.05154970660805702,0.7054426074028015,0.5385080575942993,-0.015483127906918526,0.6375040411949158,0.5563300848007202,-0.0492456816136837,0.6407022476196289,0.6400182843208313,-0.04633364453911781,0.653979480266571,0.6907438039779663,-0.03406582027673721,0.7186318039894104,0.5674713253974915,-0.02781534008681774,0.6615927219390869,0.5823858380317688,-0.04992159456014633,0.6631206274032593,0.6386052966117859,-0.045454058796167374,0.6779561638832092,0.669445812702179,-0.03519953787326813,0.0,0.0,0.0,0.0,0.0,0.0,0.0,0.0,0.0,0.0,0.0,0.0,0.0,0.0,0.0,0.0,0.0,0.0,0.0,0.0,0.0,0.0,0.0,0.0,0.0,0.0,0.0,0.0,0.0,0.0,0.0,0.0,0.0,0.0,0.0,0.0,0.0,0.0,0.0,0.0,0.0,0.0,0.0,0.0,0.0,0.0,0.0,0.0,0.0,0.0,0.0,0.0,0.0,0.0,0.0,0.0,0.0,0.0,0.0,0.0,0.0,0.0,0.0
1783390514.852559,0.6940900087356567,0.7793282270431519,-3.343862999827252e-07,0.6498774290084839,0.7083668112754822,-0.0034409768413752317,0.6357635259628296,0.6125486493110657,-0.004176350310444832,0.6322136521339417,0.5345528721809387,-0.009260459803044796,0.6244174838066101,0.46951040625572205,-0.01433383859694004,0.6692013740539551,0.529310941696167,0.0056303502060472965,0.6370378136634827,0.441922664642334,-0.012077372521162033,0.6182190775871277,0.3879213035106659,-0.023310575634241104,0.6022148132324219,0.33582717180252075,-0.030461689457297325,0.6893383264541626,0.5283485054969788,-0.0037673786282539368,0.6271380186080933,0.501812219619751,-0.03534562140703201,0.5848368406295776,0.5073508620262146,-0.04797777161002159,0.5551921725273132,0.5023034811019897,-0.049783993512392044,0.706774115562439,0.5434813499450684,-0.015260997228324413,0.6378307342529297,0.5590049028396606,-0.048087675124406815,0.6409115195274353,0.6425708532333374,-0.04504353180527687,0.6539721488952637,0.6932509541511536,-0.0330464169383049,0.7197583317756653,0.5726482272148132,-0.027836766093969345,0.6623625159263611,0.5861532092094421,-0.049412474036216736,0.6634454131126404,0.6416649222373962,-0.04497174918651581,0.6779724955558777,0.6725178360939026,-0.034933559596538544,0.0,0.0,0.0,0.0,0.0,0.0,0.0,0.0,0.0,0.0,0.0,0.0,0.0,0.0,0.0,0.0,0.0,0.0,0.0,0.0,0.0,0.0,0.0,0.0,0.0,0.0,0.0,0.0,0.0,0.0,0.0,0.0,0.0,0.0,0.0,0.0,0.0,0.0,0.0,0.0,0.0,0.0,0.0,0.0,0.0,0.0,0.0,0.0,0.0,0.0,0.0,0.0,0.0,0.0,0.0,0.0,0.0,0.0,0.0,0.0,0.0,0.0,0.0
1783390514.981437,0.6952708959579468,0.7782992720603943,-3.3692427336973196e-07,0.6495915055274963,0.7066065073013306,-0.002984641119837761,0.6338291764259338,0.6087839603424072,-0.0036665955558419228,0.6294451355934143,0.5292299389839172,-0.008754105307161808,0.6188145279884338,0.4575098752975464,-0.013714087195694447,0.6682132482528687,0.5258046984672546,0.00744051905348897,0.6359562873840332,0.4379607141017914,-0.009993269108235836,0.617550253868103,0.38404959440231323,-0.021470138803124428,0.6009683012962341,0.3327471613883972,-0.028930149972438812,0.6890374422073364,0.5258991718292236,-0.0026310512330383062,0.6265654563903809,0.5007541179656982,-0.03460438922047615,0.5840370655059814,0.5064562559127808,-0.047859929502010345,0.5533914566040039,0.5026054382324219,-0.05018506944179535,0.7061852812767029,0.5432966351509094,-0.014914588071405888,0.6388442516326904,0.5599552392959595,-0.04784788191318512,0.6419300436973572,0.642476499080658,-0.04475683718919754,0.654484212398529,0.6911489367485046,-0.03299069032073021,0.7187373042106628,0.5748047828674316,-0.028230935335159302,0.6626428365707397,0.5873656868934631,-0.05033828318119049,0.6642258167266846,0.6431803107261658,-0.04591768607497215,0.6787024736404419,0.6733276844024658,-0.036002594977617264,0.0,0.0,0.0,0.0,0.0,0.0,0.0,0.0,0.0,0.0,0.0,0.0,0.0,0.0,0.0,0.0,0.0,0.0,0.0,0.0,0.0,0.0,0.0,0.0,0.0,0.0,0.0,0.0,0.0,0.0,0.0,0.0,0.0,0.0,0.0,0.0,0.0,0.0,0.0,0.0,0.0,0.0,0.0,0.0,0.0,0.0,0.0,0.0,0.0,0.0,0.0,0.0,0.0,0.0,0.0,0.0,0.0,0.0,0.0,0.0,0.0,0.0,0.0
1783390515.114481,0.6954815983772278,0.7878812551498413,-3.546835500856105e-07,0.6496223211288452,0.7151011228561401,-0.0036388239823281765,0.633966326713562,0.6159464120864868,-0.004297255538403988,0.6295927166938782,0.5362040996551514,-0.009255364537239075,0.6205512285232544,0.4677252173423767,-0.014387857168912888,0.6700603365898132,0.5327290892601013,0.0056463973596692085,0.6378741264343262,0.44471994042396545,-0.011702710762619972,0.619295060634613,0.3900879919528961,-0.022717665880918503,0.6034595370292664,0.3372742235660553,-0.029828215017914772,0.6905515789985657,0.5332298278808594,-0.0036251351702958345,0.6274099349975586,0.5086332559585571,-0.033720653504133224,0.5851559638977051,0.5181998610496521,-0.04532221704721451,0.5560603737831116,0.5162432193756104,-0.04689629003405571,0.7074132561683655,0.550430953502655,-0.015115959569811821,0.6378726959228516,0.5663966536521912,-0.04685018211603165,0.640932023525238,0.649831235408783,-0.04314921796321869,0.6543960571289062,0.7007826566696167,-0.031246598809957504,0.7193517684936523,0.5810731649398804,-0.02776610292494297,0.6612064242362976,0.5948840379714966,-0.04869960620999336,0.6618663668632507,0.6505852341651917,-0.043918561190366745,0.6766990423202515,0.6821621656417847,-0.03392916917800903,0.0,0.0,0.0,0.0,0.0,0.0,0.0,0.0,0.0,0.0,0.0,0.0,0.0,0.0,0.0,0.0,0.0,0.0,0.0,0.0,0.0,0.0,0.0,0.0,0.0,0.0,0.0,0.0,0.0,0.0,0.0,0.0,0.0,0.0,0.0,0.0,0.0,0.0,0.0,0.0,0.0,0.0,0.0,0.0,0.0,0.0,0.0,0.0,0.0,0.0,0.0,0.0,0.0,0.0,0.0,0.0,0.0,0.0,0.0,0.0,0.0,0.0,0.0
1783390515.247067,0.6946021914482117,0.7933292984962463,-3.5767143913290056e-07,0.6478773355484009,0.7196875810623169,-0.004033404402434826,0.6316990256309509,0.6199312806129456,-0.005042682401835918,0.6272579431533813,0.5394977927207947,-0.010336147621273994,0.6173077821731567,0.46831241250038147,-0.015797695145010948,0.6681589484214783,0.5374064445495605,0.005869965068995953,0.6360266804695129,0.4509545564651489,-0.011850995942950249,0.6176051497459412,0.39656591415405273,-0.0235118605196476,0.6011983156204224,0.3432674705982208,-0.031249936670064926,0.6892150044441223,0.5382208824157715,-0.00354484049603343,0.6241399645805359,0.5143463015556335,-0.034506868571043015,0.5809355974197388,0.5232639908790588,-0.046846549957990646,0.5503829121589661,0.5209003686904907,-0.049003925174474716,0.7061377167701721,0.5564988851547241,-0.01528776716440916,0.6351566910743713,0.572199821472168,-0.047958772629499435,0.6385380029678345,0.6560393571853638,-0.04465525597333908,0.6519289016723633,0.7067494988441467,-0.03296343609690666,0.7179070711135864,0.5881438255310059,-0.028188904747366905,0.6584221124649048,0.6038866639137268,-0.05032763257622719,0.6600782871246338,0.6584561467170715,-0.04637877643108368,0.6755288243293762,0.6884768605232239,-0.03692096099257469,0.0,0.0,0.0,0.0,0.0,0.0,0.0,0.0,0.0,0.0,0.0,0.0,0.0,0.0,0.0,0.0,0.0,0.0,0.0,0.0,0.0,0.0,0.0,0.0,0.0,0.0,0.0,0.0,0.0,0.0,0.0,0.0,0.0,0.0,0.0,0.0,0.0,0.0,0.0,0.0,0.0,0.0,0.0,0.0,0.0,0.0,0.0,0.0,0.0,0.0,0.0,0.0,0.0,0.0,0.0,0.0,0.0,0.0,0.0,0.0,0.0,0.0,0.0
1783390515.385934,0.6937426924705505,0.7854419350624084,-3.2083642054203665e-07,0.6468994617462158,0.7135267853736877,-0.002316337777301669,0.631417453289032,0.617104172706604,-0.0035420830827206373,0.6272940039634705,0.5402104258537292,-0.009346544742584229,0.6183053255081177,0.4737018048763275,-0.014973580837249756,0.6629640460014343,0.5314608812332153,0.006935354322195053,0.6317757964134216,0.4430276155471802,-0.011218741536140442,0.6135699152946472,0.39051008224487305,-0.023240331560373306,0.5966264605522156,0.34025371074676514,-0.031074989587068558,0.6847130656242371,0.5312995910644531,-0.003962651360780001,0.6246413588523865,0.5051834583282471,-0.03730516880750656,0.5823376774787903,0.5135024189949036,-0.050968557596206665,0.5516356229782104,0.5132361650466919,-0.053207509219646454,0.7028232216835022,0.5490933656692505,-0.016929319128394127,0.6354121565818787,0.5658786296844482,-0.0500149168074131,0.6384595036506653,0.6475010514259338,-0.046619217842817307,0.6513713002204895,0.6956209540367126,-0.03475775197148323,0.7161345481872559,0.581479012966156,-0.030923893675208092,0.6591384410858154,0.5956283807754517,-0.05289076268672943,0.6613526940345764,0.6509859561920166,-0.04817601293325424,0.676669180393219,0.6799608469009399,-0.038153648376464844,0.0,0.0,0.0,0.0,0.0,0.0,0.0,0.0,0.0,0.0,0.0,0.0,0.0,0.0,0.0,0.0,0.0,0.0,0.0,0.0,0.0,0.0,0.0,0.0,0.0,0.0,0.0,0.0,0.0,0.0,0.0,0.0,0.0,0.0,0.0,0.0,0.0,0.0,0.0,0.0,0.0,0.0,0.0,0.0,0.0,0.0,0.0,0.0,0.0,0.0,0.0,0.0,0.0,0.0,0.0,0.0,0.0,0.0,0.0,0.0,0.0,0.0,0.0
1783390515.564686,0.6926698684692383,0.7790535092353821,-3.149119720546878e-07,0.6458693146705627,0.706676185131073,-0.002143703866750002,0.632010281085968,0.6116615533828735,-0.003652749815955758,0.6287234425544739,0.535309374332428,-0.00978764146566391,0.6210943460464478,0.4699430465698242,-0.015867415815591812,0.6640918850898743,0.525696873664856,0.006038539577275515,0.630972146987915,0.439101904630661,-0.011729932390153408,0.6128391027450562,0.38686418533325195,-0.02324168011546135,0.5966593027114868,0.33588674664497375,-0.030799848958849907,0.6853223443031311,0.5256211161613464,-0.004994434304535389,0.6241054534912109,0.49772629141807556,-0.03842459246516228,0.581257700920105,0.5060794949531555,-0.05198180302977562,0.5503098368644714,0.5066205263137817,-0.054036542773246765,0.7029427289962769,0.5426128506660461,-0.017916398122906685,0.6337470412254333,0.5578710436820984,-0.051178477704524994,0.637351393699646,0.6395081877708435,-0.04781841114163399,0.6510639190673828,0.6885238885879517,-0.03578696772456169,0.715660810470581,0.5740510821342468,-0.03180212154984474,0.6574268937110901,0.5866678357124329,-0.05380447953939438,0.6597872376441956,0.6420125365257263,-0.04897705838084221,0.6753261685371399,0.6715890169143677,-0.03882640600204468,0.0,0.0,0.0,0.0,0.0,0.0,0.0,0.0,0.0,0.0,0.0,0.0,0.0,0.0,0.0,0.0,0.0,0.0,0.0,0.0,0.0,0.0,0.0,0.0,0.0,0.0,0.0,0.0,0.0,0.0,0.0,0.0,0.0,0.0,0.0,0.0,0.0,0.0,0.0,0.0,0.0,0.0,0.0,0.0,0.0,0.0,0.0,0.0,0.0,0.0,0.0,0.0,0.0,0.0,0.0,0.0,0.0,0.0,0.0,0.0,0.0,0.0,0.0
