ciel274/research-hand-sign/data/raw/hiragana/sign_language_hi_4.csv
timestamp,R_joint_0_x,R_joint_0_y,R_joint_0_z,R_joint_1_x,R_joint_1_y,R_joint_1_z,R_joint_2_x,R_joint_2_y,R_joint_2_z,R_joint_3_x,R_joint_3_y,R_joint_3_z,R_joint_4_x,R_joint_4_y,R_joint_4_z,R_joint_5_x,R_joint_5_y,R_joint_5_z,R_joint_6_x,R_joint_6_y,R_joint_6_z,R_joint_7_x,R_joint_7_y,R_joint_7_z,R_joint_8_x,R_joint_8_y,R_joint_8_z,R_joint_9_x,R_joint_9_y,R_joint_9_z,R_joint_10_x,R_joint_10_y,R_joint_10_z,R_joint_11_x,R_joint_11_y,R_joint_11_z,R_joint_12_x,R_joint_12_y,R_joint_12_z,R_joint_13_x,R_joint_13_y,R_joint_13_z,R_joint_14_x,R_joint_14_y,R_joint_14_z,R_joint_15_x,R_joint_15_y,R_joint_15_z,R_joint_16_x,R_joint_16_y,R_joint_16_z,R_joint_17_x,R_joint_17_y,R_joint_17_z,R_joint_18_x,R_joint_18_y,R_joint_18_z,R_joint_19_x,R_joint_19_y,R_joint_19_z,R_joint_20_x,R_joint_20_y,R_joint_20_z,L_joint_0_x,L_joint_0_y,L_joint_0_z,L_joint_1_x,L_joint_1_y,L_joint_1_z,L_joint_2_x,L_joint_2_y,L_joint_2_z,L_joint_3_x,L_joint_3_y,L_joint_3_z,L_joint_4_x,L_joint_4_y,L_joint_4_z,L_joint_5_x,L_joint_5_y,L_joint_5_z,L_joint_6_x,L_joint_6_y,L_joint_6_z,L_joint_7_x,L_joint_7_y,L_joint_7_z,L_joint_8_x,L_joint_8_y,L_joint_8_z,L_joint_9_x,L_joint_9_y,L_joint_9_z,L_joint_10_x,L_joint_10_y,L_joint_10_z,L_joint_11_x,L_joint_11_y,L_joint_11_z,L_joint_12_x,L_joint_12_y,L_joint_12_z,L_joint_13_x,L_joint_13_y,L_joint_13_z,L_joint_14_x,L_joint_14_y,L_joint_14_z,L_joint_15_x,L_joint_15_y,L_joint_15_z,L_joint_16_x,L_joint_16_y,L_joint_16_z,L_joint_17_x,L_joint_17_y,L_joint_17_z,L_joint_18_x,L_joint_18_y,L_joint_18_z,L_joint_19_x,L_joint_19_y,L_joint_19_z,L_joint_20_x,L_joint_20_y,L_joint_20_z
1784046284.597589,0.6876311302185059,0.9213800430297852,-7.713909866424729e-08,0.6549198627471924,0.8849908709526062,-0.022031322121620178,0.6236851215362549,0.7836252450942993,-0.04130835831165314,0.6191648244857788,0.6976476907730103,-0.06258855015039444,0.6531565189361572,0.6499009728431702,-0.08412162959575653,0.6661400198936462,0.6564149260520935,-0.02188202738761902,0.6629562377929688,0.5266423225402832,-0.05837670713663101,0.6645851731300354,0.43880796432495117,-0.08308981359004974,0.6678645014762878,0.369014173746109,-0.09988158941268921,0.7005805969238281,0.6743984818458557,-0.02749423310160637,0.672213077545166,0.6012822985649109,-0.07585079967975616,0.6576427817344666,0.710709273815155,-0.08153372257947922,0.6616338491439819,0.7766076922416687,-0.0729614868760109,0.7361260056495667,0.7109207510948181,-0.03762579336762428,0.7105017304420471,0.6324249505996704,-0.0844624862074852,0.6898378133773804,0.7408725023269653,-0.06738654524087906,0.6908456087112427,0.8069236874580383,-0.04221072793006897,0.7714142203330994,0.7608270645141602,-0.0499686636030674,0.7472789287567139,0.7027484178543091,-0.08376552164554596,0.719679594039917,0.7709414958953857,-0.07214079797267914,0.7131640315055847,0.8194755911827087,-0.05388191342353821,0.0,0.0,0.0,0.0,0.0,0.0,0.0,0.0,0.0,0.0,0.0,0.0,0.0,0.0,0.0,0.0,0.0,0.0,0.0,0.0,0.0,0.0,0.0,0.0,0.0,0.0,0.0,0.0,0.0,0.0,0.0,0.0,0.0,0.0,0.0,0.0,0.0,0.0,0.0,0.0,0.0,0.0,0.0,0.0,0.0,0.0,0.0,0.0,0.0,0.0,0.0,0.0,0.0,0.0,0.0,0.0,0.0,0.0,0.0,0.0,0.0,0.0,0.0
1784046284.805624,0.6903324723243713,0.9326941967010498,-1.982329536076577e-07,0.6548565030097961,0.8863166570663452,-0.022783007472753525,0.623612642288208,0.7831465005874634,-0.04193988814949989,0.6190786957740784,0.6933978796005249,-0.06290491670370102,0.6544811725616455,0.6505717635154724,-0.0833141952753067,0.6643763184547424,0.6448454856872559,-0.022556569427251816,0.6640689969062805,0.5062647461891174,-0.05543830245733261,0.6652210354804993,0.42457231879234314,-0.07505246996879578,0.6693424582481384,0.3575218617916107,-0.08835015445947647,0.6998100876808167,0.6660254597663879,-0.028412500396370888,0.6737729907035828,0.5991770029067993,-0.07813642174005508,0.6586318016052246,0.7079655528068542,-0.08459635078907013,0.6603605151176453,0.7719215154647827,-0.07672200351953506,0.7343248724937439,0.7013735771179199,-0.03848401457071304,0.7081011533737183,0.6349629163742065,-0.08633574098348618,0.6884998679161072,0.7456990480422974,-0.07108002156019211,0.6887994408607483,0.809341311454773,-0.04748743772506714,0.7676455974578857,0.7494446635246277,-0.05065946280956268,0.7426291108131409,0.6936684846878052,-0.08254047483205795,0.7177320718765259,0.7673644423484802,-0.071498341858387,0.7129958271980286,0.8137795329093933,-0.0546426996588707,0.0,0.0,0.0,0.0,0.0,0.0,0.0,0.0,0.0,0.0,0.0,0.0,0.0,0.0,0.0,0.0,0.0,0.0,0.0,0.0,0.0,0.0,0.0,0.0,0.0,0.0,0.0,0.0,0.0,0.0,0.0,0.0,0.0,0.0,0.0,0.0,0.0,0.0,0.0,0.0,0.0,0.0,0.0,0.0,0.0,0.0,0.0,0.0,0.0,0.0,0.0,0.0,0.0,0.0,0.0,0.0,0.0,0.0,0.0,0.0,0.0,0.0,0.0
1784046285.000347,0.6905937790870667,0.9411368370056152,-2.5751916155059007e-07,0.6528871059417725,0.8854825496673584,-0.0218055360019207,0.6231100559234619,0.7843286395072937,-0.04005361720919609,0.6190052032470703,0.699539840221405,-0.060447946190834045,0.6512349843978882,0.6516602635383606,-0.08007385581731796,0.6636619567871094,0.640162467956543,-0.02266787551343441,0.6618800759315491,0.5001727342605591,-0.05578154698014259,0.662024199962616,0.4177074432373047,-0.07622719556093216,0.6659013032913208,0.34829163551330566,-0.09026452898979187,0.6993284225463867,0.6634999513626099,-0.029439199715852737,0.671908438205719,0.5983126163482666,-0.07976705580949783,0.6546601057052612,0.7048100829124451,-0.08757691085338593,0.6555836200714111,0.7669291496276855,-0.0810193419456482,0.7338216304779053,0.6987112164497375,-0.04021003469824791,0.7063555717468262,0.6350609064102173,-0.08786238729953766,0.6858566403388977,0.7461808323860168,-0.07194987684488297,0.6862117052078247,0.8084509372711182,-0.0481966994702816,0.7674376964569092,0.7463489770889282,-0.0532241016626358,0.7397534847259521,0.6982453465461731,-0.083734430372715,0.7153615355491638,0.7714390754699707,-0.07158489525318146,0.7119334936141968,0.8136547207832336,-0.05417132005095482,0.0,0.0,0.0,0.0,0.0,0.0,0.0,0.0,0.0,0.0,0.0,0.0,0.0,0.0,0.0,0.0,0.0,0.0,0.0,0.0,0.0,0.0,0.0,0.0,0.0,0.0,0.0,0.0,0.0,0.0,0.0,0.0,0.0,0.0,0.0,0.0,0.0,0.0,0.0,0.0,0.0,0.0,0.0,0.0,0.0,0.0,0.0,0.0,0.0,0.0,0.0,0.0,0.0,0.0,0.0,0.0,0.0,0.0,0.0,0.0,0.0,0.0,0.0
1784046285.2009149,0.6888687014579773,0.9405158162117004,-2.721827740970184e-07,0.6507828235626221,0.8800174593925476,-0.020180746912956238,0.6197913289070129,0.776716411113739,-0.038375481963157654,0.616755485534668,0.6897748708724976,-0.059425752609968185,0.6523134708404541,0.6493857502937317,-0.07990197837352753,0.6622744798660278,0.6337988376617432,-0.020926175639033318,0.660670280456543,0.49245303869247437,-0.05358932539820671,0.6607023477554321,0.4107612669467926,-0.07302062213420868,0.6647874712944031,0.3415621519088745,-0.08635100722312927,0.6981896162033081,0.6586683988571167,-0.028911229223012924,0.6713051199913025,0.5941745042800903,-0.07944893091917038,0.6534231901168823,0.7050248384475708,-0.08604728430509567,0.6555458903312683,0.7663061022758484,-0.07836654782295227,0.7324925065040588,0.6939098834991455,-0.0409211739897728,0.7047979831695557,0.6318426728248596,-0.08864212036132812,0.684271514415741,0.7454603314399719,-0.07132292538881302,0.6863828301429749,0.8056989312171936,-0.04641684889793396,0.7662757635116577,0.7415888905525208,-0.055084314197301865,0.7391148209571838,0.6880785226821899,-0.08330071717500687,0.7152076959609985,0.7620992660522461,-0.06886928528547287,0.7137492895126343,0.8037352561950684,-0.05030512064695358,0.0,0.0,0.0,0.0,0.0,0.0,0.0,0.0,0.0,0.0,0.0,0.0,0.0,0.0,0.0,0.0,0.0,0.0,0.0,0.0,0.0,0.0,0.0,0.0,0.0,0.0,0.0,0.0,0.0,0.0,0.0,0.0,0.0,0.0,0.0,0.0,0.0,0.0,0.0,0.0,0.0,0.0,0.0,0.0,0.0,0.0,0.0,0.0,0.0,0.0,0.0,0.0,0.0,0.0,0.0,0.0,0.0,0.0,0.0,0.0,0.0,0.0,0.0
1784046285.405975,0.6904153227806091,0.942267656326294,-2.9543048185587395e-07,0.652622401714325,0.8829687833786011,-0.020581962540745735,0.6216229796409607,0.7803174257278442,-0.03880276530981064,0.6170777678489685,0.6943841576576233,-0.05989352613687515,0.6512994170188904,0.6574344635009766,-0.08014721423387527,0.6650181412696838,0.6334496140480042,-0.022419052198529243,0.6635472774505615,0.48901015520095825,-0.0553896464407444,0.6636039614677429,0.40808141231536865,-0.07424762099981308,0.6675642728805542,0.3384011685848236,-0.08697564899921417,0.7010959386825562,0.6594111323356628,-0.030214501544833183,0.6720936894416809,0.5975316762924194,-0.08113429695367813,0.654010534286499,0.7086859941482544,-0.08693988621234894,0.6564261317253113,0.7681559920310974,-0.0787530317902565,0.7353219389915466,0.6945596933364868,-0.04208987206220627,0.7053601741790771,0.6350687742233276,-0.09054878354072571,0.6848776936531067,0.7495623826980591,-0.07328302413225174,0.6872645616531372,0.8083629608154297,-0.04836093634366989,0.7695736885070801,0.7407836318016052,-0.056173231452703476,0.7406858205795288,0.6923553347587585,-0.08505307883024216,0.7159176468849182,0.7670327425003052,-0.07114767283201218,0.7137713432312012,0.8084511160850525,-0.052794747054576874,0.0,0.0,0.0,0.0,0.0,0.0,0.0,0.0,0.0,0.0,0.0,0.0,0.0,0.0,0.0,0.0,0.0,0.0,0.0,0.0,0.0,0.0,0.0,0.0,0.0,0.0,0.0,0.0,0.0,0.0,0.0,0.0,0.0,0.0,0.0,0.0,0.0,0.0,0.0,0.0,0.0,0.0,0.0,0.0,0.0,0.0,0.0,0.0,0.0,0.0,0.0,0.0,0.0,0.0,0.0,0.0,0.0,0.0,0.0,0.0,0.0,0.0,0.0
1784046285.596216,0.6914121508598328,0.9446687698364258,-3.115721085578116e-07,0.6534279584884644,0.8848390579223633,-0.020042987540364265,0.6221134662628174,0.7813815474510193,-0.037551186978816986,0.617739200592041,0.695647656917572,-0.0579509474337101,0.6532870531082153,0.657066285610199,-0.07762306183576584,0.6660993695259094,0.6353790760040283,-0.021511387079954147,0.663634181022644,0.49075183272361755,-0.054136212915182114,0.6634955406188965,0.4094894826412201,-0.07353471964597702,0.6671940684318542,0.3394401967525482,-0.08678195625543594,0.7024645209312439,0.6606985926628113,-0.029338190332055092,0.6742015480995178,0.5979018211364746,-0.0805867612361908,0.6559803485870361,0.7069998979568481,-0.08815077692270279,0.6577706933021545,0.7695484161376953,-0.08106466382741928,0.7366831302642822,0.6951605081558228,-0.041000671684741974,0.7066667675971985,0.6352419853210449,-0.08946499973535538,0.6862512826919556,0.7497333288192749,-0.07358440011739731,0.6884510517120361,0.8110946416854858,-0.049443893134593964,0.7709176540374756,0.7404853105545044,-0.0547400563955307,0.7413302063941956,0.6930670738220215,-0.08346990495920181,0.7175525426864624,0.7675961256027222,-0.07007845491170883,0.7162755727767944,0.8090996742248535,-0.05203063413500786,0.0,0.0,0.0,0.0,0.0,0.0,0.0,0.0,0.0,0.0,0.0,0.0,0.0,0.0,0.0,0.0,0.0,0.0,0.0,0.0,0.0,0.0,0.0,0.0,0.0,0.0,0.0,0.0,0.0,0.0,0.0,0.0,0.0,0.0,0.0,0.0,0.0,0.0,0.0,0.0,0.0,0.0,0.0,0.0,0.0,0.0,0.0,0.0,0.0,0.0,0.0,0.0,0.0,0.0,0.0,0.0,0.0,0.0,0.0,0.0,0.0,0.0,0.0
1784046285.7937229,0.6924079060554504,0.9458003044128418,-3.025731416528288e-07,0.6538666486740112,0.8849499821662903,-0.021104175597429276,0.6220304369926453,0.7813947200775146,-0.03916092962026596,0.6175723671913147,0.69415682554245,-0.059884898364543915,0.6543921232223511,0.6568899154663086,-0.07981228083372116,0.6649608612060547,0.6350052952766418,-0.022089825943112373,0.6630007028579712,0.49145495891571045,-0.05494346097111702,0.6633090376853943,0.410760760307312,-0.07433139532804489,0.6676093935966492,0.3402249217033386,-0.08764031529426575,0.7021117210388184,0.6591326594352722,-0.029422562569379807,0.6744729280471802,0.5973545908927917,-0.08061551302671432,0.6567673683166504,0.7081523537635803,-0.08757292479276657,0.6587775349617004,0.771079957485199,-0.08010780811309814,0.7367740869522095,0.6936686038970947,-0.04078736901283264,0.707582950592041,0.6356852054595947,-0.08917666971683502,0.687545657157898,0.7501598000526428,-0.07279409468173981,0.6897410154342651,0.8112201690673828,-0.04835269972681999,0.7709391117095947,0.7399947643280029,-0.054376088082790375,0.7419692277908325,0.6929697394371033,-0.08281295001506805,0.7184349894523621,0.767032265663147,-0.0692836344242096,0.7171580195426941,0.8081449270248413,-0.05127813294529915,0.0,0.0,0.0,0.0,0.0,0.0,0.0,0.0,0.0,0.0,0.0,0.0,0.0,0.0,0.0,0.0,0.0,0.0,0.0,0.0,0.0,0.0,0.0,0.0,0.0,0.0,0.0,0.0,0.0,0.0,0.0,0.0,0.0,0.0,0.0,0.0,0.0,0.0,0.0,0.0,0.0,0.0,0.0,0.0,0.0,0.0,0.0,0.0,0.0,0.0,0.0,0.0,0.0,0.0,0.0,0.0,0.0,0.0,0.0,0.0,0.0,0.0,0.0
1784046286.007642,0.6922598481178284,0.9452921152114868,-2.943544927802577e-07,0.6540496945381165,0.8856172561645508,-0.021069305017590523,0.6220821142196655,0.782945990562439,-0.039524491876363754,0.6174512505531311,0.6957748532295227,-0.06085484102368355,0.6532444953918457,0.6579625606536865,-0.08129085600376129,0.666726291179657,0.6344336867332458,-0.021515613421797752,0.6642706990242004,0.4899124205112457,-0.053611837327480316,0.6638820767402649,0.40931448340415955,-0.07202208042144775,0.667616605758667,0.34043440222740173,-0.08457249402999878,0.7033642530441284,0.6593307852745056,-0.029159635305404663,0.6742933392524719,0.5980756878852844,-0.08019192516803741,0.6561785936355591,0.706929087638855,-0.08695453405380249,0.658427357673645,0.7686412930488586,-0.07919789105653763,0.7373719215393066,0.6937554478645325,-0.04086244851350784,0.7065743803977966,0.6369265913963318,-0.0891469419002533,0.6870177984237671,0.7500854134559631,-0.07299205660820007,0.6896072030067444,0.8103344440460205,-0.048674993216991425,0.7711893320083618,0.7395662069320679,-0.054814666509628296,0.7410719990730286,0.6943264007568359,-0.08316468447446823,0.7179825901985168,0.7673237323760986,-0.06987595558166504,0.7168903350830078,0.8079214096069336,-0.05200844630599022,0.0,0.0,0.0,0.0,0.0,0.0,0.0,0.0,0.0,0.0,0.0,0.0,0.0,0.0,0.0,0.0,0.0,0.0,0.0,0.0,0.0,0.0,0.0,0.0,0.0,0.0,0.0,0.0,0.0,0.0,0.0,0.0,0.0,0.0,0.0,0.0,0.0,0.0,0.0,0.0,0.0,0.0,0.0,0.0,0.0,0.0,0.0,0.0,0.0,0.0,0.0,0.0,0.0,0.0,0.0,0.0,0.0,0.0,0.0,0.0,0.0,0.0,0.0
1784046286.199743,0.6934158205986023,0.9502019882202148,-2.9744873586423637e-07,0.6542041897773743,0.8879354000091553,-0.021547788754105568,0.6231507062911987,0.7868891954421997,-0.04041513428092003,0.617323637008667,0.702771008014679,-0.06201845780014992,0.6516948938369751,0.6613791584968567,-0.08290401101112366,0.6670979261398315,0.6401299834251404,-0.022258764132857323,0.6654329895973206,0.49633365869522095,-0.05511855706572533,0.6652282476425171,0.4141303598880768,-0.07484752684831619,0.6686937212944031,0.3437662124633789,-0.08839181810617447,0.7035031914710999,0.6653949618339539,-0.029738016426563263,0.6760532855987549,0.6032778024673462,-0.08180117607116699,0.6566610932350159,0.710685133934021,-0.08995939791202545,0.6568856239318848,0.774904727935791,-0.08309966325759888,0.7374562621116638,0.7005159258842468,-0.04122832417488098,0.7074810266494751,0.6429088711738586,-0.0901416465640068,0.6868711113929749,0.7546602487564087,-0.07488904148340225,0.6880130767822266,0.8159809708595276,-0.05104798823595047,0.7713537216186523,0.7468798756599426,-0.054939694702625275,0.7414048910140991,0.7003615498542786,-0.08404731005430222,0.7178969979286194,0.7736614942550659,-0.07111333310604095,0.7158808708190918,0.8155299425125122,-0.05330750718712807,0.0,0.0,0.0,0.0,0.0,0.0,0.0,0.0,0.0,0.0,0.0,0.0,0.0,0.0,0.0,0.0,0.0,0.0,0.0,0.0,0.0,0.0,0.0,0.0,0.0,0.0,0.0,0.0,0.0,0.0,0.0,0.0,0.0,0.0,0.0,0.0,0.0,0.0,0.0,0.0,0.0,0.0,0.0,0.0,0.0,0.0,0.0,0.0,0.0,0.0,0.0,0.0,0.0,0.0,0.0,0.0,0.0,0.0,0.0,0.0,0.0,0.0,0.0
1784046286.3887439,0.6926044225692749,0.9553051590919495,-3.1484930218539375e-07,0.655059814453125,0.893043041229248,-0.0211250651627779,0.6243258714675903,0.790717363357544,-0.039307039231061935,0.6190814971923828,0.7057228684425354,-0.06021337956190109,0.6517658829689026,0.6641021966934204,-0.08043411374092102,0.6713078618049622,0.6434801816940308,-0.021930214017629623,0.6701467633247375,0.5013936161994934,-0.05337567627429962,0.6696500778198242,0.42044690251350403,-0.07203212380409241,0.6732953190803528,0.3509170711040497,-0.0851045474410057,0.7076135277748108,0.6710201501846313,-0.029536496847867966,0.6782733798027039,0.6057463884353638,-0.0805569738149643,0.6568642854690552,0.7128675580024719,-0.0884396880865097,0.6559544205665588,0.7768387794494629,-0.08158037066459656,0.7413952350616455,0.7086439728736877,-0.040972910821437836,0.7102077007293701,0.651708722114563,-0.0897245705127716,0.6871938705444336,0.761812686920166,-0.07510212808847427,0.6863686442375183,0.8228209614753723,-0.05181490629911423,0.7747012376785278,0.757510244846344,-0.05450524762272835,0.7450075745582581,0.7113994359970093,-0.08453862369060516,0.7179675102233887,0.7840791940689087,-0.07245023548603058,0.7118911743164062,0.8280124664306641,-0.05521528795361519,0.0,0.0,0.0,0.0,0.0,0.0,0.0,0.0,0.0,0.0,0.0,0.0,0.0,0.0,0.0,0.0,0.0,0.0,0.0,0.0,0.0,0.0,0.0,0.0,0.0,0.0,0.0,0.0,0.0,0.0,0.0,0.0,0.0,0.0,0.0,0.0,0.0,0.0,0.0,0.0,0.0,0.0,0.0,0.0,0.0,0.0,0.0,0.0,0.0,0.0,0.0,0.0,0.0,0.0,0.0,0.0,0.0,0.0,0.0,0.0,0.0,0.0,0.0
1784046286.5757089,0.6935569047927856,0.9591835141181946,-3.287929359885311e-07,0.6560333967208862,0.8970897793769836,-0.020440958440303802,0.6254897117614746,0.7931643128395081,-0.03794359043240547,0.621799886226654,0.7073506712913513,-0.0580139085650444,0.6547361016273499,0.6633126139640808,-0.07725099474191666,0.6720736026763916,0.6466667652130127,-0.02172492817044258,0.6721566319465637,0.5054294466972351,-0.05451635643839836,0.6719875335693359,0.4241357743740082,-0.07457981258630753,0.6753025054931641,0.35330185294151306,-0.08861825615167618,0.7082334160804749,0.6743544340133667,-0.02970082126557827,0.6809759140014648,0.606640636920929,-0.0809021145105362,0.6592147946357727,0.7149105668067932,-0.08903547376394272,0.6577484011650085,0.7777981758117676,-0.08252986520528793,0.7421289682388306,0.7125712633132935,-0.04152478277683258,0.713141918182373,0.6516122221946716,-0.09007135033607483,0.6895596981048584,0.7642955780029297,-0.07446672767400742,0.6891417503356934,0.8244448900222778,-0.05076833814382553,0.7756028175354004,0.7623461484909058,-0.055449265986680984,0.746685266494751,0.7140162587165833,-0.0852716788649559,0.7196701169013977,0.7883866429328918,-0.07236747443675995,0.715453028678894,0.8300248384475708,-0.054650940001010895,0.0,0.0,0.0,0.0,0.0,0.0,0.0,0.0,0.0,0.0,0.0,0.0,0.0,0.0,0.0,0.0,0.0,0.0,0.0,0.0,0.0,0.0,0.0,0.0,0.0,0.0,0.0,0.0,0.0,0.0,0.0,0.0,0.0,0.0,0.0,0.0,0.0,0.0,0.0,0.0,0.0,0.0,0.0,0.0,0.0,0.0,0.0,0.0,0.0,0.0,0.0,0.0,0.0,0.0,0.0,0.0,0.0,0.0,0.0,0.0,0.0,0.0,0.0
1784046286.766015,0.6931685209274292,0.9673385620117188,-3.214017567643168e-07,0.6554321646690369,0.9050830602645874,-0.02170766517519951,0.6248778104782104,0.8026984333992004,-0.040218062698841095,0.6195661425590515,0.7183189988136292,-0.061101797968149185,0.6523442268371582,0.6726703643798828,-0.08106904476881027,0.6725931167602539,0.6554651856422424,-0.02367478981614113,0.6731139421463013,0.5127291679382324,-0.05676545575261116,0.6722234487533569,0.4309318959712982,-0.0768338143825531,0.6749645471572876,0.3599410057067871,-0.0908198282122612,0.7083662748336792,0.6837537884712219,-0.03112046979367733,0.6808145046234131,0.6148645877838135,-0.08245044201612473,0.6585872173309326,0.7216147184371948,-0.0904339924454689,0.6574049592018127,0.7860238552093506,-0.08390436321496964,0.7420210838317871,0.7230223417282104,-0.04247196763753891,0.713187038898468,0.6604132056236267,-0.09120497107505798,0.6891149282455444,0.7713537216186523,-0.07563848048448563,0.688493013381958,0.833305299282074,-0.05192073807120323,0.7754524350166321,0.7739853858947754,-0.05602319538593292,0.7472051382064819,0.7243312001228333,-0.08643868565559387,0.7192953824996948,0.7966325879096985,-0.07390187680721283,0.7132789492607117,0.840366005897522,-0.05626877024769783,0.0,0.0,0.0,0.0,0.0,0.0,0.0,0.0,0.0,0.0,0.0,0.0,0.0,0.0,0.0,0.0,0.0,0.0,0.0,0.0,0.0,0.0,0.0,0.0,0.0,0.0,0.0,0.0,0.0,0.0,0.0,0.0,0.0,0.0,0.0,0.0,0.0,0.0,0.0,0.0,0.0,0.0,0.0,0.0,0.0,0.0,0.0,0.0,0.0,0.0,0.0,0.0,0.0,0.0,0.0,0.0,0.0,0.0,0.0,0.0,0.0,0.0,0.0
1784046286.9777951,0.6951757073402405,0.968497633934021,-3.272114383889857e-07,0.658019483089447,0.9055865406990051,-0.021669728681445122,0.6276997327804565,0.8028823733329773,-0.04032440856099129,0.6219449043273926,0.7187081575393677,-0.061340779066085815,0.6536809802055359,0.6716033816337585,-0.08150546252727509,0.6747251152992249,0.6562386155128479,-0.02413315698504448,0.6748276948928833,0.5133644938468933,-0.05765124782919884,0.674025297164917,0.43092024326324463,-0.07758812606334686,0.6769276857376099,0.3590810298919678,-0.0914367213845253,0.7113280892372131,0.6837883591651917,-0.03165345638990402,0.6823708415031433,0.6183388829231262,-0.08313439786434174,0.6608222126960754,0.7290902137756348,-0.09008713066577911,0.6602873206138611,0.7930152416229248,-0.08292506635189056,0.7453954219818115,0.7232953906059265,-0.04318375885486603,0.7153239846229553,0.6636772751808167,-0.09250979125499725,0.6916376948356628,0.7773550152778625,-0.07584574818611145,0.691173255443573,0.8384867906570435,-0.051492996513843536,0.7786935567855835,0.7750464677810669,-0.056894585490226746,0.749274730682373,0.7270897030830383,-0.08787833899259567,0.7213383316993713,0.8023642897605896,-0.07474630326032639,0.71595698595047,0.8455713391304016,-0.05672859400510788,0.0,0.0,0.0,0.0,0.0,0.0,0.0,0.0,0.0,0.0,0.0,0.0,0.0,0.0,0.0,0.0,0.0,0.0,0.0,0.0,0.0,0.0,0.0,0.0,0.0,0.0,0.0,0.0,0.0,0.0,0.0,0.0,0.0,0.0,0.0,0.0,0.0,0.0,0.0,0.0,0.0,0.0,0.0,0.0,0.0,0.0,0.0,0.0,0.0,0.0,0.0,0.0,0.0,0.0,0.0,0.0,0.0,0.0,0.0,0.0,0.0,0.0,0.0
1784046287.1755111,0.6947445869445801,0.9784008264541626,-3.330867741624388e-07,0.6571760773658752,0.9176857471466064,-0.022410981357097626,0.6275297999382019,0.8163543939590454,-0.04134130850434303,0.6210216879844666,0.7334437966346741,-0.06251490116119385,0.6510301828384399,0.690710723400116,-0.08291959017515182,0.6757497191429138,0.6672312021255493,-0.025430334731936455,0.6769235730171204,0.5236818194389343,-0.05948399752378464,0.6750280261039734,0.44087064266204834,-0.08036362379789352,0.676906943321228,0.3686583638191223,-0.09503297507762909,0.7120048403739929,0.6973073482513428,-0.03277462348341942,0.6831624507904053,0.6294555068016052,-0.08501237630844116,0.6598518490791321,0.736653208732605,-0.09339197725057602,0.658605694770813,0.7984995245933533,-0.08726031333208084,0.7460295557975769,0.7379629611968994,-0.04407428950071335,0.7163630127906799,0.6759740710258484,-0.09354812651872635,0.6914128065109253,0.7848106026649475,-0.07830049842596054,0.6903443932533264,0.8432223796844482,-0.05494734272360802,0.7796909809112549,0.7896744012832642,-0.057638801634311676,0.7515592575073242,0.740286111831665,-0.08885236829519272,0.7224417924880981,0.8120123147964478,-0.07659997791051865,0.7154272198677063,0.854150116443634,-0.0591999813914299,0.0,0.0,0.0,0.0,0.0,0.0,0.0,0.0,0.0,0.0,0.0,0.0,0.0,0.0,0.0,0.0,0.0,0.0,0.0,0.0,0.0,0.0,0.0,0.0,0.0,0.0,0.0,0.0,0.0,0.0,0.0,0.0,0.0,0.0,0.0,0.0,0.0,0.0,0.0,0.0,0.0,0.0,0.0,0.0,0.0,0.0,0.0,0.0,0.0,0.0,0.0,0.0,0.0,0.0,0.0,0.0,0.0,0.0,0.0,0.0,0.0,0.0,0.0
1784046287.399926,0.6950424313545227,0.9842592477798462,-3.593403903323633e-07,0.6587802767753601,0.9230530858039856,-0.02077104151248932,0.6299035549163818,0.8203568458557129,-0.03841795399785042,0.6232360005378723,0.7381400465965271,-0.0584009625017643,0.651868462562561,0.6910367608070374,-0.07755120098590851,0.6779054999351501,0.6706562042236328,-0.023983966559171677,0.678867518901825,0.5266160368919373,-0.05743807926774025,0.6772083640098572,0.4444596767425537,-0.0777057483792305,0.6789989471435547,0.37216222286224365,-0.09187553077936172,0.7147892713546753,0.7007255554199219,-0.03154614940285683,0.6858918070793152,0.6354324221611023,-0.08268845081329346,0.6632868647575378,0.7462556958198547,-0.09014178812503815,0.6622582077980042,0.8096948266029358,-0.08358180522918701,0.7493228316307068,0.7417972683906555,-0.04295486584305763,0.7194139957427979,0.6814280152320862,-0.09149785339832306,0.6945669651031494,0.793430745601654,-0.07533319294452667,0.6936390399932861,0.8533059358596802,-0.05162733793258667,0.783122718334198,0.7941312193870544,-0.05643055588006973,0.7540863752365112,0.7459080815315247,-0.08693742752075195,0.725152850151062,0.8197512030601501,-0.0739886686205864,0.719093382358551,0.861908495426178,-0.05615857243537903,0.0,0.0,0.0,0.0,0.0,0.0,0.0,0.0,0.0,0.0,0.0,0.0,0.0,0.0,0.0,0.0,0.0,0.0,0.0,0.0,0.0,0.0,0.0,0.0,0.0,0.0,0.0,0.0,0.0,0.0,0.0,0.0,0.0,0.0,0.0,0.0,0.0,0.0,0.0,0.0,0.0,0.0,0.0,0.0,0.0,0.0,0.0,0.0,0.0,0.0,0.0,0.0,0.0,0.0,0.0,0.0,0.0,0.0,0.0,0.0,0.0,0.0,0.0
1784046287.632709,0.6963655948638916,0.9862352609634399,-3.6625766597353504e-07,0.660351037979126,0.9255337715148926,-0.020724236965179443,0.6312771439552307,0.8225555419921875,-0.03846826031804085,0.6249444484710693,0.7390060424804688,-0.05856402963399887,0.6532960534095764,0.6921207904815674,-0.0776849091053009,0.6801446080207825,0.6708711385726929,-0.023652052506804466,0.6801339387893677,0.5279864072799683,-0.057560257613658905,0.677685558795929,0.44602930545806885,-0.07789313793182373,0.6785150170326233,0.3749665915966034,-0.09197555482387543,0.7171391248703003,0.6997635364532471,-0.031099874526262283,0.6871404051780701,0.6355687379837036,-0.0814608633518219,0.6647067666053772,0.7473980784416199,-0.08795925229787827,0.663873016834259,0.8079753518104553,-0.0809803232550621,0.7518157362937927,0.7400577664375305,-0.04252259433269501,0.7211227416992188,0.6804658770561218,-0.09048587828874588,0.6962644457817078,0.7951639890670776,-0.07305826246738434,0.6956518888473511,0.8543007373809814,-0.04882276803255081,0.7849907279014587,0.7926842570304871,-0.056170009076595306,0.755497932434082,0.7478585839271545,-0.08674249053001404,0.7261046767234802,0.8238634467124939,-0.07355303317308426,0.7204251885414124,0.8648682236671448,-0.05559168756008148,0.0,0.0,0.0,0.0,0.0,0.0,0.0,0.0,0.0,0.0,0.0,0.0,0.0,0.0,0.0,0.0,0.0,0.0,0.0,0.0,0.0,0.0,0.0,0.0,0.0,0.0,0.0,0.0,0.0,0.0,0.0,0.0,0.0,0.0,0.0,0.0,0.0,0.0,0.0,0.0,0.0,0.0,0.0,0.0,0.0,0.0,0.0,0.0,0.0,0.0,0.0,0.0,0.0,0.0,0.0,0.0,0.0,0.0,0.0,0.0,0.0,0.0,0.0
1784046287.862638,0.697869598865509,0.987052321434021,-3.6475739761954173e-07,0.6614588499069214,0.9259636998176575,-0.02077433466911316,0.6330228447914124,0.8254637122154236,-0.0386013388633728,0.6264201402664185,0.7440453767776489,-0.05868127569556236,0.6522374749183655,0.6924467086791992,-0.07791328430175781,0.6813446283340454,0.6732859015464783,-0.023976866155862808,0.681781530380249,0.5302999019622803,-0.05787664279341698,0.6795820593833923,0.44792279601097107,-0.07881301641464233,0.6806195974349976,0.3761906027793884,-0.09343234449625015,0.7181745767593384,0.7029063105583191,-0.03151223435997963,0.6879489421844482,0.6366068124771118,-0.08235407620668411,0.6652209162712097,0.7474168539047241,-0.09008193016052246,0.6636691093444824,0.8115901947021484,-0.08398273587226868,0.7528303861618042,0.7440245151519775,-0.042905744165182114,0.7223219275474548,0.6833958625793457,-0.09113480150699615,0.6969792246818542,0.7965273261070251,-0.0746535211801529,0.6954905390739441,0.8574520349502563,-0.051095735281705856,0.7864848375320435,0.7972909808158875,-0.05644954741001129,0.757542610168457,0.7502259612083435,-0.08763949573040009,0.7274681329727173,0.826068639755249,-0.0748419538140297,0.7205764651298523,0.8692293167114258,-0.05710921064019203,0.0,0.0,0.0,0.0,0.0,0.0,0.0,0.0,0.0,0.0,0.0,0.0,0.0,0.0,0.0,0.0,0.0,0.0,0.0,0.0,0.0,0.0,0.0,0.0,0.0,0.0,0.0,0.0,0.0,0.0,0.0,0.0,0.0,0.0,0.0,0.0,0.0,0.0,0.0,0.0,0.0,0.0,0.0,0.0,0.0,0.0,0.0,0.0,0.0,0.0,0.0,0.0,0.0,0.0,0.0,0.0,0.0,0.0,0.0,0.0,0.0,0.0,0.0
1784046288.069221,0.6968539953231812,0.9922424554824829,-3.696065675740101e-07,0.6605235934257507,0.9320502877235413,-0.02139114961028099,0.6326911449432373,0.8293389678001404,-0.03887931630015373,0.626609206199646,0.7456425428390503,-0.05851617082953453,0.650987982749939,0.6957176327705383,-0.07739191502332687,0.6816081404685974,0.6791113615036011,-0.02379118837416172,0.6815256476402283,0.5356470346450806,-0.056904155761003494,0.6784534454345703,0.4532846212387085,-0.0769137442111969,0.678986668586731,0.38147640228271484,-0.09099065512418747,0.7187563180923462,0.7087391018867493,-0.030927257612347603,0.6880311965942383,0.6424121260643005,-0.08186396956443787,0.6658737659454346,0.7534647583961487,-0.08918356150388718,0.6652840971946716,0.8183717131614685,-0.08258839696645737,0.753267228603363,0.749926745891571,-0.04202272742986679,0.7212399244308472,0.6900241374969482,-0.0903073400259018,0.6966217756271362,0.801947832107544,-0.07414596527814865,0.6957293748855591,0.8621826171875,-0.05075078457593918,0.78681880235672,0.8027791380882263,-0.05534921586513519,0.756581723690033,0.7567442655563354,-0.0866149440407753,0.7268699407577515,0.8315560221672058,-0.07447372376918793,0.7198565602302551,0.874416172504425,-0.05730178952217102,0.0,0.0,0.0,0.0,0.0,0.0,0.0,0.0,0.0,0.0,0.0,0.0,0.0,0.0,0.0,0.0,0.0,0.0,0.0,0.0,0.0,0.0,0.0,0.0,0.0,0.0,0.0,0.0,0.0,0.0,0.0,0.0,0.0,0.0,0.0,0.0,0.0,0.0,0.0,0.0,0.0,0.0,0.0,0.0,0.0,0.0,0.0,0.0,0.0,0.0,0.0,0.0,0.0,0.0,0.0,0.0,0.0,0.0,0.0,0.0,0.0,0.0,0.0
1784046288.291372,0.6928414702415466,1.0067176818847656,-4.2242663766955957e-07,0.6541810631752014,0.9424200654029846,-0.022899672389030457,0.624447226524353,0.8376709818840027,-0.04105713218450546,0.6178064942359924,0.7546458840370178,-0.06100185960531235,0.642846405506134,0.7034839391708374,-0.08000136911869049,0.6798028945922852,0.6933332085609436,-0.023455606773495674,0.6810367703437805,0.556671142578125,-0.05762307718396187,0.6731851100921631,0.47801899909973145,-0.07798895984888077,0.6678496599197388,0.409624308347702,-0.09205060452222824,0.7176775336265564,0.7235050201416016,-0.030672425404191017,0.6840773224830627,0.6557492017745972,-0.08149959146976471,0.6569980382919312,0.7667398452758789,-0.08793417364358902,0.6563959121704102,0.8295125365257263,-0.0805802121758461,0.7519546747207642,0.7679880857467651,-0.04246392101049423,0.7183685898780823,0.7039982080459595,-0.09090573340654373,0.6888685822486877,0.8125121593475342,-0.07409706711769104,0.687691867351532,0.8681207895278931,-0.05032023414969444,0.7846097946166992,0.8255125284194946,-0.05674086511135101,0.7518570423126221,0.7799050211906433,-0.08812008798122406,0.72012859582901,0.8519185185432434,-0.07580875605344772,0.714806854724884,0.8916924595832825,-0.05866231396794319,0.0,0.0,0.0,0.0,0.0,0.0,0.0,0.0,0.0,0.0,0.0,0.0,0.0,0.0,0.0,0.0,0.0,0.0,0.0,0.0,0.0,0.0,0.0,0.0,0.0,0.0,0.0,0.0,0.0,0.0,0.0,0.0,0.0,0.0,0.0,0.0,0.0,0.0,0.0,0.0,0.0,0.0,0.0,0.0,0.0,0.0,0.0,0.0,0.0,0.0,0.0,0.0,0.0,0.0,0.0,0.0,0.0,0.0,0.0,0.0,0.0,0.0,0.0
1784046288.5000021,0.6869014501571655,1.1098586320877075,-7.589812298647303e-07,0.6552801132202148,1.078309178352356,-0.02450728230178356,0.6237098574638367,0.9951900243759155,-0.04561102017760277,0.6076258420944214,0.9400879740715027,-0.06910757720470428,0.6133420467376709,0.8913039565086365,-0.0910382866859436,0.6776502728462219,0.8277977108955383,-0.03134806081652641,0.6804155707359314,0.6901627779006958,-0.06965800374746323,0.6585162878036499,0.6497400999069214,-0.08783911913633347,0.6344382762908936,0.6500347256660461,-0.09476877748966217,0.7263830304145813,0.8513652682304382,-0.03642542287707329,0.6817213296890259,0.8369938731193542,-0.07668624073266983,0.6478897929191589,0.9553307890892029,-0.07448836416006088,0.6511097550392151,1.0150424242019653,-0.06344779580831528,0.767808735370636,0.912537693977356,-0.04663323238492012,0.7220723628997803,0.9020816087722778,-0.09013788402080536,0.6880809664726257,1.0140424966812134,-0.07079201191663742,0.6908615827560425,1.064436912536621,-0.04712297022342682,0.8005742430686951,0.989771842956543,-0.05879589542746544,0.7661305069923401,0.9933982491493225,-0.08874263614416122,0.7342982888221741,1.0605748891830444,-0.07349882274866104,0.7331096529960632,1.0984104871749878,-0.0534428209066391,0.0,0.0,0.0,0.0,0.0,0.0,0.0,0.0,0.0,0.0,0.0,0.0,0.0,0.0,0.0,0.0,0.0,0.0,0.0,0.0,0.0,0.0,0.0,0.0,0.0,0.0,0.0,0.0,0.0,0.0,0.0,0.0,0.0,0.0,0.0,0.0,0.0,0.0,0.0,0.0,0.0,0.0,0.0,0.0,0.0,0.0,0.0,0.0,0.0,0.0,0.0,0.0,0.0,0.0,0.0,0.0,0.0,0.0,0.0,0.0,0.0,0.0,0.0
1784046288.7218618,0.0,0.0,0.0,0.0,0.0,0.0,0.0,0.0,0.0,0.0,0.0,0.0,0.0,0.0,0.0,0.0,0.0,0.0,0.0,0.0,0.0,0.0,0.0,0.0,0.0,0.0,0.0,0.0,0.0,0.0,0.0,0.0,0.0,0.0,0.0,0.0,0.0,0.0,0.0,0.0,0.0,0.0,0.0,0.0,0.0,0.0,0.0,0.0,0.0,0.0,0.0,0.0,0.0,0.0,0.0,0.0,0.0,0.0,0.0,0.0,0.0,0.0,0.0,0.0,0.0,0.0,0.0,0.0,0.0,0.0,0.0,0.0,0.0,0.0,0.0,0.0,0.0,0.0,0.0,0.0,0.0,0.0,0.0,0.0,0.0,0.0,0.0,0.0,0.0,0.0,0.0,0.0,0.0,0.0,0.0,0.0,0.0,0.0,0.0,0.0,0.0,0.0,0.0,0.0,0.0,0.0,0.0,0.0,0.0,0.0,0.0,0.0,0.0,0.0,0.0,0.0,0.0,0.0,0.0,0.0,0.0,0.0,0.0,0.0,0.0,0.0
1784046288.868572,0.0,0.0,0.0,0.0,0.0,0.0,0.0,0.0,0.0,0.0,0.0,0.0,0.0,0.0,0.0,0.0,0.0,0.0,0.0,0.0,0.0,0.0,0.0,0.0,0.0,0.0,0.0,0.0,0.0,0.0,0.0,0.0,0.0,0.0,0.0,0.0,0.0,0.0,0.0,0.0,0.0,0.0,0.0,0.0,0.0,0.0,0.0,0.0,0.0,0.0,0.0,0.0,0.0,0.0,0.0,0.0,0.0,0.0,0.0,0.0,0.0,0.0,0.0,0.0,0.0,0.0,0.0,0.0,0.0,0.0,0.0,0.0,0.0,0.0,0.0,0.0,0.0,0.0,0.0,0.0,0.0,0.0,0.0,0.0,0.0,0.0,0.0,0.0,0.0,0.0,0.0,0.0,0.0,0.0,0.0,0.0,0.0,0.0,0.0,0.0,0.0,0.0,0.0,0.0,0.0,0.0,0.0,0.0,0.0,0.0,0.0,0.0,0.0,0.0,0.0,0.0,0.0,0.0,0.0,0.0,0.0,0.0,0.0,0.0,0.0,0.0
1784046289.053706,0.0,0.0,0.0,0.0,0.0,0.0,0.0,0.0,0.0,0.0,0.0,0.0,0.0,0.0,0.0,0.0,0.0,0.0,0.0,0.0,0.0,0.0,0.0,0.0,0.0,0.0,0.0,0.0,0.0,0.0,0.0,0.0,0.0,0.0,0.0,0.0,0.0,0.0,0.0,0.0,0.0,0.0,0.0,0.0,0.0,0.0,0.0,0.0,0.0,0.0,0.0,0.0,0.0,0.0,0.0,0.0,0.0,0.0,0.0,0.0,0.0,0.0,0.0,0.0,0.0,0.0,0.0,0.0,0.0,0.0,0.0,0.0,0.0,0.0,0.0,0.0,0.0,0.0,0.0,0.0,0.0,0.0,0.0,0.0,0.0,0.0,0.0,0.0,0.0,0.0,0.0,0.0,0.0,0.0,0.0,0.0,0.0,0.0,0.0,0.0,0.0,0.0,0.0,0.0,0.0,0.0,0.0,0.0,0.0,0.0,0.0,0.0,0.0,0.0,0.0,0.0,0.0,0.0,0.0,0.0,0.0,0.0,0.0,0.0,0.0,0.0
1784046289.237559,0.0,0.0,0.0,0.0,0.0,0.0,0.0,0.0,0.0,0.0,0.0,0.0,0.0,0.0,0.0,0.0,0.0,0.0,0.0,0.0,0.0,0.0,0.0,0.0,0.0,0.0,0.0,0.0,0.0,0.0,0.0,0.0,0.0,0.0,0.0,0.0,0.0,0.0,0.0,0.0,0.0,0.0,0.0,0.0,0.0,0.0,0.0,0.0,0.0,0.0,0.0,0.0,0.0,0.0,0.0,0.0,0.0,0.0,0.0,0.0,0.0,0.0,0.0,0.0,0.0,0.0,0.0,0.0,0.0,0.0,0.0,0.0,0.0,0.0,0.0,0.0,0.0,0.0,0.0,0.0,0.0,0.0,0.0,0.0,0.0,0.0,0.0,0.0,0.0,0.0,0.0,0.0,0.0,0.0,0.0,0.0,0.0,0.0,0.0,0.0,0.0,0.0,0.0,0.0,0.0,0.0,0.0,0.0,0.0,0.0,0.0,0.0,0.0,0.0,0.0,0.0,0.0,0.0,0.0,0.0,0.0,0.0,0.0,0.0,0.0,0.0
1784046289.399005,0.0,0.0,0.0,0.0,0.0,0.0,0.0,0.0,0.0,0.0,0.0,0.0,0.0,0.0,0.0,0.0,0.0,0.0,0.0,0.0,0.0,0.0,0.0,0.0,0.0,0.0,0.0,0.0,0.0,0.0,0.0,0.0,0.0,0.0,0.0,0.0,0.0,0.0,0.0,0.0,0.0,0.0,0.0,0.0,0.0,0.0,0.0,0.0,0.0,0.0,0.0,0.0,0.0,0.0,0.0,0.0,0.0,0.0,0.0,0.0,0.0,0.0,0.0,0.0,0.0,0.0,0.0,0.0,0.0,0.0,0.0,0.0,0.0,0.0,0.0,0.0,0.0,0.0,0.0,0.0,0.0,0.0,0.0,0.0,0.0,0.0,0.0,0.0,0.0,0.0,0.0,0.0,0.0,0.0,0.0,0.0,0.0,0.0,0.0,0.0,0.0,0.0,0.0,0.0,0.0,0.0,0.0,0.0,0.0,0.0,0.0,0.0,0.0,0.0,0.0,0.0,0.0,0.0,0.0,0.0,0.0,0.0,0.0,0.0,0.0,0.0
1784046289.5640461,0.0,0.0,0.0,0.0,0.0,0.0,0.0,0.0,0.0,0.0,0.0,0.0,0.0,0.0,0.0,0.0,0.0,0.0,0.0,0.0,0.0,0.0,0.0,0.0,0.0,0.0,0.0,0.0,0.0,0.0,0.0,0.0,0.0,0.0,0.0,0.0,0.0,0.0,0.0,0.0,0.0,0.0,0.0,0.0,0.0,0.0,0.0,0.0,0.0,0.0,0.0,0.0,0.0,0.0,0.0,0.0,0.0,0.0,0.0,0.0,0.0,0.0,0.0,0.0,0.0,0.0,0.0,0.0,0.0,0.0,0.0,0.0,0.0,0.0,0.0,0.0,0.0,0.0,0.0,0.0,0.0,0.0,0.0,0.0,0.0,0.0,0.0,0.0,0.0,0.0,0.0,0.0,0.0,0.0,0.0,0.0,0.0,0.0,0.0,0.0,0.0,0.0,0.0,0.0,0.0,0.0,0.0,0.0,0.0,0.0,0.0,0.0,0.0,0.0,0.0,0.0,0.0,0.0,0.0,0.0,0.0,0.0,0.0,0.0,0.0,0.0
1784046289.70346,0.0,0.0,0.0,0.0,0.0,0.0,0.0,0.0,0.0,0.0,0.0,0.0,0.0,0.0,0.0,0.0,0.0,0.0,0.0,0.0,0.0,0.0,0.0,0.0,0.0,0.0,0.0,0.0,0.0,0.0,0.0,0.0,0.0,0.0,0.0,0.0,0.0,0.0,0.0,0.0,0.0,0.0,0.0,0.0,0.0,0.0,0.0,0.0,0.0,0.0,0.0,0.0,0.0,0.0,0.0,0.0,0.0,0.0,0.0,0.0,0.0,0.0,0.0,0.0,0.0,0.0,0.0,0.0,0.0,0.0,0.0,0.0,0.0,0.0,0.0,0.0,0.0,0.0,0.0,0.0,0.0,0.0,0.0,0.0,0.0,0.0,0.0,0.0,0.0,0.0,0.0,0.0,0.0,0.0,0.0,0.0,0.0,0.0,0.0,0.0,0.0,0.0,0.0,0.0,0.0,0.0,0.0,0.0,0.0,0.0,0.0,0.0,0.0,0.0,0.0,0.0,0.0,0.0,0.0,0.0,0.0,0.0,0.0,0.0,0.0,0.0
1784046289.935937,0.0,0.0,0.0,0.0,0.0,0.0,0.0,0.0,0.0,0.0,0.0,0.0,0.0,0.0,0.0,0.0,0.0,0.0,0.0,0.0,0.0,0.0,0.0,0.0,0.0,0.0,0.0,0.0,0.0,0.0,0.0,0.0,0.0,0.0,0.0,0.0,0.0,0.0,0.0,0.0,0.0,0.0,0.0,0.0,0.0,0.0,0.0,0.0,0.0,0.0,0.0,0.0,0.0,0.0,0.0,0.0,0.0,0.0,0.0,0.0,0.0,0.0,0.0,0.0,0.0,0.0,0.0,0.0,0.0,0.0,0.0,0.0,0.0,0.0,0.0,0.0,0.0,0.0,0.0,0.0,0.0,0.0,0.0,0.0,0.0,0.0,0.0,0.0,0.0,0.0,0.0,0.0,0.0,0.0,0.0,0.0,0.0,0.0,0.0,0.0,0.0,0.0,0.0,0.0,0.0,0.0,0.0,0.0,0.0,0.0,0.0,0.0,0.0,0.0,0.0,0.0,0.0,0.0,0.0,0.0,0.0,0.0,0.0,0.0,0.0,0.0
1784046290.111048,0.0,0.0,0.0,0.0,0.0,0.0,0.0,0.0,0.0,0.0,0.0,0.0,0.0,0.0,0.0,0.0,0.0,0.0,0.0,0.0,0.0,0.0,0.0,0.0,0.0,0.0,0.0,0.0,0.0,0.0,0.0,0.0,0.0,0.0,0.0,0.0,0.0,0.0,0.0,0.0,0.0,0.0,0.0,0.0,0.0,0.0,0.0,0.0,0.0,0.0,0.0,0.0,0.0,0.0,0.0,0.0,0.0,0.0,0.0,0.0,0.0,0.0,0.0,0.0,0.0,0.0,0.0,0.0,0.0,0.0,0.0,0.0,0.0,0.0,0.0,0.0,0.0,0.0,0.0,0.0,0.0,0.0,0.0,0.0,0.0,0.0,0.0,0.0,0.0,0.0,0.0,0.0,0.0,0.0,0.0,0.0,0.0,0.0,0.0,0.0,0.0,0.0,0.0,0.0,0.0,0.0,0.0,0.0,0.0,0.0,0.0,0.0,0.0,0.0,0.0,0.0,0.0,0.0,0.0,0.0,0.0,0.0,0.0,0.0,0.0,0.0
1784046290.271148,0.0,0.0,0.0,0.0,0.0,0.0,0.0,0.0,0.0,0.0,0.0,0.0,0.0,0.0,0.0,0.0,0.0,0.0,0.0,0.0,0.0,0.0,0.0,0.0,0.0,0.0,0.0,0.0,0.0,0.0,0.0,0.0,0.0,0.0,0.0,0.0,0.0,0.0,0.0,0.0,0.0,0.0,0.0,0.0,0.0,0.0,0.0,0.0,0.0,0.0,0.0,0.0,0.0,0.0,0.0,0.0,0.0,0.0,0.0,0.0,0.0,0.0,0.0,0.0,0.0,0.0,0.0,0.0,0.0,0.0,0.0,0.0,0.0,0.0,0.0,0.0,0.0,0.0,0.0,0.0,0.0,0.0,0.0,0.0,0.0,0.0,0.0,0.0,0.0,0.0,0.0,0.0,0.0,0.0,0.0,0.0,0.0,0.0,0.0,0.0,0.0,0.0,0.0,0.0,0.0,0.0,0.0,0.0,0.0,0.0,0.0,0.0,0.0,0.0,0.0,0.0,0.0,0.0,0.0,0.0,0.0,0.0,0.0,0.0,0.0,0.0
1784046290.432944,0.0,0.0,0.0,0.0,0.0,0.0,0.0,0.0,0.0,0.0,0.0,0.0,0.0,0.0,0.0,0.0,0.0,0.0,0.0,0.0,0.0,0.0,0.0,0.0,0.0,0.0,0.0,0.0,0.0,0.0,0.0,0.0,0.0,0.0,0.0,0.0,0.0,0.0,0.0,0.0,0.0,0.0,0.0,0.0,0.0,0.0,0.0,0.0,0.0,0.0,0.0,0.0,0.0,0.0,0.0,0.0,0.0,0.0,0.0,0.0,0.0,0.0,0.0,0.0,0.0,0.0,0.0,0.0,0.0,0.0,0.0,0.0,0.0,0.0,0.0,0.0,0.0,0.0,0.0,0.0,0.0,0.0,0.0,0.0,0.0,0.0,0.0,0.0,0.0,0.0,0.0,0.0,0.0,0.0,0.0,0.0,0.0,0.0,0.0,0.0,0.0,0.0,0.0,0.0,0.0,0.0,0.0,0.0,0.0,0.0,0.0,0.0,0.0,0.0,0.0,0.0,0.0,0.0,0.0,0.0,0.0,0.0,0.0,0.0,0.0,0.0
1784046290.6033258,0.0,0.0,0.0,0.0,0.0,0.0,0.0,0.0,0.0,0.0,0.0,0.0,0.0,0.0,0.0,0.0,0.0,0.0,0.0,0.0,0.0,0.0,0.0,0.0,0.0,0.0,0.0,0.0,0.0,0.0,0.0,0.0,0.0,0.0,0.0,0.0,0.0,0.0,0.0,0.0,0.0,0.0,0.0,0.0,0.0,0.0,0.0,0.0,0.0,0.0,0.0,0.0,0.0,0.0,0.0,0.0,0.0,0.0,0.0,0.0,0.0,0.0,0.0,0.0,0.0,0.0,0.0,0.0,0.0,0.0,0.0,0.0,0.0,0.0,0.0,0.0,0.0,0.0,0.0,0.0,0.0,0.0,0.0,0.0,0.0,0.0,0.0,0.0,0.0,0.0,0.0,0.0,0.0,0.0,0.0,0.0,0.0,0.0,0.0,0.0,0.0,0.0,0.0,0.0,0.0,0.0,0.0,0.0,0.0,0.0,0.0,0.0,0.0,0.0,0.0,0.0,0.0,0.0,0.0,0.0,0.0,0.0,0.0,0.0,0.0,0.0
