ciel274/research-hand-sign/data/raw/hiragana/sign_language_se_2.csv
timestamp,R_joint_0_x,R_joint_0_y,R_joint_0_z,R_joint_1_x,R_joint_1_y,R_joint_1_z,R_joint_2_x,R_joint_2_y,R_joint_2_z,R_joint_3_x,R_joint_3_y,R_joint_3_z,R_joint_4_x,R_joint_4_y,R_joint_4_z,R_joint_5_x,R_joint_5_y,R_joint_5_z,R_joint_6_x,R_joint_6_y,R_joint_6_z,R_joint_7_x,R_joint_7_y,R_joint_7_z,R_joint_8_x,R_joint_8_y,R_joint_8_z,R_joint_9_x,R_joint_9_y,R_joint_9_z,R_joint_10_x,R_joint_10_y,R_joint_10_z,R_joint_11_x,R_joint_11_y,R_joint_11_z,R_joint_12_x,R_joint_12_y,R_joint_12_z,R_joint_13_x,R_joint_13_y,R_joint_13_z,R_joint_14_x,R_joint_14_y,R_joint_14_z,R_joint_15_x,R_joint_15_y,R_joint_15_z,R_joint_16_x,R_joint_16_y,R_joint_16_z,R_joint_17_x,R_joint_17_y,R_joint_17_z,R_joint_18_x,R_joint_18_y,R_joint_18_z,R_joint_19_x,R_joint_19_y,R_joint_19_z,R_joint_20_x,R_joint_20_y,R_joint_20_z,L_joint_0_x,L_joint_0_y,L_joint_0_z,L_joint_1_x,L_joint_1_y,L_joint_1_z,L_joint_2_x,L_joint_2_y,L_joint_2_z,L_joint_3_x,L_joint_3_y,L_joint_3_z,L_joint_4_x,L_joint_4_y,L_joint_4_z,L_joint_5_x,L_joint_5_y,L_joint_5_z,L_joint_6_x,L_joint_6_y,L_joint_6_z,L_joint_7_x,L_joint_7_y,L_joint_7_z,L_joint_8_x,L_joint_8_y,L_joint_8_z,L_joint_9_x,L_joint_9_y,L_joint_9_z,L_joint_10_x,L_joint_10_y,L_joint_10_z,L_joint_11_x,L_joint_11_y,L_joint_11_z,L_joint_12_x,L_joint_12_y,L_joint_12_z,L_joint_13_x,L_joint_13_y,L_joint_13_z,L_joint_14_x,L_joint_14_y,L_joint_14_z,L_joint_15_x,L_joint_15_y,L_joint_15_z,L_joint_16_x,L_joint_16_y,L_joint_16_z,L_joint_17_x,L_joint_17_y,L_joint_17_z,L_joint_18_x,L_joint_18_y,L_joint_18_z,L_joint_19_x,L_joint_19_y,L_joint_19_z,L_joint_20_x,L_joint_20_y,L_joint_20_z
1783390768.1907468,0.7723626494407654,0.8601782321929932,6.76337705840524e-08,0.7990777492523193,0.7238737940788269,0.044636182487010956,0.79012131690979,0.623659610748291,0.055912796407938004,0.7651405930519104,0.5584171414375305,0.057477254420518875,0.7334359288215637,0.5391356348991394,0.058649372309446335,0.7939013242721558,0.5535373091697693,0.018768243491649628,0.7570210695266724,0.45360639691352844,0.016661860048770905,0.7440851330757141,0.4742647707462311,0.017177697271108627,0.7436652183532715,0.5110359787940979,0.018765419721603394,0.7559185028076172,0.5618383884429932,-0.007529524154961109,0.7286795377731323,0.4080815613269806,-0.011788654141128063,0.710979700088501,0.33015525341033936,-0.011145437136292458,0.6987937092781067,0.2771984934806824,-0.011891351081430912,0.71721351146698,0.5925525426864624,-0.028201844543218613,0.686649739742279,0.46325379610061646,-0.023601392284035683,0.6910759210586548,0.5029367804527283,-0.005029646214097738,0.6997590065002441,0.5404677391052246,0.00687522953376174,0.6874621510505676,0.6418312788009644,-0.0457005500793457,0.6644636392593384,0.5489587783813477,-0.03319570794701576,0.6723964810371399,0.5763408541679382,-0.009207585826516151,0.684088408946991,0.6097819805145264,0.007715937215834856,0.0,0.0,0.0,0.0,0.0,0.0,0.0,0.0,0.0,0.0,0.0,0.0,0.0,0.0,0.0,0.0,0.0,0.0,0.0,0.0,0.0,0.0,0.0,0.0,0.0,0.0,0.0,0.0,0.0,0.0,0.0,0.0,0.0,0.0,0.0,0.0,0.0,0.0,0.0,0.0,0.0,0.0,0.0,0.0,0.0,0.0,0.0,0.0,0.0,0.0,0.0,0.0,0.0,0.0,0.0,0.0,0.0,0.0,0.0,0.0,0.0,0.0,0.0
1783390768.4464252,0.7727809548377991,0.8597090244293213,5.8856276297092336e-08,0.7985540628433228,0.7243968844413757,0.04533771052956581,0.7893445491790771,0.6234244108200073,0.057078003883361816,0.7631165981292725,0.5563440322875977,0.05907168984413147,0.7309735417366028,0.5370199084281921,0.060817454010248184,0.7927635312080383,0.5504801273345947,0.020350998267531395,0.755574643611908,0.45165160298347473,0.019307667389512062,0.7417478561401367,0.47349318861961365,0.020266709849238396,0.740949273109436,0.5113783478736877,0.021881194785237312,0.7548724412918091,0.5588762164115906,-0.006120315287262201,0.7275846600532532,0.4069288969039917,-0.009985063225030899,0.7096315622329712,0.32944661378860474,-0.009526511654257774,0.6975657343864441,0.27720916271209717,-0.010502667166292667,0.716228723526001,0.5899372696876526,-0.02685544639825821,0.6863997578620911,0.4627135396003723,-0.021488821133971214,0.6904870271682739,0.5013753771781921,-0.0029549601022154093,0.698911190032959,0.5387791395187378,0.008711375296115875,0.6867159605026245,0.6393296122550964,-0.04438714310526848,0.6638293862342834,0.5477333664894104,-0.031387317925691605,0.6718523502349854,0.5743823647499084,-0.007592257112264633,0.6834543347358704,0.6072795987129211,0.009068495593965054,0.0,0.0,0.0,0.0,0.0,0.0,0.0,0.0,0.0,0.0,0.0,0.0,0.0,0.0,0.0,0.0,0.0,0.0,0.0,0.0,0.0,0.0,0.0,0.0,0.0,0.0,0.0,0.0,0.0,0.0,0.0,0.0,0.0,0.0,0.0,0.0,0.0,0.0,0.0,0.0,0.0,0.0,0.0,0.0,0.0,0.0,0.0,0.0,0.0,0.0,0.0,0.0,0.0,0.0,0.0,0.0,0.0,0.0,0.0,0.0,0.0,0.0,0.0
1783390768.6079302,0.7726208567619324,0.8538444638252258,9.438603854050598e-08,0.7999885678291321,0.7178540825843811,0.04457791894674301,0.7910041809082031,0.6181925535202026,0.05558141693472862,0.7661425471305847,0.5551967620849609,0.05703146383166313,0.7334228754043579,0.5378772616386414,0.05840136483311653,0.7949568629264832,0.5488999485969543,0.0186949260532856,0.7577234506607056,0.4484574496746063,0.018310656771063805,0.7455229759216309,0.46864253282546997,0.020328380167484283,0.7464420795440674,0.5051400661468506,0.022842852398753166,0.7556962966918945,0.5566837191581726,-0.0068930331617593765,0.7276952266693115,0.40638476610183716,-0.009479681961238384,0.709672749042511,0.32803577184677124,-0.008409769274294376,0.6972354054450989,0.27449631690979004,-0.009374880231916904,0.7160560488700867,0.5864178538322449,-0.02663028985261917,0.6873232126235962,0.46147581934928894,-0.019722510129213333,0.691901683807373,0.5019489526748657,-0.0009041002485901117,0.6994791030883789,0.5402591824531555,0.010390562005341053,0.6865839958190918,0.6333697438240051,-0.04327186569571495,0.6684113144874573,0.5436463356018066,-0.02833961509168148,0.6769481897354126,0.5716984868049622,-0.0037436774000525475,0.6876044869422913,0.6051060557365417,0.013064855709671974,0.0,0.0,0.0,0.0,0.0,0.0,0.0,0.0,0.0,0.0,0.0,0.0,0.0,0.0,0.0,0.0,0.0,0.0,0.0,0.0,0.0,0.0,0.0,0.0,0.0,0.0,0.0,0.0,0.0,0.0,0.0,0.0,0.0,0.0,0.0,0.0,0.0,0.0,0.0,0.0,0.0,0.0,0.0,0.0,0.0,0.0,0.0,0.0,0.0,0.0,0.0,0.0,0.0,0.0,0.0,0.0,0.0,0.0,0.0,0.0,0.0,0.0,0.0
1783390768.744745,0.7718704342842102,0.8490000367164612,1.0964405561253443e-07,0.7979328036308289,0.7148430943489075,0.037590209394693375,0.787523627281189,0.614596962928772,0.04538963735103607,0.7579575777053833,0.5598529577255249,0.044436365365982056,0.7224615216255188,0.5495648980140686,0.04328956454992294,0.793002724647522,0.5479868650436401,0.013936027884483337,0.7559717297554016,0.4501945972442627,0.009900806471705437,0.7429116368293762,0.47655239701271057,0.008107439614832401,0.7432929277420044,0.5152024626731873,0.0077517093159258366,0.7539320588111877,0.5557887554168701,-0.00987925287336111,0.7261037230491638,0.4074515104293823,-0.014047829434275627,0.709209680557251,0.3298162519931793,-0.014960449188947678,0.6984421014785767,0.27344122529029846,-0.01770581677556038,0.7151409387588501,0.5859705805778503,-0.028857583180069923,0.6859071254730225,0.45993733406066895,-0.02493967115879059,0.6910327672958374,0.5023766160011292,-0.007899816147983074,0.6991117000579834,0.5419042706489563,0.002454340923577547,0.6865317225456238,0.6334078907966614,-0.045410171151161194,0.6689218282699585,0.5466799139976501,-0.034342534840106964,0.6784899830818176,0.5737725496292114,-0.01191252563148737,0.6895018815994263,0.6053907871246338,0.0035915577318519354,0.0,0.0,0.0,0.0,0.0,0.0,0.0,0.0,0.0,0.0,0.0,0.0,0.0,0.0,0.0,0.0,0.0,0.0,0.0,0.0,0.0,0.0,0.0,0.0,0.0,0.0,0.0,0.0,0.0,0.0,0.0,0.0,0.0,0.0,0.0,0.0,0.0,0.0,0.0,0.0,0.0,0.0,0.0,0.0,0.0,0.0,0.0,0.0,0.0,0.0,0.0,0.0,0.0,0.0,0.0,0.0,0.0,0.0,0.0,0.0,0.0,0.0,0.0
1783390768.87097,0.7717980146408081,0.850649356842041,1.2034173835218098e-07,0.798108696937561,0.7179218530654907,0.039612047374248505,0.7870726585388184,0.6190840601921082,0.04890435189008713,0.7571984529495239,0.5658888816833496,0.04902268201112747,0.7212581634521484,0.5570745468139648,0.049036767333745956,0.7921940088272095,0.551215410232544,0.01842518523335457,0.7566094398498535,0.45275330543518066,0.015201201662421227,0.7449252605438232,0.4791819453239441,0.013754427433013916,0.7465390563011169,0.5172651410102844,0.013747023418545723,0.7532624006271362,0.5577020049095154,-0.005651555489748716,0.726188063621521,0.40837809443473816,-0.010074837133288383,0.7091987133026123,0.3304826021194458,-0.011149665340781212,0.6988776922225952,0.2748165428638458,-0.013304104097187519,0.714313805103302,0.5870728492736816,-0.024840477854013443,0.6862176656723022,0.4641096293926239,-0.020659983158111572,0.691923975944519,0.5065314769744873,-0.003467392409220338,0.7004283666610718,0.5449410676956177,0.007584569975733757,0.6853351593017578,0.6344265341758728,-0.04141839221119881,0.6684300303459167,0.5519693493843079,-0.029051145538687706,0.6778934001922607,0.5805063247680664,-0.0059636919759213924,0.6890076994895935,0.6123393774032593,0.01027163490653038,0.0,0.0,0.0,0.0,0.0,0.0,0.0,0.0,0.0,0.0,0.0,0.0,0.0,0.0,0.0,0.0,0.0,0.0,0.0,0.0,0.0,0.0,0.0,0.0,0.0,0.0,0.0,0.0,0.0,0.0,0.0,0.0,0.0,0.0,0.0,0.0,0.0,0.0,0.0,0.0,0.0,0.0,0.0,0.0,0.0,0.0,0.0,0.0,0.0,0.0,0.0,0.0,0.0,0.0,0.0,0.0,0.0,0.0,0.0,0.0,0.0,0.0,0.0
1783390769.0128949,0.7732788324356079,0.8535653352737427,1.0072011491502053e-07,0.7994204163551331,0.7188416123390198,0.04173260182142258,0.7882737517356873,0.6206185221672058,0.052019450813531876,0.7591297030448914,0.5640032291412354,0.05330343171954155,0.7242788672447205,0.5522938966751099,0.05460886284708977,0.7931501269340515,0.5524364113807678,0.017939120531082153,0.7572008371353149,0.4533310830593109,0.01655697636306286,0.7453626394271851,0.47846850752830505,0.017710812389850616,0.7462488412857056,0.5166511535644531,0.01967570185661316,0.7543016672134399,0.5593595504760742,-0.0065355864353477955,0.7267093062400818,0.40774446725845337,-0.010070139542222023,0.7087182998657227,0.33127737045288086,-0.009313820861279964,0.6967423558235168,0.2782458961009979,-0.009757960215210915,0.7156053781509399,0.5886304974555969,-0.02559070475399494,0.6873565316200256,0.46641889214515686,-0.020448679104447365,0.6931293606758118,0.50704425573349,-0.0026539727114140987,0.7017599940299988,0.5446597933769226,0.008878826163709164,0.6867607235908508,0.6366280317306519,-0.041706383228302,0.6692343354225159,0.5538091063499451,-0.028258392587304115,0.6783936619758606,0.5825698375701904,-0.004431444685906172,0.68968665599823,0.6152459383010864,0.01236968394368887,0.0,0.0,0.0,0.0,0.0,0.0,0.0,0.0,0.0,0.0,0.0,0.0,0.0,0.0,0.0,0.0,0.0,0.0,0.0,0.0,0.0,0.0,0.0,0.0,0.0,0.0,0.0,0.0,0.0,0.0,0.0,0.0,0.0,0.0,0.0,0.0,0.0,0.0,0.0,0.0,0.0,0.0,0.0,0.0,0.0,0.0,0.0,0.0,0.0,0.0,0.0,0.0,0.0,0.0,0.0,0.0,0.0,0.0,0.0,0.0,0.0,0.0,0.0
1783390769.146604,0.7741132974624634,0.8510355949401855,1.0554600748946541e-07,0.7989727258682251,0.7159967422485352,0.03945739194750786,0.7883781790733337,0.6172506213188171,0.047684844583272934,0.7585275173187256,0.5625364780426025,0.04713646322488785,0.723103940486908,0.5507307648658752,0.04621729254722595,0.7941828370094299,0.553013265132904,0.013985824771225452,0.75715571641922,0.4537162780761719,0.010752095840871334,0.7451616525650024,0.4773465394973755,0.010013587772846222,0.7463682293891907,0.5141005516052246,0.010620508342981339,0.7553781867027283,0.5614466071128845,-0.010144106112420559,0.7268989682197571,0.4106646180152893,-0.013628298416733742,0.7091415524482727,0.33436450362205505,-0.013859763741493225,0.6975163221359253,0.2799365818500519,-0.015797799453139305,0.7166299819946289,0.590567946434021,-0.029017580673098564,0.688659131526947,0.4659452438354492,-0.02470121905207634,0.6941602230072021,0.5064617991447449,-0.008247815072536469,0.7023186683654785,0.5451230406761169,0.0018678181804716587,0.6875724196434021,0.6360449194908142,-0.04509788006544113,0.6703999638557434,0.5532109141349792,-0.03311525285243988,0.6794707775115967,0.5816216468811035,-0.010448730550706387,0.6901823878288269,0.6138629913330078,0.0052626896649599075,0.0,0.0,0.0,0.0,0.0,0.0,0.0,0.0,0.0,0.0,0.0,0.0,0.0,0.0,0.0,0.0,0.0,0.0,0.0,0.0,0.0,0.0,0.0,0.0,0.0,0.0,0.0,0.0,0.0,0.0,0.0,0.0,0.0,0.0,0.0,0.0,0.0,0.0,0.0,0.0,0.0,0.0,0.0,0.0,0.0,0.0,0.0,0.0,0.0,0.0,0.0,0.0,0.0,0.0,0.0,0.0,0.0,0.0,0.0,0.0,0.0,0.0,0.0
1783390769.315066,0.7755944132804871,0.8520649075508118,9.708728043733572e-08,0.8017435669898987,0.7188769578933716,0.04115687310695648,0.7913199067115784,0.6191017627716064,0.05087300390005112,0.7626026272773743,0.5577566623687744,0.05171443894505501,0.7281323075294495,0.5424890518188477,0.052648432552814484,0.7945128083229065,0.5482979416847229,0.017271600663661957,0.7576332092285156,0.4511043429374695,0.01631881669163704,0.7466630935668945,0.47775810956954956,0.017369655892252922,0.7485051155090332,0.5171297788619995,0.01914588175714016,0.7559642791748047,0.5573084354400635,-0.007255928125232458,0.726677656173706,0.40881726145744324,-0.009887630119919777,0.7096894383430481,0.3316108286380768,-0.00910055823624134,0.6988331079483032,0.27710390090942383,-0.010062333196401596,0.7174054384231567,0.5877804756164551,-0.026402832940220833,0.6904797554016113,0.4651586413383484,-0.02092888206243515,0.6960085034370422,0.5037333965301514,-0.003350279526785016,0.7037562131881714,0.5417897701263428,0.007686613127589226,0.6888021230697632,0.635405957698822,-0.042649902403354645,0.6717560887336731,0.5494274497032166,-0.028991615399718285,0.6805799603462219,0.5770732760429382,-0.005027008708566427,0.6908256411552429,0.6104596257209778,0.01165085844695568,0.0,0.0,0.0,0.0,0.0,0.0,0.0,0.0,0.0,0.0,0.0,0.0,0.0,0.0,0.0,0.0,0.0,0.0,0.0,0.0,0.0,0.0,0.0,0.0,0.0,0.0,0.0,0.0,0.0,0.0,0.0,0.0,0.0,0.0,0.0,0.0,0.0,0.0,0.0,0.0,0.0,0.0,0.0,0.0,0.0,0.0,0.0,0.0,0.0,0.0,0.0,0.0,0.0,0.0,0.0,0.0,0.0,0.0,0.0,0.0,0.0,0.0,0.0
1783390769.47791,0.7752786874771118,0.8470689654350281,8.205785917425601e-08,0.8003864288330078,0.7129059433937073,0.040596894919872284,0.7909348011016846,0.6145628094673157,0.049422621726989746,0.7626436948776245,0.5532640814781189,0.04959019273519516,0.7282016277313232,0.5382664203643799,0.049904413521289825,0.7944177985191345,0.5465967059135437,0.013294261880218983,0.7575027346611023,0.44962385296821594,0.011603581719100475,0.746462345123291,0.47606948018074036,0.013002155348658562,0.7480701208114624,0.5153161287307739,0.014902329072356224,0.7560385465621948,0.5563530325889587,-0.01123589277267456,0.7264153957366943,0.40812668204307556,-0.01485486514866352,0.7086765170097351,0.33170172572135925,-0.01420435681939125,0.6971907019615173,0.27756261825561523,-0.015531319193542004,0.7175465226173401,0.586828887462616,-0.03011377342045307,0.6905710697174072,0.46349871158599854,-0.025098465383052826,0.6957744359970093,0.5045207142829895,-0.0067785452120006084,0.7035591006278992,0.5439316630363464,0.004389493260532618,0.6890444159507751,0.6341174840927124,-0.04614783078432083,0.6716378927230835,0.5501329898834229,-0.03319711610674858,0.6801938414573669,0.5789666175842285,-0.009335016831755638,0.690486490726471,0.6121182441711426,0.007104966789484024,0.0,0.0,0.0,0.0,0.0,0.0,0.0,0.0,0.0,0.0,0.0,0.0,0.0,0.0,0.0,0.0,0.0,0.0,0.0,0.0,0.0,0.0,0.0,0.0,0.0,0.0,0.0,0.0,0.0,0.0,0.0,0.0,0.0,0.0,0.0,0.0,0.0,0.0,0.0,0.0,0.0,0.0,0.0,0.0,0.0,0.0,0.0,0.0,0.0,0.0,0.0,0.0,0.0,0.0,0.0,0.0,0.0,0.0,0.0,0.0,0.0,0.0,0.0
1783390769.639738,0.7750170826911926,0.8493272066116333,9.983196491702984e-08,0.8001378178596497,0.7171201109886169,0.033935632556676865,0.7892720699310303,0.615138828754425,0.039855070412158966,0.7584366798400879,0.5597956776618958,0.037957701832056046,0.7223228812217712,0.5481364130973816,0.036032307893037796,0.7932495474815369,0.5472932457923889,0.00941758044064045,0.7566614151000977,0.4491274356842041,0.005393024999648333,0.7456820607185364,0.4784928262233734,0.00430063484236598,0.7473136186599731,0.5190214514732361,0.004598886240273714,0.7538862824440002,0.5558733940124512,-0.012694641947746277,0.7247002124786377,0.41035208106040955,-0.01557810790836811,0.7073152661323547,0.33666616678237915,-0.016104549169540405,0.6959539651870728,0.2826085388660431,-0.018780233338475227,0.7151337265968323,0.5864132642745972,-0.030039355158805847,0.6887041926383972,0.46315285563468933,-0.026291875168681145,0.6946961879730225,0.505760669708252,-0.010764368809759617,0.7023237347602844,0.5473995208740234,-0.001593294320628047,0.6864995956420898,0.633102536201477,-0.045063573867082596,0.6708866953849792,0.5522252321243286,-0.03510885685682297,0.6804855465888977,0.5805498957633972,-0.014072906225919724,0.6906245350837708,0.6126229166984558,0.00048197872820310295,0.0,0.0,0.0,0.0,0.0,0.0,0.0,0.0,0.0,0.0,0.0,0.0,0.0,0.0,0.0,0.0,0.0,0.0,0.0,0.0,0.0,0.0,0.0,0.0,0.0,0.0,0.0,0.0,0.0,0.0,0.0,0.0,0.0,0.0,0.0,0.0,0.0,0.0,0.0,0.0,0.0,0.0,0.0,0.0,0.0,0.0,0.0,0.0,0.0,0.0,0.0,0.0,0.0,0.0,0.0,0.0,0.0,0.0,0.0,0.0,0.0,0.0,0.0
1783390769.778542,0.7752399444580078,0.8520541787147522,9.192746119879303e-08,0.8002470135688782,0.7195630669593811,0.03770303726196289,0.7883208990097046,0.6197916865348816,0.04601876437664032,0.7582483887672424,0.563076913356781,0.04588139429688454,0.7229916453361511,0.5505247116088867,0.04583000764250755,0.7931281924247742,0.5486751794815063,0.01533869095146656,0.7565091252326965,0.44949403405189514,0.013129162602126598,0.7456923723220825,0.4783176779747009,0.013071442022919655,0.7473984360694885,0.518377959728241,0.014181980863213539,0.7543982267379761,0.5570237636566162,-0.007766027003526688,0.7246143817901611,0.40988966822624207,-0.009456705302000046,0.7072637677192688,0.3352690637111664,-0.008915683254599571,0.6960428953170776,0.2813957929611206,-0.010415174067020416,0.7162052989006042,0.5873693823814392,-0.02601882442831993,0.6876537203788757,0.4675096869468689,-0.02082347497344017,0.6939203143119812,0.507642924785614,-0.005180248059332371,0.7026528716087341,0.5469818711280823,0.0042589204385876656,0.6875237226486206,0.6349724531173706,-0.0416620634496212,0.6691644191741943,0.5560773015022278,-0.029761848971247673,0.6782605648040771,0.5846133828163147,-0.007990214973688126,0.6894682049751282,0.6173174977302551,0.007146149408072233,0.0,0.0,0.0,0.0,0.0,0.0,0.0,0.0,0.0,0.0,0.0,0.0,0.0,0.0,0.0,0.0,0.0,0.0,0.0,0.0,0.0,0.0,0.0,0.0,0.0,0.0,0.0,0.0,0.0,0.0,0.0,0.0,0.0,0.0,0.0,0.0,0.0,0.0,0.0,0.0,0.0,0.0,0.0,0.0,0.0,0.0,0.0,0.0,0.0,0.0,0.0,0.0,0.0,0.0,0.0,0.0,0.0,0.0,0.0,0.0,0.0,0.0,0.0
1783390769.909066,0.7745587229728699,0.8501891493797302,8.865723799544867e-08,0.7995344996452332,0.7165142297744751,0.03926902636885643,0.7900190949440002,0.6174852848052979,0.04776488244533539,0.7617761492729187,0.5567532777786255,0.04779493808746338,0.727615475654602,0.5413269996643066,0.04785260558128357,0.7929325699806213,0.5490837097167969,0.013585299253463745,0.7562440037727356,0.4511592984199524,0.011580678634345531,0.745530366897583,0.4769391417503357,0.012339205481112003,0.7472763657569885,0.5158964395523071,0.013974561356008053,0.754366934299469,0.558349609375,-0.010210363194346428,0.7249815464019775,0.41026419401168823,-0.013498974964022636,0.7076414227485657,0.3352198600769043,-0.013094162568449974,0.6962851881980896,0.2823079228401184,-0.01447275560349226,0.7159594297409058,0.588647723197937,-0.028614012524485588,0.6891406178474426,0.46658554673194885,-0.024121806025505066,0.6946200728416443,0.5057432055473328,-0.007367056328803301,0.7026517987251282,0.544616162776947,0.0029451933223754168,0.6871395111083984,0.6357106566429138,-0.04418259859085083,0.6697276830673218,0.553138256072998,-0.032128315418958664,0.6785079836845398,0.581368625164032,-0.00936417281627655,0.6889376044273376,0.6144776940345764,0.00647917902097106,0.0,0.0,0.0,0.0,0.0,0.0,0.0,0.0,0.0,0.0,0.0,0.0,0.0,0.0,0.0,0.0,0.0,0.0,0.0,0.0,0.0,0.0,0.0,0.0,0.0,0.0,0.0,0.0,0.0,0.0,0.0,0.0,0.0,0.0,0.0,0.0,0.0,0.0,0.0,0.0,0.0,0.0,0.0,0.0,0.0,0.0,0.0,0.0,0.0,0.0,0.0,0.0,0.0,0.0,0.0,0.0,0.0,0.0,0.0,0.0,0.0,0.0,0.0
1783390770.041704,0.7758438587188721,0.8524316549301147,9.154999958127519e-08,0.8017895221710205,0.7182191014289856,0.03952791541814804,0.7911946773529053,0.6187480092048645,0.048543184995651245,0.762591540813446,0.5582574605941772,0.04908937215805054,0.7284469604492188,0.5430667996406555,0.04980875179171562,0.7936685085296631,0.5498468279838562,0.014480811543762684,0.7565523386001587,0.4503267705440521,0.013179312460124493,0.7452334761619568,0.47775328159332275,0.014924543909728527,0.7464650869369507,0.517792284488678,0.017402291297912598,0.7549477219581604,0.5587250590324402,-0.00917938444763422,0.7253423929214478,0.40959250926971436,-0.01230542827397585,0.7081143856048584,0.33442622423171997,-0.011196527630090714,0.6968038082122803,0.28118374943733215,-0.011723342351615429,0.7163918018341064,0.5887205600738525,-0.027437003329396248,0.6898715496063232,0.46620818972587585,-0.02311287447810173,0.6959131956100464,0.5056388974189758,-0.006024363450706005,0.7040156126022339,0.5446661710739136,0.004962070379406214,0.6874384880065918,0.6366595029830933,-0.042768411338329315,0.669918954372406,0.5512433052062988,-0.030297111719846725,0.679002583026886,0.5796417593955994,-0.006710142362862825,0.6894091367721558,0.6135448217391968,0.009924780577421188,0.0,0.0,0.0,0.0,0.0,0.0,0.0,0.0,0.0,0.0,0.0,0.0,0.0,0.0,0.0,0.0,0.0,0.0,0.0,0.0,0.0,0.0,0.0,0.0,0.0,0.0,0.0,0.0,0.0,0.0,0.0,0.0,0.0,0.0,0.0,0.0,0.0,0.0,0.0,0.0,0.0,0.0,0.0,0.0,0.0,0.0,0.0,0.0,0.0,0.0,0.0,0.0,0.0,0.0,0.0,0.0,0.0,0.0,0.0,0.0,0.0,0.0,0.0
1783390770.168763,0.7781173586845398,0.8499463796615601,9.046832616377287e-08,0.8038415312767029,0.7147857546806335,0.04240807518362999,0.7934001088142395,0.6149695515632629,0.05233857408165932,0.7652521133422852,0.5511519312858582,0.05318037047982216,0.7312999367713928,0.5337347388267517,0.05399869754910469,0.7959011793136597,0.5460797548294067,0.016801711171865463,0.7573384642601013,0.45024943351745605,0.015078011900186539,0.7457408308982849,0.4735986590385437,0.015510277822613716,0.7471815943717957,0.5118846893310547,0.01684495247900486,0.7569421529769897,0.5557396411895752,-0.00817178562283516,0.7263210415840149,0.40694931149482727,-0.011759464628994465,0.7092246413230896,0.3302536904811859,-0.011614656075835228,0.6987521052360535,0.27703195810317993,-0.013201034627854824,0.7181381583213806,0.5868512392044067,-0.027493685483932495,0.6912347674369812,0.4608682692050934,-0.022059619426727295,0.6967795491218567,0.4988490641117096,-0.003954609390348196,0.7050386667251587,0.5371140837669373,0.0070907617919147015,0.689516007900238,0.6350547075271606,-0.04385318607091904,0.672139048576355,0.5489206910133362,-0.030177384614944458,0.6814342737197876,0.5764170289039612,-0.006264787167310715,0.692164421081543,0.6093740463256836,0.010162771679461002,0.0,0.0,0.0,0.0,0.0,0.0,0.0,0.0,0.0,0.0,0.0,0.0,0.0,0.0,0.0,0.0,0.0,0.0,0.0,0.0,0.0,0.0,0.0,0.0,0.0,0.0,0.0,0.0,0.0,0.0,0.0,0.0,0.0,0.0,0.0,0.0,0.0,0.0,0.0,0.0,0.0,0.0,0.0,0.0,0.0,0.0,0.0,0.0,0.0,0.0,0.0,0.0,0.0,0.0,0.0,0.0,0.0,0.0,0.0,0.0,0.0,0.0,0.0
1783390770.304681,0.7767454981803894,0.8477896451950073,7.195313855845598e-08,0.8018800020217896,0.7135145664215088,0.0389738529920578,0.7921707630157471,0.6132364869117737,0.04695696011185646,0.7627680897712708,0.5519319772720337,0.04634929820895195,0.7279539704322815,0.5368672609329224,0.0456429123878479,0.7957305908203125,0.5438840985298157,0.012301663868129253,0.7572920918464661,0.44767922163009644,0.009149151854217052,0.7461528182029724,0.47573867440223694,0.008789977058768272,0.7480398416519165,0.5154789090156555,0.009559343568980694,0.7572455406188965,0.5547213554382324,-0.012045860290527344,0.7269391417503357,0.4070882499217987,-0.015542822889983654,0.7094259858131409,0.331651508808136,-0.015482896007597446,0.6984100937843323,0.27762576937675476,-0.017530810087919235,0.7187424898147583,0.5861420035362244,-0.031090540811419487,0.6915876865386963,0.46124833822250366,-0.02689794823527336,0.696925699710846,0.5021764039993286,-0.00957641750574112,0.705011248588562,0.5420050024986267,0.000878469436429441,0.6900810599327087,0.6334549188613892,-0.04741192236542702,0.671768844127655,0.5469260811805725,-0.035797446966171265,0.680670440196991,0.5748078227043152,-0.012728212401270866,0.6911633014678955,0.6072705984115601,0.0031702802516520023,0.0,0.0,0.0,0.0,0.0,0.0,0.0,0.0,0.0,0.0,0.0,0.0,0.0,0.0,0.0,0.0,0.0,0.0,0.0,0.0,0.0,0.0,0.0,0.0,0.0,0.0,0.0,0.0,0.0,0.0,0.0,0.0,0.0,0.0,0.0,0.0,0.0,0.0,0.0,0.0,0.0,0.0,0.0,0.0,0.0,0.0,0.0,0.0,0.0,0.0,0.0,0.0,0.0,0.0,0.0,0.0,0.0,0.0,0.0,0.0,0.0,0.0,0.0
1783390770.4447072,0.7795440554618835,0.8494918346405029,9.134824097145611e-08,0.8039626479148865,0.7148932814598083,0.038582559674978256,0.7928252816200256,0.6137134432792664,0.04636901989579201,0.7618406414985657,0.5563079118728638,0.04571932181715965,0.7262499928474426,0.5439755320549011,0.0448024608194828,0.7959348559379578,0.5464426279067993,0.012398984283208847,0.7577672004699707,0.4504897892475128,0.009576747193932533,0.7466204166412354,0.4789631962776184,0.009152899496257305,0.748283326625824,0.5186198353767395,0.009978646412491798,0.7570541501045227,0.5570968389511108,-0.011559644713997841,0.7271370887756348,0.40884241461753845,-0.014702263288199902,0.7104604244232178,0.33383405208587646,-0.014340685680508614,0.6998239159584045,0.2796132266521454,-0.0158516988158226,0.7183603644371033,0.5882406234741211,-0.030202925205230713,0.6927180886268616,0.46321168541908264,-0.02607037127017975,0.6987650394439697,0.502864420413971,-0.009122475981712341,0.7064949870109558,0.5425419807434082,0.0015055574476718903,0.6895725727081299,0.6359822750091553,-0.04604582488536835,0.6732063889503479,0.5493493676185608,-0.03393029049038887,0.6828415393829346,0.5765619874000549,-0.010333824902772903,0.6932017207145691,0.6100339293479919,0.00613635778427124,0.0,0.0,0.0,0.0,0.0,0.0,0.0,0.0,0.0,0.0,0.0,0.0,0.0,0.0,0.0,0.0,0.0,0.0,0.0,0.0,0.0,0.0,0.0,0.0,0.0,0.0,0.0,0.0,0.0,0.0,0.0,0.0,0.0,0.0,0.0,0.0,0.0,0.0,0.0,0.0,0.0,0.0,0.0,0.0,0.0,0.0,0.0,0.0,0.0,0.0,0.0,0.0,0.0,0.0,0.0,0.0,0.0,0.0,0.0,0.0,0.0,0.0,0.0
1783390770.607303,0.7768785357475281,0.8474269509315491,8.092149528238224e-08,0.8019574284553528,0.7148569822311401,0.037487443536520004,0.7916643619537354,0.6152868270874023,0.04506126418709755,0.7614445090293884,0.5568315386772156,0.044379785656929016,0.7260066866874695,0.5426472425460815,0.043395135551691055,0.7959629893302917,0.5477186441421509,0.01169316004961729,0.757722020149231,0.45010632276535034,0.008710754103958607,0.7463167905807495,0.47889626026153564,0.00830848515033722,0.7479446530342102,0.5179897546768188,0.009158892557024956,0.7570213675498962,0.5572009682655334,-0.011668648570775986,0.7267559170722961,0.4088621139526367,-0.014065875671803951,0.7092975378036499,0.33460521697998047,-0.013485931791365147,0.6984326243400574,0.2810001075267792,-0.015042825601994991,0.7187010049819946,0.58738774061203,-0.029930690303444862,0.6912452578544617,0.46490228176116943,-0.025779858231544495,0.696813702583313,0.5052732229232788,-0.009985936805605888,0.7051570415496826,0.5449785590171814,-0.0004348524671513587,0.6898126602172852,0.6340829133987427,-0.045441824942827225,0.6713981032371521,0.5520758032798767,-0.034316517412662506,0.6801257729530334,0.5810889601707458,-0.012162688188254833,0.690916121006012,0.6141452789306641,0.0031988732516765594,0.0,0.0,0.0,0.0,0.0,0.0,0.0,0.0,0.0,0.0,0.0,0.0,0.0,0.0,0.0,0.0,0.0,0.0,0.0,0.0,0.0,0.0,0.0,0.0,0.0,0.0,0.0,0.0,0.0,0.0,0.0,0.0,0.0,0.0,0.0,0.0,0.0,0.0,0.0,0.0,0.0,0.0,0.0,0.0,0.0,0.0,0.0,0.0,0.0,0.0,0.0,0.0,0.0,0.0,0.0,0.0,0.0,0.0,0.0,0.0,0.0,0.0,0.0
1783390770.769814,0.7777750492095947,0.8494992256164551,9.286491575721811e-08,0.8029816150665283,0.7163718342781067,0.037333399057388306,0.7916731834411621,0.6158624291419983,0.04499996453523636,0.7610857486724854,0.5590351223945618,0.044438231736421585,0.7254813313484192,0.5462213158607483,0.04399878904223442,0.7954042553901672,0.546922504901886,0.012826438993215561,0.7574276924133301,0.44823428988456726,0.010934187099337578,0.7468565106391907,0.4779259264469147,0.011731229722499847,0.7490121722221375,0.5184108018875122,0.013472845777869225,0.7561971545219421,0.556664764881134,-0.010187393985688686,0.7258667945861816,0.4100973606109619,-0.012294143438339233,0.7090296149253845,0.33535826206207275,-0.011267507448792458,0.6980581879615784,0.281299889087677,-0.012452193535864353,0.7174159288406372,0.5872053503990173,-0.028124365955591202,0.6905880570411682,0.46343374252319336,-0.02309723012149334,0.6966803073883057,0.5036023259162903,-0.0063331276178359985,0.7044320106506348,0.5438644886016846,0.003905636491253972,0.6885356903076172,0.6343693137168884,-0.04340530186891556,0.6715331077575684,0.5487135648727417,-0.030896015465259552,0.6807102560997009,0.5761169195175171,-0.007829606533050537,0.6910992860794067,0.6097862720489502,0.008148049004375935,0.0,0.0,0.0,0.0,0.0,0.0,0.0,0.0,0.0,0.0,0.0,0.0,0.0,0.0,0.0,0.0,0.0,0.0,0.0,0.0,0.0,0.0,0.0,0.0,0.0,0.0,0.0,0.0,0.0,0.0,0.0,0.0,0.0,0.0,0.0,0.0,0.0,0.0,0.0,0.0,0.0,0.0,0.0,0.0,0.0,0.0,0.0,0.0,0.0,0.0,0.0,0.0,0.0,0.0,0.0,0.0,0.0,0.0,0.0,0.0,0.0,0.0,0.0
1783390770.910353,0.7777538299560547,0.8517782688140869,7.856122863358905e-08,0.8026911020278931,0.717721164226532,0.03847473859786987,0.7917946577072144,0.6176025867462158,0.04660160839557648,0.7612354755401611,0.5615004897117615,0.046214133501052856,0.7257566452026367,0.5494594573974609,0.045460473746061325,0.7954610586166382,0.5506548881530762,0.013326138257980347,0.7582270503044128,0.45298251509666443,0.01078748144209385,0.7471252679824829,0.4812573790550232,0.010565456934273243,0.7489892244338989,0.5201323628425598,0.011457525193691254,0.7572144269943237,0.5595490336418152,-0.010434884577989578,0.7268972396850586,0.41176050901412964,-0.012830979190766811,0.7093101143836975,0.3378075659275055,-0.012212183326482773,0.6982098817825317,0.28474512696266174,-0.013694149442017078,0.7193902730941772,0.5898047685623169,-0.029050106182694435,0.6913770437240601,0.46694400906562805,-0.024758698418736458,0.6966567635536194,0.5067979693412781,-0.008839275687932968,0.7046864032745361,0.5459756851196289,0.0008896332001313567,0.6905930042266846,0.6372705698013306,-0.04483357444405556,0.6712715029716492,0.5550127029418945,-0.033464472740888596,0.6798927187919617,0.5831707715988159,-0.011273658834397793,0.6907557845115662,0.6164560914039612,0.004142492078244686,0.0,0.0,0.0,0.0,0.0,0.0,0.0,0.0,0.0,0.0,0.0,0.0,0.0,0.0,0.0,0.0,0.0,0.0,0.0,0.0,0.0,0.0,0.0,0.0,0.0,0.0,0.0,0.0,0.0,0.0,0.0,0.0,0.0,0.0,0.0,0.0,0.0,0.0,0.0,0.0,0.0,0.0,0.0,0.0,0.0,0.0,0.0,0.0,0.0,0.0,0.0,0.0,0.0,0.0,0.0,0.0,0.0,0.0,0.0,0.0,0.0,0.0,0.0
1783390771.044705,0.7787556648254395,0.8533327579498291,6.724206969010993e-08,0.8039565682411194,0.72169429063797,0.039926569908857346,0.7925090789794922,0.6213130950927734,0.049078211188316345,0.7623447179794312,0.5607542395591736,0.049754515290260315,0.7274422645568848,0.544911801815033,0.050522271543741226,0.7946853637695312,0.5477348566055298,0.014506122097373009,0.7569414377212524,0.4517126679420471,0.013587534427642822,0.7464174032211304,0.48058411478996277,0.01501105260103941,0.7490698099136353,0.520968496799469,0.0168521199375391,0.7566714882850647,0.5579389333724976,-0.009624069556593895,0.7257845997810364,0.41184496879577637,-0.01206296682357788,0.7082894444465637,0.33700692653656006,-0.010889332741498947,0.6972606778144836,0.28319302201271057,-0.011923477053642273,0.7186698913574219,0.5896225571632385,-0.028345823287963867,0.6907885074615479,0.4672228991985321,-0.023453855887055397,0.6960497498512268,0.5071897506713867,-0.006022325716912746,0.703894853591919,0.546120822429657,0.004656060598790646,0.6901950240135193,0.6387609243392944,-0.04416545107960701,0.6707384586334229,0.5539500117301941,-0.03204905614256859,0.6792787909507751,0.5820719599723816,-0.008925806730985641,0.6899867057800293,0.6155182719230652,0.007123128045350313,0.0,0.0,0.0,0.0,0.0,0.0,0.0,0.0,0.0,0.0,0.0,0.0,0.0,0.0,0.0,0.0,0.0,0.0,0.0,0.0,0.0,0.0,0.0,0.0,0.0,0.0,0.0,0.0,0.0,0.0,0.0,0.0,0.0,0.0,0.0,0.0,0.0,0.0,0.0,0.0,0.0,0.0,0.0,0.0,0.0,0.0,0.0,0.0,0.0,0.0,0.0,0.0,0.0,0.0,0.0,0.0,0.0,0.0,0.0,0.0,0.0,0.0,0.0
1783390771.286725,0.7784981727600098,0.850983738899231,7.855714301285843e-08,0.8022782802581787,0.7161993384361267,0.03880704566836357,0.7917945981025696,0.6169418096542358,0.04630115628242493,0.7628344893455505,0.5572129487991333,0.04530110955238342,0.728203296661377,0.5423888564109802,0.04397749528288841,0.7955469489097595,0.5499255061149597,0.01114324014633894,0.7573122978210449,0.4525965452194214,0.008257083594799042,0.74622642993927,0.47887110710144043,0.008557796478271484,0.7483128905296326,0.5169445872306824,0.00986567698419094,0.7575011253356934,0.560104489326477,-0.013133124448359013,0.726248025894165,0.41133439540863037,-0.01664205826818943,0.7078993320465088,0.33721256256103516,-0.015958936884999275,0.6961275339126587,0.2847370505332947,-0.017234057188034058,0.7195790410041809,0.5912823677062988,-0.031987275928258896,0.6899968981742859,0.4682897627353668,-0.028335073962807655,0.6950061321258545,0.5088204145431519,-0.011316020041704178,0.7033476233482361,0.5482345819473267,-0.0007722401060163975,0.690687894821167,0.639814555644989,-0.04798124358057976,0.6700712442398071,0.5546954870223999,-0.03700101748108864,0.6785492300987244,0.5835710763931274,-0.01403395552188158,0.6893467903137207,0.6170074939727783,0.0020036681089550257,0.0,0.0,0.0,0.0,0.0,0.0,0.0,0.0,0.0,0.0,0.0,0.0,0.0,0.0,0.0,0.0,0.0,0.0,0.0,0.0,0.0,0.0,0.0,0.0,0.0,0.0,0.0,0.0,0.0,0.0,0.0,0.0,0.0,0.0,0.0,0.0,0.0,0.0,0.0,0.0,0.0,0.0,0.0,0.0,0.0,0.0,0.0,0.0,0.0,0.0,0.0,0.0,0.0,0.0,0.0,0.0,0.0,0.0,0.0,0.0,0.0,0.0,0.0
1783390771.445695,0.78122478723526,0.8564885854721069,7.030273962982392e-08,0.8064531087875366,0.7233066558837891,0.03943050280213356,0.7949560284614563,0.6206891536712646,0.04861970618367195,0.7651469707489014,0.5597456097602844,0.04950036108493805,0.7299619317054749,0.5427924990653992,0.050356652587652206,0.7973783016204834,0.5498424172401428,0.014485633000731468,0.7590962052345276,0.4514518082141876,0.014592266641557217,0.7482567429542542,0.4799107611179352,0.01707647182047367,0.7503165006637573,0.5197421908378601,0.019838297739624977,0.7580723762512207,0.5595205426216125,-0.00911677535623312,0.7271329164505005,0.41183456778526306,-0.00988255999982357,0.7097550630569458,0.3389628827571869,-0.00762241892516613,0.6980708241462708,0.28658512234687805,-0.007781674154102802,0.719595730304718,0.590718150138855,-0.027340354397892952,0.6918097734451294,0.4669428765773773,-0.022571256384253502,0.6979163885116577,0.5061584711074829,-0.006635493133217096,0.7061136364936829,0.5458572506904602,0.0032475804910063744,0.6904301643371582,0.6401735544204712,-0.04248972237110138,0.6717698574066162,0.5552586913108826,-0.030870145186781883,0.680695652961731,0.5833061933517456,-0.00849625002592802,0.6915844082832336,0.6171563863754272,0.007152804173529148,0.0,0.0,0.0,0.0,0.0,0.0,0.0,0.0,0.0,0.0,0.0,0.0,0.0,0.0,0.0,0.0,0.0,0.0,0.0,0.0,0.0,0.0,0.0,0.0,0.0,0.0,0.0,0.0,0.0,0.0,0.0,0.0,0.0,0.0,0.0,0.0,0.0,0.0,0.0,0.0,0.0,0.0,0.0,0.0,0.0,0.0,0.0,0.0,0.0,0.0,0.0,0.0,0.0,0.0,0.0,0.0,0.0,0.0,0.0,0.0,0.0,0.0,0.0
1783390771.630996,0.7799614071846008,0.8512647151947021,6.428686560866481e-08,0.8037524819374084,0.7176474332809448,0.038188494741916656,0.7937658429145813,0.6170336604118347,0.04535128176212311,0.7639579772949219,0.5584414601325989,0.04422306269407272,0.7284922003746033,0.5448871850967407,0.042334772646427155,0.7972169518470764,0.5505074262619019,0.009045218117535114,0.7591806650161743,0.4539690315723419,0.004759944975376129,0.7477186918258667,0.4801484942436218,0.0035291302483528852,0.7496130466461182,0.5187506079673767,0.003976973704993725,0.7589608430862427,0.5622397661209106,-0.015044968575239182,0.7280966639518738,0.41338109970092773,-0.018597396090626717,0.709915280342102,0.33990269899368286,-0.01818765327334404,0.6980565786361694,0.2875734269618988,-0.019813677296042442,0.7210971713066101,0.5938308835029602,-0.033769845962524414,0.6932170987129211,0.46995723247528076,-0.03117639571428299,0.6985815167427063,0.5073789954185486,-0.01571863330900669,0.706973135471344,0.546306848526001,-0.006112004164606333,0.6919265389442444,0.6414997577667236,-0.04950698837637901,0.6723257899284363,0.5567495226860046,-0.03945957496762276,0.6810867786407471,0.5839022397994995,-0.01730293221771717,0.6919514536857605,0.6171486377716064,-0.0018467539921402931,0.0,0.0,0.0,0.0,0.0,0.0,0.0,0.0,0.0,0.0,0.0,0.0,0.0,0.0,0.0,0.0,0.0,0.0,0.0,0.0,0.0,0.0,0.0,0.0,0.0,0.0,0.0,0.0,0.0,0.0,0.0,0.0,0.0,0.0,0.0,0.0,0.0,0.0,0.0,0.0,0.0,0.0,0.0,0.0,0.0,0.0,0.0,0.0,0.0,0.0,0.0,0.0,0.0,0.0,0.0,0.0,0.0,0.0,0.0,0.0,0.0,0.0,0.0
