ciel274/research-hand-sign/data/raw/hiragana/sign_language_ro_2.csv
timestamp,R_joint_0_x,R_joint_0_y,R_joint_0_z,R_joint_1_x,R_joint_1_y,R_joint_1_z,R_joint_2_x,R_joint_2_y,R_joint_2_z,R_joint_3_x,R_joint_3_y,R_joint_3_z,R_joint_4_x,R_joint_4_y,R_joint_4_z,R_joint_5_x,R_joint_5_y,R_joint_5_z,R_joint_6_x,R_joint_6_y,R_joint_6_z,R_joint_7_x,R_joint_7_y,R_joint_7_z,R_joint_8_x,R_joint_8_y,R_joint_8_z,R_joint_9_x,R_joint_9_y,R_joint_9_z,R_joint_10_x,R_joint_10_y,R_joint_10_z,R_joint_11_x,R_joint_11_y,R_joint_11_z,R_joint_12_x,R_joint_12_y,R_joint_12_z,R_joint_13_x,R_joint_13_y,R_joint_13_z,R_joint_14_x,R_joint_14_y,R_joint_14_z,R_joint_15_x,R_joint_15_y,R_joint_15_z,R_joint_16_x,R_joint_16_y,R_joint_16_z,R_joint_17_x,R_joint_17_y,R_joint_17_z,R_joint_18_x,R_joint_18_y,R_joint_18_z,R_joint_19_x,R_joint_19_y,R_joint_19_z,R_joint_20_x,R_joint_20_y,R_joint_20_z,L_joint_0_x,L_joint_0_y,L_joint_0_z,L_joint_1_x,L_joint_1_y,L_joint_1_z,L_joint_2_x,L_joint_2_y,L_joint_2_z,L_joint_3_x,L_joint_3_y,L_joint_3_z,L_joint_4_x,L_joint_4_y,L_joint_4_z,L_joint_5_x,L_joint_5_y,L_joint_5_z,L_joint_6_x,L_joint_6_y,L_joint_6_z,L_joint_7_x,L_joint_7_y,L_joint_7_z,L_joint_8_x,L_joint_8_y,L_joint_8_z,L_joint_9_x,L_joint_9_y,L_joint_9_z,L_joint_10_x,L_joint_10_y,L_joint_10_z,L_joint_11_x,L_joint_11_y,L_joint_11_z,L_joint_12_x,L_joint_12_y,L_joint_12_z,L_joint_13_x,L_joint_13_y,L_joint_13_z,L_joint_14_x,L_joint_14_y,L_joint_14_z,L_joint_15_x,L_joint_15_y,L_joint_15_z,L_joint_16_x,L_joint_16_y,L_joint_16_z,L_joint_17_x,L_joint_17_y,L_joint_17_z,L_joint_18_x,L_joint_18_y,L_joint_18_z,L_joint_19_x,L_joint_19_y,L_joint_19_z,L_joint_20_x,L_joint_20_y,L_joint_20_z
1784047754.039901,0.7440050840377808,0.7912696599960327,-7.325192008522663e-09,0.6894867420196533,0.7310372591018677,-0.0030718084890395403,0.6594455242156982,0.6097468733787537,-0.0034853850957006216,0.6647756695747375,0.5061544179916382,-0.011155623942613602,0.6996426582336426,0.4522590637207031,-0.017949732020497322,0.6974250674247742,0.522087574005127,0.0308892372995615,0.6968159079551697,0.42486754059791565,0.014360799454152584,0.6828793883323669,0.37862563133239746,6.448468775488436e-05,0.6685775518417358,0.36481794714927673,-0.008242008276283741,0.7257512211799622,0.5179024338722229,0.01877736859023571,0.7301345467567444,0.3848826289176941,-0.010468858294188976,0.7008233666419983,0.35805177688598633,-0.029274646192789078,0.6757140159606934,0.38025277853012085,-0.03351223096251488,0.7534370422363281,0.5298981070518494,0.002513575367629528,0.7418506741523743,0.41244572401046753,-0.02993355691432953,0.7220759391784668,0.47894299030303955,-0.03356229513883591,0.7161919474601746,0.555164635181427,-0.023854047060012817,0.783499538898468,0.5531064867973328,-0.014431552961468697,0.7578170895576477,0.4688986539840698,-0.03650018200278282,0.7416204810142517,0.5244598388671875,-0.03437595069408417,0.7400415539741516,0.5924087166786194,-0.025677869096398354,0.0,0.0,0.0,0.0,0.0,0.0,0.0,0.0,0.0,0.0,0.0,0.0,0.0,0.0,0.0,0.0,0.0,0.0,0.0,0.0,0.0,0.0,0.0,0.0,0.0,0.0,0.0,0.0,0.0,0.0,0.0,0.0,0.0,0.0,0.0,0.0,0.0,0.0,0.0,0.0,0.0,0.0,0.0,0.0,0.0,0.0,0.0,0.0,0.0,0.0,0.0,0.0,0.0,0.0,0.0,0.0,0.0,0.0,0.0,0.0,0.0,0.0,0.0
1784047754.1699,0.744827926158905,0.7928979992866516,-2.6105324124614526e-08,0.6909843683242798,0.7320613265037537,-0.004410682711750269,0.66196608543396,0.6097610592842102,-0.005501954350620508,0.6678611040115356,0.5071301460266113,-0.013352448120713234,0.7008023858070374,0.45131734013557434,-0.02057100087404251,0.700232744216919,0.5235098600387573,0.027412094175815582,0.6996785998344421,0.4267961084842682,0.010118155740201473,0.6850966215133667,0.38159385323524475,-0.00459846667945385,0.669381856918335,0.3656231164932251,-0.013299322687089443,0.7284359335899353,0.5191076397895813,0.0154423201456666,0.7326616644859314,0.38463088870048523,-0.01388581283390522,0.7020450830459595,0.3583948314189911,-0.03232567012310028,0.6749937534332275,0.3774555027484894,-0.03651442751288414,0.7566704154014587,0.5306733250617981,-0.0006295916391536593,0.7459429502487183,0.4110930562019348,-0.033785369247198105,0.7246685028076172,0.478901743888855,-0.037365444004535675,0.7172945141792297,0.5553344488143921,-0.027706407010555267,0.7865837812423706,0.5544897317886353,-0.017454834654927254,0.7601466178894043,0.4720182716846466,-0.04033345729112625,0.7430756092071533,0.5292067527770996,-0.0381816066801548,0.7410479187965393,0.5965034365653992,-0.029499363154172897,0.0,0.0,0.0,0.0,0.0,0.0,0.0,0.0,0.0,0.0,0.0,0.0,0.0,0.0,0.0,0.0,0.0,0.0,0.0,0.0,0.0,0.0,0.0,0.0,0.0,0.0,0.0,0.0,0.0,0.0,0.0,0.0,0.0,0.0,0.0,0.0,0.0,0.0,0.0,0.0,0.0,0.0,0.0,0.0,0.0,0.0,0.0,0.0,0.0,0.0,0.0,0.0,0.0,0.0,0.0,0.0,0.0,0.0,0.0,0.0,0.0,0.0,0.0
1784047754.302235,0.7458180785179138,0.7931410670280457,-2.573887059043045e-08,0.6927202939987183,0.7301425933837891,-0.0040919180028140545,0.6641911268234253,0.6093202233314514,-0.005786689929664135,0.6705028414726257,0.50778728723526,-0.014259346760809422,0.7026965618133545,0.44966819882392883,-0.022019116207957268,0.7022752165794373,0.5209138989448547,0.026909079402685165,0.7010276913642883,0.4222906827926636,0.008928128518164158,0.686016321182251,0.37690284848213196,-0.0061032334342598915,0.670252799987793,0.36203455924987793,-0.014629260636866093,0.7304124236106873,0.5179763436317444,0.01472225971519947,0.7345377206802368,0.38307762145996094,-0.014849210157990456,0.7045980095863342,0.35808494687080383,-0.033164333552122116,0.6784902215003967,0.3789432942867279,-0.03690515086054802,0.7586687207221985,0.5311838388442993,-0.0015149656683206558,0.746833860874176,0.4130944609642029,-0.034995488822460175,0.725811779499054,0.4800795316696167,-0.03862999007105827,0.7193216681480408,0.5560752153396606,-0.028714274987578392,0.7888568043708801,0.5566323399543762,-0.018381893634796143,0.7630988359451294,0.4724675416946411,-0.04129667952656746,0.7458139061927795,0.528958261013031,-0.03869863972067833,0.7439701557159424,0.5970030426979065,-0.02943180873990059,0.0,0.0,0.0,0.0,0.0,0.0,0.0,0.0,0.0,0.0,0.0,0.0,0.0,0.0,0.0,0.0,0.0,0.0,0.0,0.0,0.0,0.0,0.0,0.0,0.0,0.0,0.0,0.0,0.0,0.0,0.0,0.0,0.0,0.0,0.0,0.0,0.0,0.0,0.0,0.0,0.0,0.0,0.0,0.0,0.0,0.0,0.0,0.0,0.0,0.0,0.0,0.0,0.0,0.0,0.0,0.0,0.0,0.0,0.0,0.0,0.0,0.0,0.0
1784047754.435072,0.7482808828353882,0.7944391369819641,-9.685562574190953e-09,0.6936912536621094,0.7335249185562134,-0.004102697130292654,0.6635159254074097,0.6135299205780029,-0.005460950545966625,0.6696338653564453,0.508636474609375,-0.013842619955539703,0.7051675319671631,0.45227667689323425,-0.021257920190691948,0.7022182941436768,0.5240901112556458,0.03000832349061966,0.7018019556999207,0.42574378848075867,0.012826244346797466,0.6877557635307312,0.3792904019355774,-0.0017287119990214705,0.6727451086044312,0.36379480361938477,-0.010101200081408024,0.7305572628974915,0.5205884575843811,0.01816750317811966,0.7359701991081238,0.38570645451545715,-0.01161097176373005,0.707482635974884,0.36030060052871704,-0.03023284487426281,0.6823239922523499,0.38160693645477295,-0.034054890275001526,0.75840163230896,0.5329821705818176,0.002048725262284279,0.7471998929977417,0.4145675301551819,-0.03179607912898064,0.7276018261909485,0.48301398754119873,-0.03553041070699692,0.721796989440918,0.5602596998214722,-0.02535204030573368,0.788802981376648,0.5562346577644348,-0.014741313643753529,0.7635874152183533,0.4704146087169647,-0.038062840700149536,0.7471974492073059,0.5269879698753357,-0.03602856397628784,0.7454792261123657,0.5961763262748718,-0.027014777064323425,0.0,0.0,0.0,0.0,0.0,0.0,0.0,0.0,0.0,0.0,0.0,0.0,0.0,0.0,0.0,0.0,0.0,0.0,0.0,0.0,0.0,0.0,0.0,0.0,0.0,0.0,0.0,0.0,0.0,0.0,0.0,0.0,0.0,0.0,0.0,0.0,0.0,0.0,0.0,0.0,0.0,0.0,0.0,0.0,0.0,0.0,0.0,0.0,0.0,0.0,0.0,0.0,0.0,0.0,0.0,0.0,0.0,0.0,0.0,0.0,0.0,0.0,0.0
1784047754.575455,0.747728168964386,0.794489324092865,-1.2237701518813537e-08,0.693712592124939,0.7352376580238342,-0.0035624064039438963,0.6645809412002563,0.6106601357460022,-0.003722970373928547,0.6715293526649475,0.5067852735519409,-0.010800758376717567,0.7059159874916077,0.4538779854774475,-0.0170847550034523,0.7019123435020447,0.5224277377128601,0.027543431147933006,0.7002863883972168,0.4237334728240967,0.009882940910756588,0.6863824129104614,0.3771917521953583,-0.004989455454051495,0.6709635257720947,0.3655190169811249,-0.013587715104222298,0.7310835719108582,0.5195716023445129,0.015287823043763638,0.7357373237609863,0.3846212327480316,-0.014853507280349731,0.7075239419937134,0.35682615637779236,-0.03443950414657593,0.6825152039527893,0.3792012333869934,-0.03927333280444145,0.7595381140708923,0.5334892868995667,-0.0008774746675044298,0.748712420463562,0.4144524335861206,-0.03392196446657181,0.7293367385864258,0.4829403758049011,-0.036993227899074554,0.7228454947471619,0.5596028566360474,-0.026968499645590782,0.7903261184692383,0.558915376663208,-0.017742635682225227,0.7641525268554688,0.4758889675140381,-0.04084370657801628,0.7483971118927002,0.5337567925453186,-0.03845508024096489,0.7466272711753845,0.6014150381088257,-0.029402151703834534,0.0,0.0,0.0,0.0,0.0,0.0,0.0,0.0,0.0,0.0,0.0,0.0,0.0,0.0,0.0,0.0,0.0,0.0,0.0,0.0,0.0,0.0,0.0,0.0,0.0,0.0,0.0,0.0,0.0,0.0,0.0,0.0,0.0,0.0,0.0,0.0,0.0,0.0,0.0,0.0,0.0,0.0,0.0,0.0,0.0,0.0,0.0,0.0,0.0,0.0,0.0,0.0,0.0,0.0,0.0,0.0,0.0,0.0,0.0,0.0,0.0,0.0,0.0
1784047754.707765,0.7482056617736816,0.7952544093132019,-7.881704178203108e-09,0.6941289901733398,0.7362271547317505,-0.0034705607686191797,0.6648608446121216,0.6144328713417053,-0.00444836588576436,0.6713340878486633,0.5091466307640076,-0.012552051804959774,0.7067790627479553,0.45490819215774536,-0.019700780510902405,0.7023528814315796,0.5226278901100159,0.028042249381542206,0.7014003992080688,0.42487454414367676,0.009027238003909588,0.6874134540557861,0.37857311964035034,-0.0068074422888457775,0.6719974279403687,0.3706894516944885,-0.015690557658672333,0.7316135168075562,0.5204699039459229,0.015388039872050285,0.7375017404556274,0.38653287291526794,-0.01566559262573719,0.7108657956123352,0.3596944808959961,-0.03551158681511879,0.6874166131019592,0.3848603665828705,-0.04039039462804794,0.7597415447235107,0.5353531837463379,-0.0013563147513195872,0.7486891746520996,0.4176662862300873,-0.03502095490694046,0.7304611206054688,0.48774874210357666,-0.03700646758079529,0.7250626087188721,0.5648238062858582,-0.026050172746181488,0.7906525135040283,0.561080276966095,-0.018824519589543343,0.7642399668693542,0.4763661026954651,-0.04213996231555939,0.7496981620788574,0.5353171825408936,-0.03884785994887352,0.7489194869995117,0.6034262180328369,-0.02897512912750244,0.0,0.0,0.0,0.0,0.0,0.0,0.0,0.0,0.0,0.0,0.0,0.0,0.0,0.0,0.0,0.0,0.0,0.0,0.0,0.0,0.0,0.0,0.0,0.0,0.0,0.0,0.0,0.0,0.0,0.0,0.0,0.0,0.0,0.0,0.0,0.0,0.0,0.0,0.0,0.0,0.0,0.0,0.0,0.0,0.0,0.0,0.0,0.0,0.0,0.0,0.0,0.0,0.0,0.0,0.0,0.0,0.0,0.0,0.0,0.0,0.0,0.0,0.0
1784047754.8363829,0.7486039400100708,0.7958256006240845,-1.5694849864189564e-08,0.6940629482269287,0.7365658283233643,-0.003374564228579402,0.664174497127533,0.6164309978485107,-0.00442968076094985,0.6708680987358093,0.5119035840034485,-0.012495516799390316,0.7064871191978455,0.45713746547698975,-0.019713087007403374,0.702698290348053,0.5248768329620361,0.02831444889307022,0.7023727297782898,0.42682552337646484,0.009412037208676338,0.6876963376998901,0.38251471519470215,-0.00636629480868578,0.6719769239425659,0.37511172890663147,-0.015114995650947094,0.7318159341812134,0.5227295160293579,0.015737993642687798,0.7375396490097046,0.3874374032020569,-0.014963673427700996,0.7096707820892334,0.3616778254508972,-0.034606438130140305,0.6853949427604675,0.3865358829498291,-0.039230626076459885,0.7600714564323425,0.5371187329292297,-0.0009419299312867224,0.7486376166343689,0.4189925491809845,-0.03501800075173378,0.7298790812492371,0.48806238174438477,-0.03793545812368393,0.7246174812316895,0.5646080374717712,-0.02741551212966442,0.7910223007202148,0.5623002052307129,-0.018195223063230515,0.7637264728546143,0.4780208468437195,-0.04197105020284653,0.7491768002510071,0.5370916724205017,-0.03909292072057724,0.7493470907211304,0.6050412058830261,-0.029387498274445534,0.0,0.0,0.0,0.0,0.0,0.0,0.0,0.0,0.0,0.0,0.0,0.0,0.0,0.0,0.0,0.0,0.0,0.0,0.0,0.0,0.0,0.0,0.0,0.0,0.0,0.0,0.0,0.0,0.0,0.0,0.0,0.0,0.0,0.0,0.0,0.0,0.0,0.0,0.0,0.0,0.0,0.0,0.0,0.0,0.0,0.0,0.0,0.0,0.0,0.0,0.0,0.0,0.0,0.0,0.0,0.0,0.0,0.0,0.0,0.0,0.0,0.0,0.0
1784047754.97191,0.7484679818153381,0.7963675260543823,-1.3548817179298567e-08,0.6940262317657471,0.7363170981407166,-0.0036627422086894512,0.6641106605529785,0.6172530651092529,-0.005490094888955355,0.6705660820007324,0.5132562518119812,-0.014299207367002964,0.7059695720672607,0.45750892162323,-0.022221393883228302,0.7025367617607117,0.5252289175987244,0.02728848345577717,0.7021505236625671,0.42614829540252686,0.007417529821395874,0.6872811913490295,0.3823697865009308,-0.008902213536202908,0.6715884208679199,0.3767316937446594,-0.017821459099650383,0.7317947149276733,0.5231649875640869,0.014545818790793419,0.7378688454627991,0.38748183846473694,-0.01695236936211586,0.709645688533783,0.36227691173553467,-0.03684733435511589,0.6850847005844116,0.3882838487625122,-0.041509516537189484,0.7601504325866699,0.5379086136817932,-0.0023403698578476906,0.7486881017684937,0.4203249216079712,-0.03679341822862625,0.7297874093055725,0.4888412356376648,-0.0396265871822834,0.7243736386299133,0.5650137662887573,-0.029033377766609192,0.7911504507064819,0.5637294054031372,-0.019828250631690025,0.7637200355529785,0.48027053475379944,-0.04374876618385315,0.7491633296012878,0.5394324660301208,-0.04075831547379494,0.7492309808731079,0.6070942878723145,-0.030946196988224983,0.0,0.0,0.0,0.0,0.0,0.0,0.0,0.0,0.0,0.0,0.0,0.0,0.0,0.0,0.0,0.0,0.0,0.0,0.0,0.0,0.0,0.0,0.0,0.0,0.0,0.0,0.0,0.0,0.0,0.0,0.0,0.0,0.0,0.0,0.0,0.0,0.0,0.0,0.0,0.0,0.0,0.0,0.0,0.0,0.0,0.0,0.0,0.0,0.0,0.0,0.0,0.0,0.0,0.0,0.0,0.0,0.0,0.0,0.0,0.0,0.0,0.0,0.0
1784047755.1085298,0.7488089799880981,0.7985093593597412,-1.7089575976569904e-08,0.6949217915534973,0.7381946444511414,-0.004279068671166897,0.6647611856460571,0.6186050176620483,-0.006671685725450516,0.6700393557548523,0.5137979984283447,-0.016096126288175583,0.706167995929718,0.45965391397476196,-0.02455783635377884,0.7036914825439453,0.5250306725502014,0.026293618604540825,0.7035059928894043,0.4243200421333313,0.005381818860769272,0.6880272030830383,0.38050442934036255,-0.011456477455794811,0.671484649181366,0.37601524591445923,-0.02073828876018524,0.7331660985946655,0.5238288044929504,0.013319643214344978,0.7388047575950623,0.3876766562461853,-0.019107099622488022,0.7097815275192261,0.3637538254261017,-0.03914625942707062,0.685162365436554,0.39047521352767944,-0.043932270258665085,0.7615492343902588,0.5399771928787231,-0.003922615200281143,0.7502720952033997,0.42135727405548096,-0.0386357344686985,0.730813205242157,0.4914763867855072,-0.04044099152088165,0.7252610921859741,0.5676544308662415,-0.02927227132022381,0.7926719188690186,0.567805826663971,-0.021967856213450432,0.765612006187439,0.48506227135658264,-0.045941900461912155,0.7506492733955383,0.5444425344467163,-0.042612336575984955,0.7504553198814392,0.6109649538993835,-0.03268232196569443,0.0,0.0,0.0,0.0,0.0,0.0,0.0,0.0,0.0,0.0,0.0,0.0,0.0,0.0,0.0,0.0,0.0,0.0,0.0,0.0,0.0,0.0,0.0,0.0,0.0,0.0,0.0,0.0,0.0,0.0,0.0,0.0,0.0,0.0,0.0,0.0,0.0,0.0,0.0,0.0,0.0,0.0,0.0,0.0,0.0,0.0,0.0,0.0,0.0,0.0,0.0,0.0,0.0,0.0,0.0,0.0,0.0,0.0,0.0,0.0,0.0,0.0,0.0
1784047755.242272,0.7498598694801331,0.8000935316085815,-6.271339003660614e-09,0.6952353119850159,0.7406370639801025,-0.004351306241005659,0.6654093265533447,0.6194336414337158,-0.006664650980383158,0.6713969111442566,0.514263927936554,-0.01578649878501892,0.7069514393806458,0.46018603444099426,-0.023968590423464775,0.7037408351898193,0.5252306461334229,0.02486002817749977,0.7026129961013794,0.42459166049957275,0.0035156970843672752,0.6883570551872253,0.3786317706108093,-0.01362819317728281,0.672577440738678,0.37369590997695923,-0.023228084668517113,0.7344386577606201,0.5246976017951965,0.011800572276115417,0.740604043006897,0.3881915807723999,-0.02134365402162075,0.7129296660423279,0.36363404989242554,-0.04200714826583862,0.6888750195503235,0.3912058472633362,-0.04732109233736992,0.7635475397109985,0.5418380498886108,-0.005352739244699478,0.7517333626747131,0.42140015959739685,-0.040692608803510666,0.7325231432914734,0.4932297468185425,-0.04207737743854523,0.7266970872879028,0.570061445236206,-0.030712725594639778,0.7952402234077454,0.5707286596298218,-0.023231344297528267,0.7662553787231445,0.4898684620857239,-0.04824039340019226,0.7519530653953552,0.5512738823890686,-0.044901490211486816,0.7525794506072998,0.6170467138290405,-0.03483004868030548,0.0,0.0,0.0,0.0,0.0,0.0,0.0,0.0,0.0,0.0,0.0,0.0,0.0,0.0,0.0,0.0,0.0,0.0,0.0,0.0,0.0,0.0,0.0,0.0,0.0,0.0,0.0,0.0,0.0,0.0,0.0,0.0,0.0,0.0,0.0,0.0,0.0,0.0,0.0,0.0,0.0,0.0,0.0,0.0,0.0,0.0,0.0,0.0,0.0,0.0,0.0,0.0,0.0,0.0,0.0,0.0,0.0,0.0,0.0,0.0,0.0,0.0,0.0
1784047755.3733041,0.750779926776886,0.8020445704460144,-9.483645868613166e-09,0.696308970451355,0.7434459924697876,-0.004902093671262264,0.6662995219230652,0.6224836111068726,-0.007700569462031126,0.6722149848937988,0.5167275667190552,-0.017161069437861443,0.7071719169616699,0.46052831411361694,-0.025553476065397263,0.7036749124526978,0.5272849798202515,0.02339320443570614,0.7021250128746033,0.4235292673110962,0.0006926325149834156,0.6864017248153687,0.3781515955924988,-0.01719622313976288,0.6692732572555542,0.3744086027145386,-0.026932919397950172,0.7344867587089539,0.5267518162727356,0.010429476387798786,0.7413787841796875,0.3875223696231842,-0.023748250678181648,0.7123824954032898,0.36311593651771545,-0.044729601591825485,0.6873502731323242,0.390223890542984,-0.04990476369857788,0.7636579275131226,0.5439491271972656,-0.0066516767255961895,0.7524109482765198,0.42185166478157043,-0.042877499014139175,0.732807993888855,0.4950871765613556,-0.044048529118299484,0.7268565893173218,0.5720189809799194,-0.03217335790395737,0.7954246997833252,0.5734400153160095,-0.024483216926455498,0.7672802805900574,0.49284812808036804,-0.05006139352917671,0.753271222114563,0.5553134083747864,-0.0464896634221077,0.754403293132782,0.6207969188690186,-0.03596050664782524,0.0,0.0,0.0,0.0,0.0,0.0,0.0,0.0,0.0,0.0,0.0,0.0,0.0,0.0,0.0,0.0,0.0,0.0,0.0,0.0,0.0,0.0,0.0,0.0,0.0,0.0,0.0,0.0,0.0,0.0,0.0,0.0,0.0,0.0,0.0,0.0,0.0,0.0,0.0,0.0,0.0,0.0,0.0,0.0,0.0,0.0,0.0,0.0,0.0,0.0,0.0,0.0,0.0,0.0,0.0,0.0,0.0,0.0,0.0,0.0,0.0,0.0,0.0
1784047755.509399,0.7505179047584534,0.8019363880157471,-1.2346471622848298e-09,0.6964359879493713,0.7439789772033691,-0.00543295918032527,0.6667136549949646,0.6236162185668945,-0.008628305047750473,0.6724163293838501,0.517608106136322,-0.018449032679200172,0.7077747583389282,0.46090245246887207,-0.027075687423348427,0.7034813165664673,0.5262657999992371,0.023409942165017128,0.7025508880615234,0.4233463406562805,0.000933377887122333,0.6875205039978027,0.37715667486190796,-0.01667153649032116,0.6709393262863159,0.37371695041656494,-0.026194607838988304,0.7343665361404419,0.5258505940437317,0.010799681767821312,0.741407036781311,0.38669443130493164,-0.02317441813647747,0.7129358053207397,0.3631584644317627,-0.04387224093079567,0.6884283423423767,0.39202144742012024,-0.048847801983356476,0.7634947299957275,0.5430333614349365,-0.005979214794933796,0.7526654601097107,0.42091652750968933,-0.04163480922579765,0.7333017587661743,0.4938293695449829,-0.04233846068382263,0.7274607419967651,0.5705958008766174,-0.030283141881227493,0.7952039837837219,0.5723943114280701,-0.023601507768034935,0.7673681378364563,0.4917924702167511,-0.04841692000627518,0.75360506772995,0.5538447499275208,-0.04453323781490326,0.7547532320022583,0.6191887259483337,-0.03391309455037117,0.0,0.0,0.0,0.0,0.0,0.0,0.0,0.0,0.0,0.0,0.0,0.0,0.0,0.0,0.0,0.0,0.0,0.0,0.0,0.0,0.0,0.0,0.0,0.0,0.0,0.0,0.0,0.0,0.0,0.0,0.0,0.0,0.0,0.0,0.0,0.0,0.0,0.0,0.0,0.0,0.0,0.0,0.0,0.0,0.0,0.0,0.0,0.0,0.0,0.0,0.0,0.0,0.0,0.0,0.0,0.0,0.0,0.0,0.0,0.0,0.0,0.0,0.0
1784047755.63795,0.7519468665122986,0.8043230175971985,-1.3574508628266813e-08,0.6970451474189758,0.7433260083198547,-0.004449530504643917,0.6679099202156067,0.6228293776512146,-0.007238279562443495,0.6740686893463135,0.517548680305481,-0.016923431307077408,0.7085996270179749,0.46073275804519653,-0.025478435680270195,0.7050451636314392,0.5256820321083069,0.02489808015525341,0.7048312425613403,0.4223516881465912,0.001839622505940497,0.6893073320388794,0.37796133756637573,-0.01659245416522026,0.6725702285766602,0.37669846415519714,-0.026603026315569878,0.7356380224227905,0.5254524946212769,0.011635778471827507,0.7417760491371155,0.3878655433654785,-0.02201860025525093,0.712802529335022,0.36390742659568787,-0.04306914657354355,0.6884137988090515,0.3912796378135681,-0.04871492087841034,0.7648202776908875,0.5428076982498169,-0.005901368800550699,0.7538156509399414,0.42151939868927,-0.04149283468723297,0.7336010336875916,0.49439725279808044,-0.04266950115561485,0.7275848984718323,0.5712730288505554,-0.03127434104681015,0.7966620326042175,0.5726081132888794,-0.024245277047157288,0.7686080932617188,0.4934562146663666,-0.049254611134529114,0.7542542815208435,0.5558562278747559,-0.04561897739768028,0.7554462552070618,0.6208368539810181,-0.035328447818756104,0.0,0.0,0.0,0.0,0.0,0.0,0.0,0.0,0.0,0.0,0.0,0.0,0.0,0.0,0.0,0.0,0.0,0.0,0.0,0.0,0.0,0.0,0.0,0.0,0.0,0.0,0.0,0.0,0.0,0.0,0.0,0.0,0.0,0.0,0.0,0.0,0.0,0.0,0.0,0.0,0.0,0.0,0.0,0.0,0.0,0.0,0.0,0.0,0.0,0.0,0.0,0.0,0.0,0.0,0.0,0.0,0.0,0.0,0.0,0.0,0.0,0.0,0.0
1784047755.77216,0.7526288032531738,0.8041549921035767,-2.8737440871395847e-08,0.6977618336677551,0.7444522380828857,-0.004579146392643452,0.6679592728614807,0.6242052316665649,-0.007110733073204756,0.6741095781326294,0.5182673335075378,-0.016414200887084007,0.7089759707450867,0.46121859550476074,-0.02459792047739029,0.7057308554649353,0.5279673337936401,0.02478484809398651,0.7076234817504883,0.4220217168331146,0.0024563337210565805,0.69141685962677,0.37921562790870667,-0.014840726740658283,0.6742004156112671,0.37739628553390503,-0.023924384266138077,0.7358893156051636,0.5269153714179993,0.012047861702740192,0.7424386739730835,0.3863914906978607,-0.02098814956843853,0.7120034694671631,0.3643067181110382,-0.040554601699113846,0.6867031455039978,0.39245837926864624,-0.044746313244104385,0.7648974061012268,0.5431546568870544,-0.004971283953636885,0.7536473870277405,0.42222124338150024,-0.04063647985458374,0.7336275577545166,0.4957880675792694,-0.0415039137005806,0.7281325459480286,0.5726180076599121,-0.029438383877277374,0.7965498566627502,0.5723264813423157,-0.022732064127922058,0.7684968709945679,0.4923156499862671,-0.04760851338505745,0.7543503046035767,0.5555558800697327,-0.04366466775536537,0.7560473084449768,0.6213147044181824,-0.032979827374219894,0.0,0.0,0.0,0.0,0.0,0.0,0.0,0.0,0.0,0.0,0.0,0.0,0.0,0.0,0.0,0.0,0.0,0.0,0.0,0.0,0.0,0.0,0.0,0.0,0.0,0.0,0.0,0.0,0.0,0.0,0.0,0.0,0.0,0.0,0.0,0.0,0.0,0.0,0.0,0.0,0.0,0.0,0.0,0.0,0.0,0.0,0.0,0.0,0.0,0.0,0.0,0.0,0.0,0.0,0.0,0.0,0.0,0.0,0.0,0.0,0.0,0.0,0.0
1784047755.9050722,0.7532138824462891,0.8050833344459534,-2.621398387248064e-08,0.699373722076416,0.745135486125946,-0.005608884152024984,0.6690611839294434,0.6250574588775635,-0.009166131727397442,0.6741818785667419,0.5191158056259155,-0.01946844346821308,0.7090065479278564,0.4625275135040283,-0.028535589575767517,0.706291139125824,0.5252025723457336,0.023225927725434303,0.7083147168159485,0.41887176036834717,-0.00042693334398791194,0.6922177672386169,0.3765484690666199,-0.018581455573439598,0.6751967668533325,0.37764686346054077,-0.028080375865101814,0.7367774248123169,0.5252698659896851,0.010556480847299099,0.7428176403045654,0.3856137990951538,-0.02297634445130825,0.7122679352760315,0.3649613559246063,-0.04258299246430397,0.6873527765274048,0.3941766619682312,-0.046971727162599564,0.7661076188087463,0.5430813431739807,-0.0065684812143445015,0.7551017999649048,0.4219547212123871,-0.04215589910745621,0.7342000007629395,0.49629658460617065,-0.04233681783080101,0.7283391356468201,0.5734763741493225,-0.03004833310842514,0.7981083989143372,0.5741124153137207,-0.024630723521113396,0.7704251408576965,0.4943866431713104,-0.04923100396990776,0.7556443810462952,0.5567581653594971,-0.044997163116931915,0.7569477558135986,0.6215842366218567,-0.0342542864382267,0.0,0.0,0.0,0.0,0.0,0.0,0.0,0.0,0.0,0.0,0.0,0.0,0.0,0.0,0.0,0.0,0.0,0.0,0.0,0.0,0.0,0.0,0.0,0.0,0.0,0.0,0.0,0.0,0.0,0.0,0.0,0.0,0.0,0.0,0.0,0.0,0.0,0.0,0.0,0.0,0.0,0.0,0.0,0.0,0.0,0.0,0.0,0.0,0.0,0.0,0.0,0.0,0.0,0.0,0.0,0.0,0.0,0.0,0.0,0.0,0.0,0.0,0.0
1784047756.0372438,0.754377007484436,0.8049837350845337,-3.4280873251191224e-08,0.6997112035751343,0.7455472350120544,-0.005263711791485548,0.669715404510498,0.6255060434341431,-0.008591771125793457,0.6753553748130798,0.5187704563140869,-0.018529992550611496,0.7090240716934204,0.45972394943237305,-0.02721613086760044,0.7060725688934326,0.5252912044525146,0.0235995315015316,0.7081064581871033,0.41843193769454956,-8.900573448045179e-05,0.6916917562484741,0.3771670162677765,-0.018276771530508995,0.674041748046875,0.3784955143928528,-0.027661891654133797,0.7368119359016418,0.5254098176956177,0.010954264551401138,0.7437911629676819,0.3849087953567505,-0.02248462475836277,0.7141093015670776,0.3654532730579376,-0.042015090584754944,0.6894365549087524,0.39503538608551025,-0.04622209817171097,0.7661962509155273,0.5429577827453613,-0.006103320512920618,0.7553486824035645,0.42259931564331055,-0.04184679687023163,0.7346776127815247,0.49743837118148804,-0.04231029748916626,0.7287495732307434,0.5742775797843933,-0.030149785801768303,0.7981250882148743,0.573306679725647,-0.023983050137758255,0.7699909210205078,0.4951603412628174,-0.04873580113053322,0.7556835412979126,0.5583631992340088,-0.044523436576128006,0.7574158906936646,0.6224061846733093,-0.03373401612043381,0.0,0.0,0.0,0.0,0.0,0.0,0.0,0.0,0.0,0.0,0.0,0.0,0.0,0.0,0.0,0.0,0.0,0.0,0.0,0.0,0.0,0.0,0.0,0.0,0.0,0.0,0.0,0.0,0.0,0.0,0.0,0.0,0.0,0.0,0.0,0.0,0.0,0.0,0.0,0.0,0.0,0.0,0.0,0.0,0.0,0.0,0.0,0.0,0.0,0.0,0.0,0.0,0.0,0.0,0.0,0.0,0.0,0.0,0.0,0.0,0.0,0.0,0.0
1784047756.1702971,0.7561476826667786,0.8064872026443481,-2.468165050117932e-08,0.700572669506073,0.7479479312896729,-0.0062299082055687904,0.6706705689430237,0.6269742250442505,-0.010121678933501244,0.6769035458564758,0.5204508900642395,-0.020290857180953026,0.7107852101325989,0.46135663986206055,-0.029256584122776985,0.705879807472229,0.526297926902771,0.021472599357366562,0.7062168717384338,0.41944172978401184,-0.00335624348372221,0.6905732154846191,0.3778218924999237,-0.023009102791547775,0.6735521554946899,0.3786216080188751,-0.03355761989951134,0.7373762130737305,0.5265930891036987,0.008863450028002262,0.7440697550773621,0.3864116370677948,-0.026262540370225906,0.7146930694580078,0.36626550555229187,-0.04768344387412071,0.6898667812347412,0.3968769311904907,-0.0532415509223938,0.7672032713890076,0.5446039438247681,-0.008043300360441208,0.7566476464271545,0.4229968786239624,-0.04457749426364899,0.7360327243804932,0.4980519115924835,-0.04570109397172928,0.7294491529464722,0.5753613114356995,-0.03411504998803139,0.799423098564148,0.575622022151947,-0.02584412693977356,0.77107834815979,0.49943095445632935,-0.051245469599962234,0.757523238658905,0.5633825659751892,-0.047351524233818054,0.7595689296722412,0.6270167231559753,-0.03678639978170395,0.0,0.0,0.0,0.0,0.0,0.0,0.0,0.0,0.0,0.0,0.0,0.0,0.0,0.0,0.0,0.0,0.0,0.0,0.0,0.0,0.0,0.0,0.0,0.0,0.0,0.0,0.0,0.0,0.0,0.0,0.0,0.0,0.0,0.0,0.0,0.0,0.0,0.0,0.0,0.0,0.0,0.0,0.0,0.0,0.0,0.0,0.0,0.0,0.0,0.0,0.0,0.0,0.0,0.0,0.0,0.0,0.0,0.0,0.0,0.0,0.0,0.0,0.0
1784047756.30706,0.7553075551986694,0.8063148260116577,-1.678997385567982e-08,0.7009440660476685,0.7485033273696899,-0.006391198839992285,0.6711158752441406,0.6273931264877319,-0.010346821509301662,0.6772814989089966,0.5207836031913757,-0.020534275099635124,0.7114643454551697,0.46294915676116943,-0.029402736574411392,0.7062707543373108,0.5256971716880798,0.020577384158968925,0.7067614197731018,0.4189260005950928,-0.0039723035879433155,0.6912068128585815,0.3763391375541687,-0.023116175085306168,0.6744841933250427,0.3766403794288635,-0.03340509161353111,0.7377190589904785,0.5266339182853699,0.008041429333388805,0.7439436912536621,0.38598304986953735,-0.027478262782096863,0.7144179940223694,0.3671814203262329,-0.048572562634944916,0.6901516914367676,0.39956167340278625,-0.053690142929553986,0.7673888206481934,0.5452883243560791,-0.008707410655915737,0.7568359375,0.4240521490573883,-0.04537726193666458,0.7363453507423401,0.4997994601726532,-0.04592466726899147,0.7299838662147522,0.5774681568145752,-0.03377462550997734,0.7995946407318115,0.5765158534049988,-0.026377856731414795,0.7718284130096436,0.4999820590019226,-0.05175938829779625,0.7579375505447388,0.5634282827377319,-0.047650352120399475,0.7594557404518127,0.6271518468856812,-0.03683489188551903,0.0,0.0,0.0,0.0,0.0,0.0,0.0,0.0,0.0,0.0,0.0,0.0,0.0,0.0,0.0,0.0,0.0,0.0,0.0,0.0,0.0,0.0,0.0,0.0,0.0,0.0,0.0,0.0,0.0,0.0,0.0,0.0,0.0,0.0,0.0,0.0,0.0,0.0,0.0,0.0,0.0,0.0,0.0,0.0,0.0,0.0,0.0,0.0,0.0,0.0,0.0,0.0,0.0,0.0,0.0,0.0,0.0,0.0,0.0,0.0,0.0,0.0,0.0
1784047756.442742,0.7553572058677673,0.8078843355178833,-1.3930636200143454e-08,0.7008207440376282,0.7488100528717041,-0.007135652005672455,0.6720418930053711,0.6288896203041077,-0.011671763844788074,0.6785394549369812,0.5225111246109009,-0.022330934181809425,0.7110287547111511,0.4605391323566437,-0.03167341649532318,0.7064049243927002,0.5275939702987671,0.021207010373473167,0.7057054042816162,0.4217347502708435,-0.003912253305315971,0.6901570558547974,0.37857699394226074,-0.02388019859790802,0.6734502911567688,0.37796786427497864,-0.034609291702508926,0.7377333045005798,0.5278093218803406,0.008995668031275272,0.7439529299736023,0.38814735412597656,-0.026548724621534348,0.7147872447967529,0.36747342348098755,-0.04841088503599167,0.6901705861091614,0.39704394340515137,-0.054243799299001694,0.7675046920776367,0.5458789467811584,-0.007627606857568026,0.7575374245643616,0.4231715202331543,-0.0449034683406353,0.7366957068443298,0.49808552861213684,-0.04659586027264595,0.7298682928085327,0.5757220387458801,-0.035223860293626785,0.7997376322746277,0.5767320990562439,-0.025163229554891586,0.7723434567451477,0.5000519752502441,-0.05128325894474983,0.7583152651786804,0.5631378293037415,-0.04794470965862274,0.759662389755249,0.6270871758460999,-0.037621669471263885,0.0,0.0,0.0,0.0,0.0,0.0,0.0,0.0,0.0,0.0,0.0,0.0,0.0,0.0,0.0,0.0,0.0,0.0,0.0,0.0,0.0,0.0,0.0,0.0,0.0,0.0,0.0,0.0,0.0,0.0,0.0,0.0,0.0,0.0,0.0,0.0,0.0,0.0,0.0,0.0,0.0,0.0,0.0,0.0,0.0,0.0,0.0,0.0,0.0,0.0,0.0,0.0,0.0,0.0,0.0,0.0,0.0,0.0,0.0,0.0,0.0,0.0,0.0
1784047756.575511,0.7556871175765991,0.8095995187759399,-1.2869920240632382e-08,0.7013804912567139,0.7506197690963745,-0.006461007986217737,0.6719890832901001,0.6307570338249207,-0.010632142424583435,0.678585946559906,0.5260607004165649,-0.020872537046670914,0.7105484008789062,0.4641345739364624,-0.029922673478722572,0.7071022987365723,0.5291992425918579,0.02088664472103119,0.7055609822273254,0.4254021644592285,-0.0035550931934267282,0.6908277273178101,0.3814472556114197,-0.023047415539622307,0.6745936870574951,0.3789564371109009,-0.03362520784139633,0.7386606931686401,0.5291038751602173,0.008376719430088997,0.744745671749115,0.3892378807067871,-0.026836317032575607,0.716148853302002,0.3677673637866974,-0.04854355752468109,0.6914357542991638,0.39693668484687805,-0.054239220917224884,0.768708348274231,0.5471711158752441,-0.008315439336001873,0.758015513420105,0.42546647787094116,-0.04557120054960251,0.7372807264328003,0.5004855394363403,-0.04740029200911522,0.7302955985069275,0.5779056549072266,-0.03606712445616722,0.8010197877883911,0.5786952376365662,-0.025774026289582253,0.7728577852249146,0.50286465883255,-0.0521053820848465,0.7588156461715698,0.5668126940727234,-0.04867875948548317,0.7601931095123291,0.6307925581932068,-0.03821088746190071,0.0,0.0,0.0,0.0,0.0,0.0,0.0,0.0,0.0,0.0,0.0,0.0,0.0,0.0,0.0,0.0,0.0,0.0,0.0,0.0,0.0,0.0,0.0,0.0,0.0,0.0,0.0,0.0,0.0,0.0,0.0,0.0,0.0,0.0,0.0,0.0,0.0,0.0,0.0,0.0,0.0,0.0,0.0,0.0,0.0,0.0,0.0,0.0,0.0,0.0,0.0,0.0,0.0,0.0,0.0,0.0,0.0,0.0,0.0,0.0,0.0,0.0,0.0
