ciel274/research-hand-sign/data/raw/hiragana/sign_language_u_1.csv
timestamp,R_joint_0_x,R_joint_0_y,R_joint_0_z,R_joint_1_x,R_joint_1_y,R_joint_1_z,R_joint_2_x,R_joint_2_y,R_joint_2_z,R_joint_3_x,R_joint_3_y,R_joint_3_z,R_joint_4_x,R_joint_4_y,R_joint_4_z,R_joint_5_x,R_joint_5_y,R_joint_5_z,R_joint_6_x,R_joint_6_y,R_joint_6_z,R_joint_7_x,R_joint_7_y,R_joint_7_z,R_joint_8_x,R_joint_8_y,R_joint_8_z,R_joint_9_x,R_joint_9_y,R_joint_9_z,R_joint_10_x,R_joint_10_y,R_joint_10_z,R_joint_11_x,R_joint_11_y,R_joint_11_z,R_joint_12_x,R_joint_12_y,R_joint_12_z,R_joint_13_x,R_joint_13_y,R_joint_13_z,R_joint_14_x,R_joint_14_y,R_joint_14_z,R_joint_15_x,R_joint_15_y,R_joint_15_z,R_joint_16_x,R_joint_16_y,R_joint_16_z,R_joint_17_x,R_joint_17_y,R_joint_17_z,R_joint_18_x,R_joint_18_y,R_joint_18_z,R_joint_19_x,R_joint_19_y,R_joint_19_z,R_joint_20_x,R_joint_20_y,R_joint_20_z,L_joint_0_x,L_joint_0_y,L_joint_0_z,L_joint_1_x,L_joint_1_y,L_joint_1_z,L_joint_2_x,L_joint_2_y,L_joint_2_z,L_joint_3_x,L_joint_3_y,L_joint_3_z,L_joint_4_x,L_joint_4_y,L_joint_4_z,L_joint_5_x,L_joint_5_y,L_joint_5_z,L_joint_6_x,L_joint_6_y,L_joint_6_z,L_joint_7_x,L_joint_7_y,L_joint_7_z,L_joint_8_x,L_joint_8_y,L_joint_8_z,L_joint_9_x,L_joint_9_y,L_joint_9_z,L_joint_10_x,L_joint_10_y,L_joint_10_z,L_joint_11_x,L_joint_11_y,L_joint_11_z,L_joint_12_x,L_joint_12_y,L_joint_12_z,L_joint_13_x,L_joint_13_y,L_joint_13_z,L_joint_14_x,L_joint_14_y,L_joint_14_z,L_joint_15_x,L_joint_15_y,L_joint_15_z,L_joint_16_x,L_joint_16_y,L_joint_16_z,L_joint_17_x,L_joint_17_y,L_joint_17_z,L_joint_18_x,L_joint_18_y,L_joint_18_z,L_joint_19_x,L_joint_19_y,L_joint_19_z,L_joint_20_x,L_joint_20_y,L_joint_20_z
1783345071.388797,0.6967996954917908,0.7954801321029663,3.097992475886713e-07,0.6558448076248169,0.7471821904182434,-0.011554758995771408,0.6354950070381165,0.6679617166519165,-0.018743475899100304,0.6457239389419556,0.5917098522186279,-0.02963319979608059,0.6731982827186584,0.548465371131897,-0.03984376788139343,0.6496526002883911,0.5783988833427429,0.0007664667791686952,0.6394028067588806,0.4846044182777405,-0.014120289124548435,0.6374885439872742,0.4296689033508301,-0.025860005989670753,0.6391675472259521,0.38172778487205505,-0.03457702696323395,0.6746391654014587,0.5723052024841309,-0.0058631571009755135,0.6647058129310608,0.4649755656719208,-0.022720010951161385,0.6586129665374756,0.40539899468421936,-0.036123450845479965,0.6588387489318848,0.3553008437156677,-0.04504411295056343,0.6992806792259216,0.5864049196243286,-0.015251418575644493,0.6964460611343384,0.49040886759757996,-0.03832119703292847,0.6793062090873718,0.5409872531890869,-0.04228252172470093,0.6710139513015747,0.593758225440979,-0.03919566422700882,0.7232264876365662,0.6130381226539612,-0.02598724327981472,0.7107635140419006,0.5549495220184326,-0.04374627768993378,0.6936624050140381,0.5797281265258789,-0.04526156932115555,0.6835084557533264,0.6150215864181519,-0.042852774262428284,0.0,0.0,0.0,0.0,0.0,0.0,0.0,0.0,0.0,0.0,0.0,0.0,0.0,0.0,0.0,0.0,0.0,0.0,0.0,0.0,0.0,0.0,0.0,0.0,0.0,0.0,0.0,0.0,0.0,0.0,0.0,0.0,0.0,0.0,0.0,0.0,0.0,0.0,0.0,0.0,0.0,0.0,0.0,0.0,0.0,0.0,0.0,0.0,0.0,0.0,0.0,0.0,0.0,0.0,0.0,0.0,0.0,0.0,0.0,0.0,0.0,0.0,0.0
1783345071.654628,0.6967588067054749,0.7961524724960327,3.075910797178949e-07,0.6565166115760803,0.7474848628044128,-0.01122463308274746,0.6358447074890137,0.6684679985046387,-0.018297066912055016,0.6457834839820862,0.5927026867866516,-0.02912077121436596,0.6731830835342407,0.5483450889587402,-0.03928147628903389,0.650131106376648,0.576451301574707,0.0015195152955129743,0.6399716138839722,0.48421862721443176,-0.01267397403717041,0.6378355026245117,0.4302879869937897,-0.024220434948801994,0.6390930414199829,0.3826114237308502,-0.03291302174329758,0.6750147938728333,0.5709750652313232,-0.005210224073380232,0.6656458973884583,0.4653843343257904,-0.021072780713438988,0.659284234046936,0.4063003957271576,-0.03424639254808426,0.6586360335350037,0.35567787289619446,-0.043228115886449814,0.699617326259613,0.5857036113739014,-0.0147214001044631,0.6967231035232544,0.4918326735496521,-0.03715597838163376,0.6789310574531555,0.5406871438026428,-0.04212025925517082,0.6696189641952515,0.5926013588905334,-0.03997787833213806,0.7232503294944763,0.6129459738731384,-0.025511572137475014,0.7115535140037537,0.5535301566123962,-0.04301043227314949,0.6936808228492737,0.5780400633811951,-0.0451262965798378,0.6821194291114807,0.6143330931663513,-0.04333249852061272,0.0,0.0,0.0,0.0,0.0,0.0,0.0,0.0,0.0,0.0,0.0,0.0,0.0,0.0,0.0,0.0,0.0,0.0,0.0,0.0,0.0,0.0,0.0,0.0,0.0,0.0,0.0,0.0,0.0,0.0,0.0,0.0,0.0,0.0,0.0,0.0,0.0,0.0,0.0,0.0,0.0,0.0,0.0,0.0,0.0,0.0,0.0,0.0,0.0,0.0,0.0,0.0,0.0,0.0,0.0,0.0,0.0,0.0,0.0,0.0,0.0,0.0,0.0
1783345071.823333,0.6968379616737366,0.7942735552787781,3.123405463156814e-07,0.6563476324081421,0.7463268041610718,-0.011111446656286716,0.6362929940223694,0.6664329171180725,-0.017901642248034477,0.6465219855308533,0.5909674167633057,-0.028664061799645424,0.6742292046546936,0.5479394793510437,-0.03884199634194374,0.6506882905960083,0.5739503502845764,0.003040251787751913,0.6402099132537842,0.4821355640888214,-0.010524691082537174,0.6377612948417664,0.4281758964061737,-0.021459432318806648,0.638739824295044,0.3803374171257019,-0.029691671952605247,0.6754489541053772,0.5682344436645508,-0.003793749026954174,0.6662315726280212,0.46292644739151,-0.019524775445461273,0.6593943238258362,0.40418800711631775,-0.032448071986436844,0.6581853032112122,0.3545093238353729,-0.04095007851719856,0.6998252868652344,0.5826976895332336,-0.013519101776182652,0.6950295567512512,0.4888450503349304,-0.03659394383430481,0.6778782606124878,0.5389204025268555,-0.041878800839185715,0.6699114441871643,0.5909425616264343,-0.03947710245847702,0.7234185934066772,0.6091640591621399,-0.024442080408334732,0.7104367017745972,0.5482998490333557,-0.04220406338572502,0.6930730938911438,0.5752403140068054,-0.04423810541629791,0.6829995512962341,0.6137623190879822,-0.04215748608112335,0.0,0.0,0.0,0.0,0.0,0.0,0.0,0.0,0.0,0.0,0.0,0.0,0.0,0.0,0.0,0.0,0.0,0.0,0.0,0.0,0.0,0.0,0.0,0.0,0.0,0.0,0.0,0.0,0.0,0.0,0.0,0.0,0.0,0.0,0.0,0.0,0.0,0.0,0.0,0.0,0.0,0.0,0.0,0.0,0.0,0.0,0.0,0.0,0.0,0.0,0.0,0.0,0.0,0.0,0.0,0.0,0.0,0.0,0.0,0.0,0.0,0.0,0.0
1783345072.000753,0.6970194578170776,0.7938004732131958,2.9610362162202364e-07,0.6567947864532471,0.7474805116653442,-0.012145076878368855,0.6364036202430725,0.6674438118934631,-0.019159283488988876,0.6458519697189331,0.5913872718811035,-0.029818253591656685,0.6729466915130615,0.5477039813995361,-0.03975701332092285,0.6496156454086304,0.5760568976402283,0.002615982433781028,0.6390166878700256,0.48431679606437683,-0.011193721555173397,0.636414110660553,0.43087252974510193,-0.02221989817917347,0.6374812722206116,0.38413745164871216,-0.030582677572965622,0.6741356253623962,0.5699652433395386,-0.0034718371462076902,0.6639429926872253,0.46546685695648193,-0.019887618720531464,0.6568505764007568,0.4077873229980469,-0.03367958217859268,0.6556920409202576,0.3590109944343567,-0.0428629033267498,0.6983870267868042,0.5837076902389526,-0.01248759776353836,0.6949954628944397,0.4874633550643921,-0.03639009967446327,0.6786838173866272,0.5385249257087708,-0.042455192655324936,0.6708403825759888,0.5918748378753662,-0.0405484139919281,0.7226114869117737,0.6095984578132629,-0.02270091138780117,0.7095068693161011,0.5517367720603943,-0.04158962517976761,0.6933512091636658,0.5775023102760315,-0.04475534334778786,0.684411346912384,0.6142858862876892,-0.04337387904524803,0.0,0.0,0.0,0.0,0.0,0.0,0.0,0.0,0.0,0.0,0.0,0.0,0.0,0.0,0.0,0.0,0.0,0.0,0.0,0.0,0.0,0.0,0.0,0.0,0.0,0.0,0.0,0.0,0.0,0.0,0.0,0.0,0.0,0.0,0.0,0.0,0.0,0.0,0.0,0.0,0.0,0.0,0.0,0.0,0.0,0.0,0.0,0.0,0.0,0.0,0.0,0.0,0.0,0.0,0.0,0.0,0.0,0.0,0.0,0.0,0.0,0.0,0.0
1783345072.1966121,0.6967289447784424,0.7928665280342102,3.0066544809415063e-07,0.6565095782279968,0.7457481026649475,-0.01190061867237091,0.63641357421875,0.6664252281188965,-0.018833406269550323,0.6468503475189209,0.5911791324615479,-0.02937307395040989,0.6738607883453369,0.54712975025177,-0.039304859936237335,0.6491032242774963,0.5763350129127502,0.00225183111615479,0.6379719972610474,0.4850504994392395,-0.011561253108084202,0.6351275444030762,0.4309599697589874,-0.022886257618665695,0.6359624266624451,0.38363897800445557,-0.031466539949178696,0.6739935874938965,0.570478081703186,-0.003954288549721241,0.6636971235275269,0.46672457456588745,-0.02007807418704033,0.6565402746200562,0.40860795974731445,-0.03392735496163368,0.6553019285202026,0.3594111204147339,-0.043289683759212494,0.6985294818878174,0.5844445824623108,-0.01304501760751009,0.6953282952308655,0.49029621481895447,-0.036153778433799744,0.6787718534469604,0.5383163690567017,-0.04257524013519287,0.6707333922386169,0.5897767543792725,-0.04127422347664833,0.7225712537765503,0.6101634502410889,-0.023358158767223358,0.7103115320205688,0.5520787835121155,-0.04149683192372322,0.6933438181877136,0.5765198469161987,-0.04470394551753998,0.6832264065742493,0.6125493049621582,-0.04365648329257965,0.0,0.0,0.0,0.0,0.0,0.0,0.0,0.0,0.0,0.0,0.0,0.0,0.0,0.0,0.0,0.0,0.0,0.0,0.0,0.0,0.0,0.0,0.0,0.0,0.0,0.0,0.0,0.0,0.0,0.0,0.0,0.0,0.0,0.0,0.0,0.0,0.0,0.0,0.0,0.0,0.0,0.0,0.0,0.0,0.0,0.0,0.0,0.0,0.0,0.0,0.0,0.0,0.0,0.0,0.0,0.0,0.0,0.0,0.0,0.0,0.0,0.0,0.0
1783345072.325879,0.6968706846237183,0.7921236157417297,3.044372647309501e-07,0.6567185521125793,0.7445704936981201,-0.011257044970989227,0.6370847821235657,0.664944589138031,-0.01776720955967903,0.6474705934524536,0.5905099511146545,-0.028171725571155548,0.673701822757721,0.546992301940918,-0.03807072341442108,0.6502246856689453,0.5746588706970215,0.00393510889261961,0.638801634311676,0.48362913727760315,-0.009326236322522163,0.6357897520065308,0.429656445980072,-0.020365122705698013,0.6364986896514893,0.38223615288734436,-0.028832003474235535,0.674968421459198,0.5686339139938354,-0.0027771536260843277,0.6643254160881042,0.4651588201522827,-0.01864643022418022,0.6569849252700806,0.4067182242870331,-0.03264930471777916,0.6555190682411194,0.3577550947666168,-0.04208695888519287,0.6993946433067322,0.5824803113937378,-0.012447775341570377,0.6953247785568237,0.4883023202419281,-0.03585633635520935,0.678037166595459,0.5359036326408386,-0.04328635707497597,0.6696773767471313,0.5875235795974731,-0.04257853329181671,0.7230963706970215,0.607799768447876,-0.02323795296251774,0.7103930115699768,0.5491161942481995,-0.04194852337241173,0.6930578351020813,0.574230968952179,-0.04594120755791664,0.6829276084899902,0.6113916039466858,-0.045392706990242004,0.0,0.0,0.0,0.0,0.0,0.0,0.0,0.0,0.0,0.0,0.0,0.0,0.0,0.0,0.0,0.0,0.0,0.0,0.0,0.0,0.0,0.0,0.0,0.0,0.0,0.0,0.0,0.0,0.0,0.0,0.0,0.0,0.0,0.0,0.0,0.0,0.0,0.0,0.0,0.0,0.0,0.0,0.0,0.0,0.0,0.0,0.0,0.0,0.0,0.0,0.0,0.0,0.0,0.0,0.0,0.0,0.0,0.0,0.0,0.0,0.0,0.0,0.0
1783345072.4930549,0.6970102787017822,0.7908324599266052,3.0689403729411424e-07,0.6569487452507019,0.7438977956771851,-0.012177332304418087,0.6373234391212463,0.6647834181785583,-0.01904446631669998,0.6469424366950989,0.588709831237793,-0.029696451500058174,0.6743040680885315,0.5447342991828918,-0.03961561620235443,0.6500343680381775,0.5747109055519104,0.0040323552675545216,0.6381076574325562,0.4826839864253998,-0.00918551068753004,0.6349824070930481,0.42874738574028015,-0.019845835864543915,0.6358579993247986,0.38176602125167847,-0.0279272198677063,0.6746139526367188,0.5684990286827087,-0.0021065338514745235,0.663866400718689,0.4638020992279053,-0.01826299913227558,0.6565737128257751,0.40536820888519287,-0.03220142051577568,0.6555261611938477,0.3567376136779785,-0.041402868926525116,0.6986953020095825,0.5818438529968262,-0.011303986422717571,0.6948294043540955,0.4860348403453827,-0.035173553973436356,0.6784220337867737,0.5357659459114075,-0.04201183840632439,0.6710565090179443,0.5887047052383423,-0.04052979126572609,0.722474217414856,0.6062015891075134,-0.021686172112822533,0.7095838189125061,0.5464491248130798,-0.04034898057579994,0.6930130124092102,0.5731940269470215,-0.04378712549805641,0.6837561130523682,0.6119817495346069,-0.04264722764492035,0.0,0.0,0.0,0.0,0.0,0.0,0.0,0.0,0.0,0.0,0.0,0.0,0.0,0.0,0.0,0.0,0.0,0.0,0.0,0.0,0.0,0.0,0.0,0.0,0.0,0.0,0.0,0.0,0.0,0.0,0.0,0.0,0.0,0.0,0.0,0.0,0.0,0.0,0.0,0.0,0.0,0.0,0.0,0.0,0.0,0.0,0.0,0.0,0.0,0.0,0.0,0.0,0.0,0.0,0.0,0.0,0.0,0.0,0.0,0.0,0.0,0.0,0.0
1783345072.6422641,0.6971626281738281,0.7904050350189209,3.0810079465481977e-07,0.6569833159446716,0.7436834573745728,-0.012132219970226288,0.6372071504592896,0.6640774011611938,-0.01888101175427437,0.6472674012184143,0.5878319144248962,-0.029318520799279213,0.6742307543754578,0.5435154438018799,-0.038984596729278564,0.6498337984085083,0.5736847519874573,0.003981899935752153,0.6380001902580261,0.48176926374435425,-0.009043147787451744,0.6346966624259949,0.4279440641403198,-0.01963328942656517,0.635186493396759,0.3813030421733856,-0.027745388448238373,0.6745164394378662,0.5675397515296936,-0.0020569125190377235,0.6640123128890991,0.46328261494636536,-0.01804378628730774,0.6566610932350159,0.4049338400363922,-0.031941261142492294,0.6554391384124756,0.3566116988658905,-0.04118701443076134,0.6987500786781311,0.581341564655304,-0.011130604892969131,0.6950151324272156,0.48546573519706726,-0.034697409719228745,0.678625762462616,0.5347654223442078,-0.0415596179664135,0.6711426377296448,0.5874168276786804,-0.04026485234498978,0.7227368950843811,0.6062136292457581,-0.021386584267020226,0.7098502516746521,0.5480261445045471,-0.04008851200342178,0.6932590007781982,0.5735786557197571,-0.04377073422074318,0.683968722820282,0.6107463240623474,-0.042848773300647736,0.0,0.0,0.0,0.0,0.0,0.0,0.0,0.0,0.0,0.0,0.0,0.0,0.0,0.0,0.0,0.0,0.0,0.0,0.0,0.0,0.0,0.0,0.0,0.0,0.0,0.0,0.0,0.0,0.0,0.0,0.0,0.0,0.0,0.0,0.0,0.0,0.0,0.0,0.0,0.0,0.0,0.0,0.0,0.0,0.0,0.0,0.0,0.0,0.0,0.0,0.0,0.0,0.0,0.0,0.0,0.0,0.0,0.0,0.0,0.0,0.0,0.0,0.0
1783345072.7940109,0.6972434520721436,0.7895480990409851,3.090667348715215e-07,0.6569095253944397,0.742672860622406,-0.012075617909431458,0.636992335319519,0.663322925567627,-0.018893901258707047,0.647195041179657,0.5875235199928284,-0.029406951740384102,0.6744073033332825,0.543938159942627,-0.03916667029261589,0.6495882868766785,0.5720920562744141,0.0036676214076578617,0.6379029154777527,0.4807644486427307,-0.00954935047775507,0.6348435878753662,0.4270860552787781,-0.020282957702875137,0.6355341076850891,0.3806740939617157,-0.02846432663500309,0.6744018197059631,0.5659010410308838,-0.0024390784092247486,0.6639864444732666,0.46235936880111694,-0.0184523593634367,0.656635046005249,0.40448495745658875,-0.03224629908800125,0.6553463339805603,0.35656851530075073,-0.04140569642186165,0.6986973881721497,0.5800364017486572,-0.011571972630918026,0.6949847340583801,0.4849231243133545,-0.03503093868494034,0.6788614988327026,0.5343378782272339,-0.041720613837242126,0.6714620590209961,0.5867210626602173,-0.04034622758626938,0.7226913571357727,0.6057508587837219,-0.021904055029153824,0.7100459933280945,0.547829806804657,-0.04051048308610916,0.6934544444084167,0.5735092163085938,-0.0440795011818409,0.6839540600776672,0.6105935573577881,-0.04308353736996651,0.0,0.0,0.0,0.0,0.0,0.0,0.0,0.0,0.0,0.0,0.0,0.0,0.0,0.0,0.0,0.0,0.0,0.0,0.0,0.0,0.0,0.0,0.0,0.0,0.0,0.0,0.0,0.0,0.0,0.0,0.0,0.0,0.0,0.0,0.0,0.0,0.0,0.0,0.0,0.0,0.0,0.0,0.0,0.0,0.0,0.0,0.0,0.0,0.0,0.0,0.0,0.0,0.0,0.0,0.0,0.0,0.0,0.0,0.0,0.0,0.0,0.0,0.0
1783345072.959784,0.6974007487297058,0.7906529903411865,2.975450286157866e-07,0.6576147079467773,0.7443543076515198,-0.012716204859316349,0.6373299360275269,0.6656238436698914,-0.020027825608849525,0.6472781300544739,0.5901175737380981,-0.030725698918104172,0.6736707091331482,0.5457147359848022,-0.04073740914463997,0.649156391620636,0.5734418630599976,0.0018277770141139627,0.6377401947975159,0.4823879897594452,-0.012088824063539505,0.6348676681518555,0.42859864234924316,-0.023547152057290077,0.6357377767562866,0.3815159797668457,-0.03233548626303673,0.6740686893463135,0.5671963095664978,-0.004060535691678524,0.663213849067688,0.4643462002277374,-0.02036571502685547,0.655856728553772,0.40701937675476074,-0.03469379246234894,0.6544240713119507,0.3583330512046814,-0.04450325295329094,0.6987801194190979,0.5811307430267334,-0.012897888198494911,0.6959418654441833,0.4870070219039917,-0.03638980910181999,0.6793229579925537,0.5346762537956238,-0.0435577854514122,0.6707356572151184,0.5859736800193787,-0.042873091995716095,0.7232229709625244,0.607401430606842,-0.022968288511037827,0.7109875082969666,0.5507625937461853,-0.041785988956689835,0.6948327422142029,0.5756812691688538,-0.04567541554570198,0.6852844953536987,0.6117969155311584,-0.04509469494223595,0.0,0.0,0.0,0.0,0.0,0.0,0.0,0.0,0.0,0.0,0.0,0.0,0.0,0.0,0.0,0.0,0.0,0.0,0.0,0.0,0.0,0.0,0.0,0.0,0.0,0.0,0.0,0.0,0.0,0.0,0.0,0.0,0.0,0.0,0.0,0.0,0.0,0.0,0.0,0.0,0.0,0.0,0.0,0.0,0.0,0.0,0.0,0.0,0.0,0.0,0.0,0.0,0.0,0.0,0.0,0.0,0.0,0.0,0.0,0.0,0.0,0.0,0.0
1783345073.2960992,0.6975670456886292,0.7910841703414917,2.9932019174339075e-07,0.6576958894729614,0.7431089878082275,-0.011879279278218746,0.6379769444465637,0.6634477376937866,-0.018561119213700294,0.6494899988174438,0.5883490443229675,-0.0287825558334589,0.676082193851471,0.5446330904960632,-0.03839412331581116,0.6496144533157349,0.5736720561981201,0.0029731106478720903,0.6382845044136047,0.48355844616889954,-0.01048961654305458,0.6349328756332397,0.4295257031917572,-0.02172946371138096,0.635252058506012,0.382365882396698,-0.030350476503372192,0.6747259497642517,0.5673601627349854,-0.003160906955599785,0.6638952493667603,0.46508845686912537,-0.01905134506523609,0.6562877893447876,0.4074777364730835,-0.03310930356383324,0.6547181010246277,0.35842761397361755,-0.04263441637158394,0.6996530890464783,0.5811862945556641,-0.01219154056161642,0.6972112655639648,0.48962944746017456,-0.035192616283893585,0.6803373694419861,0.5373638272285461,-0.04193361476063728,0.6716631054878235,0.5880657434463501,-0.04090821370482445,0.7239181399345398,0.6072459816932678,-0.02242419309914112,0.7120264172554016,0.5514580011367798,-0.040678441524505615,0.6956754326820374,0.576378345489502,-0.044024135917425156,0.6859938502311707,0.6118847131729126,-0.04304982349276543,0.0,0.0,0.0,0.0,0.0,0.0,0.0,0.0,0.0,0.0,0.0,0.0,0.0,0.0,0.0,0.0,0.0,0.0,0.0,0.0,0.0,0.0,0.0,0.0,0.0,0.0,0.0,0.0,0.0,0.0,0.0,0.0,0.0,0.0,0.0,0.0,0.0,0.0,0.0,0.0,0.0,0.0,0.0,0.0,0.0,0.0,0.0,0.0,0.0,0.0,0.0,0.0,0.0,0.0,0.0,0.0,0.0,0.0,0.0,0.0,0.0,0.0,0.0
1783345073.567133,0.6969688534736633,0.7897838950157166,2.951331623535225e-07,0.6572667360305786,0.7423919439315796,-0.011546979658305645,0.6375772356987,0.6633343696594238,-0.01799364760518074,0.6482666730880737,0.5893023610115051,-0.02816079556941986,0.6754308938980103,0.5480948090553284,-0.037632569670677185,0.6500919461250305,0.5723673701286316,0.0036085881292819977,0.6381016969680786,0.48213332891464233,-0.009564881213009357,0.6344166398048401,0.429124116897583,-0.02023095078766346,0.6343780755996704,0.38325631618499756,-0.02845863439142704,0.6748011708259583,0.5660539269447327,-0.0027886987663805485,0.6636167168617249,0.4631992280483246,-0.019030677154660225,0.6557003259658813,0.40560680627822876,-0.03312583640217781,0.6539783477783203,0.3572350740432739,-0.04249691590666771,0.699369490146637,0.580005943775177,-0.012068571522831917,0.6960732340812683,0.48521509766578674,-0.03589900955557823,0.6802855134010315,0.5353118181228638,-0.04253990948200226,0.6729264855384827,0.5878946781158447,-0.041027672588825226,0.7237390279769897,0.6061179637908936,-0.022471122443675995,0.7108575701713562,0.550698459148407,-0.0415126197040081,0.6944792866706848,0.5765031576156616,-0.04509201645851135,0.6853923797607422,0.612619936466217,-0.04398975521326065,0.0,0.0,0.0,0.0,0.0,0.0,0.0,0.0,0.0,0.0,0.0,0.0,0.0,0.0,0.0,0.0,0.0,0.0,0.0,0.0,0.0,0.0,0.0,0.0,0.0,0.0,0.0,0.0,0.0,0.0,0.0,0.0,0.0,0.0,0.0,0.0,0.0,0.0,0.0,0.0,0.0,0.0,0.0,0.0,0.0,0.0,0.0,0.0,0.0,0.0,0.0,0.0,0.0,0.0,0.0,0.0,0.0,0.0,0.0,0.0,0.0,0.0,0.0
1783345073.784511,0.6967604756355286,0.79215008020401,2.8998536549806886e-07,0.6543834209442139,0.7488160729408264,-0.010391145013272762,0.6311467885971069,0.6714302897453308,-0.01744993031024933,0.6347450017929077,0.5963985919952393,-0.02831963077187538,0.6605365872383118,0.5547286868095398,-0.038643304258584976,0.6479466557502747,0.5773422122001648,-0.0011968952603638172,0.6359548568725586,0.4840752184391022,-0.01633489318192005,0.6315259337425232,0.4310334324836731,-0.027515893802046776,0.6310014128684998,0.38397783041000366,-0.03598475828766823,0.6718672513961792,0.5707692503929138,-0.009001721628010273,0.6609182953834534,0.46151041984558105,-0.026923716068267822,0.653089702129364,0.40126559138298035,-0.04072277247905731,0.6507217288017273,0.35054096579551697,-0.04968196526169777,0.6966637372970581,0.5844017863273621,-0.019153283908963203,0.6879739165306091,0.485764741897583,-0.04487389326095581,0.6694719195365906,0.5429717898368835,-0.04904209449887276,0.6606158018112183,0.5985906720161438,-0.04534120857715607,0.7198854684829712,0.6112059354782104,-0.030194226652383804,0.6978276371955872,0.5554583668708801,-0.051263343542814255,0.6797486543655396,0.5861319303512573,-0.05350644513964653,0.6708373427391052,0.6235504746437073,-0.05085005611181259,0.0,0.0,0.0,0.0,0.0,0.0,0.0,0.0,0.0,0.0,0.0,0.0,0.0,0.0,0.0,0.0,0.0,0.0,0.0,0.0,0.0,0.0,0.0,0.0,0.0,0.0,0.0,0.0,0.0,0.0,0.0,0.0,0.0,0.0,0.0,0.0,0.0,0.0,0.0,0.0,0.0,0.0,0.0,0.0,0.0,0.0,0.0,0.0,0.0,0.0,0.0,0.0,0.0,0.0,0.0,0.0,0.0,0.0,0.0,0.0,0.0,0.0,0.0
1783345074.033578,0.6961235404014587,0.7888434529304504,3.219431050638377e-07,0.6521373391151428,0.74849534034729,-0.008549312129616737,0.6270017027854919,0.6725924611091614,-0.01594613306224346,0.6242531538009644,0.5977391600608826,-0.02774878218770027,0.6479364633560181,0.5545912981033325,-0.039097514003515244,0.6467607021331787,0.5733148455619812,-0.000909233873244375,0.6357070207595825,0.47982606291770935,-0.016636023297905922,0.6318607330322266,0.42523854970932007,-0.02797720395028591,0.6325412392616272,0.37737327814102173,-0.03639882802963257,0.6701741814613342,0.5673255920410156,-0.01032946351915598,0.6601237058639526,0.45480605959892273,-0.02885030023753643,0.6524888277053833,0.3925328254699707,-0.04211793467402458,0.6500260829925537,0.3424941301345825,-0.05037132650613785,0.6950773000717163,0.5813915133476257,-0.022007474675774574,0.6806452870368958,0.4835022985935211,-0.04782465100288391,0.6602595448493958,0.5407846570014954,-0.05079597234725952,0.6511380672454834,0.5964885354042053,-0.046224821358919144,0.7177372574806213,0.6087015271186829,-0.03445623815059662,0.6871517300605774,0.5555774569511414,-0.05503072962164879,0.6668410897254944,0.5880088210105896,-0.05631924048066139,0.6574559211730957,0.6245840191841125,-0.05307096242904663,0.0,0.0,0.0,0.0,0.0,0.0,0.0,0.0,0.0,0.0,0.0,0.0,0.0,0.0,0.0,0.0,0.0,0.0,0.0,0.0,0.0,0.0,0.0,0.0,0.0,0.0,0.0,0.0,0.0,0.0,0.0,0.0,0.0,0.0,0.0,0.0,0.0,0.0,0.0,0.0,0.0,0.0,0.0,0.0,0.0,0.0,0.0,0.0,0.0,0.0,0.0,0.0,0.0,0.0,0.0,0.0,0.0,0.0,0.0,0.0,0.0,0.0,0.0
1783345074.1892369,0.6998723149299622,0.7876222133636475,3.7857751067349454e-07,0.6531609296798706,0.7456287741661072,-0.00722522335126996,0.6264578700065613,0.6684067845344543,-0.015247249975800514,0.6153964996337891,0.598999559879303,-0.0285657849162817,0.6336546540260315,0.5630702376365662,-0.04123867675662041,0.6510583162307739,0.5650349259376526,-1.4852349522698205e-05,0.6404479146003723,0.4733809530735016,-0.01544039323925972,0.6371415257453918,0.4192304015159607,-0.0258316807448864,0.6385712623596191,0.3712228238582611,-0.033787764608860016,0.6749404072761536,0.5616177320480347,-0.011268620379269123,0.66578209400177,0.44661182165145874,-0.030894752591848373,0.6589726209640503,0.38087791204452515,-0.044440265744924545,0.6571347713470459,0.3293832242488861,-0.052855800837278366,0.6985616087913513,0.577376127243042,-0.02479097619652748,0.6759953498840332,0.4796382188796997,-0.051647063344717026,0.650860071182251,0.5374470949172974,-0.05436460301280022,0.6383436322212219,0.5934923887252808,-0.04949045181274414,0.7183451056480408,0.6065607666969299,-0.03904639184474945,0.6795143485069275,0.5542521476745605,-0.05975651741027832,0.6556554436683655,0.5875829458236694,-0.06125315651297569,0.643291175365448,0.6246007680892944,-0.05838560312986374,0.0,0.0,0.0,0.0,0.0,0.0,0.0,0.0,0.0,0.0,0.0,0.0,0.0,0.0,0.0,0.0,0.0,0.0,0.0,0.0,0.0,0.0,0.0,0.0,0.0,0.0,0.0,0.0,0.0,0.0,0.0,0.0,0.0,0.0,0.0,0.0,0.0,0.0,0.0,0.0,0.0,0.0,0.0,0.0,0.0,0.0,0.0,0.0,0.0,0.0,0.0,0.0,0.0,0.0,0.0,0.0,0.0,0.0,0.0,0.0,0.0,0.0,0.0
1783345074.384535,0.702524721622467,0.7850092053413391,3.676880737657484e-07,0.6544018983840942,0.7381991744041443,-0.00602614926174283,0.6267533302307129,0.6650382876396179,-0.014724585227668285,0.6125844717025757,0.5992568135261536,-0.02914300002157688,0.6285474300384521,0.5594456791877747,-0.04263608157634735,0.652397871017456,0.5630500316619873,0.0010511181317269802,0.6416131854057312,0.47061049938201904,-0.014080816879868507,0.6379585266113281,0.41760945320129395,-0.023694099858403206,0.6395629644393921,0.37078791856765747,-0.030933445319533348,0.6763770580291748,0.5598815083503723,-0.010798344388604164,0.6663979291915894,0.445217490196228,-0.03008667379617691,0.6589834094047546,0.3806195855140686,-0.042810842394828796,0.6569349765777588,0.3288562297821045,-0.050709765404462814,0.6994430422782898,0.5743154287338257,-0.024925246834754944,0.6730351448059082,0.47835224866867065,-0.05081355571746826,0.6475481986999512,0.535854697227478,-0.05221616476774216,0.6353145241737366,0.5916914343833923,-0.046857018023729324,0.7179287075996399,0.6018288731575012,-0.03985334187746048,0.6753647923469543,0.554277241230011,-0.05972239375114441,0.650788426399231,0.5864565968513489,-0.060797493904829025,0.6384567022323608,0.6212568283081055,-0.057881444692611694,0.0,0.0,0.0,0.0,0.0,0.0,0.0,0.0,0.0,0.0,0.0,0.0,0.0,0.0,0.0,0.0,0.0,0.0,0.0,0.0,0.0,0.0,0.0,0.0,0.0,0.0,0.0,0.0,0.0,0.0,0.0,0.0,0.0,0.0,0.0,0.0,0.0,0.0,0.0,0.0,0.0,0.0,0.0,0.0,0.0,0.0,0.0,0.0,0.0,0.0,0.0,0.0,0.0,0.0,0.0,0.0,0.0,0.0,0.0,0.0,0.0,0.0,0.0
1783345074.525283,0.7069299817085266,0.7756940722465515,4.0878947515921027e-07,0.6573193073272705,0.7290579676628113,-0.006222177762538195,0.630335807800293,0.6584535241127014,-0.014832119457423687,0.6138121485710144,0.5984246134757996,-0.0287935733795166,0.6195695400238037,0.5572530627250671,-0.041509028524160385,0.6550264954566956,0.5551199913024902,-5.819810030516237e-05,0.6442463397979736,0.4617998003959656,-0.015330314636230469,0.6414608955383301,0.4090085029602051,-0.02480398863554001,0.6438409090042114,0.3635844886302948,-0.03165781870484352,0.6784929037094116,0.5525016188621521,-0.011088955216109753,0.667354941368103,0.43829748034477234,-0.031407661736011505,0.6594757437705994,0.37417200207710266,-0.044947873800992966,0.6569631695747375,0.3224376440048218,-0.05311182513833046,0.6998470425605774,0.5657726526260376,-0.024268364533782005,0.6675741672515869,0.47510823607444763,-0.05061152204871178,0.6386767029762268,0.533205509185791,-0.05285892263054848,0.6240898370742798,0.5895487666130066,-0.04805097356438637,0.7144349813461304,0.5922619700431824,-0.03826163336634636,0.667754590511322,0.5537055134773254,-0.058684881776571274,0.6405028104782104,0.5837467312812805,-0.06125049293041229,0.6259451508522034,0.6146465539932251,-0.059300050139427185,0.0,0.0,0.0,0.0,0.0,0.0,0.0,0.0,0.0,0.0,0.0,0.0,0.0,0.0,0.0,0.0,0.0,0.0,0.0,0.0,0.0,0.0,0.0,0.0,0.0,0.0,0.0,0.0,0.0,0.0,0.0,0.0,0.0,0.0,0.0,0.0,0.0,0.0,0.0,0.0,0.0,0.0,0.0,0.0,0.0,0.0,0.0,0.0,0.0,0.0,0.0,0.0,0.0,0.0,0.0,0.0,0.0,0.0,0.0,0.0,0.0,0.0,0.0
1783345074.676511,0.7120173573493958,0.7725459933280945,4.2985502091141825e-07,0.657996654510498,0.7223506569862366,-0.0031741049606353045,0.6314650774002075,0.655877411365509,-0.011076954193413258,0.6136004328727722,0.6006616950035095,-0.025447433814406395,0.6158364415168762,0.5602053999900818,-0.03869740292429924,0.6586598753929138,0.5506168007850647,0.005728881806135178,0.6470193266868591,0.4590410888195038,-0.007769628893584013,0.6439494490623474,0.4052639305591583,-0.016754470765590668,0.6455432772636414,0.35932257771492004,-0.02344769984483719,0.6810912489891052,0.5495299696922302,-0.007244579493999481,0.668838620185852,0.4399245083332062,-0.026788782328367233,0.661125898361206,0.3755582571029663,-0.040559519082307816,0.6580540537834167,0.32346636056900024,-0.04898906871676445,0.7004683613777161,0.5628544092178345,-0.02241525426506996,0.664648175239563,0.47545456886291504,-0.047402430325746536,0.6366798281669617,0.5309740304946899,-0.04948673024773598,0.6230807900428772,0.5854060053825378,-0.044944990426301956,0.7116754651069641,0.5885741114616394,-0.038396190851926804,0.6640589237213135,0.5481770038604736,-0.056818000972270966,0.6362683773040771,0.5774334073066711,-0.05849083140492439,0.6210129261016846,0.6096868515014648,-0.05640903487801552,0.0,0.0,0.0,0.0,0.0,0.0,0.0,0.0,0.0,0.0,0.0,0.0,0.0,0.0,0.0,0.0,0.0,0.0,0.0,0.0,0.0,0.0,0.0,0.0,0.0,0.0,0.0,0.0,0.0,0.0,0.0,0.0,0.0,0.0,0.0,0.0,0.0,0.0,0.0,0.0,0.0,0.0,0.0,0.0,0.0,0.0,0.0,0.0,0.0,0.0,0.0,0.0,0.0,0.0,0.0,0.0,0.0,0.0,0.0,0.0,0.0,0.0,0.0
1783345074.7914329,0.7145930528640747,0.7704998850822449,4.210930057979567e-07,0.6617431044578552,0.7200347185134888,-0.0014373090816661716,0.6356975436210632,0.6586613655090332,-0.008696157485246658,0.6157761812210083,0.6096695065498352,-0.02282637357711792,0.6211895942687988,0.5759670734405518,-0.03594851493835449,0.6641455292701721,0.5483553409576416,0.009198819287121296,0.6507906913757324,0.46205011010169983,-0.0032961219549179077,0.646125316619873,0.40990808606147766,-0.012079643085598946,0.6464694738388062,0.36736661195755005,-0.019124703481793404,0.684681236743927,0.5452166199684143,-0.005103064235299826,0.6715012788772583,0.4383436441421509,-0.02457463927567005,0.6607524156570435,0.3753662407398224,-0.03937941789627075,0.6553617715835571,0.3265412151813507,-0.04854239895939827,0.701137900352478,0.5584942102432251,-0.0214909128844738,0.6625467538833618,0.47229325771331787,-0.04589816927909851,0.6354519128799438,0.5232135057449341,-0.04820206016302109,0.6227551698684692,0.5727007389068604,-0.04397977143526077,0.7091618776321411,0.5860376954078674,-0.03855780139565468,0.6582838892936707,0.5450965166091919,-0.05681359022855759,0.6348066926002502,0.5781595706939697,-0.05806409940123558,0.6247802972793579,0.6130569577217102,-0.055592019110918045,0.0,0.0,0.0,0.0,0.0,0.0,0.0,0.0,0.0,0.0,0.0,0.0,0.0,0.0,0.0,0.0,0.0,0.0,0.0,0.0,0.0,0.0,0.0,0.0,0.0,0.0,0.0,0.0,0.0,0.0,0.0,0.0,0.0,0.0,0.0,0.0,0.0,0.0,0.0,0.0,0.0,0.0,0.0,0.0,0.0,0.0,0.0,0.0,0.0,0.0,0.0,0.0,0.0,0.0,0.0,0.0,0.0,0.0,0.0,0.0,0.0,0.0,0.0
1783345074.9168692,0.7167350649833679,0.7691808938980103,3.9721606981402147e-07,0.6643233895301819,0.7168638110160828,0.00316300499252975,0.6382227540016174,0.6568701267242432,-0.0020099214743822813,0.6179874539375305,0.6088569164276123,-0.015306544490158558,0.622153639793396,0.5753182172775269,-0.027673205360770226,0.6668918132781982,0.5453564524650574,0.017414148896932602,0.6530529856681824,0.4630603492259979,0.007064902689307928,0.6477038264274597,0.4115527272224426,-0.0006779365940019488,0.6476647257804871,0.36972174048423767,-0.007335486356168985,0.6860666871070862,0.5406825542449951,0.0003600477648433298,0.6714811325073242,0.4373120367527008,-0.01698753610253334,0.6599593758583069,0.37402215600013733,-0.0308116152882576,0.6540635228157043,0.3259871304035187,-0.039542295038700104,0.7010897397994995,0.5531619191169739,-0.018912790343165398,0.6615188121795654,0.47102808952331543,-0.04187996685504913,0.6354297995567322,0.5199573040008545,-0.04375385493040085,0.6232141852378845,0.5673791170120239,-0.03951762244105339,0.7084881663322449,0.5809618234634399,-0.03868737816810608,0.6573701500892639,0.5403615832328796,-0.05604221299290657,0.6355010271072388,0.5731706023216248,-0.0568801574409008,0.6258335709571838,0.6089088916778564,-0.05425650626420975,0.0,0.0,0.0,0.0,0.0,0.0,0.0,0.0,0.0,0.0,0.0,0.0,0.0,0.0,0.0,0.0,0.0,0.0,0.0,0.0,0.0,0.0,0.0,0.0,0.0,0.0,0.0,0.0,0.0,0.0,0.0,0.0,0.0,0.0,0.0,0.0,0.0,0.0,0.0,0.0,0.0,0.0,0.0,0.0,0.0,0.0,0.0,0.0,0.0,0.0,0.0,0.0,0.0,0.0,0.0,0.0,0.0,0.0,0.0,0.0,0.0,0.0,0.0
1783345075.069841,0.7209451198577881,0.7661626935005188,3.8349776332324836e-07,0.6675269603729248,0.711995542049408,0.00393435126170516,0.6419377326965332,0.6517878174781799,-0.0009322718833573163,0.6215601563453674,0.6060636639595032,-0.013647736981511116,0.6198486685752869,0.5775334239006042,-0.02544715628027916,0.6730343103408813,0.5396180152893066,0.015285175293684006,0.657911479473114,0.46009740233421326,0.004981480538845062,0.6520461440086365,0.4093182682991028,-0.0028024145867675543,0.6516191959381104,0.3668071925640106,-0.009333956986665726,0.6903089284896851,0.534792959690094,-0.0014154133386909962,0.671249508857727,0.43492475152015686,-0.017740601673722267,0.659165620803833,0.3720613121986389,-0.030628463253378868,0.6536128520965576,0.32486870884895325,-0.03899550437927246,0.7027081847190857,0.5482085347175598,-0.02001211792230606,0.660235583782196,0.47088396549224854,-0.04100145772099495,0.6344027519226074,0.517579197883606,-0.04263211041688919,0.6226685047149658,0.5645647644996643,-0.03888177126646042,0.7069522142410278,0.57760089635849,-0.03913713991641998,0.6560946106910706,0.5398697853088379,-0.05488349869847298,0.6331824660301208,0.5693356394767761,-0.05575522035360336,0.6215589642524719,0.603661835193634,-0.05356476455926895,0.0,0.0,0.0,0.0,0.0,0.0,0.0,0.0,0.0,0.0,0.0,0.0,0.0,0.0,0.0,0.0,0.0,0.0,0.0,0.0,0.0,0.0,0.0,0.0,0.0,0.0,0.0,0.0,0.0,0.0,0.0,0.0,0.0,0.0,0.0,0.0,0.0,0.0,0.0,0.0,0.0,0.0,0.0,0.0,0.0,0.0,0.0,0.0,0.0,0.0,0.0,0.0,0.0,0.0,0.0,0.0,0.0,0.0,0.0,0.0,0.0,0.0,0.0
1783345075.224863,0.7231672406196594,0.762606680393219,3.7225768778625934e-07,0.6687891483306885,0.7079184651374817,0.006031222175806761,0.6456143260002136,0.6473591923713684,0.0019218417583033442,0.6273763179779053,0.6022213697433472,-0.009795181453227997,0.6240721940994263,0.5702375769615173,-0.02066008560359478,0.6785504817962646,0.5366952419281006,0.013409363105893135,0.662510335445404,0.45795783400535583,0.003736005164682865,0.6561264991760254,0.4070759117603302,-0.0031406176276504993,0.6555050015449524,0.3638527989387512,-0.008919120766222477,0.6953197121620178,0.5314962267875671,-0.003223925828933716,0.6743802428245544,0.4321925938129425,-0.018766596913337708,0.6617588400840759,0.3693711757659912,-0.03028542548418045,0.6560847163200378,0.3228583037853241,-0.03776422142982483,0.7059365510940552,0.5453938245773315,-0.021129539236426353,0.6593873500823975,0.47078049182891846,-0.04062565416097641,0.6336665749549866,0.5170823931694031,-0.04050621762871742,0.6225852966308594,0.5636646151542664,-0.03601929172873497,0.7070746421813965,0.576250433921814,-0.03937714174389839,0.6541963219642639,0.542495846748352,-0.053918492048978806,0.6307203769683838,0.5718054175376892,-0.05372435599565506,0.6188275814056396,0.6049926280975342,-0.05097408965229988,0.0,0.0,0.0,0.0,0.0,0.0,0.0,0.0,0.0,0.0,0.0,0.0,0.0,0.0,0.0,0.0,0.0,0.0,0.0,0.0,0.0,0.0,0.0,0.0,0.0,0.0,0.0,0.0,0.0,0.0,0.0,0.0,0.0,0.0,0.0,0.0,0.0,0.0,0.0,0.0,0.0,0.0,0.0,0.0,0.0,0.0,0.0,0.0,0.0,0.0,0.0,0.0,0.0,0.0,0.0,0.0,0.0,0.0,0.0,0.0,0.0,0.0,0.0
1783345075.3545449,0.7217186689376831,0.7638894319534302,3.873400089560164e-07,0.6708431243896484,0.7082618474960327,0.008792120032012463,0.6448517441749573,0.6451801657676697,0.007125922478735447,0.6225401163101196,0.5991516709327698,-0.003212346462532878,0.6260877251625061,0.5735215544700623,-0.011889439076185226,0.6781245470046997,0.5342397093772888,0.024009928107261658,0.6647531986236572,0.4607895612716675,0.017095565795898438,0.6586276292800903,0.40878915786743164,0.010277269408106804,0.6572699546813965,0.3670003414154053,0.0027202838100492954,0.695339560508728,0.5284743905067444,0.00461433082818985,0.677038311958313,0.43513694405555725,-0.011504560708999634,0.6647743582725525,0.369436115026474,-0.025686075910925865,0.6583611369132996,0.3240618109703064,-0.03596305847167969,0.7056099772453308,0.5432066917419434,-0.016336714848876,0.6610862016677856,0.4656662940979004,-0.03369326516985893,0.6367439031600952,0.5105598568916321,-0.03026602230966091,0.6251490116119385,0.5491564869880676,-0.024358291178941727,0.7069469094276428,0.577032744884491,-0.038098856806755066,0.6535743474960327,0.5361735224723816,-0.0501277782022953,0.6350272297859192,0.5692319273948669,-0.04782763496041298,0.6260322332382202,0.6042995452880859,-0.044350896030664444,0.0,0.0,0.0,0.0,0.0,0.0,0.0,0.0,0.0,0.0,0.0,0.0,0.0,0.0,0.0,0.0,0.0,0.0,0.0,0.0,0.0,0.0,0.0,0.0,0.0,0.0,0.0,0.0,0.0,0.0,0.0,0.0,0.0,0.0,0.0,0.0,0.0,0.0,0.0,0.0,0.0,0.0,0.0,0.0,0.0,0.0,0.0,0.0,0.0,0.0,0.0,0.0,0.0,0.0,0.0,0.0,0.0,0.0,0.0,0.0,0.0,0.0,0.0
1783345075.493349,0.7251021265983582,0.7605127692222595,3.5552392319004866e-07,0.6717538833618164,0.7068377733230591,0.005324779078364372,0.6470414400100708,0.6437016725540161,0.0023534377105534077,0.6257039904594421,0.5997592210769653,-0.008249345235526562,0.6246757507324219,0.5718801617622375,-0.017448384314775467,0.6806267499923706,0.5371608734130859,0.017151745036244392,0.6645219922065735,0.4601593315601349,0.008477645926177502,0.6585426330566406,0.4093509316444397,0.001556119415909052,0.6579295992851257,0.36721378564834595,-0.004920686595141888,0.6967220902442932,0.5311713218688965,0.000664964783936739,0.6757118701934814,0.432574063539505,-0.0154521893709898,0.6636723279953003,0.3689434230327606,-0.028435735031962395,0.6588308811187744,0.3222813308238983,-0.03716873377561569,0.7074756622314453,0.5432108640670776,-0.01740325056016445,0.664033055305481,0.4635266363620758,-0.037095021456480026,0.6394819021224976,0.5106182098388672,-0.03672416880726814,0.628520667552948,0.5559672713279724,-0.03201296925544739,0.7092806100845337,0.5714725852012634,-0.036025166511535645,0.6558806300163269,0.5341166257858276,-0.05073443800210953,0.6336236000061035,0.5652880072593689,-0.05068926885724068,0.6225914359092712,0.5993433594703674,-0.048107244074344635,0.0,0.0,0.0,0.0,0.0,0.0,0.0,0.0,0.0,0.0,0.0,0.0,0.0,0.0,0.0,0.0,0.0,0.0,0.0,0.0,0.0,0.0,0.0,0.0,0.0,0.0,0.0,0.0,0.0,0.0,0.0,0.0,0.0,0.0,0.0,0.0,0.0,0.0,0.0,0.0,0.0,0.0,0.0,0.0,0.0,0.0,0.0,0.0,0.0,0.0,0.0,0.0,0.0,0.0,0.0,0.0,0.0,0.0,0.0,0.0,0.0,0.0,0.0
1783345075.631532,0.7247871160507202,0.7585592269897461,3.502092624785291e-07,0.6709644198417664,0.7071682214736938,0.00278480164706707,0.6460277438163757,0.6472049355506897,-0.001956172287464142,0.6267350316047668,0.6012040376663208,-0.014129283837974072,0.6244479417800903,0.5700943470001221,-0.025402856990695,0.6788719296455383,0.5351167321205139,0.014933235943317413,0.6635138392448425,0.4566584527492523,0.005160967353731394,0.6574190855026245,0.407540887594223,-0.0023001309018582106,0.6567866802215576,0.36625921726226807,-0.008589713834226131,0.6956139206886292,0.5299547910690308,-0.0005620635929517448,0.6775377988815308,0.43066319823265076,-0.016162125393748283,0.6657885909080505,0.37163031101226807,-0.028419602662324905,0.6599698066711426,0.3258610665798187,-0.03632951155304909,0.7080941796302795,0.5417883992195129,-0.018078751862049103,0.6661855578422546,0.4645994007587433,-0.039406806230545044,0.6405165791511536,0.5116177797317505,-0.04192239046096802,0.628649115562439,0.5587794780731201,-0.038758181035518646,0.7124035358428955,0.5690984129905701,-0.03605328127741814,0.6623136401176453,0.531772255897522,-0.052462588995695114,0.6385964751243591,0.5619757771492004,-0.053965747356414795,0.6265131831169128,0.5965108871459961,-0.052206702530384064,0.0,0.0,0.0,0.0,0.0,0.0,0.0,0.0,0.0,0.0,0.0,0.0,0.0,0.0,0.0,0.0,0.0,0.0,0.0,0.0,0.0,0.0,0.0,0.0,0.0,0.0,0.0,0.0,0.0,0.0,0.0,0.0,0.0,0.0,0.0,0.0,0.0,0.0,0.0,0.0,0.0,0.0,0.0,0.0,0.0,0.0,0.0,0.0,0.0,0.0,0.0,0.0,0.0,0.0,0.0,0.0,0.0,0.0,0.0,0.0,0.0,0.0,0.0
1783345075.791583,0.7207775712013245,0.7615376114845276,3.783333113460685e-07,0.6682136654853821,0.7100293040275574,0.002069828100502491,0.6410917043685913,0.6485192775726318,-0.0029613422229886055,0.6217829585075378,0.5982437133789062,-0.015892554074525833,0.6294317841529846,0.5594184398651123,-0.027827927842736244,0.6713017225265503,0.5386089086532593,0.019298933446407318,0.6577048301696777,0.45707523822784424,0.010228685103356838,0.6520798802375793,0.4055643379688263,0.0035243097227066755,0.6523503661155701,0.36354920268058777,-0.0020647768396884203,0.6899438500404358,0.5343319177627563,0.0032411091960966587,0.6749447584152222,0.43087080121040344,-0.011778564192354679,0.6638241410255432,0.3714901804924011,-0.023094573989510536,0.6582170128822327,0.32471364736557007,-0.029745226725935936,0.706620991230011,0.5453121066093445,-0.015466799028217793,0.6685954332351685,0.46178609132766724,-0.038525860756635666,0.6439518332481384,0.5118331909179688,-0.04070219770073891,0.6330440044403076,0.5610455274581909,-0.03610857203602791,0.7156239748001099,0.571843683719635,-0.034630995243787766,0.664527952671051,0.5277979969978333,-0.05214563384652138,0.6421444416046143,0.5622540712356567,-0.0527452677488327,0.6332845687866211,0.6004021167755127,-0.04969470575451851,0.0,0.0,0.0,0.0,0.0,0.0,0.0,0.0,0.0,0.0,0.0,0.0,0.0,0.0,0.0,0.0,0.0,0.0,0.0,0.0,0.0,0.0,0.0,0.0,0.0,0.0,0.0,0.0,0.0,0.0,0.0,0.0,0.0,0.0,0.0,0.0,0.0,0.0,0.0,0.0,0.0,0.0,0.0,0.0,0.0,0.0,0.0,0.0,0.0,0.0,0.0,0.0,0.0,0.0,0.0,0.0,0.0,0.0,0.0,0.0,0.0,0.0,0.0
1783345075.928374,0.717677652835846,0.7703335285186768,3.4761006872940925e-07,0.6665040850639343,0.7231719493865967,-0.0026699628215283155,0.6383786797523499,0.6573793292045593,-0.009398557245731354,0.6201934218406677,0.5983050465583801,-0.022687233984470367,0.6283423900604248,0.5557783842086792,-0.035016048699617386,0.6622800230979919,0.5566809177398682,0.008436636067926884,0.6480962038040161,0.4665507972240448,-0.003731995355337858,0.6425638198852539,0.4160213768482208,-0.011709737591445446,0.6423624753952026,0.371694415807724,-0.017742834985256195,0.6834991574287415,0.5517065525054932,-0.004016917198896408,0.6689534187316895,0.4421215057373047,-0.021352365612983704,0.6607417464256287,0.3800800144672394,-0.033729374408721924,0.6578871011734009,0.33056676387786865,-0.04125412553548813,0.7037721276283264,0.5610736012458801,-0.018789220601320267,0.6704363226890564,0.47141996026039124,-0.04258165508508682,0.6453601717948914,0.5251342058181763,-0.04548255354166031,0.6332870721817017,0.5795513987541199,-0.0414779856801033,0.7183801531791687,0.5821768641471863,-0.03414985537528992,0.6720383167266846,0.5374513268470764,-0.051941823214292526,0.646287739276886,0.56675785779953,-0.05376959592103958,0.6322485208511353,0.6008985042572021,-0.05176632106304169,0.0,0.0,0.0,0.0,0.0,0.0,0.0,0.0,0.0,0.0,0.0,0.0,0.0,0.0,0.0,0.0,0.0,0.0,0.0,0.0,0.0,0.0,0.0,0.0,0.0,0.0,0.0,0.0,0.0,0.0,0.0,0.0,0.0,0.0,0.0,0.0,0.0,0.0,0.0,0.0,0.0,0.0,0.0,0.0,0.0,0.0,0.0,0.0,0.0,0.0,0.0,0.0,0.0,0.0,0.0,0.0,0.0,0.0,0.0,0.0,0.0,0.0,0.0
1783345076.0813189,0.7142212986946106,0.7681884765625,3.496301985705941e-07,0.6645069718360901,0.7245436310768127,-0.003598642535507679,0.6351209282875061,0.6553671360015869,-0.010439589619636536,0.6181743144989014,0.5889847874641418,-0.023650776594877243,0.6318995356559753,0.5410839915275574,-0.03588090464472771,0.657381534576416,0.5565704703330994,0.011873158626258373,0.6434699296951294,0.46883416175842285,0.0010079414350911975,0.6383238434791565,0.4180923402309418,-0.005788845010101795,0.638754665851593,0.3742350935935974,-0.010636111721396446,0.6794864535331726,0.5502935647964478,0.00036458985414355993,0.6650857329368591,0.44147202372550964,-0.014453556388616562,0.6561807990074158,0.38253089785575867,-0.024432025849819183,0.6520473957061768,0.3337796926498413,-0.029919518157839775,0.7021682262420654,0.5590971112251282,-0.013973216526210308,0.6729471683502197,0.4677017629146576,-0.03758246824145317,0.6519088745117188,0.522787868976593,-0.04082714021205902,0.6430375576019287,0.5777546167373657,-0.03644685819745064,0.7204663753509521,0.5793099999427795,-0.028753822669386864,0.6762568354606628,0.5345879197120667,-0.04608670994639397,0.6518810987472534,0.5659100413322449,-0.047545548528432846,0.6391977071762085,0.6020527482032776,-0.045111339539289474,0.0,0.0,0.0,0.0,0.0,0.0,0.0,0.0,0.0,0.0,0.0,0.0,0.0,0.0,0.0,0.0,0.0,0.0,0.0,0.0,0.0,0.0,0.0,0.0,0.0,0.0,0.0,0.0,0.0,0.0,0.0,0.0,0.0,0.0,0.0,0.0,0.0,0.0,0.0,0.0,0.0,0.0,0.0,0.0,0.0,0.0,0.0,0.0,0.0,0.0,0.0,0.0,0.0,0.0,0.0,0.0,0.0,0.0,0.0,0.0,0.0,0.0,0.0
1783345076.191206,0.7113783359527588,0.7673782706260681,2.8128934559390473e-07,0.66612309217453,0.7302157878875732,-0.007833556272089481,0.6371005177497864,0.6584789156913757,-0.01486053504049778,0.6267831921577454,0.583599328994751,-0.02640119008719921,0.6478169560432434,0.535247802734375,-0.03757715970277786,0.6562721729278564,0.5638419985771179,0.0016191353788599372,0.6419315338134766,0.47404512763023376,-0.011851692572236061,0.6358431577682495,0.42256566882133484,-0.02079843543469906,0.6344431638717651,0.3761262893676758,-0.02769085206091404,0.6791946291923523,0.5563286542892456,-0.007384344935417175,0.665770947933197,0.4461200535297394,-0.024443695321679115,0.6554401516914368,0.3867701292037964,-0.036478664726018906,0.6502755880355835,0.3394831418991089,-0.04413860663771629,0.7029213905334473,0.5647488832473755,-0.018734654411673546,0.6816288232803345,0.46344682574272156,-0.044162627309560776,0.6606326699256897,0.5152700543403625,-0.04862505942583084,0.650957465171814,0.5697296857833862,-0.04538938030600548,0.7250532507896423,0.5835896134376526,-0.030576443299651146,0.6870458126068115,0.5320016741752625,-0.0507020577788353,0.6679433584213257,0.5634220838546753,-0.05333082750439644,0.6603447198867798,0.6001020073890686,-0.05154192075133324,0.0,0.0,0.0,0.0,0.0,0.0,0.0,0.0,0.0,0.0,0.0,0.0,0.0,0.0,0.0,0.0,0.0,0.0,0.0,0.0,0.0,0.0,0.0,0.0,0.0,0.0,0.0,0.0,0.0,0.0,0.0,0.0,0.0,0.0,0.0,0.0,0.0,0.0,0.0,0.0,0.0,0.0,0.0,0.0,0.0,0.0,0.0,0.0,0.0,0.0,0.0,0.0,0.0,0.0,0.0,0.0,0.0,0.0,0.0,0.0,0.0,0.0,0.0
1783345076.355426,0.7119494676589966,0.7738960981369019,2.8607132662727963e-07,0.6694809198379517,0.734765350818634,-0.01085855346173048,0.6430453658103943,0.6573066115379333,-0.017772972583770752,0.6432974338531494,0.5795326828956604,-0.028434237465262413,0.6666098237037659,0.5313329100608826,-0.03900229185819626,0.6573495864868164,0.5679820775985718,-0.00029069784795865417,0.6438300609588623,0.4770621955394745,-0.014658663421869278,0.6382343173027039,0.4234052300453186,-0.02534865029156208,0.6365560293197632,0.3755367696285248,-0.03337177634239197,0.6815349459648132,0.5592496991157532,-0.007716512307524681,0.6690130829811096,0.44980642199516296,-0.024346942082047462,0.6591458320617676,0.3896283507347107,-0.03719959780573845,0.6547210216522217,0.34159696102142334,-0.045745689421892166,0.7066960334777832,0.5685325264930725,-0.017826423048973083,0.694889485836029,0.4661473035812378,-0.04267755150794983,0.6756940484046936,0.5137906074523926,-0.049553290009498596,0.6670292019844055,0.5674852132797241,-0.048306506127119064,0.7303332686424255,0.5889765024185181,-0.028773220255970955,0.7044328451156616,0.5291807055473328,-0.049071043729782104,0.6851786971092224,0.5565820336341858,-0.05304921045899391,0.6761460304260254,0.5949438214302063,-0.05236467346549034,0.0,0.0,0.0,0.0,0.0,0.0,0.0,0.0,0.0,0.0,0.0,0.0,0.0,0.0,0.0,0.0,0.0,0.0,0.0,0.0,0.0,0.0,0.0,0.0,0.0,0.0,0.0,0.0,0.0,0.0,0.0,0.0,0.0,0.0,0.0,0.0,0.0,0.0,0.0,0.0,0.0,0.0,0.0,0.0,0.0,0.0,0.0,0.0,0.0,0.0,0.0,0.0,0.0,0.0,0.0,0.0,0.0,0.0,0.0,0.0,0.0,0.0,0.0
1783345076.4846442,0.7115904092788696,0.7750850915908813,3.0858836908009835e-07,0.6697005033493042,0.732229471206665,-0.01111586019396782,0.6473721861839294,0.6515471339225769,-0.017250552773475647,0.6555970311164856,0.5728292465209961,-0.027214089408516884,0.6812639832496643,0.5255109071731567,-0.03693314269185066,0.6590908765792847,0.5645986795425415,0.003103397088125348,0.6455900073051453,0.473223477602005,-0.010381304658949375,0.6404650211334229,0.4187243580818176,-0.021279171109199524,0.6390970349311829,0.36987191438674927,-0.029550643637776375,0.6836987733840942,0.5560766458511353,-0.0036786298733204603,0.670570969581604,0.448876291513443,-0.019554436206817627,0.6616560816764832,0.38883572816848755,-0.03301302716135979,0.6586264371871948,0.3379442095756531,-0.04200345650315285,0.7089251279830933,0.5663669109344482,-0.013328955508768559,0.7012749314308167,0.4694099426269531,-0.03743976727128029,0.6846650838851929,0.519956111907959,-0.044095296412706375,0.6773819923400879,0.5733078122138977,-0.042502157390117645,0.7336326241493225,0.5872106552124023,-0.023990271613001823,0.715971052646637,0.5264491438865662,-0.04319537803530693,0.6990511417388916,0.553732693195343,-0.04628947004675865,0.6902592182159424,0.5916925072669983,-0.04488779604434967,0.0,0.0,0.0,0.0,0.0,0.0,0.0,0.0,0.0,0.0,0.0,0.0,0.0,0.0,0.0,0.0,0.0,0.0,0.0,0.0,0.0,0.0,0.0,0.0,0.0,0.0,0.0,0.0,0.0,0.0,0.0,0.0,0.0,0.0,0.0,0.0,0.0,0.0,0.0,0.0,0.0,0.0,0.0,0.0,0.0,0.0,0.0,0.0,0.0,0.0,0.0,0.0,0.0,0.0,0.0,0.0,0.0,0.0,0.0,0.0,0.0,0.0,0.0
1783345076.632836,0.7132282853126526,0.77919602394104,2.983373121878685e-07,0.672364354133606,0.7343093752861023,-0.012378179468214512,0.651082456111908,0.6512345671653748,-0.01859830878674984,0.6617307662963867,0.5717144012451172,-0.02825021743774414,0.6890169382095337,0.5247476696968079,-0.037481799721717834,0.6603679060935974,0.5654036402702332,0.0018085817573592067,0.6472734212875366,0.4723157286643982,-0.01185174472630024,0.64261394739151,0.41651681065559387,-0.02288113348186016,0.6414321660995483,0.3666016757488251,-0.03134865313768387,0.6855803728103638,0.5555063486099243,-0.0038891860749572515,0.6727685928344727,0.4491005539894104,-0.019787829369306564,0.6636230945587158,0.3893750011920929,-0.03336486592888832,0.6604312062263489,0.33743786811828613,-0.04253191128373146,0.7112988829612732,0.5650528073310852,-0.012438399717211723,0.7059950232505798,0.469986230134964,-0.03603693097829819,0.6903353333473206,0.5188233852386475,-0.0423688180744648,0.6827876567840576,0.569912850856781,-0.04082424193620682,0.7373183965682983,0.5862729549407959,-0.02219749055802822,0.7244712710380554,0.525962769985199,-0.040881477296352386,0.7091318964958191,0.5528282523155212,-0.043770577758550644,0.7003505825996399,0.5902262926101685,-0.04235399141907692,0.0,0.0,0.0,0.0,0.0,0.0,0.0,0.0,0.0,0.0,0.0,0.0,0.0,0.0,0.0,0.0,0.0,0.0,0.0,0.0,0.0,0.0,0.0,0.0,0.0,0.0,0.0,0.0,0.0,0.0,0.0,0.0,0.0,0.0,0.0,0.0,0.0,0.0,0.0,0.0,0.0,0.0,0.0,0.0,0.0,0.0,0.0,0.0,0.0,0.0,0.0,0.0,0.0,0.0,0.0,0.0,0.0,0.0,0.0,0.0,0.0,0.0,0.0
1783345076.7906759,0.7147130370140076,0.7782981991767883,2.8290256182117446e-07,0.6758528351783752,0.7308266758918762,-0.012856770306825638,0.6555665731430054,0.6450130939483643,-0.01769164949655533,0.6700708866119385,0.565740704536438,-0.025539280846714973,0.6993855237960815,0.5236936807632446,-0.03294069319963455,0.6618351340293884,0.5635747909545898,0.0025848119985312223,0.6500124931335449,0.47080087661743164,-0.009891500696539879,0.645858883857727,0.4147000014781952,-0.020285267382860184,0.6450218558311462,0.3652240037918091,-0.02844955027103424,0.6871921420097351,0.5530239939689636,-0.002286055125296116,0.6750469207763672,0.44857168197631836,-0.01657809317111969,0.6665685772895813,0.3903576135635376,-0.02925964444875717,0.6639346480369568,0.33878442645072937,-0.03800392895936966,0.7133262753486633,0.5628674626350403,-0.010116592049598694,0.7128093838691711,0.470523476600647,-0.03260798379778862,0.6996542811393738,0.5163378715515137,-0.03930690512061119,0.6931943297386169,0.5639894008636475,-0.038383886218070984,0.7395263910293579,0.5861754417419434,-0.019265802577137947,0.7324662804603577,0.5256102681159973,-0.03757002577185631,0.7191721200942993,0.5507081747055054,-0.040739912539720535,0.711574137210846,0.5858086347579956,-0.03974948078393936,0.0,0.0,0.0,0.0,0.0,0.0,0.0,0.0,0.0,0.0,0.0,0.0,0.0,0.0,0.0,0.0,0.0,0.0,0.0,0.0,0.0,0.0,0.0,0.0,0.0,0.0,0.0,0.0,0.0,0.0,0.0,0.0,0.0,0.0,0.0,0.0,0.0,0.0,0.0,0.0,0.0,0.0,0.0,0.0,0.0,0.0,0.0,0.0,0.0,0.0,0.0,0.0,0.0,0.0,0.0,0.0,0.0,0.0,0.0,0.0,0.0,0.0,0.0
1783345076.9221451,0.7156944274902344,0.7795234322547913,2.885119840811967e-07,0.6775181293487549,0.7334203720092773,-0.015235072933137417,0.6598085761070251,0.6433171033859253,-0.01948442868888378,0.678778350353241,0.5639022588729858,-0.026335008442401886,0.708722710609436,0.5297156572341919,-0.03248216211795807,0.6630363464355469,0.5612519979476929,0.002994789509102702,0.6514574289321899,0.4661273956298828,-0.008068684488534927,0.6466753482818604,0.4109373092651367,-0.01770474575459957,0.6450715661048889,0.36191192269325256,-0.02571403980255127,0.6883009672164917,0.549654483795166,-0.0008096492383629084,0.6740460991859436,0.44751349091529846,-0.01467186864465475,0.6658391356468201,0.38915377855300903,-0.0277121439576149,0.6633801460266113,0.3358570337295532,-0.0366600900888443,0.7143765091896057,0.5609363317489624,-0.007962287403643131,0.7152802348136902,0.4681263267993927,-0.03164214268326759,0.7071096301078796,0.514935314655304,-0.04066087305545807,0.7033882737159729,0.5630605220794678,-0.04098412021994591,0.7414128184318542,0.5857644081115723,-0.016582023352384567,0.7394312024116516,0.5238391757011414,-0.03695422410964966,0.7280746698379517,0.549490213394165,-0.042511604726314545,0.7206127643585205,0.5850407481193542,-0.04299279674887657,0.0,0.0,0.0,0.0,0.0,0.0,0.0,0.0,0.0,0.0,0.0,0.0,0.0,0.0,0.0,0.0,0.0,0.0,0.0,0.0,0.0,0.0,0.0,0.0,0.0,0.0,0.0,0.0,0.0,0.0,0.0,0.0,0.0,0.0,0.0,0.0,0.0,0.0,0.0,0.0,0.0,0.0,0.0,0.0,0.0,0.0,0.0,0.0,0.0,0.0,0.0,0.0,0.0,0.0,0.0,0.0,0.0,0.0,0.0,0.0,0.0,0.0,0.0
1783345077.061226,0.7169355750083923,0.7816357016563416,2.989056326896389e-07,0.680022656917572,0.7341297268867493,-0.01723691262304783,0.6636496186256409,0.6410906314849854,-0.022303065285086632,0.6855348348617554,0.5612638592720032,-0.0292835496366024,0.7171002626419067,0.5269084572792053,-0.03550718352198601,0.6644306182861328,0.5603548884391785,-0.000831826007924974,0.6549838185310364,0.464082807302475,-0.012355918996036053,0.6513558626174927,0.407772034406662,-0.02220471203327179,0.6504839658737183,0.35792994499206543,-0.03034125454723835,0.6909236907958984,0.5484740138053894,-0.0035683324094861746,0.6777623891830444,0.44628292322158813,-0.01736222580075264,0.6702632904052734,0.38773640990257263,-0.030121030285954475,0.668157696723938,0.33392471075057983,-0.039015017449855804,0.7177395224571228,0.5600970983505249,-0.009615035727620125,0.7212634086608887,0.47033166885375977,-0.032970644533634186,0.7135363817214966,0.5176617503166199,-0.04148578271269798,0.7092543840408325,0.5655027627944946,-0.041625309735536575,0.7446126937866211,0.5864461660385132,-0.017278602346777916,0.7445781230926514,0.524017333984375,-0.03722380846738815,0.734397828578949,0.5505945086479187,-0.04220682755112648,0.7272309064865112,0.5868187546730042,-0.04238585755228996,0.0,0.0,0.0,0.0,0.0,0.0,0.0,0.0,0.0,0.0,0.0,0.0,0.0,0.0,0.0,0.0,0.0,0.0,0.0,0.0,0.0,0.0,0.0,0.0,0.0,0.0,0.0,0.0,0.0,0.0,0.0,0.0,0.0,0.0,0.0,0.0,0.0,0.0,0.0,0.0,0.0,0.0,0.0,0.0,0.0,0.0,0.0,0.0,0.0,0.0,0.0,0.0,0.0,0.0,0.0,0.0,0.0,0.0,0.0,0.0,0.0,0.0,0.0
1783345077.2165241,0.7175712585449219,0.7806484699249268,3.54005209146635e-07,0.6818200945854187,0.7296254634857178,-0.01920628361403942,0.67057204246521,0.6321186423301697,-0.024837633594870567,0.6969929337501526,0.5577037930488586,-0.031839825212955475,0.7287574410438538,0.5295394659042358,-0.03790029138326645,0.6722224950790405,0.5452913045883179,-0.0012297575594857335,0.6665977239608765,0.4525207281112671,-0.013242705725133419,0.6654418110847473,0.3957543671131134,-0.02424706518650055,0.6669905781745911,0.34719493985176086,-0.03329130634665489,0.6990540027618408,0.5369833707809448,-0.0038190518971532583,0.6882936954498291,0.43501925468444824,-0.017289280891418457,0.6833347678184509,0.37688377499580383,-0.03098396770656109,0.6833394169807434,0.3230213224887848,-0.040670935064554214,0.7258102297782898,0.5546827912330627,-0.009994130581617355,0.7349103689193726,0.4658828377723694,-0.032706014811992645,0.7286859154701233,0.5094452500343323,-0.04209088534116745,0.7242798805236816,0.554618775844574,-0.043303217738866806,0.7515501379966736,0.5886311531066895,-0.01810317672789097,0.7573298811912537,0.5314409136772156,-0.0379662849009037,0.747227668762207,0.5548695921897888,-0.04370083659887314,0.7381202578544617,0.5859163999557495,-0.04470835626125336,0.0,0.0,0.0,0.0,0.0,0.0,0.0,0.0,0.0,0.0,0.0,0.0,0.0,0.0,0.0,0.0,0.0,0.0,0.0,0.0,0.0,0.0,0.0,0.0,0.0,0.0,0.0,0.0,0.0,0.0,0.0,0.0,0.0,0.0,0.0,0.0,0.0,0.0,0.0,0.0,0.0,0.0,0.0,0.0,0.0,0.0,0.0,0.0,0.0,0.0,0.0,0.0,0.0,0.0,0.0,0.0,0.0,0.0,0.0,0.0,0.0,0.0,0.0
1783345077.360621,0.7167980670928955,0.7812087535858154,2.8825195386161795e-07,0.6826201677322388,0.7291797995567322,-0.017147138714790344,0.6718126535415649,0.6312485933303833,-0.023131346330046654,0.6970024108886719,0.5579794049263,-0.030916616320610046,0.72882479429245,0.5294538736343384,-0.03788356855511665,0.6768287420272827,0.5452021956443787,-0.004133671056479216,0.6725665330886841,0.4502468705177307,-0.01615099236369133,0.6715887188911438,0.39419129490852356,-0.02624496817588806,0.6731221675872803,0.3441225290298462,-0.03481435403227806,0.7033722400665283,0.5365483164787292,-0.007593789137899876,0.6941779255867004,0.43468382954597473,-0.021288961172103882,0.6887015700340271,0.3766055107116699,-0.033371686935424805,0.6883050799369812,0.32224923372268677,-0.04232727363705635,0.7288892269134521,0.5537013411521912,-0.014088508673012257,0.7375748157501221,0.46081191301345825,-0.035532545298337936,0.7302796840667725,0.5078737735748291,-0.04122935235500336,0.72512286901474,0.55502849817276,-0.040581777691841125,0.7540998458862305,0.588137149810791,-0.022471219301223755,0.7594032287597656,0.5252326130867004,-0.03969829902052879,0.7494996786117554,0.550025999546051,-0.04248068109154701,0.741136908531189,0.583085298538208,-0.04202331602573395,0.0,0.0,0.0,0.0,0.0,0.0,0.0,0.0,0.0,0.0,0.0,0.0,0.0,0.0,0.0,0.0,0.0,0.0,0.0,0.0,0.0,0.0,0.0,0.0,0.0,0.0,0.0,0.0,0.0,0.0,0.0,0.0,0.0,0.0,0.0,0.0,0.0,0.0,0.0,0.0,0.0,0.0,0.0,0.0,0.0,0.0,0.0,0.0,0.0,0.0,0.0,0.0,0.0,0.0,0.0,0.0,0.0,0.0,0.0,0.0,0.0,0.0,0.0
1783345077.497995,0.7166581153869629,0.7745072841644287,2.895290549531637e-07,0.6820328831672668,0.7242510318756104,-0.0189971886575222,0.6705379486083984,0.6324905753135681,-0.026161011308431625,0.6942049264907837,0.5628023147583008,-0.03433527424931526,0.7239294648170471,0.527509331703186,-0.041515789926052094,0.6736828088760376,0.5411653518676758,-0.007575348950922489,0.6687861084938049,0.4453069567680359,-0.02067520096898079,0.6687313318252563,0.3897002935409546,-0.03158305957913399,0.6715388894081116,0.33976033329963684,-0.04051826894283295,0.7015368342399597,0.5339424014091492,-0.010128594003617764,0.6919240355491638,0.4308534264564514,-0.023342134431004524,0.6878700256347656,0.3723238706588745,-0.035543035715818405,0.6896335482597351,0.31826868653297424,-0.04503875970840454,0.7276021242141724,0.5520294308662415,-0.01582205481827259,0.7353084087371826,0.4611966907978058,-0.037456661462783813,0.7277467250823975,0.5022708773612976,-0.04493610933423042,0.7229040265083313,0.5467971563339233,-0.045874807983636856,0.7524031400680542,0.5866438150405884,-0.023357056081295013,0.7560809850692749,0.525173544883728,-0.04211770370602608,0.7463923692703247,0.547561526298523,-0.04649671912193298,0.7385212779045105,0.5803508758544922,-0.0471363328397274,0.0,0.0,0.0,0.0,0.0,0.0,0.0,0.0,0.0,0.0,0.0,0.0,0.0,0.0,0.0,0.0,0.0,0.0,0.0,0.0,0.0,0.0,0.0,0.0,0.0,0.0,0.0,0.0,0.0,0.0,0.0,0.0,0.0,0.0,0.0,0.0,0.0,0.0,0.0,0.0,0.0,0.0,0.0,0.0,0.0,0.0,0.0,0.0,0.0,0.0,0.0,0.0,0.0,0.0,0.0,0.0,0.0,0.0,0.0,0.0,0.0,0.0,0.0
1783345077.635968,0.7170162796974182,0.7716680765151978,2.926918512002885e-07,0.6822290420532227,0.7222954630851746,-0.01881478540599346,0.6702069640159607,0.6297969222068787,-0.025333082303404808,0.694247841835022,0.5576333999633789,-0.0331944040954113,0.7246995568275452,0.5251668095588684,-0.04014702886343002,0.6733699440956116,0.5390605926513672,-0.0051979259587824345,0.6685855984687805,0.44368690252304077,-0.0172404944896698,0.6685371994972229,0.38830500841140747,-0.027301769703626633,0.6710836291313171,0.33894622325897217,-0.035699646919965744,0.7011709809303284,0.5313284993171692,-0.007729789242148399,0.6912513375282288,0.42899277806282043,-0.020994074642658234,0.6868699193000793,0.3716864585876465,-0.033249661326408386,0.6878873109817505,0.3196502923965454,-0.04233898967504501,0.7272258400917053,0.5491492748260498,-0.013499855063855648,0.7345929145812988,0.458327054977417,-0.035705775022506714,0.7280175685882568,0.5027428865432739,-0.04339878261089325,0.7238103747367859,0.5495595335960388,-0.04387754574418068,0.7518529891967773,0.5840136408805847,-0.021082542836666107,0.7552018761634827,0.5223411917686462,-0.04000003635883331,0.7466527223587036,0.544994056224823,-0.04456900432705879,0.7397934198379517,0.5777696967124939,-0.04505215585231781,0.0,0.0,0.0,0.0,0.0,0.0,0.0,0.0,0.0,0.0,0.0,0.0,0.0,0.0,0.0,0.0,0.0,0.0,0.0,0.0,0.0,0.0,0.0,0.0,0.0,0.0,0.0,0.0,0.0,0.0,0.0,0.0,0.0,0.0,0.0,0.0,0.0,0.0,0.0,0.0,0.0,0.0,0.0,0.0,0.0,0.0,0.0,0.0,0.0,0.0,0.0,0.0,0.0,0.0,0.0,0.0,0.0,0.0,0.0,0.0,0.0,0.0,0.0
1783345077.7993758,0.7152777910232544,0.7746124863624573,2.860807626348105e-07,0.6813428401947021,0.7251743078231812,-0.018507465720176697,0.6718895435333252,0.6345780491828918,-0.025062507018446922,0.695801317691803,0.5664920806884766,-0.03270348161458969,0.7225543260574341,0.5325338840484619,-0.0392281599342823,0.674854040145874,0.5384110808372498,-0.0058336821384727955,0.6700566411018372,0.4423832297325134,-0.017859499901533127,0.6696116924285889,0.3869313597679138,-0.028105882927775383,0.6724256277084351,0.3390502631664276,-0.03657066449522972,0.7016928791999817,0.531400203704834,-0.008432061411440372,0.6911085247993469,0.4292829930782318,-0.021948017179965973,0.6872754096984863,0.3707590103149414,-0.03547675535082817,0.6888452768325806,0.3201015591621399,-0.04555555805563927,0.7270277142524719,0.5501747131347656,-0.014037338085472584,0.7378946542739868,0.4602130651473999,-0.0357942059636116,0.7328965663909912,0.49784591794013977,-0.0454978384077549,0.7278239727020264,0.5417481064796448,-0.047997962683439255,0.7516744136810303,0.5868282318115234,-0.021370958536863327,0.7595642805099487,0.530537486076355,-0.040819212794303894,0.7506662011146545,0.5502734780311584,-0.04726460948586464,0.7407557964324951,0.5809596180915833,-0.04926667734980583,0.0,0.0,0.0,0.0,0.0,0.0,0.0,0.0,0.0,0.0,0.0,0.0,0.0,0.0,0.0,0.0,0.0,0.0,0.0,0.0,0.0,0.0,0.0,0.0,0.0,0.0,0.0,0.0,0.0,0.0,0.0,0.0,0.0,0.0,0.0,0.0,0.0,0.0,0.0,0.0,0.0,0.0,0.0,0.0,0.0,0.0,0.0,0.0,0.0,0.0,0.0,0.0,0.0,0.0,0.0,0.0,0.0,0.0,0.0,0.0,0.0,0.0,0.0
1783345077.954454,0.7120606899261475,0.7785481214523315,2.9287275538081303e-07,0.6789196729660034,0.7277548313140869,-0.020249946042895317,0.6701101064682007,0.6411749720573425,-0.027769014239311218,0.6943447589874268,0.5716424584388733,-0.03600453585386276,0.7213400602340698,0.531842052936554,-0.043194156140089035,0.6688417196273804,0.5449693202972412,-0.006907468196004629,0.6641185283660889,0.4465658366680145,-0.020135778933763504,0.6636163592338562,0.38924649357795715,-0.0308277178555727,0.6655712127685547,0.3395982086658478,-0.03909501060843468,0.6968978047370911,0.5382035374641418,-0.008903667330741882,0.685838520526886,0.43323659896850586,-0.022643648087978363,0.6822989583015442,0.37474197149276733,-0.03512725606560707,0.6834530830383301,0.3232807219028473,-0.04419603571295738,0.7230308055877686,0.5567445755004883,-0.01427683886140585,0.7322272062301636,0.46792641282081604,-0.036983657628297806,0.729072093963623,0.5059382915496826,-0.0454716719686985,0.7254823446273804,0.5486311912536621,-0.04648936539888382,0.7470935583114624,0.592373251914978,-0.02150026336312294,0.7544974088668823,0.5322587490081787,-0.040635984390974045,0.7464439868927002,0.5544840693473816,-0.04534633457660675,0.7372986674308777,0.5871754288673401,-0.04587186872959137,0.0,0.0,0.0,0.0,0.0,0.0,0.0,0.0,0.0,0.0,0.0,0.0,0.0,0.0,0.0,0.0,0.0,0.0,0.0,0.0,0.0,0.0,0.0,0.0,0.0,0.0,0.0,0.0,0.0,0.0,0.0,0.0,0.0,0.0,0.0,0.0,0.0,0.0,0.0,0.0,0.0,0.0,0.0,0.0,0.0,0.0,0.0,0.0,0.0,0.0,0.0,0.0,0.0,0.0,0.0,0.0,0.0,0.0,0.0,0.0,0.0,0.0,0.0
1783345078.088922,0.7136399149894714,0.7777888774871826,2.9473051199602196e-07,0.6803062558174133,0.7284413576126099,-0.020068155601620674,0.6699114441871643,0.6368667483329773,-0.027276471257209778,0.6947097182273865,0.5676268935203552,-0.03521593660116196,0.7233951091766357,0.5334138870239258,-0.042195990681648254,0.6704820394515991,0.5432075262069702,-0.00797883328050375,0.6659293174743652,0.44744327664375305,-0.020914874970912933,0.6655034422874451,0.39148229360580444,-0.03174576908349991,0.6674464344978333,0.34197789430618286,-0.04063977301120758,0.6982648968696594,0.5357317328453064,-0.010018527507781982,0.6875636577606201,0.43288862705230713,-0.02366425283253193,0.683790922164917,0.37635213136672974,-0.036263853311538696,0.6847660541534424,0.324145644903183,-0.045643363147974014,0.7244118452072144,0.5546658039093018,-0.015177670866250992,0.7329943776130676,0.464967280626297,-0.03733516484498978,0.7282390594482422,0.5080269575119019,-0.04482652619481087,0.7239621877670288,0.5526823997497559,-0.04551146551966667,0.7493699789047241,0.5920930504798889,-0.022230638191103935,0.7557764053344727,0.5347571969032288,-0.041312772780656815,0.7472866773605347,0.5589267611503601,-0.045632656663656235,0.738760769367218,0.5910793542861938,-0.04601471126079559,0.0,0.0,0.0,0.0,0.0,0.0,0.0,0.0,0.0,0.0,0.0,0.0,0.0,0.0,0.0,0.0,0.0,0.0,0.0,0.0,0.0,0.0,0.0,0.0,0.0,0.0,0.0,0.0,0.0,0.0,0.0,0.0,0.0,0.0,0.0,0.0,0.0,0.0,0.0,0.0,0.0,0.0,0.0,0.0,0.0,0.0,0.0,0.0,0.0,0.0,0.0,0.0,0.0,0.0,0.0,0.0,0.0,0.0,0.0,0.0,0.0,0.0,0.0
1783345078.22524,0.7154862880706787,0.7773500680923462,3.046441179321846e-07,0.6822152137756348,0.7289713621139526,-0.01955401338636875,0.6708946228027344,0.6390190124511719,-0.027015546336770058,0.6951460242271423,0.5704136490821838,-0.03522880747914314,0.7239850163459778,0.5370849370956421,-0.04236742854118347,0.6715739369392395,0.5414993762969971,-0.008250986225903034,0.6671152710914612,0.4455263614654541,-0.021233001723885536,0.6679567098617554,0.3900432586669922,-0.032056521624326706,0.6709957718849182,0.34194496273994446,-0.04085320606827736,0.6996186971664429,0.5341903567314148,-0.010474026203155518,0.6896856427192688,0.43051227927207947,-0.024157503619790077,0.6867093443870544,0.3725928068161011,-0.03700575232505798,0.687900185585022,0.32044661045074463,-0.04649880528450012,0.7257488369941711,0.5535122752189636,-0.015700090676546097,0.7349898815155029,0.46382200717926025,-0.037566300481557846,0.731203556060791,0.5043060779571533,-0.045844484120607376,0.7269402146339417,0.5481131672859192,-0.047091711312532425,0.7507369518280029,0.5914785265922546,-0.022734887897968292,0.7581727504730225,0.5358628034591675,-0.04196925461292267,0.7500090003013611,0.5565683245658875,-0.04729578644037247,0.7405332922935486,0.5866049528121948,-0.048336949199438095,0.0,0.0,0.0,0.0,0.0,0.0,0.0,0.0,0.0,0.0,0.0,0.0,0.0,0.0,0.0,0.0,0.0,0.0,0.0,0.0,0.0,0.0,0.0,0.0,0.0,0.0,0.0,0.0,0.0,0.0,0.0,0.0,0.0,0.0,0.0,0.0,0.0,0.0,0.0,0.0,0.0,0.0,0.0,0.0,0.0,0.0,0.0,0.0,0.0,0.0,0.0,0.0,0.0,0.0,0.0,0.0,0.0,0.0,0.0,0.0,0.0,0.0,0.0
1783345078.3575099,0.7167844176292419,0.7774558663368225,3.1312450232690026e-07,0.6828281879425049,0.731605589389801,-0.021339645609259605,0.6715652346611023,0.63865727186203,-0.029338808730244637,0.6962947249412537,0.5663163065910339,-0.03788422420620918,0.7256299257278442,0.5308884978294373,-0.04539867118000984,0.6722550392150879,0.5417781472206116,-0.00935388170182705,0.6681786775588989,0.4453669786453247,-0.02300785854458809,0.6690679788589478,0.38830745220184326,-0.034167833626270294,0.6724902987480164,0.3388882875442505,-0.0431155227124691,0.7003470063209534,0.5341941714286804,-0.011080815456807613,0.6899945139884949,0.4293617308139801,-0.025706946849822998,0.6860039234161377,0.3715539276599884,-0.03857998177409172,0.687275767326355,0.3190058767795563,-0.04787174239754677,0.7266834378242493,0.553138792514801,-0.016041168943047523,0.7365638017654419,0.46285906434059143,-0.03876158967614174,0.7296209931373596,0.508241593837738,-0.045673731714487076,0.7240544557571411,0.5538859963417053,-0.045678943395614624,0.7514694333076477,0.59014892578125,-0.023037252947688103,0.7577619552612305,0.5316738486289978,-0.0423104465007782,0.7487302422523499,0.5567699670791626,-0.04627874866127968,0.7399944067001343,0.5890445709228516,-0.04622921720147133,0.0,0.0,0.0,0.0,0.0,0.0,0.0,0.0,0.0,0.0,0.0,0.0,0.0,0.0,0.0,0.0,0.0,0.0,0.0,0.0,0.0,0.0,0.0,0.0,0.0,0.0,0.0,0.0,0.0,0.0,0.0,0.0,0.0,0.0,0.0,0.0,0.0,0.0,0.0,0.0,0.0,0.0,0.0,0.0,0.0,0.0,0.0,0.0,0.0,0.0,0.0,0.0,0.0,0.0,0.0,0.0,0.0,0.0,0.0,0.0,0.0,0.0,0.0
1783345078.502153,0.7153306603431702,0.7739900946617126,3.2588584986115166e-07,0.6820205450057983,0.726690948009491,-0.020354246720671654,0.6712071299552917,0.630329966545105,-0.027440456673502922,0.695986270904541,0.5571847558021545,-0.035406168550252914,0.7263488173484802,0.5245941877365112,-0.042324814945459366,0.6715521216392517,0.5366166830062866,-0.007021618541330099,0.6678098440170288,0.4399423599243164,-0.019694460555911064,0.6691262125968933,0.3831075429916382,-0.030111800879240036,0.6732161045074463,0.33414366841316223,-0.03849814832210541,0.6994966864585876,0.5301885008811951,-0.008953483775258064,0.6900322437286377,0.42538049817085266,-0.02270594798028469,0.6864537596702576,0.36614790558815,-0.03506310656666756,0.6884032487869263,0.31317582726478577,-0.044005464762449265,0.7257698774337769,0.5497602224349976,-0.014207758009433746,0.7357181310653687,0.45919427275657654,-0.036227211356163025,0.7285833954811096,0.5028184056282043,-0.04359189048409462,0.723114013671875,0.5483794212341309,-0.04394219070672989,0.7505429983139038,0.5864077210426331,-0.02141786366701126,0.7566351890563965,0.5264707803726196,-0.03969179093837738,0.7475226521492004,0.5506344437599182,-0.043650541454553604,0.73897784948349,0.5830705761909485,-0.04383042827248573,0.0,0.0,0.0,0.0,0.0,0.0,0.0,0.0,0.0,0.0,0.0,0.0,0.0,0.0,0.0,0.0,0.0,0.0,0.0,0.0,0.0,0.0,0.0,0.0,0.0,0.0,0.0,0.0,0.0,0.0,0.0,0.0,0.0,0.0,0.0,0.0,0.0,0.0,0.0,0.0,0.0,0.0,0.0,0.0,0.0,0.0,0.0,0.0,0.0,0.0,0.0,0.0,0.0,0.0,0.0,0.0,0.0,0.0,0.0,0.0,0.0,0.0,0.0
1783345078.631047,0.7144128680229187,0.7712107300758362,3.081119643866259e-07,0.6808352470397949,0.7206688523292542,-0.01908646896481514,0.6710990071296692,0.6282272338867188,-0.025980867445468903,0.6944417953491211,0.5580962300300598,-0.034099280834198,0.7226453423500061,0.5253049731254578,-0.04123580828309059,0.6711630821228027,0.5362598299980164,-0.005603436380624771,0.6668124794960022,0.440121054649353,-0.018296634778380394,0.6672307848930359,0.3836064338684082,-0.029041219502687454,0.6705053448677063,0.3337709903717041,-0.03774140402674675,0.6987128257751465,0.5294709205627441,-0.00827889982610941,0.6881414651870728,0.4257785677909851,-0.021812114864587784,0.6843030452728271,0.3664141595363617,-0.034104201942682266,0.6858275532722473,0.3124089539051056,-0.04323268309235573,0.7248079180717468,0.5486366748809814,-0.014249618165194988,0.7333840727806091,0.4573383033275604,-0.03614317998290062,0.7270084619522095,0.4998205900192261,-0.0433637872338295,0.7218002676963806,0.5450933575630188,-0.04373319819569588,0.7493874430656433,0.584874153137207,-0.022121010348200798,0.7554291486740112,0.5234749913215637,-0.040505602955818176,0.7461654543876648,0.5459409356117249,-0.044467389583587646,0.7371017336845398,0.5779866576194763,-0.04467262327671051,0.0,0.0,0.0,0.0,0.0,0.0,0.0,0.0,0.0,0.0,0.0,0.0,0.0,0.0,0.0,0.0,0.0,0.0,0.0,0.0,0.0,0.0,0.0,0.0,0.0,0.0,0.0,0.0,0.0,0.0,0.0,0.0,0.0,0.0,0.0,0.0,0.0,0.0,0.0,0.0,0.0,0.0,0.0,0.0,0.0,0.0,0.0,0.0,0.0,0.0,0.0,0.0,0.0,0.0,0.0,0.0,0.0,0.0,0.0,0.0,0.0,0.0,0.0
1783345078.797251,0.7130659222602844,0.7658365964889526,3.29057002090849e-07,0.6793922185897827,0.7162798047065735,-0.02054903469979763,0.6689395904541016,0.6275646686553955,-0.028770463541150093,0.6912973523139954,0.5584939122200012,-0.038022298365831375,0.7191115021705627,0.5212238430976868,-0.04619251564145088,0.6677492260932922,0.529404878616333,-0.00649226363748312,0.6631038188934326,0.4351387023925781,-0.02066127397119999,0.6643125414848328,0.3793012201786041,-0.032054826617240906,0.6685339212417603,0.33065271377563477,-0.040572620928287506,0.6962958574295044,0.524566650390625,-0.008775647729635239,0.6871575713157654,0.4220840632915497,-0.023748889565467834,0.6833513379096985,0.36399057507514954,-0.03652527555823326,0.6852222681045532,0.31030455231666565,-0.045356351882219315,0.7230907678604126,0.5447191596031189,-0.014616552740335464,0.7319594621658325,0.4581029415130615,-0.03868819400668144,0.724127471446991,0.5054497718811035,-0.04608027637004852,0.7187904119491577,0.5510509610176086,-0.04548219218850136,0.747844934463501,0.5815129280090332,-0.022294703871011734,0.7530460953712463,0.5209711790084839,-0.0416436530649662,0.7432947754859924,0.5466580390930176,-0.04509580135345459,0.7348836660385132,0.5791119337081909,-0.044317249208688736,0.0,0.0,0.0,0.0,0.0,0.0,0.0,0.0,0.0,0.0,0.0,0.0,0.0,0.0,0.0,0.0,0.0,0.0,0.0,0.0,0.0,0.0,0.0,0.0,0.0,0.0,0.0,0.0,0.0,0.0,0.0,0.0,0.0,0.0,0.0,0.0,0.0,0.0,0.0,0.0,0.0,0.0,0.0,0.0,0.0,0.0,0.0,0.0,0.0,0.0,0.0,0.0,0.0,0.0,0.0,0.0,0.0,0.0,0.0,0.0,0.0,0.0,0.0
