ciel274/research-hand-sign/data/raw/hiragana/sign_language_ti_2.csv
timestamp,R_joint_0_x,R_joint_0_y,R_joint_0_z,R_joint_1_x,R_joint_1_y,R_joint_1_z,R_joint_2_x,R_joint_2_y,R_joint_2_z,R_joint_3_x,R_joint_3_y,R_joint_3_z,R_joint_4_x,R_joint_4_y,R_joint_4_z,R_joint_5_x,R_joint_5_y,R_joint_5_z,R_joint_6_x,R_joint_6_y,R_joint_6_z,R_joint_7_x,R_joint_7_y,R_joint_7_z,R_joint_8_x,R_joint_8_y,R_joint_8_z,R_joint_9_x,R_joint_9_y,R_joint_9_z,R_joint_10_x,R_joint_10_y,R_joint_10_z,R_joint_11_x,R_joint_11_y,R_joint_11_z,R_joint_12_x,R_joint_12_y,R_joint_12_z,R_joint_13_x,R_joint_13_y,R_joint_13_z,R_joint_14_x,R_joint_14_y,R_joint_14_z,R_joint_15_x,R_joint_15_y,R_joint_15_z,R_joint_16_x,R_joint_16_y,R_joint_16_z,R_joint_17_x,R_joint_17_y,R_joint_17_z,R_joint_18_x,R_joint_18_y,R_joint_18_z,R_joint_19_x,R_joint_19_y,R_joint_19_z,R_joint_20_x,R_joint_20_y,R_joint_20_z,L_joint_0_x,L_joint_0_y,L_joint_0_z,L_joint_1_x,L_joint_1_y,L_joint_1_z,L_joint_2_x,L_joint_2_y,L_joint_2_z,L_joint_3_x,L_joint_3_y,L_joint_3_z,L_joint_4_x,L_joint_4_y,L_joint_4_z,L_joint_5_x,L_joint_5_y,L_joint_5_z,L_joint_6_x,L_joint_6_y,L_joint_6_z,L_joint_7_x,L_joint_7_y,L_joint_7_z,L_joint_8_x,L_joint_8_y,L_joint_8_z,L_joint_9_x,L_joint_9_y,L_joint_9_z,L_joint_10_x,L_joint_10_y,L_joint_10_z,L_joint_11_x,L_joint_11_y,L_joint_11_z,L_joint_12_x,L_joint_12_y,L_joint_12_z,L_joint_13_x,L_joint_13_y,L_joint_13_z,L_joint_14_x,L_joint_14_y,L_joint_14_z,L_joint_15_x,L_joint_15_y,L_joint_15_z,L_joint_16_x,L_joint_16_y,L_joint_16_z,L_joint_17_x,L_joint_17_y,L_joint_17_z,L_joint_18_x,L_joint_18_y,L_joint_18_z,L_joint_19_x,L_joint_19_y,L_joint_19_z,L_joint_20_x,L_joint_20_y,L_joint_20_z
1783390875.921866,0.7396231889724731,0.8346590399742126,-3.210524823771266e-07,0.7025819420814514,0.7900274395942688,-0.023913657292723656,0.6847880482673645,0.7078519463539124,-0.038072288036346436,0.7053261399269104,0.6347519755363464,-0.051980018615722656,0.7408413290977478,0.6009101271629333,-0.060697950422763824,0.6817106604576111,0.6194042563438416,-0.012399914674460888,0.6753715872764587,0.5446613430976868,-0.038581378757953644,0.6891141533851624,0.6064099073410034,-0.05392405390739441,0.693816065788269,0.6434866786003113,-0.06057256460189819,0.714005708694458,0.6005648374557495,-0.009556133300065994,0.7108913660049438,0.5370190739631653,-0.03295845538377762,0.7194061279296875,0.6126931309700012,-0.04124107211828232,0.7157135009765625,0.6274797916412354,-0.04319222643971443,0.7437950968742371,0.5973495244979858,-0.011571972630918026,0.7452791333198547,0.5461395978927612,-0.03412770852446556,0.7436574101448059,0.6251727342605591,-0.03231361135840416,0.73819500207901,0.675929069519043,-0.025048960000276566,0.7720882296562195,0.6026036739349365,-0.0160005372017622,0.7761220335960388,0.5180387496948242,-0.02717050164937973,0.7814425826072693,0.46395573019981384,-0.029148845002055168,0.7817453742027283,0.41126954555511475,-0.02860640548169613,0.0,0.0,0.0,0.0,0.0,0.0,0.0,0.0,0.0,0.0,0.0,0.0,0.0,0.0,0.0,0.0,0.0,0.0,0.0,0.0,0.0,0.0,0.0,0.0,0.0,0.0,0.0,0.0,0.0,0.0,0.0,0.0,0.0,0.0,0.0,0.0,0.0,0.0,0.0,0.0,0.0,0.0,0.0,0.0,0.0,0.0,0.0,0.0,0.0,0.0,0.0,0.0,0.0,0.0,0.0,0.0,0.0,0.0,0.0,0.0,0.0,0.0,0.0
1783390876.0781288,0.7393264770507812,0.8385749459266663,-3.131107177978265e-07,0.7023252248764038,0.7955707311630249,-0.0233056228607893,0.6820902228355408,0.709182858467102,-0.03726800158619881,0.7017374038696289,0.6351855993270874,-0.05069603770971298,0.74004065990448,0.6018505692481995,-0.05893244594335556,0.6840086579322815,0.6212242841720581,-0.01455436646938324,0.6757217645645142,0.5453063249588013,-0.040313027799129486,0.6884849071502686,0.6093325018882751,-0.054497361183166504,0.6925621628761292,0.6486301422119141,-0.059985462576150894,0.7161445617675781,0.6028789281845093,-0.011561895720660686,0.7131271362304688,0.5367220640182495,-0.03435365483164787,0.7203261852264404,0.6145333051681519,-0.040922340005636215,0.716042697429657,0.6327577233314514,-0.04120428487658501,0.7457170486450195,0.6017023921012878,-0.013152701780200005,0.7474005222320557,0.5491650104522705,-0.034648340195417404,0.7444319725036621,0.629764199256897,-0.03165111318230629,0.7377784252166748,0.6816544532775879,-0.023439481854438782,0.7729562520980835,0.6088320016860962,-0.017023513093590736,0.7766711711883545,0.5221027135848999,-0.02781451866030693,0.781848669052124,0.46647799015045166,-0.029323233291506767,0.7821642756462097,0.41160041093826294,-0.02816053479909897,0.0,0.0,0.0,0.0,0.0,0.0,0.0,0.0,0.0,0.0,0.0,0.0,0.0,0.0,0.0,0.0,0.0,0.0,0.0,0.0,0.0,0.0,0.0,0.0,0.0,0.0,0.0,0.0,0.0,0.0,0.0,0.0,0.0,0.0,0.0,0.0,0.0,0.0,0.0,0.0,0.0,0.0,0.0,0.0,0.0,0.0,0.0,0.0,0.0,0.0,0.0,0.0,0.0,0.0,0.0,0.0,0.0,0.0,0.0,0.0,0.0,0.0,0.0
1783390876.215849,0.7392482161521912,0.8432973027229309,-2.9311573257473356e-07,0.7026353478431702,0.7978013157844543,-0.02325502224266529,0.6837977170944214,0.7157645225524902,-0.037467245012521744,0.7032344341278076,0.64360111951828,-0.05163389816880226,0.7415547370910645,0.608683705329895,-0.06068536639213562,0.6834905743598938,0.6192172765731812,-0.011205174960196018,0.6768569946289062,0.5481431484222412,-0.03749623894691467,0.6899198889732361,0.612474799156189,-0.0521230585873127,0.6946888566017151,0.6523382067680359,-0.05698328837752342,0.7165696024894714,0.6034413576126099,-0.009035985916852951,0.7151108980178833,0.5390688180923462,-0.035107892006635666,0.7208754420280457,0.6138232946395874,-0.044196099042892456,0.7182281613349915,0.642754316329956,-0.04406774044036865,0.747829020023346,0.60346519947052,-0.011533605866134167,0.7499029040336609,0.5557343363761902,-0.03658478707075119,0.7447572946548462,0.6358804106712341,-0.03602013736963272,0.7369616031646729,0.6877632737159729,-0.02700916677713394,0.775199294090271,0.6106815934181213,-0.01603420451283455,0.7791647911071777,0.5251717567443848,-0.02733597159385681,0.7838356494903564,0.4697684347629547,-0.028039025142788887,0.7840281128883362,0.4154644012451172,-0.02498013898730278,0.0,0.0,0.0,0.0,0.0,0.0,0.0,0.0,0.0,0.0,0.0,0.0,0.0,0.0,0.0,0.0,0.0,0.0,0.0,0.0,0.0,0.0,0.0,0.0,0.0,0.0,0.0,0.0,0.0,0.0,0.0,0.0,0.0,0.0,0.0,0.0,0.0,0.0,0.0,0.0,0.0,0.0,0.0,0.0,0.0,0.0,0.0,0.0,0.0,0.0,0.0,0.0,0.0,0.0,0.0,0.0,0.0,0.0,0.0,0.0,0.0,0.0,0.0
1783390876.3507168,0.7414191365242004,0.8491181135177612,-3.223457269996288e-07,0.7052637934684753,0.806256890296936,-0.024482108652591705,0.6863120794296265,0.722667932510376,-0.0395103320479393,0.7060707211494446,0.6489527821540833,-0.053782228380441666,0.7431221604347229,0.6138215065002441,-0.06265074759721756,0.6849478483200073,0.6304620504379272,-0.0158727765083313,0.6775297522544861,0.5571867823600769,-0.04245894402265549,0.6907316446304321,0.6207401752471924,-0.05758194997906685,0.6951794624328613,0.6585676670074463,-0.06395750492811203,0.7174323201179504,0.6113741993904114,-0.012430080212652683,0.7139339447021484,0.5485777258872986,-0.034445662051439285,0.7210116386413574,0.6271167993545532,-0.04058913514018059,0.7167174816131592,0.6386144161224365,-0.04149611294269562,0.7469616532325745,0.6094353795051575,-0.013776592910289764,0.7482700347900391,0.5599029660224915,-0.03503342345356941,0.7446646690368652,0.6406109929084778,-0.03158179298043251,0.7385891079902649,0.691337525844574,-0.023708276450634003,0.7745863795280457,0.6161935329437256,-0.017582343891263008,0.7792497277259827,0.5288680195808411,-0.02881266549229622,0.7839143872261047,0.4725396931171417,-0.03060876578092575,0.7841249704360962,0.41777709126472473,-0.02999008446931839,0.0,0.0,0.0,0.0,0.0,0.0,0.0,0.0,0.0,0.0,0.0,0.0,0.0,0.0,0.0,0.0,0.0,0.0,0.0,0.0,0.0,0.0,0.0,0.0,0.0,0.0,0.0,0.0,0.0,0.0,0.0,0.0,0.0,0.0,0.0,0.0,0.0,0.0,0.0,0.0,0.0,0.0,0.0,0.0,0.0,0.0,0.0,0.0,0.0,0.0,0.0,0.0,0.0,0.0,0.0,0.0,0.0,0.0,0.0,0.0,0.0,0.0,0.0
1783390876.48158,0.7411596179008484,0.8498639464378357,-3.167591557939886e-07,0.7044349908828735,0.8064059019088745,-0.022768011316657066,0.6837955117225647,0.7202845215797424,-0.03667425364255905,0.7032018303871155,0.646040141582489,-0.049969784915447235,0.7423251867294312,0.6136457324028015,-0.05784880369901657,0.6852148175239563,0.6272148489952087,-0.014765049330890179,0.6771131753921509,0.5545427203178406,-0.04149555042386055,0.6904162168502808,0.6212185621261597,-0.05658886581659317,0.694200336933136,0.6566818356513977,-0.06298041343688965,0.7172106504440308,0.6093262434005737,-0.012284502387046814,0.713450014591217,0.5458930730819702,-0.03589004650712013,0.7210547924041748,0.6255448460578918,-0.042041145265102386,0.7165293097496033,0.6422914862632751,-0.042050864547491074,0.7466121912002563,0.6090707182884216,-0.01447046548128128,0.7471252083778381,0.5606293678283691,-0.03650854900479317,0.744184672832489,0.6414772868156433,-0.03280920535326004,0.7374556660652161,0.690887987613678,-0.02408483810722828,0.774263858795166,0.6164410710334778,-0.018919937312602997,0.7785429954528809,0.529150664806366,-0.030541900545358658,0.7838783860206604,0.4743300974369049,-0.03201596438884735,0.7842099666595459,0.41940152645111084,-0.030621424317359924,0.0,0.0,0.0,0.0,0.0,0.0,0.0,0.0,0.0,0.0,0.0,0.0,0.0,0.0,0.0,0.0,0.0,0.0,0.0,0.0,0.0,0.0,0.0,0.0,0.0,0.0,0.0,0.0,0.0,0.0,0.0,0.0,0.0,0.0,0.0,0.0,0.0,0.0,0.0,0.0,0.0,0.0,0.0,0.0,0.0,0.0,0.0,0.0,0.0,0.0,0.0,0.0,0.0,0.0,0.0,0.0,0.0,0.0,0.0,0.0,0.0,0.0,0.0
1783390876.615304,0.7414780855178833,0.8495030403137207,-3.008526334724593e-07,0.7052388191223145,0.8050432205200195,-0.02425651252269745,0.6849150657653809,0.7215324640274048,-0.039185307919979095,0.7029092311859131,0.6476168632507324,-0.053616419434547424,0.7412761449813843,0.6116504073143005,-0.06272756308317184,0.6847778558731079,0.6252518892288208,-0.014186704531311989,0.6778677701950073,0.553126335144043,-0.04161922633647919,0.691362738609314,0.6187730431556702,-0.057124584913253784,0.6956691741943359,0.6569312810897827,-0.06302984803915024,0.7173836827278137,0.6084705591201782,-0.01150141004472971,0.7154966592788696,0.5435923933982849,-0.037333954125642776,0.7222408652305603,0.620383620262146,-0.04598231241106987,0.7180765271186829,0.642718493938446,-0.0465933196246624,0.7479001879692078,0.6083351969718933,-0.01355279516428709,0.7500611543655396,0.5594809055328369,-0.038100648671388626,0.74620521068573,0.6414024233818054,-0.036843862384557724,0.7385202646255493,0.6934224367141724,-0.02838483266532421,0.7756012678146362,0.6159703135490417,-0.01777624525129795,0.7788648009300232,0.5299522876739502,-0.029673421755433083,0.7838771939277649,0.47453293204307556,-0.03128323331475258,0.7841345071792603,0.41967687010765076,-0.029434848576784134,0.0,0.0,0.0,0.0,0.0,0.0,0.0,0.0,0.0,0.0,0.0,0.0,0.0,0.0,0.0,0.0,0.0,0.0,0.0,0.0,0.0,0.0,0.0,0.0,0.0,0.0,0.0,0.0,0.0,0.0,0.0,0.0,0.0,0.0,0.0,0.0,0.0,0.0,0.0,0.0,0.0,0.0,0.0,0.0,0.0,0.0,0.0,0.0,0.0,0.0,0.0,0.0,0.0,0.0,0.0,0.0,0.0,0.0,0.0,0.0,0.0,0.0,0.0
1783390877.547592,0.7419588565826416,0.8491108417510986,-2.838766590684827e-07,0.7054714560508728,0.8051934242248535,-0.02454550378024578,0.6857549548149109,0.7233968377113342,-0.039536647498607635,0.7045668363571167,0.6504445672035217,-0.05418293923139572,0.7433150410652161,0.6143819093704224,-0.06363512575626373,0.6864784359931946,0.6251120567321777,-0.013002941384911537,0.6797658801078796,0.5551458597183228,-0.03991631045937538,0.6927253603935242,0.6187070608139038,-0.054947029799222946,0.697453498840332,0.657539427280426,-0.06015728414058685,0.7192255258560181,0.608582079410553,-0.010413680225610733,0.7173904180526733,0.5437858700752258,-0.03734330087900162,0.7233930826187134,0.6175732612609863,-0.04677466303110123,0.7206298112869263,0.6459397673606873,-0.04681597650051117,0.7500975131988525,0.6085391044616699,-0.012548880651593208,0.7521206140518188,0.5621219873428345,-0.038383666425943375,0.7472761273384094,0.6428940892219543,-0.03810304030776024,0.7392752766609192,0.6946056485176086,-0.02921493537724018,0.7772359251976013,0.6160975694656372,-0.016770703718066216,0.7810094356536865,0.5312753319740295,-0.028605682775378227,0.785733699798584,0.47598618268966675,-0.02968854457139969,0.785907506942749,0.4210725426673889,-0.02692198008298874,0.0,0.0,0.0,0.0,0.0,0.0,0.0,0.0,0.0,0.0,0.0,0.0,0.0,0.0,0.0,0.0,0.0,0.0,0.0,0.0,0.0,0.0,0.0,0.0,0.0,0.0,0.0,0.0,0.0,0.0,0.0,0.0,0.0,0.0,0.0,0.0,0.0,0.0,0.0,0.0,0.0,0.0,0.0,0.0,0.0,0.0,0.0,0.0,0.0,0.0,0.0,0.0,0.0,0.0,0.0,0.0,0.0,0.0,0.0,0.0,0.0,0.0,0.0
1783390877.8646662,0.7463617324829102,0.8499179482460022,-3.4309235275031824e-07,0.7108022570610046,0.8099868297576904,-0.023297924548387527,0.6948630809783936,0.7310065627098083,-0.03919847682118416,0.7169057726860046,0.662117600440979,-0.05473027378320694,0.7499116063117981,0.6215303540229797,-0.06617248058319092,0.6873757243156433,0.6397793889045715,-0.018175652250647545,0.6830325722694397,0.5646172165870667,-0.04253542795777321,0.6998147964477539,0.6302726864814758,-0.057499609887599945,0.7053176760673523,0.6751790642738342,-0.06369708478450775,0.721008837223053,0.620705246925354,-0.017107615247368813,0.7207648754119873,0.5392366647720337,-0.04264307767152786,0.7340280413627625,0.6212019920349121,-0.055737290531396866,0.7328444719314575,0.6634575128555298,-0.0589529313147068,0.7537458539009094,0.6163506507873535,-0.019037457183003426,0.7605753540992737,0.5401866436004639,-0.04079755023121834,0.7650401592254639,0.6126899719238281,-0.04223227500915527,0.7601892948150635,0.6648788452148438,-0.03660081699490547,0.7831428647041321,0.624131441116333,-0.02272874116897583,0.7813416719436646,0.5363772511482239,-0.0305322278290987,0.7837896347045898,0.48754850029945374,-0.029611682519316673,0.7804301381111145,0.44131582975387573,-0.02703259512782097,0.0,0.0,0.0,0.0,0.0,0.0,0.0,0.0,0.0,0.0,0.0,0.0,0.0,0.0,0.0,0.0,0.0,0.0,0.0,0.0,0.0,0.0,0.0,0.0,0.0,0.0,0.0,0.0,0.0,0.0,0.0,0.0,0.0,0.0,0.0,0.0,0.0,0.0,0.0,0.0,0.0,0.0,0.0,0.0,0.0,0.0,0.0,0.0,0.0,0.0,0.0,0.0,0.0,0.0,0.0,0.0,0.0,0.0,0.0,0.0,0.0,0.0,0.0
1783390878.234441,0.7456756830215454,0.859286367893219,-3.2991820830829965e-07,0.7097600102424622,0.8224744200706482,-0.024425726383924484,0.6920497417449951,0.7383965253829956,-0.040517814457416534,0.7167727947235107,0.6716423034667969,-0.05570998042821884,0.758249819278717,0.6448778510093689,-0.0672035664319992,0.6920433640480042,0.6474677324295044,-0.021797796711325645,0.684698760509491,0.58170485496521,-0.045088931918144226,0.6999578475952148,0.6465029120445251,-0.059482987970113754,0.7047234773635864,0.6853381991386414,-0.06654341518878937,0.7255702614784241,0.628437340259552,-0.020888222381472588,0.7245624661445618,0.5426779389381409,-0.04694322124123573,0.7351733446121216,0.6253596544265747,-0.05926038324832916,0.732461154460907,0.666573166847229,-0.06221375986933708,0.7576615214347839,0.6260024905204773,-0.02274303138256073,0.7657186985015869,0.5380872488021851,-0.04504619166254997,0.768339991569519,0.6038925051689148,-0.04680795222520828,0.7623158097267151,0.6520618796348572,-0.04180802404880524,0.7863674759864807,0.6355666518211365,-0.026393787935376167,0.7860692739486694,0.547670304775238,-0.03461587429046631,0.7893518209457397,0.5004007816314697,-0.0339038111269474,0.7872156500816345,0.45441946387290955,-0.03195435553789139,0.0,0.0,0.0,0.0,0.0,0.0,0.0,0.0,0.0,0.0,0.0,0.0,0.0,0.0,0.0,0.0,0.0,0.0,0.0,0.0,0.0,0.0,0.0,0.0,0.0,0.0,0.0,0.0,0.0,0.0,0.0,0.0,0.0,0.0,0.0,0.0,0.0,0.0,0.0,0.0,0.0,0.0,0.0,0.0,0.0,0.0,0.0,0.0,0.0,0.0,0.0,0.0,0.0,0.0,0.0,0.0,0.0,0.0,0.0,0.0,0.0,0.0,0.0
1783390878.4577322,0.7457926273345947,0.8723723888397217,-2.3050350250741758e-07,0.7065238356590271,0.8434995412826538,-0.029164424166083336,0.681978702545166,0.7728054523468018,-0.047883518040180206,0.6999830007553101,0.7107293605804443,-0.06568075716495514,0.7414042949676514,0.684506893157959,-0.07874186336994171,0.6794005632400513,0.6624457240104675,-0.022063493728637695,0.6717116832733154,0.6009745001792908,-0.051510315388441086,0.6845776438713074,0.6646090149879456,-0.06837870925664902,0.6932726502418518,0.7081508040428162,-0.0755547359585762,0.7152574062347412,0.6413944363594055,-0.01942947506904602,0.7158060669898987,0.560714840888977,-0.05073830485343933,0.7218688130378723,0.637480616569519,-0.06285322457551956,0.7210769057273865,0.6777485013008118,-0.06486912071704865,0.7490978240966797,0.6380405426025391,-0.021319802850484848,0.7547407746315002,0.5697639584541321,-0.05007028952240944,0.7524257898330688,0.6464715003967285,-0.051252540200948715,0.7462359070777893,0.7003042697906494,-0.04379725083708763,0.7800028920173645,0.6471129655838013,-0.02573014423251152,0.7933116555213928,0.563507080078125,-0.03969435766339302,0.8054408431053162,0.5111662149429321,-0.04282161593437195,0.8111193180084229,0.45675256848335266,-0.04225644841790199,0.0,0.0,0.0,0.0,0.0,0.0,0.0,0.0,0.0,0.0,0.0,0.0,0.0,0.0,0.0,0.0,0.0,0.0,0.0,0.0,0.0,0.0,0.0,0.0,0.0,0.0,0.0,0.0,0.0,0.0,0.0,0.0,0.0,0.0,0.0,0.0,0.0,0.0,0.0,0.0,0.0,0.0,0.0,0.0,0.0,0.0,0.0,0.0,0.0,0.0,0.0,0.0,0.0,0.0,0.0,0.0,0.0,0.0,0.0,0.0,0.0,0.0,0.0
1783390878.639957,0.7421340346336365,0.879189670085907,-2.291792782216362e-07,0.7034475207328796,0.8469359874725342,-0.026241092011332512,0.6777034401893616,0.7784241437911987,-0.042932309210300446,0.6923347115516663,0.7170583009719849,-0.058523714542388916,0.7333278059959412,0.6909589767456055,-0.0695575624704361,0.6744795441627502,0.670503556728363,-0.022926490753889084,0.6617069840431213,0.6108502149581909,-0.04971715062856674,0.6756227016448975,0.6744956970214844,-0.06442370265722275,0.6852961182594299,0.7150974273681641,-0.07133235782384872,0.7093785405158997,0.6466848850250244,-0.02093358337879181,0.7065691947937012,0.5670576095581055,-0.049114663153886795,0.7139840126037598,0.6448012590408325,-0.05882915481925011,0.7125910520553589,0.6797707080841064,-0.06055508553981781,0.742493748664856,0.6419370770454407,-0.02286587841808796,0.7470093965530396,0.568501353263855,-0.04771432653069496,0.745464026927948,0.6426982283592224,-0.046016592532396317,0.738711953163147,0.69462651014328,-0.038499727845191956,0.7740103006362915,0.6511815190315247,-0.02734401263296604,0.7862760424613953,0.5657517313957214,-0.042373452335596085,0.7989806532859802,0.5132080316543579,-0.04637429863214493,0.8048686385154724,0.45972710847854614,-0.04663247615098953,0.0,0.0,0.0,0.0,0.0,0.0,0.0,0.0,0.0,0.0,0.0,0.0,0.0,0.0,0.0,0.0,0.0,0.0,0.0,0.0,0.0,0.0,0.0,0.0,0.0,0.0,0.0,0.0,0.0,0.0,0.0,0.0,0.0,0.0,0.0,0.0,0.0,0.0,0.0,0.0,0.0,0.0,0.0,0.0,0.0,0.0,0.0,0.0,0.0,0.0,0.0,0.0,0.0,0.0,0.0,0.0,0.0,0.0,0.0,0.0,0.0,0.0,0.0
1783390878.845757,0.7397311329841614,0.8794207572937012,-2.0199090045025514e-07,0.7008805871009827,0.8448718786239624,-0.02787843905389309,0.6744846105575562,0.7784377932548523,-0.046224646270275116,0.6886959671974182,0.718544602394104,-0.06319382786750793,0.7293699979782104,0.693448543548584,-0.07523562014102936,0.6688879728317261,0.6678506135940552,-0.02437247522175312,0.6588945388793945,0.6112844347953796,-0.05067727342247963,0.6731963753700256,0.678676426410675,-0.06456243991851807,0.681641161441803,0.717013418674469,-0.07103238999843597,0.7043706774711609,0.6447874903678894,-0.021841762587428093,0.7015433311462402,0.5713810920715332,-0.04926609620451927,0.7084222435951233,0.6503295302391052,-0.05814547836780548,0.7065275311470032,0.6818935871124268,-0.0595536082983017,0.7387170195579529,0.6404219269752502,-0.02338520996272564,0.7428568601608276,0.5722478628158569,-0.04797506332397461,0.7402545809745789,0.648059070110321,-0.04662976413965225,0.7324219942092896,0.6997485160827637,-0.03947646915912628,0.7703642845153809,0.6507437825202942,-0.027584180235862732,0.7824655771255493,0.5658071637153625,-0.04162222146987915,0.794642984867096,0.5131921768188477,-0.04522962495684624,0.8005357980728149,0.4602339267730713,-0.045325867831707,0.0,0.0,0.0,0.0,0.0,0.0,0.0,0.0,0.0,0.0,0.0,0.0,0.0,0.0,0.0,0.0,0.0,0.0,0.0,0.0,0.0,0.0,0.0,0.0,0.0,0.0,0.0,0.0,0.0,0.0,0.0,0.0,0.0,0.0,0.0,0.0,0.0,0.0,0.0,0.0,0.0,0.0,0.0,0.0,0.0,0.0,0.0,0.0,0.0,0.0,0.0,0.0,0.0,0.0,0.0,0.0,0.0,0.0,0.0,0.0,0.0,0.0,0.0
1783390879.017461,0.7403464913368225,0.8892064690589905,-2.620901113914442e-07,0.7025819420814514,0.8576494455337524,-0.0287637896835804,0.6743371486663818,0.7888235449790955,-0.04704425856471062,0.6884182095527649,0.7286372184753418,-0.06286948174238205,0.7296278476715088,0.7052175402641296,-0.07302899658679962,0.6713335514068604,0.679434061050415,-0.029200177639722824,0.6606459617614746,0.6226305961608887,-0.05654190480709076,0.6756870150566101,0.6877220273017883,-0.07036768645048141,0.6846163868904114,0.7287163734436035,-0.07724054902791977,0.7065628170967102,0.6561291813850403,-0.025274084880948067,0.7021338939666748,0.582737922668457,-0.05087914690375328,0.711030900478363,0.6674215793609619,-0.0559794045984745,0.7085025906562805,0.6873535513877869,-0.05635640025138855,0.7394809126853943,0.653732180595398,-0.025592632591724396,0.744162380695343,0.5884860157966614,-0.049039289355278015,0.7416317462921143,0.6657752394676208,-0.04355263710021973,0.7357270121574402,0.7160830497741699,-0.03528768569231033,0.7723297476768494,0.6655625104904175,-0.028821107000112534,0.7852542996406555,0.5784180760383606,-0.045523736625909805,0.796883761882782,0.5237387418746948,-0.05001895874738693,0.8029662370681763,0.46912553906440735,-0.0513603501021862,0.0,0.0,0.0,0.0,0.0,0.0,0.0,0.0,0.0,0.0,0.0,0.0,0.0,0.0,0.0,0.0,0.0,0.0,0.0,0.0,0.0,0.0,0.0,0.0,0.0,0.0,0.0,0.0,0.0,0.0,0.0,0.0,0.0,0.0,0.0,0.0,0.0,0.0,0.0,0.0,0.0,0.0,0.0,0.0,0.0,0.0,0.0,0.0,0.0,0.0,0.0,0.0,0.0,0.0,0.0,0.0,0.0,0.0,0.0,0.0,0.0,0.0,0.0
1783390879.188501,0.739608645439148,0.8902906775474548,-2.1370921388097486e-07,0.7010412216186523,0.8570901155471802,-0.03033340722322464,0.6746042370796204,0.7899126410484314,-0.04959318786859512,0.6889944076538086,0.7326322197914124,-0.06659827381372452,0.7293607592582703,0.7087937593460083,-0.0780680924654007,0.66961669921875,0.677544116973877,-0.028801312670111656,0.661703884601593,0.6242822408676147,-0.0569395087659359,0.6758843064308167,0.6924755573272705,-0.0711674615740776,0.6832836866378784,0.7309346199035645,-0.07782774418592453,0.7050873041152954,0.6547382473945618,-0.025014374405145645,0.7024759650230408,0.5840499997138977,-0.052904509007930756,0.709794282913208,0.6674327254295349,-0.06018946319818497,0.706791341304779,0.6901655793190002,-0.06094663590192795,0.7387929558753967,0.6519408226013184,-0.025679288432002068,0.7442418336868286,0.5910352468490601,-0.05141475051641464,0.7413453459739685,0.6720635890960693,-0.04852040857076645,0.7339298129081726,0.7237565517425537,-0.04059923440217972,0.7711299061775208,0.6635138988494873,-0.029238266870379448,0.7835245132446289,0.5779673457145691,-0.045453742146492004,0.795298159122467,0.5242650508880615,-0.04985746368765831,0.8014426231384277,0.4706072509288788,-0.05056265369057655,0.0,0.0,0.0,0.0,0.0,0.0,0.0,0.0,0.0,0.0,0.0,0.0,0.0,0.0,0.0,0.0,0.0,0.0,0.0,0.0,0.0,0.0,0.0,0.0,0.0,0.0,0.0,0.0,0.0,0.0,0.0,0.0,0.0,0.0,0.0,0.0,0.0,0.0,0.0,0.0,0.0,0.0,0.0,0.0,0.0,0.0,0.0,0.0,0.0,0.0,0.0,0.0,0.0,0.0,0.0,0.0,0.0,0.0,0.0,0.0,0.0,0.0,0.0
1783390879.348347,0.7395381331443787,0.8864548206329346,-2.1433599783904356e-07,0.7000858187675476,0.8522913455963135,-0.029650038108229637,0.6712424755096436,0.7834872603416443,-0.04888708516955376,0.6865428686141968,0.7221847176551819,-0.06570041924715042,0.727118194103241,0.6952645778656006,-0.07660843431949615,0.6663821339607239,0.6662553548812866,-0.02759484201669693,0.6581692695617676,0.6153642535209656,-0.05352778360247612,0.6731287837028503,0.6852032542228699,-0.06757599115371704,0.6803876161575317,0.7210835218429565,-0.07531928271055222,0.702212393283844,0.6414955258369446,-0.023508213460445404,0.6993288993835449,0.5782670378684998,-0.0466684065759182,0.7065954804420471,0.6630786657333374,-0.05140196904540062,0.7019109725952148,0.6792344450950623,-0.052347052842378616,0.7358201742172241,0.6383095383644104,-0.02388506382703781,0.7404858469963074,0.575362503528595,-0.04466511681675911,0.7387014031410217,0.6565033793449402,-0.03800102695822716,0.733112633228302,0.7105218768119812,-0.029616829007864,0.7683141827583313,0.6510908007621765,-0.02749415673315525,0.7803437113761902,0.5657146573066711,-0.041660550981760025,0.7911278605461121,0.5130043029785156,-0.04434100538492203,0.7963658571243286,0.4595930278301239,-0.044587623327970505,0.0,0.0,0.0,0.0,0.0,0.0,0.0,0.0,0.0,0.0,0.0,0.0,0.0,0.0,0.0,0.0,0.0,0.0,0.0,0.0,0.0,0.0,0.0,0.0,0.0,0.0,0.0,0.0,0.0,0.0,0.0,0.0,0.0,0.0,0.0,0.0,0.0,0.0,0.0,0.0,0.0,0.0,0.0,0.0,0.0,0.0,0.0,0.0,0.0,0.0,0.0,0.0,0.0,0.0,0.0,0.0,0.0,0.0,0.0,0.0,0.0,0.0,0.0
1783390879.48631,0.7373549938201904,0.8783812522888184,-2.0337500927780638e-07,0.696682870388031,0.8495456576347351,-0.02828497253358364,0.6665698885917664,0.7824190855026245,-0.046337638050317764,0.6797661781311035,0.7199419736862183,-0.06336311995983124,0.7205756306648254,0.6898496150970459,-0.07549144327640533,0.6592971086502075,0.6655066013336182,-0.021874871104955673,0.6488367915153503,0.6103555560112,-0.04831801354885101,0.6642817258834839,0.6794348955154419,-0.06335381418466568,0.6736776232719421,0.7164347767829895,-0.07078032195568085,0.6942228674888611,0.6398992538452148,-0.019509881734848022,0.6917426586151123,0.5703336000442505,-0.04742255061864853,0.7005082964897156,0.6510613560676575,-0.05723389610648155,0.6998375058174133,0.6859428882598877,-0.05902387946844101,0.7289327383041382,0.6334381699562073,-0.02153598703444004,0.7328245043754578,0.564652144908905,-0.04645688831806183,0.7324197292327881,0.6438160538673401,-0.04543973132967949,0.7267923951148987,0.698327362537384,-0.038237255066633224,0.7613202333450317,0.6423168778419495,-0.026325732469558716,0.7717574834823608,0.5578425526618958,-0.0404866524040699,0.7811629772186279,0.5047471523284912,-0.04407058283686638,0.7851155996322632,0.4503385126590729,-0.043969281017780304,0.0,0.0,0.0,0.0,0.0,0.0,0.0,0.0,0.0,0.0,0.0,0.0,0.0,0.0,0.0,0.0,0.0,0.0,0.0,0.0,0.0,0.0,0.0,0.0,0.0,0.0,0.0,0.0,0.0,0.0,0.0,0.0,0.0,0.0,0.0,0.0,0.0,0.0,0.0,0.0,0.0,0.0,0.0,0.0,0.0,0.0,0.0,0.0,0.0,0.0,0.0,0.0,0.0,0.0,0.0,0.0,0.0,0.0,0.0,0.0,0.0,0.0,0.0
1783390879.652952,0.7330064177513123,0.8802350163459778,-2.444337212637038e-07,0.6923673748970032,0.8523869514465332,-0.02935451827943325,0.6628780364990234,0.794025182723999,-0.0477789044380188,0.6726232767105103,0.7373751401901245,-0.0647950991988182,0.7113571763038635,0.7039103507995605,-0.07656227052211761,0.6531069278717041,0.6753107905387878,-0.0235221479088068,0.6381338238716125,0.6259474754333496,-0.05289455130696297,0.6546289920806885,0.6937875151634216,-0.06841566413640976,0.6666402220726013,0.7308305501937866,-0.07535484433174133,0.6879905462265015,0.648578941822052,-0.020617768168449402,0.6819319128990173,0.5768008828163147,-0.05345471203327179,0.6919013857841492,0.6616928577423096,-0.06331589818000793,0.6925435662269592,0.6999221444129944,-0.06368369609117508,0.7214541435241699,0.6409839391708374,-0.022442832589149475,0.7214550971984863,0.5777515172958374,-0.05248052999377251,0.7230038046836853,0.6613563299179077,-0.0511009618639946,0.7204447388648987,0.7166061997413635,-0.04189576953649521,0.7540296912193298,0.6463981866836548,-0.0269091185182333,0.7627116441726685,0.5625032782554626,-0.044688742607831955,0.771530270576477,0.5088796019554138,-0.04938222095370293,0.7743192315101624,0.45329800248146057,-0.04925229400396347,0.0,0.0,0.0,0.0,0.0,0.0,0.0,0.0,0.0,0.0,0.0,0.0,0.0,0.0,0.0,0.0,0.0,0.0,0.0,0.0,0.0,0.0,0.0,0.0,0.0,0.0,0.0,0.0,0.0,0.0,0.0,0.0,0.0,0.0,0.0,0.0,0.0,0.0,0.0,0.0,0.0,0.0,0.0,0.0,0.0,0.0,0.0,0.0,0.0,0.0,0.0,0.0,0.0,0.0,0.0,0.0,0.0,0.0,0.0,0.0,0.0,0.0,0.0
1783390879.81642,0.7337037324905396,0.8911625146865845,-2.772032132725144e-07,0.6938986778259277,0.8714131712913513,-0.030969159677624702,0.6609460115432739,0.8182933330535889,-0.05130121484398842,0.6704784631729126,0.7607181668281555,-0.06979136914014816,0.7086787223815918,0.7261039018630981,-0.08273184299468994,0.6503855586051941,0.695824384689331,-0.028751246631145477,0.6374787092208862,0.6429298520088196,-0.059006184339523315,0.6548593640327454,0.7106877565383911,-0.07404790818691254,0.6646968722343445,0.7423409819602966,-0.08072090893983841,0.684266984462738,0.6686429977416992,-0.02589578926563263,0.6778088212013245,0.5957227945327759,-0.057935845106840134,0.6897167563438416,0.6790335774421692,-0.0657164454460144,0.6888712048530579,0.709633469581604,-0.06503181159496307,0.7179893255233765,0.6591184735298157,-0.02783249132335186,0.7174459099769592,0.5967901349067688,-0.05764869973063469,0.7219442129135132,0.6783390641212463,-0.05535975843667984,0.7193772792816162,0.7285934686660767,-0.045889776200056076,0.7505382895469666,0.6615164279937744,-0.03254459425806999,0.7547159790992737,0.5755160450935364,-0.0499548465013504,0.7591720223426819,0.5205042362213135,-0.053751226514577866,0.7581760287284851,0.4643194079399109,-0.05319108068943024,0.0,0.0,0.0,0.0,0.0,0.0,0.0,0.0,0.0,0.0,0.0,0.0,0.0,0.0,0.0,0.0,0.0,0.0,0.0,0.0,0.0,0.0,0.0,0.0,0.0,0.0,0.0,0.0,0.0,0.0,0.0,0.0,0.0,0.0,0.0,0.0,0.0,0.0,0.0,0.0,0.0,0.0,0.0,0.0,0.0,0.0,0.0,0.0,0.0,0.0,0.0,0.0,0.0,0.0,0.0,0.0,0.0,0.0,0.0,0.0,0.0,0.0,0.0
1783390880.00056,0.7351668477058411,0.8978054523468018,-2.5751859311640146e-07,0.6938655972480774,0.8803119659423828,-0.028729159384965897,0.66000896692276,0.825607419013977,-0.04793325439095497,0.6712367534637451,0.7696563601493835,-0.06564948707818985,0.7109502553939819,0.7404801845550537,-0.07797636836767197,0.6527213454246521,0.7071515917778015,-0.028443874791264534,0.6414996385574341,0.6511203050613403,-0.05746845155954361,0.6598296165466309,0.7178866863250732,-0.07047803699970245,0.669391393661499,0.7473716735839844,-0.07533232867717743,0.6861013174057007,0.6816688776016235,-0.02689058519899845,0.6804485321044922,0.6066035032272339,-0.05988888069987297,0.6927956342697144,0.6880612969398499,-0.06583008170127869,0.6938521265983582,0.7230742573738098,-0.06203005835413933,0.7201915383338928,0.6732305288314819,-0.029830260202288628,0.7205470204353333,0.6119746565818787,-0.06097414344549179,0.7250531911849976,0.6970188617706299,-0.05665086209774017,0.7222212553024292,0.7475019693374634,-0.043744076043367386,0.7522752285003662,0.6744213700294495,-0.0352889709174633,0.7510798573493958,0.5868229269981384,-0.05215369537472725,0.7501971125602722,0.5292919874191284,-0.05315118283033371,0.7454441785812378,0.4702003598213196,-0.04936079680919647,0.0,0.0,0.0,0.0,0.0,0.0,0.0,0.0,0.0,0.0,0.0,0.0,0.0,0.0,0.0,0.0,0.0,0.0,0.0,0.0,0.0,0.0,0.0,0.0,0.0,0.0,0.0,0.0,0.0,0.0,0.0,0.0,0.0,0.0,0.0,0.0,0.0,0.0,0.0,0.0,0.0,0.0,0.0,0.0,0.0,0.0,0.0,0.0,0.0,0.0,0.0,0.0,0.0,0.0,0.0,0.0,0.0,0.0,0.0,0.0,0.0,0.0,0.0
1783390880.1483269,0.7341684103012085,0.8985461592674255,-2.6855323653762753e-07,0.6925411820411682,0.8774482011795044,-0.027512358501553535,0.6595969796180725,0.8169537782669067,-0.04739723354578018,0.6721171140670776,0.7554466724395752,-0.0665985718369484,0.7147338390350342,0.7274332642555237,-0.08058499544858932,0.6523087024688721,0.6963663101196289,-0.023502498865127563,0.6465148329734802,0.6420583128929138,-0.05112842470407486,0.6633445620536804,0.7118215560913086,-0.06440938264131546,0.6712644696235657,0.7472521066665649,-0.06918938457965851,0.685080885887146,0.6720317006111145,-0.022576918825507164,0.6811439990997314,0.6010209918022156,-0.05498756840825081,0.6938808560371399,0.681786835193634,-0.06245528161525726,0.6954176425933838,0.7243183255195618,-0.058997925370931625,0.7183972597122192,0.6635013222694397,-0.025851069018244743,0.716163158416748,0.5975679755210876,-0.054338488727808,0.7240478992462158,0.6845576763153076,-0.049064673483371735,0.7236239314079285,0.7430887818336487,-0.0353153720498085,0.749690592288971,0.6667829155921936,-0.03175218403339386,0.7403185963630676,0.5843307971954346,-0.04430565983057022,0.7351369857788086,0.5334473848342896,-0.04213842749595642,0.7262226939201355,0.48150238394737244,-0.0361812487244606,0.0,0.0,0.0,0.0,0.0,0.0,0.0,0.0,0.0,0.0,0.0,0.0,0.0,0.0,0.0,0.0,0.0,0.0,0.0,0.0,0.0,0.0,0.0,0.0,0.0,0.0,0.0,0.0,0.0,0.0,0.0,0.0,0.0,0.0,0.0,0.0,0.0,0.0,0.0,0.0,0.0,0.0,0.0,0.0,0.0,0.0,0.0,0.0,0.0,0.0,0.0,0.0,0.0,0.0,0.0,0.0,0.0,0.0,0.0,0.0,0.0,0.0,0.0
1783390880.316895,0.7316209077835083,0.8990060091018677,-2.531631935198675e-07,0.691565752029419,0.8787420392036438,-0.028800135478377342,0.6592508554458618,0.813417375087738,-0.04799289256334305,0.6721513271331787,0.7507639527320862,-0.06586912274360657,0.7151795625686646,0.723106861114502,-0.07864758372306824,0.6530004143714905,0.695532500743866,-0.026004645973443985,0.6467838883399963,0.6372830271720886,-0.051334768533706665,0.6623420715332031,0.7081865668296814,-0.06341865658760071,0.669816255569458,0.7419481873512268,-0.0686967670917511,0.687371015548706,0.6717014908790588,-0.024530930444598198,0.6858051419258118,0.5960671901702881,-0.0566459484398365,0.6951180696487427,0.6804921627044678,-0.06495778262615204,0.6950235366821289,0.7258704304695129,-0.06262464076280594,0.7214778065681458,0.6645517349243164,-0.02692885510623455,0.7230778336524963,0.5954437255859375,-0.054910723119974136,0.7256343364715576,0.6801145076751709,-0.05153851583600044,0.721505343914032,0.7378765940666199,-0.040136344730854034,0.7521512508392334,0.6700215339660645,-0.031959421932697296,0.7510495781898499,0.5864941477775574,-0.04531735181808472,0.7516874074935913,0.532068133354187,-0.045240528881549835,0.7481716871261597,0.4754783511161804,-0.04151245951652527,0.0,0.0,0.0,0.0,0.0,0.0,0.0,0.0,0.0,0.0,0.0,0.0,0.0,0.0,0.0,0.0,0.0,0.0,0.0,0.0,0.0,0.0,0.0,0.0,0.0,0.0,0.0,0.0,0.0,0.0,0.0,0.0,0.0,0.0,0.0,0.0,0.0,0.0,0.0,0.0,0.0,0.0,0.0,0.0,0.0,0.0,0.0,0.0,0.0,0.0,0.0,0.0,0.0,0.0,0.0,0.0,0.0,0.0,0.0,0.0,0.0,0.0,0.0
1783390880.475095,0.7319517135620117,0.8979253768920898,-2.1397934801825613e-07,0.6925094723701477,0.8778750896453857,-0.03286449983716011,0.6600055694580078,0.8167131543159485,-0.05366713926196098,0.6714332699775696,0.7574843764305115,-0.07266131788492203,0.7142234444618225,0.7281653881072998,-0.0858338475227356,0.6525834202766418,0.6929244995117188,-0.02760208025574684,0.6479318737983704,0.6367461681365967,-0.0551537461578846,0.6634267568588257,0.707209050655365,-0.06720247119665146,0.6709938645362854,0.7410213947296143,-0.07179820537567139,0.6875066757202148,0.6690241098403931,-0.02404717542231083,0.6867078542709351,0.5962052941322327,-0.056936584413051605,0.6968610286712646,0.680074155330658,-0.06380194425582886,0.6964521408081055,0.7196353077888489,-0.060506124049425125,0.7223124504089355,0.662817656993866,-0.025353929027915,0.7249212861061096,0.6015729308128357,-0.05659443512558937,0.7277966737747192,0.6887596845626831,-0.05335120111703873,0.7228121757507324,0.743721067905426,-0.04112384095788002,0.7540918588638306,0.6685819029808044,-0.029520299285650253,0.7585017681121826,0.5843800902366638,-0.04593628644943237,0.7641584873199463,0.5299174785614014,-0.04743869602680206,0.7643904089927673,0.472751259803772,-0.04409601166844368,0.0,0.0,0.0,0.0,0.0,0.0,0.0,0.0,0.0,0.0,0.0,0.0,0.0,0.0,0.0,0.0,0.0,0.0,0.0,0.0,0.0,0.0,0.0,0.0,0.0,0.0,0.0,0.0,0.0,0.0,0.0,0.0,0.0,0.0,0.0,0.0,0.0,0.0,0.0,0.0,0.0,0.0,0.0,0.0,0.0,0.0,0.0,0.0,0.0,0.0,0.0,0.0,0.0,0.0,0.0,0.0,0.0,0.0,0.0,0.0,0.0,0.0,0.0
1783390880.6166499,0.7333992719650269,0.9006538391113281,-2.0303488668105274e-07,0.6937007904052734,0.8809567093849182,-0.03370290994644165,0.662361741065979,0.8204758167266846,-0.055454447865486145,0.6750662326812744,0.7612400054931641,-0.07530916482210159,0.7161919474601746,0.7297280430793762,-0.08926916867494583,0.6546780467033386,0.6982123851776123,-0.02951260469853878,0.6481102705001831,0.6395576596260071,-0.05905193090438843,0.6638151407241821,0.7085984349250793,-0.07214422523975372,0.6727979183197021,0.7438551187515259,-0.07686854153871536,0.6888598799705505,0.6749882102012634,-0.02572804130613804,0.6877233386039734,0.6001896262168884,-0.05926922336220741,0.6974853277206421,0.6825599074363708,-0.06601162999868393,0.6973572373390198,0.7177534699440002,-0.06269910931587219,0.723233163356781,0.668785810470581,-0.027055827900767326,0.726491391658783,0.6048575043678284,-0.058993399143218994,0.7291864156723022,0.6917130351066589,-0.05539756268262863,0.7249343991279602,0.7453190088272095,-0.04298543557524681,0.7550489902496338,0.6743695735931396,-0.03135404363274574,0.7602817416191101,0.5893521308898926,-0.04883729666471481,0.7661491632461548,0.5332593321800232,-0.050766583532094955,0.7672561407089233,0.4742690324783325,-0.04764672368764877,0.0,0.0,0.0,0.0,0.0,0.0,0.0,0.0,0.0,0.0,0.0,0.0,0.0,0.0,0.0,0.0,0.0,0.0,0.0,0.0,0.0,0.0,0.0,0.0,0.0,0.0,0.0,0.0,0.0,0.0,0.0,0.0,0.0,0.0,0.0,0.0,0.0,0.0,0.0,0.0,0.0,0.0,0.0,0.0,0.0,0.0,0.0,0.0,0.0,0.0,0.0,0.0,0.0,0.0,0.0,0.0,0.0,0.0,0.0,0.0,0.0,0.0,0.0
1783390880.751779,0.7340508103370667,0.9025503993034363,-2.0825069668717333e-07,0.6945146918296814,0.882731556892395,-0.03269054740667343,0.6626184582710266,0.8193871378898621,-0.05324308201670647,0.6756682991981506,0.7597498297691345,-0.07189878821372986,0.7179691791534424,0.7321717143058777,-0.08453696221113205,0.6557221412658691,0.6982952356338501,-0.027966704219579697,0.6498176455497742,0.6399003267288208,-0.0570402666926384,0.665688693523407,0.7095056772232056,-0.0699012503027916,0.6740455031394958,0.7439966797828674,-0.0746237188577652,0.6898548603057861,0.6747677326202393,-0.02440960705280304,0.6887297034263611,0.60097336769104,-0.05730896070599556,0.6979678869247437,0.6835362911224365,-0.06345093995332718,0.6972212791442871,0.7170509099960327,-0.059846892952919006,0.7242484092712402,0.6692396402359009,-0.026009242981672287,0.7276893854141235,0.6075959205627441,-0.057304929941892624,0.7295296788215637,0.6946603059768677,-0.05331997573375702,0.7248730063438416,0.7479168176651001,-0.04082609340548515,0.756059467792511,0.6757279634475708,-0.030565481632947922,0.7620336413383484,0.5903909206390381,-0.04789973795413971,0.7680202722549438,0.5342981815338135,-0.04988318681716919,0.769589900970459,0.4756441116333008,-0.046873789280653,0.0,0.0,0.0,0.0,0.0,0.0,0.0,0.0,0.0,0.0,0.0,0.0,0.0,0.0,0.0,0.0,0.0,0.0,0.0,0.0,0.0,0.0,0.0,0.0,0.0,0.0,0.0,0.0,0.0,0.0,0.0,0.0,0.0,0.0,0.0,0.0,0.0,0.0,0.0,0.0,0.0,0.0,0.0,0.0,0.0,0.0,0.0,0.0,0.0,0.0,0.0,0.0,0.0,0.0,0.0,0.0,0.0,0.0,0.0,0.0,0.0,0.0,0.0
1783390880.883818,0.7346631288528442,0.9007667303085327,-2.0395569322317897e-07,0.6946598291397095,0.8792526721954346,-0.030557913705706596,0.6630710959434509,0.8168702721595764,-0.05059861019253731,0.676099419593811,0.7568578124046326,-0.06921063363552094,0.7187125086784363,0.7279736399650574,-0.08222350478172302,0.6576206088066101,0.6974853277206421,-0.02705547586083412,0.6511969566345215,0.6368149518966675,-0.05493015795946121,0.6666902899742126,0.706368625164032,-0.06761860102415085,0.6745709776878357,0.7417210340499878,-0.072530597448349,0.6916865706443787,0.6737177968025208,-0.02445036731660366,0.6906670928001404,0.5984574556350708,-0.0561024434864521,0.6998366713523865,0.6789353489875793,-0.0628938302397728,0.6989785432815552,0.7148149013519287,-0.06032397225499153,0.7259140610694885,0.6675559878349304,-0.026545997709035873,0.7293721437454224,0.604977011680603,-0.05644075945019722,0.7308703660964966,0.6918659210205078,-0.053144752979278564,0.7255034446716309,0.7472719550132751,-0.04167146980762482,0.7574527859687805,0.6739268898963928,-0.03139861673116684,0.7633511424064636,0.5885657668113708,-0.04751354828476906,0.7705369591712952,0.5327354073524475,-0.049376629292964935,0.7728070616722107,0.4752919375896454,-0.046734768897295,0.0,0.0,0.0,0.0,0.0,0.0,0.0,0.0,0.0,0.0,0.0,0.0,0.0,0.0,0.0,0.0,0.0,0.0,0.0,0.0,0.0,0.0,0.0,0.0,0.0,0.0,0.0,0.0,0.0,0.0,0.0,0.0,0.0,0.0,0.0,0.0,0.0,0.0,0.0,0.0,0.0,0.0,0.0,0.0,0.0,0.0,0.0,0.0,0.0,0.0,0.0,0.0,0.0,0.0,0.0,0.0,0.0,0.0,0.0,0.0,0.0,0.0,0.0
1783390881.0222578,0.734951913356781,0.9021251201629639,-2.1054368914974475e-07,0.6956675052642822,0.8796043395996094,-0.0298248790204525,0.6645419001579285,0.8131534457206726,-0.04905496537685394,0.677913248538971,0.7522735595703125,-0.06699922680854797,0.7196158766746521,0.7244173884391785,-0.07943369448184967,0.6583424806594849,0.6967489719390869,-0.025779780000448227,0.6529906392097473,0.635227382183075,-0.05350349098443985,0.6679102182388306,0.7043812870979309,-0.06646140664815903,0.6751955151557922,0.7403157353401184,-0.07168122380971909,0.6921507120132446,0.6732017397880554,-0.023490071296691895,0.6921398639678955,0.5969019532203674,-0.054771535098552704,0.7004126906394958,0.6761855483055115,-0.061709094792604446,0.6984164118766785,0.7108365893363953,-0.05946687236428261,0.7263054847717285,0.667704701423645,-0.025918645784258842,0.7301691770553589,0.6024081110954285,-0.05518385022878647,0.7312667369842529,0.6881664395332336,-0.051748622208833694,0.7255567312240601,0.743499219417572,-0.040547363460063934,0.757591962814331,0.67472904920578,-0.03112427517771721,0.7640448212623596,0.5887773633003235,-0.0472915917634964,0.7714431285858154,0.5319675207138062,-0.04942888393998146,0.7739065289497375,0.4734994173049927,-0.04716787487268448,0.0,0.0,0.0,0.0,0.0,0.0,0.0,0.0,0.0,0.0,0.0,0.0,0.0,0.0,0.0,0.0,0.0,0.0,0.0,0.0,0.0,0.0,0.0,0.0,0.0,0.0,0.0,0.0,0.0,0.0,0.0,0.0,0.0,0.0,0.0,0.0,0.0,0.0,0.0,0.0,0.0,0.0,0.0,0.0,0.0,0.0,0.0,0.0,0.0,0.0,0.0,0.0,0.0,0.0,0.0,0.0,0.0,0.0,0.0,0.0,0.0,0.0,0.0
1783390881.232625,0.7347412109375,0.9079645276069641,-2.3453306141618668e-07,0.696005642414093,0.8843344449996948,-0.032596103847026825,0.6645159721374512,0.815980076789856,-0.052947912365198135,0.6783420443534851,0.7545527815818787,-0.07106410712003708,0.7199965119361877,0.727783739566803,-0.08323762565851212,0.6580443382263184,0.7010294795036316,-0.03082553669810295,0.6522251963615417,0.6393139362335205,-0.05844767764210701,0.667097806930542,0.709715723991394,-0.07059793174266815,0.6742505431175232,0.744358241558075,-0.07575104385614395,0.6924788355827332,0.677513599395752,-0.026787469163537025,0.6909464001655579,0.6035661697387695,-0.056119322776794434,0.7004261612892151,0.6890217661857605,-0.06085841357707977,0.6988522410392761,0.7128316164016724,-0.05831236392259598,0.7268276214599609,0.6720865368843079,-0.027583450078964233,0.7299699187278748,0.6051058173179626,-0.05471792072057724,0.7319243550300598,0.6912044882774353,-0.04961298033595085,0.7281726002693176,0.7447137832641602,-0.03886609524488449,0.7586419582366943,0.6795646548271179,-0.03151002153754234,0.7652276158332825,0.5920770168304443,-0.04795970767736435,0.7715880274772644,0.5350600481033325,-0.050981294363737106,0.7736678719520569,0.4766170084476471,-0.05005720257759094,0.0,0.0,0.0,0.0,0.0,0.0,0.0,0.0,0.0,0.0,0.0,0.0,0.0,0.0,0.0,0.0,0.0,0.0,0.0,0.0,0.0,0.0,0.0,0.0,0.0,0.0,0.0,0.0,0.0,0.0,0.0,0.0,0.0,0.0,0.0,0.0,0.0,0.0,0.0,0.0,0.0,0.0,0.0,0.0,0.0,0.0,0.0,0.0,0.0,0.0,0.0,0.0,0.0,0.0,0.0,0.0,0.0,0.0,0.0,0.0,0.0,0.0,0.0
