ciel274/research-hand-sign/data/raw/hiragana/sign_language_se_1.csv
timestamp,R_joint_0_x,R_joint_0_y,R_joint_0_z,R_joint_1_x,R_joint_1_y,R_joint_1_z,R_joint_2_x,R_joint_2_y,R_joint_2_z,R_joint_3_x,R_joint_3_y,R_joint_3_z,R_joint_4_x,R_joint_4_y,R_joint_4_z,R_joint_5_x,R_joint_5_y,R_joint_5_z,R_joint_6_x,R_joint_6_y,R_joint_6_z,R_joint_7_x,R_joint_7_y,R_joint_7_z,R_joint_8_x,R_joint_8_y,R_joint_8_z,R_joint_9_x,R_joint_9_y,R_joint_9_z,R_joint_10_x,R_joint_10_y,R_joint_10_z,R_joint_11_x,R_joint_11_y,R_joint_11_z,R_joint_12_x,R_joint_12_y,R_joint_12_z,R_joint_13_x,R_joint_13_y,R_joint_13_z,R_joint_14_x,R_joint_14_y,R_joint_14_z,R_joint_15_x,R_joint_15_y,R_joint_15_z,R_joint_16_x,R_joint_16_y,R_joint_16_z,R_joint_17_x,R_joint_17_y,R_joint_17_z,R_joint_18_x,R_joint_18_y,R_joint_18_z,R_joint_19_x,R_joint_19_y,R_joint_19_z,R_joint_20_x,R_joint_20_y,R_joint_20_z,L_joint_0_x,L_joint_0_y,L_joint_0_z,L_joint_1_x,L_joint_1_y,L_joint_1_z,L_joint_2_x,L_joint_2_y,L_joint_2_z,L_joint_3_x,L_joint_3_y,L_joint_3_z,L_joint_4_x,L_joint_4_y,L_joint_4_z,L_joint_5_x,L_joint_5_y,L_joint_5_z,L_joint_6_x,L_joint_6_y,L_joint_6_z,L_joint_7_x,L_joint_7_y,L_joint_7_z,L_joint_8_x,L_joint_8_y,L_joint_8_z,L_joint_9_x,L_joint_9_y,L_joint_9_z,L_joint_10_x,L_joint_10_y,L_joint_10_z,L_joint_11_x,L_joint_11_y,L_joint_11_z,L_joint_12_x,L_joint_12_y,L_joint_12_z,L_joint_13_x,L_joint_13_y,L_joint_13_z,L_joint_14_x,L_joint_14_y,L_joint_14_z,L_joint_15_x,L_joint_15_y,L_joint_15_z,L_joint_16_x,L_joint_16_y,L_joint_16_z,L_joint_17_x,L_joint_17_y,L_joint_17_z,L_joint_18_x,L_joint_18_y,L_joint_18_z,L_joint_19_x,L_joint_19_y,L_joint_19_z,L_joint_20_x,L_joint_20_y,L_joint_20_z
1783390762.164259,0.7548460960388184,0.8955923914909363,1.5643709616597334e-07,0.7875913977622986,0.7706449031829834,0.03750342130661011,0.7779192924499512,0.6693794131278992,0.04541730508208275,0.7465331554412842,0.613451361656189,0.04500821977853775,0.7068508863449097,0.6006386280059814,0.04463442414999008,0.7820510268211365,0.6064507365226746,0.011294599622488022,0.7510085701942444,0.4931086003780365,0.0036569859366863966,0.742557168006897,0.5217205286026001,-0.0005024204147048295,0.7466006278991699,0.5650319457054138,-0.0010382094187662005,0.7420770525932312,0.6125933527946472,-0.011728174053132534,0.7157847285270691,0.44734275341033936,-0.020760172978043556,0.7005822658538818,0.35795941948890686,-0.02484949305653572,0.6905350089073181,0.29259541630744934,-0.028374260291457176,0.7019050121307373,0.639424204826355,-0.02959584631025791,0.674440324306488,0.5095967054367065,-0.02985621616244316,0.6820213198661804,0.5453734397888184,-0.0148015720769763,0.6900486946105957,0.5819832682609558,-0.0036676935851573944,0.6715432405471802,0.6834256649017334,-0.044454943388700485,0.6569338440895081,0.5887446999549866,-0.033366747200489044,0.6677111983299255,0.6148932576179504,-0.00948991160839796,0.6783090233802795,0.6486411094665527,0.00785356480628252,0.0,0.0,0.0,0.0,0.0,0.0,0.0,0.0,0.0,0.0,0.0,0.0,0.0,0.0,0.0,0.0,0.0,0.0,0.0,0.0,0.0,0.0,0.0,0.0,0.0,0.0,0.0,0.0,0.0,0.0,0.0,0.0,0.0,0.0,0.0,0.0,0.0,0.0,0.0,0.0,0.0,0.0,0.0,0.0,0.0,0.0,0.0,0.0,0.0,0.0,0.0,0.0,0.0,0.0,0.0,0.0,0.0,0.0,0.0,0.0,0.0,0.0,0.0
1783390762.3054779,0.7562482953071594,0.89422607421875,1.6602113817043573e-07,0.7889167070388794,0.7666051387786865,0.039103664457798004,0.7799076437950134,0.6680492162704468,0.04660210385918617,0.7507153749465942,0.614812970161438,0.045426178723573685,0.7123280167579651,0.602653980255127,0.04419715702533722,0.784816563129425,0.6062730550765991,0.010756130330264568,0.7546228766441345,0.4948345422744751,0.0025874467100948095,0.746354341506958,0.524320125579834,-0.0022219994571059942,0.7511122226715088,0.5677655339241028,-0.003032165579497814,0.7447558045387268,0.6126654744148254,-0.013237079605460167,0.7191410660743713,0.44602733850479126,-0.022671500220894814,0.7039499282836914,0.3552199900150299,-0.027281247079372406,0.6944504380226135,0.28857168555259705,-0.031193602830171585,0.7043094038963318,0.6393275856971741,-0.03167141228914261,0.6790474653244019,0.5082336664199829,-0.03140079602599144,0.6855731010437012,0.5451271533966064,-0.015809090808033943,0.6928141117095947,0.5829349160194397,-0.004387006163597107,0.6745573282241821,0.6824632287025452,-0.04698806256055832,0.6600682139396667,0.5862104296684265,-0.034449830651283264,0.6705070734024048,0.612454354763031,-0.00915011577308178,0.6807639002799988,0.6469083428382874,0.009052721783518791,0.0,0.0,0.0,0.0,0.0,0.0,0.0,0.0,0.0,0.0,0.0,0.0,0.0,0.0,0.0,0.0,0.0,0.0,0.0,0.0,0.0,0.0,0.0,0.0,0.0,0.0,0.0,0.0,0.0,0.0,0.0,0.0,0.0,0.0,0.0,0.0,0.0,0.0,0.0,0.0,0.0,0.0,0.0,0.0,0.0,0.0,0.0,0.0,0.0,0.0,0.0,0.0,0.0,0.0,0.0,0.0,0.0,0.0,0.0,0.0,0.0,0.0,0.0
1783390762.466395,0.7608907222747803,0.8909657597541809,1.517405081585821e-07,0.7930416464805603,0.7639335989952087,0.038510389626026154,0.7840073108673096,0.6639196276664734,0.046038053929805756,0.7550086379051208,0.6103950142860413,0.04508773237466812,0.7170737385749817,0.6000018119812012,0.04403890669345856,0.7877576351165771,0.6020607352256775,0.010298293083906174,0.7575432658195496,0.4932540953159332,0.002506705466657877,0.7493404150009155,0.5222669243812561,-0.001762200379744172,0.7537786364555359,0.5644026398658752,-0.0023162346333265305,0.7479763627052307,0.6096633076667786,-0.013488301075994968,0.7221928238868713,0.4444502592086792,-0.022180097177624702,0.7070222496986389,0.35540810227394104,-0.025758860632777214,0.6972883343696594,0.2909521758556366,-0.02900199592113495,0.7078182101249695,0.6377965807914734,-0.03185759857296944,0.6814224123954773,0.5084596276283264,-0.03150927647948265,0.6887897253036499,0.5459998250007629,-0.015628326684236526,0.697128176689148,0.5838139653205872,-0.00406128354370594,0.6777210831642151,0.6824945211410522,-0.04718755558133125,0.6617621779441833,0.5873780846595764,-0.03544884920120239,0.6724290251731873,0.6131194829940796,-0.010686400346457958,0.6832962036132812,0.6469236612319946,0.007219123188406229,0.0,0.0,0.0,0.0,0.0,0.0,0.0,0.0,0.0,0.0,0.0,0.0,0.0,0.0,0.0,0.0,0.0,0.0,0.0,0.0,0.0,0.0,0.0,0.0,0.0,0.0,0.0,0.0,0.0,0.0,0.0,0.0,0.0,0.0,0.0,0.0,0.0,0.0,0.0,0.0,0.0,0.0,0.0,0.0,0.0,0.0,0.0,0.0,0.0,0.0,0.0,0.0,0.0,0.0,0.0,0.0,0.0,0.0,0.0,0.0,0.0,0.0,0.0
1783390762.626654,0.7607382535934448,0.8896181583404541,1.6041764183682972e-07,0.7945964336395264,0.7620342969894409,0.04045625030994415,0.7856347560882568,0.6632195711135864,0.04884087294340134,0.7582723498344421,0.6063446998596191,0.048542581498622894,0.720453679561615,0.5947092175483704,0.04843373969197273,0.7905475497245789,0.5984529256820679,0.011717208661139011,0.7593443989753723,0.4891386032104492,0.004534111823886633,0.7505919337272644,0.5182636380195618,0.0011161011643707752,0.7546708583831787,0.5614557266235352,0.001400562236085534,0.7504266500473022,0.6053606867790222,-0.012527376413345337,0.7245915532112122,0.43974947929382324,-0.021539313718676567,0.7089821100234985,0.3495601713657379,-0.024617407470941544,0.6992353200912476,0.28571218252182007,-0.026995889842510223,0.7096856236457825,0.6327221989631653,-0.03105417639017105,0.6821476817131042,0.5053883790969849,-0.029973413795232773,0.6884278655052185,0.5407227277755737,-0.012818927876651287,0.6967436075210571,0.5778473615646362,-0.000166577025083825,0.6791885495185852,0.6775830388069153,-0.04642253369092941,0.662338137626648,0.5816771984100342,-0.032885484397411346,0.6723532676696777,0.6077418923377991,-0.006246656179428101,0.683531641960144,0.642214298248291,0.01313920971006155,0.0,0.0,0.0,0.0,0.0,0.0,0.0,0.0,0.0,0.0,0.0,0.0,0.0,0.0,0.0,0.0,0.0,0.0,0.0,0.0,0.0,0.0,0.0,0.0,0.0,0.0,0.0,0.0,0.0,0.0,0.0,0.0,0.0,0.0,0.0,0.0,0.0,0.0,0.0,0.0,0.0,0.0,0.0,0.0,0.0,0.0,0.0,0.0,0.0,0.0,0.0,0.0,0.0,0.0,0.0,0.0,0.0,0.0,0.0,0.0,0.0,0.0,0.0
1783390762.783861,0.761793315410614,0.8923999667167664,1.4127351732895477e-07,0.795798659324646,0.7646421790122986,0.04221346229314804,0.786616325378418,0.6666610240936279,0.05212530493736267,0.7583034634590149,0.6104557514190674,0.053258176892995834,0.7210280299186707,0.5962601900100708,0.05521441996097565,0.7915440201759338,0.6018009185791016,0.014011868275702,0.7618036270141602,0.4886554181575775,0.009291552938520908,0.7537841200828552,0.51743084192276,0.00880145002156496,0.7578204870223999,0.5595460534095764,0.010771196335554123,0.75200355052948,0.607598602771759,-0.010500898584723473,0.7262608408927917,0.44151005148887634,-0.020547853782773018,0.7107171416282654,0.3508630692958832,-0.023830825462937355,0.7000016570091248,0.2853451669216156,-0.026128670200705528,0.7114925384521484,0.6338403224945068,-0.028879882767796516,0.684911847114563,0.5057424306869507,-0.02814764529466629,0.6917504072189331,0.5447365045547485,-0.010449768044054508,0.699463427066803,0.5820993185043335,0.0028494654688984156,0.6809242367744446,0.6785206198692322,-0.0438537672162056,0.6642893552780151,0.5815290212631226,-0.029867123812437057,0.6740192770957947,0.6080372333526611,-0.0030925809405744076,0.6844099760055542,0.6419618129730225,0.016380608081817627,0.0,0.0,0.0,0.0,0.0,0.0,0.0,0.0,0.0,0.0,0.0,0.0,0.0,0.0,0.0,0.0,0.0,0.0,0.0,0.0,0.0,0.0,0.0,0.0,0.0,0.0,0.0,0.0,0.0,0.0,0.0,0.0,0.0,0.0,0.0,0.0,0.0,0.0,0.0,0.0,0.0,0.0,0.0,0.0,0.0,0.0,0.0,0.0,0.0,0.0,0.0,0.0,0.0,0.0,0.0,0.0,0.0,0.0,0.0,0.0,0.0,0.0,0.0
1783390762.947175,0.7615965008735657,0.9000267386436462,1.284339674612056e-07,0.7963489890098572,0.7689117789268494,0.047237321734428406,0.7874068021774292,0.672405481338501,0.059411343187093735,0.7609533071517944,0.612486720085144,0.06197989359498024,0.7248666286468506,0.5953639149665833,0.06560414284467697,0.7933757305145264,0.60554438829422,0.017895348370075226,0.7636328935623169,0.49140116572380066,0.014876114204525948,0.7558203935623169,0.5180110335350037,0.016665494069457054,0.7598171234130859,0.5597257614135742,0.020119601860642433,0.7544721364974976,0.6109374165534973,-0.008721848949790001,0.7293936610221863,0.4437623620033264,-0.019877741113305092,0.714158833026886,0.3523334562778473,-0.022809218615293503,0.7037045359611511,0.2882394790649414,-0.024375908076763153,0.7136697769165039,0.6368590593338013,-0.0285953376442194,0.6863906383514404,0.5083249807357788,-0.027425453066825867,0.6930971145629883,0.5450177788734436,-0.008281879127025604,0.701041579246521,0.5809692740440369,0.006146030966192484,0.68233722448349,0.6823267936706543,-0.044666189700365067,0.6645955443382263,0.5818575620651245,-0.029607897624373436,0.6741165518760681,0.6072229743003845,-0.0018361399415880442,0.6846048831939697,0.6413213014602661,0.018439697101712227,0.0,0.0,0.0,0.0,0.0,0.0,0.0,0.0,0.0,0.0,0.0,0.0,0.0,0.0,0.0,0.0,0.0,0.0,0.0,0.0,0.0,0.0,0.0,0.0,0.0,0.0,0.0,0.0,0.0,0.0,0.0,0.0,0.0,0.0,0.0,0.0,0.0,0.0,0.0,0.0,0.0,0.0,0.0,0.0,0.0,0.0,0.0,0.0,0.0,0.0,0.0,0.0,0.0,0.0,0.0,0.0,0.0,0.0,0.0,0.0,0.0,0.0,0.0
1783390763.184992,0.762916088104248,0.8957297205924988,1.2673241656102618e-07,0.7974327802658081,0.770206868648529,0.03802576661109924,0.7893673777580261,0.6686389446258545,0.045768775045871735,0.7593844532966614,0.6135495901107788,0.044864222407341,0.7207876443862915,0.6025409698486328,0.04393692687153816,0.793592095375061,0.6052908897399902,0.010626157745718956,0.7634658813476562,0.49232131242752075,0.002465980127453804,0.7544825077056885,0.5221185684204102,-0.0015623979270458221,0.7583078145980835,0.5670182704925537,-0.0017896542558446527,0.7543460130691528,0.6108086705207825,-0.01314456481486559,0.7290436625480652,0.44510090351104736,-0.022021187469363213,0.7144734263420105,0.35569193959236145,-0.025108084082603455,0.7049217224121094,0.2906997799873352,-0.027938688173890114,0.714150607585907,0.6370651125907898,-0.031833913177251816,0.6862531900405884,0.5049269199371338,-0.032280731946229935,0.6931570172309875,0.5433644652366638,-0.016423137858510017,0.7013717889785767,0.581045389175415,-0.0045496090315282345,0.6829707026481628,0.6814672946929932,-0.0474947988986969,0.6652855277061462,0.580479085445404,-0.03646857291460037,0.6754978895187378,0.6061844825744629,-0.011867102235555649,0.6869340538978577,0.6413092017173767,0.006103542633354664,0.0,0.0,0.0,0.0,0.0,0.0,0.0,0.0,0.0,0.0,0.0,0.0,0.0,0.0,0.0,0.0,0.0,0.0,0.0,0.0,0.0,0.0,0.0,0.0,0.0,0.0,0.0,0.0,0.0,0.0,0.0,0.0,0.0,0.0,0.0,0.0,0.0,0.0,0.0,0.0,0.0,0.0,0.0,0.0,0.0,0.0,0.0,0.0,0.0,0.0,0.0,0.0,0.0,0.0,0.0,0.0,0.0,0.0,0.0,0.0,0.0,0.0,0.0
1783390763.39427,0.7622458934783936,0.8949952721595764,1.0772058089969505e-07,0.7974326610565186,0.7706851959228516,0.039664577692747116,0.789949893951416,0.6688979864120483,0.04867318645119667,0.7628663182258606,0.6065710186958313,0.049045659601688385,0.7262423634529114,0.5920925736427307,0.04983443021774292,0.7932813763618469,0.6056722402572632,0.010635859332978725,0.7618927359580994,0.4925754964351654,0.003713803132995963,0.7523656487464905,0.5207690000534058,0.0013811115641146898,0.7564595341682434,0.5658092498779297,0.001860633841715753,0.7549501657485962,0.6117705702781677,-0.013507041148841381,0.7268025279045105,0.4480833411216736,-0.02477036602795124,0.7104433178901672,0.35779231786727905,-0.028872735798358917,0.7001150846481323,0.29445943236351013,-0.03217242285609245,0.7148725986480713,0.638468325138092,-0.031971581280231476,0.6859602332115173,0.5074130892753601,-0.032812077552080154,0.6922398805618286,0.5427702069282532,-0.015361279249191284,0.7003163695335388,0.5789731740951538,-0.0024528191424906254,0.683599054813385,0.6832249760627747,-0.04732394590973854,0.664011538028717,0.5846784710884094,-0.03611461818218231,0.6737862825393677,0.6087371706962585,-0.011145818047225475,0.6850818991661072,0.642866849899292,0.007033070549368858,0.0,0.0,0.0,0.0,0.0,0.0,0.0,0.0,0.0,0.0,0.0,0.0,0.0,0.0,0.0,0.0,0.0,0.0,0.0,0.0,0.0,0.0,0.0,0.0,0.0,0.0,0.0,0.0,0.0,0.0,0.0,0.0,0.0,0.0,0.0,0.0,0.0,0.0,0.0,0.0,0.0,0.0,0.0,0.0,0.0,0.0,0.0,0.0,0.0,0.0,0.0,0.0,0.0,0.0,0.0,0.0,0.0,0.0,0.0,0.0,0.0,0.0,0.0
1783390763.548862,0.7647364735603333,0.9014275074005127,9.021934488373518e-08,0.799236536026001,0.7781323790550232,0.040704138576984406,0.7921948432922363,0.6747353672981262,0.051032405346632004,0.7653687000274658,0.6102847456932068,0.053151894360780716,0.7284511923789978,0.5941858291625977,0.055810265243053436,0.7962572574615479,0.6082192063331604,0.013180847279727459,0.763233482837677,0.49306532740592957,0.009855398908257484,0.7540326118469238,0.5215270519256592,0.010629146359860897,0.7583956718444824,0.5659302473068237,0.013397776521742344,0.7562018632888794,0.6149892807006836,-0.010549906641244888,0.726422131061554,0.4488889276981354,-0.018043411895632744,0.7095645666122437,0.3608492612838745,-0.019149217754602432,0.6979907751083374,0.29844433069229126,-0.020063448697328568,0.715620219707489,0.6417954564094543,-0.02852300927042961,0.6873584985733032,0.5088859796524048,-0.02757921814918518,0.6940104961395264,0.5452136993408203,-0.010588862001895905,0.7022470235824585,0.5820968747138977,0.0021369289606809616,0.68410724401474,0.6879138946533203,-0.04307052493095398,0.6664958596229553,0.5865484476089478,-0.03057115338742733,0.6753703355789185,0.6130538582801819,-0.005230745766311884,0.686225950717926,0.6496087908744812,0.013315916061401367,0.0,0.0,0.0,0.0,0.0,0.0,0.0,0.0,0.0,0.0,0.0,0.0,0.0,0.0,0.0,0.0,0.0,0.0,0.0,0.0,0.0,0.0,0.0,0.0,0.0,0.0,0.0,0.0,0.0,0.0,0.0,0.0,0.0,0.0,0.0,0.0,0.0,0.0,0.0,0.0,0.0,0.0,0.0,0.0,0.0,0.0,0.0,0.0,0.0,0.0,0.0,0.0,0.0,0.0,0.0,0.0,0.0,0.0,0.0,0.0,0.0,0.0,0.0
1783390763.715106,0.766448438167572,0.9019149541854858,8.781589855288985e-08,0.8003804683685303,0.7762234210968018,0.039810098707675934,0.7937424778938293,0.6710383296012878,0.04953182116150856,0.7676495909690857,0.6061683297157288,0.05105192959308624,0.7324713468551636,0.5885250568389893,0.053356245160102844,0.795667827129364,0.6064308881759644,0.010930793359875679,0.763049840927124,0.4928431808948517,0.007108794059604406,0.7539445161819458,0.5223283171653748,0.007654519751667976,0.7582154870033264,0.5685448050498962,0.009987878613173962,0.7563084959983826,0.6142505407333374,-0.012426726520061493,0.7268204689025879,0.4529035687446594,-0.020491061732172966,0.7097914218902588,0.36461499333381653,-0.022558266296982765,0.6982381343841553,0.3029637634754181,-0.02483879216015339,0.7156850695610046,0.6412297487258911,-0.02998235635459423,0.6875935196876526,0.5092121958732605,-0.028414925560355186,0.6947644948959351,0.5456783771514893,-0.01088110450655222,0.7030546069145203,0.5831528902053833,0.0014717916492372751,0.6844345927238464,0.6858423948287964,-0.044335924088954926,0.6662671566009521,0.5864662528038025,-0.031684938818216324,0.6762029528617859,0.6115883588790894,-0.006735746283084154,0.6877890825271606,0.6472834944725037,0.01117187924683094,0.0,0.0,0.0,0.0,0.0,0.0,0.0,0.0,0.0,0.0,0.0,0.0,0.0,0.0,0.0,0.0,0.0,0.0,0.0,0.0,0.0,0.0,0.0,0.0,0.0,0.0,0.0,0.0,0.0,0.0,0.0,0.0,0.0,0.0,0.0,0.0,0.0,0.0,0.0,0.0,0.0,0.0,0.0,0.0,0.0,0.0,0.0,0.0,0.0,0.0,0.0,0.0,0.0,0.0,0.0,0.0,0.0,0.0,0.0,0.0,0.0,0.0,0.0
1783390763.882878,0.7661728262901306,0.8972800374031067,6.760815551842825e-08,0.7991117835044861,0.7693837285041809,0.0435333177447319,0.7922762632369995,0.6668700575828552,0.05456342548131943,0.767585039138794,0.5987898707389832,0.056765470653772354,0.7333933115005493,0.5805590152740479,0.06025348976254463,0.7926243543624878,0.5970280170440674,0.015033317729830742,0.7604464888572693,0.4893419146537781,0.013021284714341164,0.7521415948867798,0.5224637985229492,0.015186978504061699,0.7574337124824524,0.5714818835258484,0.018233228474855423,0.7551133632659912,0.6058675050735474,-0.01036299392580986,0.7231127619743347,0.4482329785823822,-0.01815088652074337,0.7052555680274963,0.3594384491443634,-0.01954674907028675,0.6941220760345459,0.29838863015174866,-0.021587874740362167,0.7158451676368713,0.6354921460151672,-0.029645757749676704,0.6860332489013672,0.5076890587806702,-0.026294251903891563,0.6922615170478821,0.5463464856147766,-0.006006475072354078,0.7003836631774902,0.5835943818092346,0.007527743466198444,0.6859506368637085,0.6829023361206055,-0.04571744054555893,0.6647883057594299,0.5865526795387268,-0.03224644437432289,0.6738914847373962,0.6136859655380249,-0.006160925608128309,0.6853384375572205,0.6492100954055786,0.012353604659438133,0.0,0.0,0.0,0.0,0.0,0.0,0.0,0.0,0.0,0.0,0.0,0.0,0.0,0.0,0.0,0.0,0.0,0.0,0.0,0.0,0.0,0.0,0.0,0.0,0.0,0.0,0.0,0.0,0.0,0.0,0.0,0.0,0.0,0.0,0.0,0.0,0.0,0.0,0.0,0.0,0.0,0.0,0.0,0.0,0.0,0.0,0.0,0.0,0.0,0.0,0.0,0.0,0.0,0.0,0.0,0.0,0.0,0.0,0.0,0.0,0.0,0.0,0.0
1783390764.0466921,0.7644833326339722,0.8906065821647644,6.804427243878308e-08,0.7974758148193359,0.7619006037712097,0.04142104089260101,0.7894884943962097,0.6599208116531372,0.05183069407939911,0.7624213099479675,0.5960820913314819,0.053955547511577606,0.7268204092979431,0.5781378746032715,0.05699055641889572,0.7919081449508667,0.5917618870735168,0.014661076478660107,0.7598564028739929,0.48206159472465515,0.012544956058263779,0.7507207989692688,0.5141500234603882,0.01419765967875719,0.7556597590446472,0.5607866048812866,0.017314458265900612,0.7528311014175415,0.5997946262359619,-0.009337975643575191,0.721615195274353,0.4426003694534302,-0.01438110787421465,0.7040746808052063,0.3580460846424103,-0.013756035827100277,0.6927117705345154,0.2987317740917206,-0.014416554942727089,0.7135289907455444,0.6281883120536804,-0.027791373431682587,0.6839390397071838,0.5003448724746704,-0.024340711534023285,0.6896628141403198,0.537779688835144,-0.0061176070012152195,0.6975727677345276,0.5761285424232483,0.006168583407998085,0.6831260323524475,0.6747454404830933,-0.04299236834049225,0.6630017757415771,0.5766840577125549,-0.030203120782971382,0.6718957424163818,0.6032112836837769,-0.005185999907553196,0.6840185523033142,0.6398082971572876,0.012696845456957817,0.0,0.0,0.0,0.0,0.0,0.0,0.0,0.0,0.0,0.0,0.0,0.0,0.0,0.0,0.0,0.0,0.0,0.0,0.0,0.0,0.0,0.0,0.0,0.0,0.0,0.0,0.0,0.0,0.0,0.0,0.0,0.0,0.0,0.0,0.0,0.0,0.0,0.0,0.0,0.0,0.0,0.0,0.0,0.0,0.0,0.0,0.0,0.0,0.0,0.0,0.0,0.0,0.0,0.0,0.0,0.0,0.0,0.0,0.0,0.0,0.0,0.0,0.0
1783390764.177011,0.7646821737289429,0.8856231570243835,7.28246263292931e-08,0.796289324760437,0.7588003873825073,0.04003216698765755,0.7886952757835388,0.6572609543800354,0.049759868532419205,0.7629170417785645,0.5902642011642456,0.051154229789972305,0.7282301187515259,0.5719935297966003,0.053533826023340225,0.790684163570404,0.5860885977745056,0.014286710880696774,0.7578662633895874,0.4787605404853821,0.011013072915375233,0.7486257553100586,0.5087136030197144,0.012003363110125065,0.7531803846359253,0.5548112988471985,0.014666767790913582,0.7524909377098083,0.5930427312850952,-0.00952336098998785,0.7206059694290161,0.437999427318573,-0.015736717730760574,0.7029507756233215,0.3540576696395874,-0.015806125476956367,0.691943347454071,0.2948893904685974,-0.01674184761941433,0.7134535908699036,0.6214744448661804,-0.027980923652648926,0.6834539771080017,0.4978599548339844,-0.025074277073144913,0.6892366409301758,0.5374088287353516,-0.006174047011882067,0.6972931623458862,0.5752912759780884,0.006678697653114796,0.6831161975860596,0.6692542433738708,-0.04353718459606171,0.6632677316665649,0.5767191648483276,-0.031301382929086685,0.6723306179046631,0.6046615839004517,-0.0064049833454191685,0.6839272379875183,0.6402141451835632,0.011518178507685661,0.0,0.0,0.0,0.0,0.0,0.0,0.0,0.0,0.0,0.0,0.0,0.0,0.0,0.0,0.0,0.0,0.0,0.0,0.0,0.0,0.0,0.0,0.0,0.0,0.0,0.0,0.0,0.0,0.0,0.0,0.0,0.0,0.0,0.0,0.0,0.0,0.0,0.0,0.0,0.0,0.0,0.0,0.0,0.0,0.0,0.0,0.0,0.0,0.0,0.0,0.0,0.0,0.0,0.0,0.0,0.0,0.0,0.0,0.0,0.0,0.0,0.0,0.0
1783390764.3443048,0.7657672166824341,0.8709630370140076,7.209392549611948e-08,0.7948994040489197,0.739935576915741,0.04354085773229599,0.7855288982391357,0.6396499872207642,0.05396366864442825,0.7599692940711975,0.5747206211090088,0.05546767637133598,0.725536048412323,0.5575762391090393,0.05727670341730118,0.7871049046516418,0.5668430328369141,0.01574624329805374,0.7546336650848389,0.46577778458595276,0.014485906809568405,0.7457523345947266,0.4931374490261078,0.016683265566825867,0.7500916719436646,0.5372166633605957,0.01968659646809101,0.7487329244613647,0.5767859220504761,-0.009976060129702091,0.7179784774780273,0.4243360757827759,-0.013927341438829899,0.7017256021499634,0.3420736491680145,-0.012749449349939823,0.6909629702568054,0.28436020016670227,-0.013425766490399837,0.7103601694107056,0.6081854104995728,-0.029932348057627678,0.6833295226097107,0.4842385947704315,-0.02536652982234955,0.6892040371894836,0.521899938583374,-0.007034452632069588,0.6966869831085205,0.560282289981842,0.004599226173013449,0.6816099882125854,0.6567785143852234,-0.04665350541472435,0.6639909148216248,0.5629915595054626,-0.03416932001709938,0.6732479333877563,0.5887360572814941,-0.010230651125311852,0.6842343211174011,0.6229081749916077,0.0065475571900606155,0.0,0.0,0.0,0.0,0.0,0.0,0.0,0.0,0.0,0.0,0.0,0.0,0.0,0.0,0.0,0.0,0.0,0.0,0.0,0.0,0.0,0.0,0.0,0.0,0.0,0.0,0.0,0.0,0.0,0.0,0.0,0.0,0.0,0.0,0.0,0.0,0.0,0.0,0.0,0.0,0.0,0.0,0.0,0.0,0.0,0.0,0.0,0.0,0.0,0.0,0.0,0.0,0.0,0.0,0.0,0.0,0.0,0.0,0.0,0.0,0.0,0.0,0.0
1783390764.5037,0.7619544863700867,0.840427815914154,1.111430734113128e-07,0.7910524606704712,0.7094442844390869,0.04165361449122429,0.7822287082672119,0.6103332042694092,0.05058015137910843,0.7574909925460815,0.5473198294639587,0.05101420730352402,0.72322678565979,0.5291967391967773,0.051254138350486755,0.7860546708106995,0.5428056716918945,0.012286319397389889,0.7524403929710388,0.44435665011405945,0.011271188966929913,0.7432775497436523,0.47180020809173584,0.013467292301356792,0.74837726354599,0.5135213732719421,0.016371019184589386,0.7469356656074524,0.552249014377594,-0.012720098719000816,0.7167896628379822,0.39981943368911743,-0.01537974365055561,0.7003764510154724,0.31924521923065186,-0.014324663206934929,0.6899309158325195,0.26188355684280396,-0.0155222462490201,0.7085183262825012,0.5832923054695129,-0.03179492428898811,0.6820259690284729,0.46374180912971497,-0.02693980000913143,0.6878709197044373,0.49840664863586426,-0.010256151668727398,0.6955156326293945,0.536749541759491,-0.0002172297827200964,0.6798588633537292,0.6289266347885132,-0.04762051999568939,0.6629005670547485,0.5402956604957581,-0.03492822125554085,0.6716193556785583,0.5663820505142212,-0.011368179693818092,0.6813584566116333,0.5999202132225037,0.00474927993491292,0.0,0.0,0.0,0.0,0.0,0.0,0.0,0.0,0.0,0.0,0.0,0.0,0.0,0.0,0.0,0.0,0.0,0.0,0.0,0.0,0.0,0.0,0.0,0.0,0.0,0.0,0.0,0.0,0.0,0.0,0.0,0.0,0.0,0.0,0.0,0.0,0.0,0.0,0.0,0.0,0.0,0.0,0.0,0.0,0.0,0.0,0.0,0.0,0.0,0.0,0.0,0.0,0.0,0.0,0.0,0.0,0.0,0.0,0.0,0.0,0.0,0.0,0.0
1783390764.70909,0.7602156400680542,0.8189595937728882,1.0136029970908567e-07,0.7893213033676147,0.6898398995399475,0.03932127729058266,0.7800602912902832,0.5887961983680725,0.04855268821120262,0.7572788000106812,0.528006374835968,0.04952597618103027,0.7237054705619812,0.5142695307731628,0.050379429012537,0.7817884683609009,0.5207388401031494,0.012417759746313095,0.7494102716445923,0.4278798997402191,0.0099060432985425,0.7407539486885071,0.45624440908432007,0.01038370281457901,0.7449607253074646,0.49906793236732483,0.01222913060337305,0.7432424426078796,0.5295894145965576,-0.011475163511931896,0.7139674425125122,0.3824617564678192,-0.015509473159909248,0.698096752166748,0.3005883991718292,-0.01552512962371111,0.687817394733429,0.2429429143667221,-0.017049502581357956,0.7051279544830322,0.560433566570282,-0.03001607395708561,0.6782634258270264,0.4434674382209778,-0.026931842789053917,0.6839542984962463,0.47829335927963257,-0.011492330580949783,0.6912894248962402,0.516571044921875,-0.0015813729260116816,0.6772671937942505,0.6071375012397766,-0.04556545242667198,0.6625747084617615,0.5219686031341553,-0.03484079986810684,0.6717450022697449,0.5473693013191223,-0.012972360476851463,0.6816291213035583,0.5810234546661377,0.00247153639793396,0.0,0.0,0.0,0.0,0.0,0.0,0.0,0.0,0.0,0.0,0.0,0.0,0.0,0.0,0.0,0.0,0.0,0.0,0.0,0.0,0.0,0.0,0.0,0.0,0.0,0.0,0.0,0.0,0.0,0.0,0.0,0.0,0.0,0.0,0.0,0.0,0.0,0.0,0.0,0.0,0.0,0.0,0.0,0.0,0.0,0.0,0.0,0.0,0.0,0.0,0.0,0.0,0.0,0.0,0.0,0.0,0.0,0.0,0.0,0.0,0.0,0.0,0.0
1783390764.8769841,0.7588452696800232,0.8182026743888855,1.2747001676416403e-07,0.7877187132835388,0.689849317073822,0.03612111136317253,0.778560996055603,0.591101348400116,0.043750155717134476,0.7501364350318909,0.5350589752197266,0.043294474482536316,0.7132182717323303,0.5263725519180298,0.043103769421577454,0.7824171781539917,0.524086058139801,0.012853727675974369,0.7477450966835022,0.4268747568130493,0.008274553343653679,0.7375103831291199,0.4574906527996063,0.005886936094611883,0.7404044270515442,0.49924537539482117,0.005591130815446377,0.7432017922401428,0.5309504270553589,-0.009363755583763123,0.7154114842414856,0.3816860020160675,-0.014381102286279202,0.6989883780479431,0.3009038269519806,-0.015846235677599907,0.6893254518508911,0.24284180998802185,-0.01835620030760765,0.7042529582977295,0.5595846176147461,-0.026746923103928566,0.677084743976593,0.44006890058517456,-0.023181509226560593,0.6832996606826782,0.48082423210144043,-0.006222134921699762,0.6919115781784058,0.5198931097984314,0.0047933124005794525,0.6751664876937866,0.6054294109344482,-0.04171692952513695,0.6597539186477661,0.5223354697227478,-0.029497630894184113,0.6694514751434326,0.5504571199417114,-0.0058772568590939045,0.6805247068405151,0.5830898880958557,0.01079874113202095,0.0,0.0,0.0,0.0,0.0,0.0,0.0,0.0,0.0,0.0,0.0,0.0,0.0,0.0,0.0,0.0,0.0,0.0,0.0,0.0,0.0,0.0,0.0,0.0,0.0,0.0,0.0,0.0,0.0,0.0,0.0,0.0,0.0,0.0,0.0,0.0,0.0,0.0,0.0,0.0,0.0,0.0,0.0,0.0,0.0,0.0,0.0,0.0,0.0,0.0,0.0,0.0,0.0,0.0,0.0,0.0,0.0,0.0,0.0,0.0,0.0,0.0,0.0
1783390765.0431402,0.7587734460830688,0.8225717544555664,1.2165425289367704e-07,0.7881991863250732,0.6951702833175659,0.03770603612065315,0.7786291241645813,0.5967046022415161,0.04666433855891228,0.7500832080841064,0.5405368208885193,0.04738042876124382,0.7134208083152771,0.5305888056755066,0.04850493371486664,0.781775951385498,0.5277726650238037,0.015608195215463638,0.7489181160926819,0.4291626811027527,0.012933390215039253,0.7391428351402283,0.459576815366745,0.012285237200558186,0.7422811388969421,0.5009705424308777,0.013167236000299454,0.7424505949020386,0.5328153967857361,-0.006752347107976675,0.715198814868927,0.383005291223526,-0.01130490843206644,0.6988976001739502,0.3021542429924011,-0.01183274481445551,0.689064621925354,0.2441476732492447,-0.013289566151797771,0.7038331627845764,0.5604622960090637,-0.024112172424793243,0.6784325838088989,0.4414796531200409,-0.020034661516547203,0.6847140192985535,0.4823078215122223,-0.0027598412707448006,0.6927251815795898,0.5208402872085571,0.00878943596035242,0.6751476526260376,0.6061476469039917,-0.038871798664331436,0.660220742225647,0.5222692489624023,-0.025718089193105698,0.6695387959480286,0.5495196580886841,-0.0017365426756441593,0.680252730846405,0.5822194218635559,0.015264452435076237,0.0,0.0,0.0,0.0,0.0,0.0,0.0,0.0,0.0,0.0,0.0,0.0,0.0,0.0,0.0,0.0,0.0,0.0,0.0,0.0,0.0,0.0,0.0,0.0,0.0,0.0,0.0,0.0,0.0,0.0,0.0,0.0,0.0,0.0,0.0,0.0,0.0,0.0,0.0,0.0,0.0,0.0,0.0,0.0,0.0,0.0,0.0,0.0,0.0,0.0,0.0,0.0,0.0,0.0,0.0,0.0,0.0,0.0,0.0,0.0,0.0,0.0,0.0
1783390765.179468,0.7601101398468018,0.8267707824707031,1.206309718781995e-07,0.7890677452087402,0.6959277987480164,0.03934776410460472,0.7793335914611816,0.5971367359161377,0.04891401156783104,0.7510820031166077,0.5387453436851501,0.05014962702989578,0.7146810293197632,0.5258865356445312,0.052056871354579926,0.7830018997192383,0.5276907682418823,0.016502678394317627,0.7498310804367065,0.42836758494377136,0.014960434287786484,0.7406962513923645,0.4579899311065674,0.015588842332363129,0.7438107132911682,0.4989176094532013,0.017363719642162323,0.7430604696273804,0.5341905951499939,-0.006354105658829212,0.7160366177558899,0.3841487765312195,-0.00997412484139204,0.6999775171279907,0.302864134311676,-0.01000863965600729,0.6898052096366882,0.24421414732933044,-0.011376201175153255,0.7038304209709167,0.5622142553329468,-0.023914644494652748,0.6786473989486694,0.44164758920669556,-0.018502065911889076,0.6852039694786072,0.48305773735046387,-0.0005879313684999943,0.6932873129844666,0.5218374729156494,0.0109477574005723,0.6747884154319763,0.6080138087272644,-0.038740113377571106,0.6598698496818542,0.5218294262886047,-0.024229520931839943,0.669170618057251,0.5497862100601196,0.0006200180505402386,0.6798091530799866,0.5827768445014954,0.017986338585615158,0.0,0.0,0.0,0.0,0.0,0.0,0.0,0.0,0.0,0.0,0.0,0.0,0.0,0.0,0.0,0.0,0.0,0.0,0.0,0.0,0.0,0.0,0.0,0.0,0.0,0.0,0.0,0.0,0.0,0.0,0.0,0.0,0.0,0.0,0.0,0.0,0.0,0.0,0.0,0.0,0.0,0.0,0.0,0.0,0.0,0.0,0.0,0.0,0.0,0.0,0.0,0.0,0.0,0.0,0.0,0.0,0.0,0.0,0.0,0.0,0.0,0.0,0.0
1783390765.3075871,0.7602038383483887,0.8245103359222412,1.1377122888234226e-07,0.7889323234558105,0.6928086280822754,0.036680903285741806,0.7803756594657898,0.595352828502655,0.043994348496198654,0.752987265586853,0.5378385782241821,0.04305819049477577,0.717336893081665,0.5258175134658813,0.042182616889476776,0.7833014130592346,0.5293404459953308,0.01146662700921297,0.7500914931297302,0.4293597936630249,0.006957811303436756,0.7406689524650574,0.45899802446365356,0.005534128751605749,0.7440601587295532,0.5004822015762329,0.006161315366625786,0.743922770023346,0.5364601612091064,-0.011414644308388233,0.7165296077728271,0.3856511116027832,-0.016307739540934563,0.6999917030334473,0.3052133619785309,-0.0168825201690197,0.6898705363273621,0.24719560146331787,-0.018722878769040108,0.7053603529930115,0.5647842288017273,-0.029320314526557922,0.6798468232154846,0.44289904832839966,-0.026210304349660873,0.6858799457550049,0.4842754602432251,-0.009347083978354931,0.6941491365432739,0.523507297039032,0.0017042263643816113,0.6763736605644226,0.6103754639625549,-0.04463741183280945,0.6597102880477905,0.5222455263137817,-0.03303179144859314,0.6690709590911865,0.5495116114616394,-0.009337952360510826,0.6799428462982178,0.5828233361244202,0.007472444791346788,0.0,0.0,0.0,0.0,0.0,0.0,0.0,0.0,0.0,0.0,0.0,0.0,0.0,0.0,0.0,0.0,0.0,0.0,0.0,0.0,0.0,0.0,0.0,0.0,0.0,0.0,0.0,0.0,0.0,0.0,0.0,0.0,0.0,0.0,0.0,0.0,0.0,0.0,0.0,0.0,0.0,0.0,0.0,0.0,0.0,0.0,0.0,0.0,0.0,0.0,0.0,0.0,0.0,0.0,0.0,0.0,0.0,0.0,0.0,0.0,0.0,0.0,0.0
1783390765.442231,0.7610275149345398,0.826079785823822,1.2926589931794297e-07,0.7904272079467773,0.6963972449302673,0.03687826171517372,0.7809098362922668,0.5976722836494446,0.04491078108549118,0.7520580291748047,0.5402399897575378,0.04489266872406006,0.7151894569396973,0.5288266539573669,0.04519593343138695,0.7845121622085571,0.5299068093299866,0.013605263084173203,0.7515234351158142,0.43069732189178467,0.010047223418951035,0.7424609661102295,0.45965495705604553,0.009313186630606651,0.7457939386367798,0.5001667141914368,0.01061784103512764,0.7444997429847717,0.5364037752151489,-0.008756428956985474,0.7180323004722595,0.38483959436416626,-0.012819197960197926,0.7020089626312256,0.30406489968299866,-0.012626398354768753,0.6918745040893555,0.24644745886325836,-0.013524402864277363,0.7054982781410217,0.5645773410797119,-0.026254791766405106,0.6798709034919739,0.44403377175331116,-0.02246483974158764,0.6863599419593811,0.48368632793426514,-0.005808706860989332,0.6948298215866089,0.5222558975219727,0.005447322968393564,0.6762577295303345,0.6107164025306702,-0.04109736159443855,0.6602392196655273,0.5217229127883911,-0.027962634339928627,0.6695756316184998,0.5477863550186157,-0.003726386232301593,0.6805027723312378,0.580466091632843,0.01350896991789341,0.0,0.0,0.0,0.0,0.0,0.0,0.0,0.0,0.0,0.0,0.0,0.0,0.0,0.0,0.0,0.0,0.0,0.0,0.0,0.0,0.0,0.0,0.0,0.0,0.0,0.0,0.0,0.0,0.0,0.0,0.0,0.0,0.0,0.0,0.0,0.0,0.0,0.0,0.0,0.0,0.0,0.0,0.0,0.0,0.0,0.0,0.0,0.0,0.0,0.0,0.0,0.0,0.0,0.0,0.0,0.0,0.0,0.0,0.0,0.0,0.0,0.0,0.0
1783390765.574604,0.7615009546279907,0.8277989029884338,1.1831124879790877e-07,0.7901073694229126,0.6967759728431702,0.03935233876109123,0.7798753380775452,0.600188672542572,0.04865872859954834,0.7516859769821167,0.5442578792572021,0.04941575229167938,0.7153230309486389,0.5337355732917786,0.05038638040423393,0.7836676836013794,0.5321266651153564,0.015484043397009373,0.751167356967926,0.4331982731819153,0.012674776837229729,0.7414388656616211,0.4627952575683594,0.012631389312446117,0.7439852356910706,0.5034646391868591,0.0140922199934721,0.7447503805160522,0.5376061201095581,-0.00784717034548521,0.7185783982276917,0.38548150658607483,-0.012797815725207329,0.7023503184318542,0.30532222986221313,-0.01256601046770811,0.6922253966331482,0.24806290864944458,-0.013249659910798073,0.706251859664917,0.5654390454292297,-0.026033125817775726,0.6801411509513855,0.44432324171066284,-0.022431856021285057,0.685961127281189,0.48425132036209106,-0.005007487256079912,0.6942713260650635,0.5216314196586609,0.006794028915464878,0.6772280931472778,0.6120088696479797,-0.04138285294175148,0.6602904200553894,0.5259937047958374,-0.028429875150322914,0.6690083146095276,0.5532983541488647,-0.00414669094607234,0.6799480319023132,0.5862468481063843,0.013118620961904526,0.0,0.0,0.0,0.0,0.0,0.0,0.0,0.0,0.0,0.0,0.0,0.0,0.0,0.0,0.0,0.0,0.0,0.0,0.0,0.0,0.0,0.0,0.0,0.0,0.0,0.0,0.0,0.0,0.0,0.0,0.0,0.0,0.0,0.0,0.0,0.0,0.0,0.0,0.0,0.0,0.0,0.0,0.0,0.0,0.0,0.0,0.0,0.0,0.0,0.0,0.0,0.0,0.0,0.0,0.0,0.0,0.0,0.0,0.0,0.0,0.0,0.0,0.0
1783390765.708291,0.7627879977226257,0.8284839987754822,1.197134764652219e-07,0.7919800877571106,0.6972951292991638,0.039592940360307693,0.7826049327850342,0.5992608070373535,0.04866514354944229,0.7557699084281921,0.5409330129623413,0.04927782714366913,0.72061687707901,0.5278167128562927,0.0501098670065403,0.7862361073493958,0.5289123058319092,0.014563520438969135,0.7521650791168213,0.43098318576812744,0.012183155864477158,0.7432419061660767,0.4591604471206665,0.013005753047764301,0.7465002536773682,0.4988250434398651,0.01518318522721529,0.7468630075454712,0.5350779294967651,-0.00897954497486353,0.7207736372947693,0.38332197070121765,-0.013089784421026707,0.7046805024147034,0.3039127290248871,-0.012215816415846348,0.6944501399993896,0.24773216247558594,-0.012465288862586021,0.7078652381896973,0.5640702247619629,-0.02719440869987011,0.6819033622741699,0.4448140263557434,-0.023170771077275276,0.6877777576446533,0.4861256778240204,-0.005669542122632265,0.6962546706199646,0.5245964527130127,0.006086934357881546,0.6785680651664734,0.6120047569274902,-0.04251512140035629,0.6622492671012878,0.5272052884101868,-0.02923661656677723,0.6706225275993347,0.5562466382980347,-0.004629276692867279,0.6810882687568665,0.5898042321205139,0.012855214066803455,0.0,0.0,0.0,0.0,0.0,0.0,0.0,0.0,0.0,0.0,0.0,0.0,0.0,0.0,0.0,0.0,0.0,0.0,0.0,0.0,0.0,0.0,0.0,0.0,0.0,0.0,0.0,0.0,0.0,0.0,0.0,0.0,0.0,0.0,0.0,0.0,0.0,0.0,0.0,0.0,0.0,0.0,0.0,0.0,0.0,0.0,0.0,0.0,0.0,0.0,0.0,0.0,0.0,0.0,0.0,0.0,0.0,0.0,0.0,0.0,0.0,0.0,0.0
1783390765.8476522,0.7644548416137695,0.8284403681755066,9.4380773418834e-08,0.7916232347488403,0.6968039870262146,0.0414770282804966,0.7831151485443115,0.5984673500061035,0.051355332136154175,0.7570647597312927,0.5342495441436768,0.05227217078208923,0.7237253785133362,0.5173623561859131,0.05340088903903961,0.7862579226493835,0.5293963551521301,0.01530858688056469,0.750760555267334,0.4318918287754059,0.012415568344295025,0.739281415939331,0.4564221501350403,0.012563182972371578,0.7409517168998718,0.4952761232852936,0.013730216771364212,0.7482360601425171,0.5361193418502808,-0.009580540470778942,0.7206783890724182,0.3842155933380127,-0.016304565593600273,0.7029036283493042,0.3033629357814789,-0.01740110106766224,0.6923525929450989,0.24699480831623077,-0.019106727093458176,0.7094426155090332,0.56498783826828,-0.028785841539502144,0.6827635169029236,0.4418536126613617,-0.025458477437496185,0.6868174076080322,0.48193883895874023,-0.0064150867983698845,0.6946331262588501,0.5186938047409058,0.006175450515002012,0.6803982853889465,0.6118299961090088,-0.045128755271434784,0.6615423560142517,0.525600016117096,-0.03260942921042442,0.6696708798408508,0.5544099807739258,-0.007966225035488605,0.6800054311752319,0.5870132446289062,0.009547745808959007,0.0,0.0,0.0,0.0,0.0,0.0,0.0,0.0,0.0,0.0,0.0,0.0,0.0,0.0,0.0,0.0,0.0,0.0,0.0,0.0,0.0,0.0,0.0,0.0,0.0,0.0,0.0,0.0,0.0,0.0,0.0,0.0,0.0,0.0,0.0,0.0,0.0,0.0,0.0,0.0,0.0,0.0,0.0,0.0,0.0,0.0,0.0,0.0,0.0,0.0,0.0,0.0,0.0,0.0,0.0,0.0,0.0,0.0,0.0,0.0,0.0,0.0,0.0
1783390766.007753,0.7638386487960815,0.8246533274650574,8.908735082968633e-08,0.7909764051437378,0.6935204267501831,0.03986328840255737,0.7827355265617371,0.5953262448310852,0.048107173293828964,0.7560071349143982,0.5321457386016846,0.047525499016046524,0.7216086983680725,0.5176268815994263,0.04671195521950722,0.7863771319389343,0.528962254524231,0.011250910349190235,0.7494261264801025,0.4320260286331177,0.005945129785686731,0.7373722791671753,0.45712023973464966,0.004360910505056381,0.7387977838516235,0.49623700976371765,0.004489611368626356,0.7482666373252869,0.5371798276901245,-0.013613112270832062,0.7196685075759888,0.38419920206069946,-0.021420499309897423,0.70182204246521,0.3041546940803528,-0.022882873192429543,0.6910091042518616,0.2481338530778885,-0.024983735755085945,0.7094606161117554,0.566861093044281,-0.03293181583285332,0.6809502243995667,0.4411407709121704,-0.031230583786964417,0.6855018734931946,0.4817867577075958,-0.012519583106040955,0.6938731074333191,0.5194874405860901,-5.0450002163415775e-05,0.6801663637161255,0.6136236786842346,-0.04945790022611618,0.6598716378211975,0.5253535509109497,-0.03879820555448532,0.6686440706253052,0.5531812310218811,-0.014710591174662113,0.6795408129692078,0.5851065516471863,0.002512147882953286,0.0,0.0,0.0,0.0,0.0,0.0,0.0,0.0,0.0,0.0,0.0,0.0,0.0,0.0,0.0,0.0,0.0,0.0,0.0,0.0,0.0,0.0,0.0,0.0,0.0,0.0,0.0,0.0,0.0,0.0,0.0,0.0,0.0,0.0,0.0,0.0,0.0,0.0,0.0,0.0,0.0,0.0,0.0,0.0,0.0,0.0,0.0,0.0,0.0,0.0,0.0,0.0,0.0,0.0,0.0,0.0,0.0,0.0,0.0,0.0,0.0,0.0,0.0
1783390766.177451,0.7630230784416199,0.8286319971084595,9.203069595287161e-08,0.7911695837974548,0.6998371481895447,0.03841647505760193,0.7823903560638428,0.6016297936439514,0.04687972366809845,0.7551450729370117,0.5398008823394775,0.046928662806749344,0.720394492149353,0.5265727639198303,0.047090839594602585,0.7842971086502075,0.5317847728729248,0.010982898063957691,0.7495744228363037,0.4327695965766907,0.006937860511243343,0.7389455437660217,0.460979700088501,0.006977755576372147,0.7404058575630188,0.5024198293685913,0.00832292903214693,0.7460635900497437,0.5391919612884521,-0.0127447210252285,0.7191057801246643,0.38696736097335815,-0.019923290237784386,0.7018900513648987,0.3075244128704071,-0.020470693707466125,0.6906959414482117,0.25238052010536194,-0.021629201248288155,0.7074551582336426,0.5691805481910706,-0.031079303473234177,0.6807440519332886,0.44410696625709534,-0.029396317899227142,0.6870632767677307,0.4834481179714203,-0.011328505352139473,0.6957579255104065,0.5208752155303955,0.0010446939850226045,0.6780772805213928,0.6175886392593384,-0.04662229120731354,0.6597157120704651,0.529358983039856,-0.0361027866601944,0.6693378686904907,0.5556487441062927,-0.012586814351379871,0.6804203391075134,0.5876790285110474,0.004403203725814819,0.0,0.0,0.0,0.0,0.0,0.0,0.0,0.0,0.0,0.0,0.0,0.0,0.0,0.0,0.0,0.0,0.0,0.0,0.0,0.0,0.0,0.0,0.0,0.0,0.0,0.0,0.0,0.0,0.0,0.0,0.0,0.0,0.0,0.0,0.0,0.0,0.0,0.0,0.0,0.0,0.0,0.0,0.0,0.0,0.0,0.0,0.0,0.0,0.0,0.0,0.0,0.0,0.0,0.0,0.0,0.0,0.0,0.0,0.0,0.0,0.0,0.0,0.0
1783390766.309812,0.7629616260528564,0.8325744271278381,1.014528336895637e-07,0.7914382219314575,0.7016538381576538,0.04301851615309715,0.782823383808136,0.6051886677742004,0.05398253723978996,0.7588790059089661,0.5400772094726562,0.05599101632833481,0.7262977957725525,0.5214531421661377,0.05846963822841644,0.7854929566383362,0.5348129868507385,0.016125110909342766,0.7517577409744263,0.43250855803489685,0.015818698331713676,0.7415587902069092,0.4566955268383026,0.019639862701296806,0.7417237758636475,0.4942745268344879,0.023660710081458092,0.7471423149108887,0.5411356687545776,-0.008360682055354118,0.7232806086540222,0.38878336548805237,-0.013074965216219425,0.7067524790763855,0.3100797235965729,-0.011116781271994114,0.6945896148681641,0.2572449743747711,-0.010382359847426414,0.7079563736915588,0.569868266582489,-0.02697869949042797,0.6803891658782959,0.4455258250236511,-0.021890979260206223,0.6861559748649597,0.4834979474544525,-0.002252518432214856,0.6948479413986206,0.5206101536750793,0.01065489836037159,0.6781212687492371,0.6178579330444336,-0.042459532618522644,0.6596672534942627,0.5272656083106995,-0.028160039335489273,0.6681415438652039,0.5542097091674805,-0.0028799502179026604,0.6789566278457642,0.587600827217102,0.014957360923290253,0.0,0.0,0.0,0.0,0.0,0.0,0.0,0.0,0.0,0.0,0.0,0.0,0.0,0.0,0.0,0.0,0.0,0.0,0.0,0.0,0.0,0.0,0.0,0.0,0.0,0.0,0.0,0.0,0.0,0.0,0.0,0.0,0.0,0.0,0.0,0.0,0.0,0.0,0.0,0.0,0.0,0.0,0.0,0.0,0.0,0.0,0.0,0.0,0.0,0.0,0.0,0.0,0.0,0.0,0.0,0.0,0.0,0.0,0.0,0.0,0.0,0.0,0.0
1783390766.443529,0.7639426589012146,0.84281325340271,8.898649639377254e-08,0.793883204460144,0.714647114276886,0.04649478197097778,0.7854227423667908,0.6176695227622986,0.060131337493658066,0.7623702883720398,0.5519617795944214,0.0645388811826706,0.7302097082138062,0.5311370491981506,0.0695880576968193,0.7884323000907898,0.5449095964431763,0.020517051219940186,0.7556820511817932,0.4388330578804016,0.022316766902804375,0.7460421323776245,0.45689478516578674,0.027327559888362885,0.7462179064750671,0.4907784163951874,0.03197034075856209,0.7510226368904114,0.5502915382385254,-0.004178278613835573,0.7272465825080872,0.39643439650535583,-0.008387035690248013,0.7113935947418213,0.31684523820877075,-0.006610701326280832,0.6993162035942078,0.2637498378753662,-0.005853268317878246,0.7119952440261841,0.5779609084129333,-0.02253386192023754,0.6834017634391785,0.45206037163734436,-0.016454925760626793,0.688993513584137,0.4892958402633667,0.0030708322301506996,0.6970421671867371,0.5250806212425232,0.01596224121749401,0.6818369030952454,0.6254024505615234,-0.03735705465078354,0.6638631820678711,0.5373517274856567,-0.021630730479955673,0.6721209287643433,0.5642515420913696,0.003582286648452282,0.6823976039886475,0.5965884327888489,0.0213017575442791,0.0,0.0,0.0,0.0,0.0,0.0,0.0,0.0,0.0,0.0,0.0,0.0,0.0,0.0,0.0,0.0,0.0,0.0,0.0,0.0,0.0,0.0,0.0,0.0,0.0,0.0,0.0,0.0,0.0,0.0,0.0,0.0,0.0,0.0,0.0,0.0,0.0,0.0,0.0,0.0,0.0,0.0,0.0,0.0,0.0,0.0,0.0,0.0,0.0,0.0,0.0,0.0,0.0,0.0,0.0,0.0,0.0,0.0,0.0,0.0,0.0,0.0,0.0
1783390766.6117709,0.7676281332969666,0.856227695941925,5.7269005537818884e-08,0.799796462059021,0.7310413718223572,0.046515367925167084,0.793012261390686,0.632025957107544,0.060105614364147186,0.7716190218925476,0.5631461143493652,0.0644921064376831,0.739499568939209,0.5397467613220215,0.06940743327140808,0.7955847978591919,0.5620738863945007,0.01836402900516987,0.7630296945571899,0.45286285877227783,0.019394543021917343,0.7545639276504517,0.4720523953437805,0.024378594011068344,0.7570001482963562,0.5087341070175171,0.029341962188482285,0.7579239010810852,0.5688707828521729,-0.007261820137500763,0.7324743866920471,0.41100645065307617,-0.013110539875924587,0.7145880460739136,0.32835984230041504,-0.012431472539901733,0.7007571458816528,0.272518128156662,-0.01232774369418621,0.718195915222168,0.5959478616714478,-0.0263812355697155,0.6908867359161377,0.46842578053474426,-0.022745328024029732,0.6965671181678772,0.5054348111152649,-0.00456208223477006,0.7046293020248413,0.5416581630706787,0.007890289649367332,0.6869855523109436,0.6421485543251038,-0.041758716106414795,0.6699936985969543,0.5505430102348328,-0.027671372517943382,0.6783534288406372,0.5780677199363708,-0.0027655477169901133,0.6883190274238586,0.6119896173477173,0.01487067248672247,0.0,0.0,0.0,0.0,0.0,0.0,0.0,0.0,0.0,0.0,0.0,0.0,0.0,0.0,0.0,0.0,0.0,0.0,0.0,0.0,0.0,0.0,0.0,0.0,0.0,0.0,0.0,0.0,0.0,0.0,0.0,0.0,0.0,0.0,0.0,0.0,0.0,0.0,0.0,0.0,0.0,0.0,0.0,0.0,0.0,0.0,0.0,0.0,0.0,0.0,0.0,0.0,0.0,0.0,0.0,0.0,0.0,0.0,0.0,0.0,0.0,0.0,0.0
1783390766.783694,0.7708808183670044,0.8654844164848328,8.609270452097917e-08,0.8004276156425476,0.7353256940841675,0.04566529765725136,0.7900874018669128,0.6365557312965393,0.05756630003452301,0.7626280188560486,0.575772762298584,0.05939846485853195,0.7277379035949707,0.5626996755599976,0.0616416335105896,0.7949013113975525,0.5640563368797302,0.02113068476319313,0.7607244253158569,0.46058252453804016,0.018625304102897644,0.7501271963119507,0.4870317578315735,0.018699320033192635,0.7524441480636597,0.528242826461792,0.019719451665878296,0.757202684879303,0.5708227753639221,-0.005594030022621155,0.7305975556373596,0.4154122769832611,-0.012843935750424862,0.714026689529419,0.33158600330352783,-0.014016959816217422,0.7034793496131897,0.2738349139690399,-0.015677625313401222,0.7173017263412476,0.6003255844116211,-0.02659345231950283,0.6892997026443481,0.47054892778396606,-0.022745702415704727,0.6941936612129211,0.5114935040473938,-0.0020325942896306515,0.701988697052002,0.549260139465332,0.01190034206956625,0.6868656277656555,0.6493400931358337,-0.04451987147331238,0.6684622168540955,0.5568151473999023,-0.030575573444366455,0.6773829460144043,0.5839431285858154,-0.004630574490875006,0.6883757710456848,0.6171427965164185,0.013768047094345093,0.0,0.0,0.0,0.0,0.0,0.0,0.0,0.0,0.0,0.0,0.0,0.0,0.0,0.0,0.0,0.0,0.0,0.0,0.0,0.0,0.0,0.0,0.0,0.0,0.0,0.0,0.0,0.0,0.0,0.0,0.0,0.0,0.0,0.0,0.0,0.0,0.0,0.0,0.0,0.0,0.0,0.0,0.0,0.0,0.0,0.0,0.0,0.0,0.0,0.0,0.0,0.0,0.0,0.0,0.0,0.0,0.0,0.0,0.0,0.0,0.0,0.0,0.0
1783390766.95595,0.7710798382759094,0.8604083061218262,8.711126042726391e-08,0.7989299893379211,0.7256634831428528,0.04373569041490555,0.7902482151985168,0.6272493600845337,0.053325116634368896,0.7635766863822937,0.5635658502578735,0.053255192935466766,0.7297030687332153,0.5487406253814697,0.05321954935789108,0.793638288974762,0.557187557220459,0.01520564779639244,0.7582876086235046,0.45987027883529663,0.010787151753902435,0.7472198009490967,0.4866657853126526,0.009907172992825508,0.7499446272850037,0.5284873843193054,0.010260021314024925,0.7562661170959473,0.5651503801345825,-0.011845627799630165,0.7287464737892151,0.41145163774490356,-0.02055376209318638,0.7111893892288208,0.3293271064758301,-0.02258460782468319,0.7013716697692871,0.27294719219207764,-0.025159655138850212,0.7171719074249268,0.5959933400154114,-0.0330045111477375,0.6888768076896667,0.46883776783943176,-0.030721090734004974,0.6923368573188782,0.5115035176277161,-0.010430213063955307,0.7007302641868591,0.5494335293769836,0.002896285383030772,0.6876392960548401,0.6449455618858337,-0.051172684878110886,0.6653106212615967,0.554768443107605,-0.039733536541461945,0.6736852526664734,0.584141731262207,-0.014665290713310242,0.6851392388343811,0.6171459555625916,0.0031464267522096634,0.0,0.0,0.0,0.0,0.0,0.0,0.0,0.0,0.0,0.0,0.0,0.0,0.0,0.0,0.0,0.0,0.0,0.0,0.0,0.0,0.0,0.0,0.0,0.0,0.0,0.0,0.0,0.0,0.0,0.0,0.0,0.0,0.0,0.0,0.0,0.0,0.0,0.0,0.0,0.0,0.0,0.0,0.0,0.0,0.0,0.0,0.0,0.0,0.0,0.0,0.0,0.0,0.0,0.0,0.0,0.0,0.0,0.0,0.0,0.0,0.0,0.0,0.0
