ciel274/research-hand-sign/data/raw/hiragana/sign_language_ka_1.csv
timestamp,R_joint_0_x,R_joint_0_y,R_joint_0_z,R_joint_1_x,R_joint_1_y,R_joint_1_z,R_joint_2_x,R_joint_2_y,R_joint_2_z,R_joint_3_x,R_joint_3_y,R_joint_3_z,R_joint_4_x,R_joint_4_y,R_joint_4_z,R_joint_5_x,R_joint_5_y,R_joint_5_z,R_joint_6_x,R_joint_6_y,R_joint_6_z,R_joint_7_x,R_joint_7_y,R_joint_7_z,R_joint_8_x,R_joint_8_y,R_joint_8_z,R_joint_9_x,R_joint_9_y,R_joint_9_z,R_joint_10_x,R_joint_10_y,R_joint_10_z,R_joint_11_x,R_joint_11_y,R_joint_11_z,R_joint_12_x,R_joint_12_y,R_joint_12_z,R_joint_13_x,R_joint_13_y,R_joint_13_z,R_joint_14_x,R_joint_14_y,R_joint_14_z,R_joint_15_x,R_joint_15_y,R_joint_15_z,R_joint_16_x,R_joint_16_y,R_joint_16_z,R_joint_17_x,R_joint_17_y,R_joint_17_z,R_joint_18_x,R_joint_18_y,R_joint_18_z,R_joint_19_x,R_joint_19_y,R_joint_19_z,R_joint_20_x,R_joint_20_y,R_joint_20_z,L_joint_0_x,L_joint_0_y,L_joint_0_z,L_joint_1_x,L_joint_1_y,L_joint_1_z,L_joint_2_x,L_joint_2_y,L_joint_2_z,L_joint_3_x,L_joint_3_y,L_joint_3_z,L_joint_4_x,L_joint_4_y,L_joint_4_z,L_joint_5_x,L_joint_5_y,L_joint_5_z,L_joint_6_x,L_joint_6_y,L_joint_6_z,L_joint_7_x,L_joint_7_y,L_joint_7_z,L_joint_8_x,L_joint_8_y,L_joint_8_z,L_joint_9_x,L_joint_9_y,L_joint_9_z,L_joint_10_x,L_joint_10_y,L_joint_10_z,L_joint_11_x,L_joint_11_y,L_joint_11_z,L_joint_12_x,L_joint_12_y,L_joint_12_z,L_joint_13_x,L_joint_13_y,L_joint_13_z,L_joint_14_x,L_joint_14_y,L_joint_14_z,L_joint_15_x,L_joint_15_y,L_joint_15_z,L_joint_16_x,L_joint_16_y,L_joint_16_z,L_joint_17_x,L_joint_17_y,L_joint_17_z,L_joint_18_x,L_joint_18_y,L_joint_18_z,L_joint_19_x,L_joint_19_y,L_joint_19_z,L_joint_20_x,L_joint_20_y,L_joint_20_z
1783390495.561462,0.7190105319023132,0.827369749546051,-3.474324898888881e-07,0.6682454347610474,0.735468327999115,-0.005106079857796431,0.6553922295570374,0.6328595280647278,-0.0087488554418087,0.6511351466178894,0.5499098896980286,-0.016241779550909996,0.6395696997642517,0.4717731773853302,-0.023874949663877487,0.7008538246154785,0.545670747756958,0.000448822567705065,0.6631174087524414,0.4564192295074463,-0.019016344100236893,0.6457004547119141,0.3986613154411316,-0.032612789422273636,0.6306943297386169,0.3411291539669037,-0.0419749990105629,0.7202528119087219,0.5541002154350281,-0.009838825091719627,0.6457397937774658,0.5205055475234985,-0.0421844944357872,0.5999270081520081,0.5228795409202576,-0.05590422824025154,0.5670527815818787,0.5175879001617432,-0.05977996438741684,0.7323799133300781,0.5805168747901917,-0.022226888686418533,0.6521763801574707,0.5913900136947632,-0.05576786771416664,0.6532345414161682,0.6731827855110168,-0.052843064069747925,0.6655623316764832,0.7244816422462463,-0.04205923527479172,0.7371821403503418,0.6204685568809509,-0.03589676320552826,0.671807587146759,0.6293912529945374,-0.05971164256334305,0.6715841889381409,0.6849032044410706,-0.05635793134570122,0.6858755946159363,0.7189987897872925,-0.0475480780005455,0.0,0.0,0.0,0.0,0.0,0.0,0.0,0.0,0.0,0.0,0.0,0.0,0.0,0.0,0.0,0.0,0.0,0.0,0.0,0.0,0.0,0.0,0.0,0.0,0.0,0.0,0.0,0.0,0.0,0.0,0.0,0.0,0.0,0.0,0.0,0.0,0.0,0.0,0.0,0.0,0.0,0.0,0.0,0.0,0.0,0.0,0.0,0.0,0.0,0.0,0.0,0.0,0.0,0.0,0.0,0.0,0.0,0.0,0.0,0.0,0.0,0.0,0.0
1783390496.256812,0.7098827362060547,0.8013154864311218,-2.996861212523072e-07,0.6606159210205078,0.7083413600921631,0.0003502009785734117,0.6501516699790955,0.6078879833221436,-0.0010944101959466934,0.6466652154922485,0.5294820070266724,-0.007429822813719511,0.6380548477172852,0.460138738155365,-0.014100341126322746,0.6927303075790405,0.5256868600845337,0.006511511281132698,0.6567712426185608,0.4395299255847931,-0.009803504683077335,0.6391708850860596,0.38462379574775696,-0.020840389654040337,0.6238710880279541,0.3305281698703766,-0.028444858267903328,0.7110562920570374,0.5323324203491211,-0.005379473324865103,0.6403505802154541,0.49569618701934814,-0.03313237428665161,0.5949469804763794,0.49592724442481995,-0.04476520046591759,0.5619155168533325,0.48953086137771606,-0.0479569286108017,0.7233496904373169,0.5556066036224365,-0.018909642472863197,0.6448891758918762,0.5628736615180969,-0.047924671322107315,0.6474997401237488,0.6423237919807434,-0.04429812729358673,0.6611367464065552,0.6921766996383667,-0.034300513565540314,0.727744996547699,0.5926876664161682,-0.0333053357899189,0.6639025211334229,0.6004539132118225,-0.053011517971754074,0.6642547845840454,0.656440794467926,-0.04823799058794975,0.6788716912269592,0.6908979415893555,-0.03950769826769829,0.0,0.0,0.0,0.0,0.0,0.0,0.0,0.0,0.0,0.0,0.0,0.0,0.0,0.0,0.0,0.0,0.0,0.0,0.0,0.0,0.0,0.0,0.0,0.0,0.0,0.0,0.0,0.0,0.0,0.0,0.0,0.0,0.0,0.0,0.0,0.0,0.0,0.0,0.0,0.0,0.0,0.0,0.0,0.0,0.0,0.0,0.0,0.0,0.0,0.0,0.0,0.0,0.0,0.0,0.0,0.0,0.0,0.0,0.0,0.0,0.0,0.0,0.0
1783390496.413522,0.7080476880073547,0.7750198245048523,-3.006310294040304e-07,0.6579012274742126,0.6891440153121948,0.0005771292489953339,0.6466900706291199,0.5905983448028564,-0.0008362058433704078,0.6435757279396057,0.5126176476478577,-0.007202555425465107,0.6353033781051636,0.4456031918525696,-0.013852369971573353,0.6855530142784119,0.5059446692466736,0.006914940662682056,0.6504079103469849,0.42042669653892517,-0.009297702461481094,0.6325920820236206,0.3667584955692291,-0.020103422924876213,0.6169357299804688,0.3137761056423187,-0.027622196823358536,0.7038633227348328,0.5107500553131104,-0.005249998532235622,0.6344705820083618,0.47667500376701355,-0.03276294469833374,0.5901413559913635,0.4771440923213959,-0.04398242011666298,0.5579555630683899,0.4708210825920105,-0.04692739248275757,0.7167496085166931,0.5328255891799927,-0.01911936141550541,0.6403950452804565,0.5427157282829285,-0.04766666889190674,0.6442508101463318,0.6223056316375732,-0.04395722597837448,0.6586736440658569,0.6717085242271423,-0.03417491540312767,0.7226680517196655,0.5682711601257324,-0.03391744941473007,0.660334050655365,0.5810510516166687,-0.05365878343582153,0.661030650138855,0.637219250202179,-0.04940196871757507,0.6755833625793457,0.6707748174667358,-0.04117929935455322,0.0,0.0,0.0,0.0,0.0,0.0,0.0,0.0,0.0,0.0,0.0,0.0,0.0,0.0,0.0,0.0,0.0,0.0,0.0,0.0,0.0,0.0,0.0,0.0,0.0,0.0,0.0,0.0,0.0,0.0,0.0,0.0,0.0,0.0,0.0,0.0,0.0,0.0,0.0,0.0,0.0,0.0,0.0,0.0,0.0,0.0,0.0,0.0,0.0,0.0,0.0,0.0,0.0,0.0,0.0,0.0,0.0,0.0,0.0,0.0,0.0,0.0,0.0
1783390496.5511029,0.709534227848053,0.7699483036994934,-3.1274348089027626e-07,0.6598101258277893,0.6937777996063232,-0.003696613712236285,0.6472682356834412,0.5979136228561401,-0.006053547374904156,0.6432446837425232,0.5195005536079407,-0.012528332881629467,0.6335791349411011,0.4526185691356659,-0.018852585926651955,0.6847167015075684,0.5079219937324524,0.0026698072906583548,0.6493659019470215,0.41994568705558777,-0.014973497949540615,0.6311444044113159,0.36641180515289307,-0.02596966177225113,0.6156912446022034,0.31317374110221863,-0.03329642117023468,0.7034040093421936,0.5107158422470093,-0.0072188894264400005,0.6344616413116455,0.4763453006744385,-0.039650317281484604,0.5892481207847595,0.47855857014656067,-0.052565038204193115,0.5571154952049255,0.47532978653907776,-0.05493944138288498,0.7167697548866272,0.5302326679229736,-0.019003018736839294,0.6405978202819824,0.5429153442382812,-0.05274488031864166,0.6438164114952087,0.6251530647277832,-0.05031690374016762,0.6579537391662598,0.676975667476654,-0.0390218123793602,0.7236406803131104,0.5629135370254517,-0.031835027039051056,0.6615198254585266,0.576292097568512,-0.05555319786071777,0.6622673869132996,0.6327974796295166,-0.05266789346933365,0.6771997809410095,0.6660676598548889,-0.04380793124437332,0.0,0.0,0.0,0.0,0.0,0.0,0.0,0.0,0.0,0.0,0.0,0.0,0.0,0.0,0.0,0.0,0.0,0.0,0.0,0.0,0.0,0.0,0.0,0.0,0.0,0.0,0.0,0.0,0.0,0.0,0.0,0.0,0.0,0.0,0.0,0.0,0.0,0.0,0.0,0.0,0.0,0.0,0.0,0.0,0.0,0.0,0.0,0.0,0.0,0.0,0.0,0.0,0.0,0.0,0.0,0.0,0.0,0.0,0.0,0.0,0.0,0.0,0.0
1783390496.7208068,0.7091654539108276,0.769801914691925,-3.0869119882481755e-07,0.659273624420166,0.6938369870185852,-0.004477438982576132,0.6467467546463013,0.5984748601913452,-0.007488870993256569,0.6423743963241577,0.5210962891578674,-0.01430249959230423,0.6336046457290649,0.45426511764526367,-0.02100650779902935,0.6850364208221436,0.5065451860427856,0.0010168638546019793,0.6473767161369324,0.4207817316055298,-0.016680235043168068,0.6292321085929871,0.36780673265457153,-0.02808869630098343,0.614403486251831,0.3152967393398285,-0.03580334410071373,0.7033414244651794,0.5096997618675232,-0.008624511770904064,0.6340529918670654,0.4766101837158203,-0.0404132604598999,0.5893499851226807,0.4807991087436676,-0.053263526409864426,0.5574756860733032,0.4788691997528076,-0.055805109441280365,0.7158187031745911,0.5300166606903076,-0.020126700401306152,0.6396925449371338,0.5443640947341919,-0.05266587808728218,0.6437743902206421,0.6227455139160156,-0.05035441368818283,0.6584237813949585,0.6719478368759155,-0.039646439254283905,0.721311628818512,0.5637514591217041,-0.03278697282075882,0.658669114112854,0.5780988335609436,-0.05574309825897217,0.6602442860603333,0.6326861381530762,-0.05285095050930977,0.6756945252418518,0.6648282408714294,-0.04422183334827423,0.0,0.0,0.0,0.0,0.0,0.0,0.0,0.0,0.0,0.0,0.0,0.0,0.0,0.0,0.0,0.0,0.0,0.0,0.0,0.0,0.0,0.0,0.0,0.0,0.0,0.0,0.0,0.0,0.0,0.0,0.0,0.0,0.0,0.0,0.0,0.0,0.0,0.0,0.0,0.0,0.0,0.0,0.0,0.0,0.0,0.0,0.0,0.0,0.0,0.0,0.0,0.0,0.0,0.0,0.0,0.0,0.0,0.0,0.0,0.0,0.0,0.0,0.0
1783390496.957315,0.7077367305755615,0.7640730738639832,-3.0653376370537444e-07,0.6587836146354675,0.6879914999008179,-0.003918338101357222,0.6461323499679565,0.5932880640029907,-0.007057662587612867,0.6412242650985718,0.5164487361907959,-0.014124811626970768,0.6301915049552917,0.44896724820137024,-0.02112668566405773,0.6844813823699951,0.5048441886901855,0.0013449926627799869,0.6477892994880676,0.41854995489120483,-0.01633320190012455,0.6292442679405212,0.36591339111328125,-0.02764691784977913,0.613539457321167,0.3131351172924042,-0.03529008477926254,0.7025699615478516,0.5085628628730774,-0.0086418017745018,0.6329389214515686,0.4740545153617859,-0.04062506556510925,0.5868861675262451,0.47687020897865295,-0.05371924117207527,0.5537281036376953,0.4739864468574524,-0.05662362650036812,0.7149764895439148,0.5288772583007812,-0.02040487714111805,0.6394498944282532,0.5394800901412964,-0.05341324582695961,0.6422824859619141,0.6188978552818298,-0.0505562499165535,0.6558328866958618,0.6686561107635498,-0.03946588560938835,0.7211073637008667,0.5617807507514954,-0.03321564197540283,0.6594616174697876,0.5723963975906372,-0.056401561945676804,0.66008460521698,0.628316342830658,-0.05287750065326691,0.6746450662612915,0.6617634296417236,-0.043853744864463806,0.0,0.0,0.0,0.0,0.0,0.0,0.0,0.0,0.0,0.0,0.0,0.0,0.0,0.0,0.0,0.0,0.0,0.0,0.0,0.0,0.0,0.0,0.0,0.0,0.0,0.0,0.0,0.0,0.0,0.0,0.0,0.0,0.0,0.0,0.0,0.0,0.0,0.0,0.0,0.0,0.0,0.0,0.0,0.0,0.0,0.0,0.0,0.0,0.0,0.0,0.0,0.0,0.0,0.0,0.0,0.0,0.0,0.0,0.0,0.0,0.0,0.0,0.0
1783390497.1196039,0.7060878276824951,0.7633113861083984,-3.1872843919700244e-07,0.6572055816650391,0.6879620552062988,-0.0026855168398469687,0.6450179219245911,0.5932186841964722,-0.0047105709090828896,0.6403210163116455,0.5160927176475525,-0.01103567611426115,0.629913330078125,0.45036962628364563,-0.017415331676602364,0.6828929781913757,0.5036158561706543,0.003508742433041334,0.6469186544418335,0.41773203015327454,-0.013289273716509342,0.6284404397010803,0.3646235764026642,-0.023966828361153603,0.6128367185592651,0.31233224272727966,-0.031230952590703964,0.7013372778892517,0.506384015083313,-0.006876962725073099,0.6324955821037292,0.4728909134864807,-0.03793654963374138,0.5867373943328857,0.4750522971153259,-0.05049862712621689,0.5540086030960083,0.4720219075679779,-0.052997052669525146,0.714389443397522,0.5262529850006104,-0.01905328780412674,0.6384887099266052,0.5393155813217163,-0.051365926861763,0.6420122981071472,0.619767963886261,-0.048894841223955154,0.656490683555603,0.6704777479171753,-0.03806956112384796,0.7208794951438904,0.5595070719718933,-0.03222467377781868,0.6587517261505127,0.5724655985832214,-0.055049020797014236,0.6595260500907898,0.628049373626709,-0.05204391106963158,0.6746091246604919,0.6612463593482971,-0.04340432584285736,0.0,0.0,0.0,0.0,0.0,0.0,0.0,0.0,0.0,0.0,0.0,0.0,0.0,0.0,0.0,0.0,0.0,0.0,0.0,0.0,0.0,0.0,0.0,0.0,0.0,0.0,0.0,0.0,0.0,0.0,0.0,0.0,0.0,0.0,0.0,0.0,0.0,0.0,0.0,0.0,0.0,0.0,0.0,0.0,0.0,0.0,0.0,0.0,0.0,0.0,0.0,0.0,0.0,0.0,0.0,0.0,0.0,0.0,0.0,0.0,0.0,0.0,0.0
1783390497.2505941,0.7056698203086853,0.7628940343856812,-3.179916632234381e-07,0.6562830805778503,0.6868749856948853,-0.0031491045374423265,0.6437576413154602,0.5919151306152344,-0.005650772713124752,0.638678789138794,0.5152828693389893,-0.0121909836307168,0.6287424564361572,0.449898898601532,-0.01876278594136238,0.6814584136009216,0.502281129360199,0.0019597478676587343,0.6455711722373962,0.4177006781101227,-0.015087461099028587,0.6276154518127441,0.36494195461273193,-0.026112357154488564,0.6124656796455383,0.3125338554382324,-0.033721815794706345,0.6998814940452576,0.5051403641700745,-0.008267872966825962,0.6308123469352722,0.47259384393692017,-0.03942309692502022,0.5858794450759888,0.47558537125587463,-0.0520334355533123,0.5536779761314392,0.47288641333580017,-0.054659273475408554,0.7127813696861267,0.5252991318702698,-0.020190494135022163,0.6367769241333008,0.5378530025482178,-0.05209353566169739,0.6402721405029297,0.6165003180503845,-0.049420036375522614,0.6545207500457764,0.6660748720169067,-0.038742247968912125,0.7190514206886292,0.5590982437133789,-0.033162109553813934,0.6562851071357727,0.5714812874794006,-0.055855412036180496,0.6571693420410156,0.6266685128211975,-0.05276267230510712,0.6722438335418701,0.6597780585289001,-0.04414542019367218,0.0,0.0,0.0,0.0,0.0,0.0,0.0,0.0,0.0,0.0,0.0,0.0,0.0,0.0,0.0,0.0,0.0,0.0,0.0,0.0,0.0,0.0,0.0,0.0,0.0,0.0,0.0,0.0,0.0,0.0,0.0,0.0,0.0,0.0,0.0,0.0,0.0,0.0,0.0,0.0,0.0,0.0,0.0,0.0,0.0,0.0,0.0,0.0,0.0,0.0,0.0,0.0,0.0,0.0,0.0,0.0,0.0,0.0,0.0,0.0,0.0,0.0,0.0
1783390497.385855,0.7044609189033508,0.762377142906189,-3.19304035656387e-07,0.6546592116355896,0.6864261627197266,-0.0030440303962677717,0.6411091089248657,0.5909973382949829,-0.005583919119089842,0.6355655193328857,0.5143741965293884,-0.012159787118434906,0.6236292123794556,0.4473915696144104,-0.018720095977187157,0.6797154545783997,0.5007568597793579,0.0022919815964996815,0.6435445547103882,0.41775545477867126,-0.015105309896171093,0.6249977350234985,0.3662508726119995,-0.026439033448696136,0.6091166734695435,0.3147704005241394,-0.03411630168557167,0.6979858875274658,0.5053761601448059,-0.008091573603451252,0.628841757774353,0.4736210107803345,-0.039690837264060974,0.5837788581848145,0.4778694212436676,-0.05248027667403221,0.5518877506256104,0.47625845670700073,-0.0552203431725502,0.7104976177215576,0.5266816020011902,-0.020227769389748573,0.6348955631256104,0.5378461480140686,-0.05240534245967865,0.637321412563324,0.6164552569389343,-0.04937804117798805,0.6511521339416504,0.665224552154541,-0.03843291476368904,0.7166790962219238,0.5610460042953491,-0.03339226916432381,0.6541354656219482,0.5710739493370056,-0.05604972690343857,0.6544288396835327,0.6261882185935974,-0.05254345014691353,0.6693313717842102,0.6583136320114136,-0.043643105775117874,0.0,0.0,0.0,0.0,0.0,0.0,0.0,0.0,0.0,0.0,0.0,0.0,0.0,0.0,0.0,0.0,0.0,0.0,0.0,0.0,0.0,0.0,0.0,0.0,0.0,0.0,0.0,0.0,0.0,0.0,0.0,0.0,0.0,0.0,0.0,0.0,0.0,0.0,0.0,0.0,0.0,0.0,0.0,0.0,0.0,0.0,0.0,0.0,0.0,0.0,0.0,0.0,0.0,0.0,0.0,0.0,0.0,0.0,0.0,0.0,0.0,0.0,0.0
1783390497.515328,0.7034451365470886,0.7635812759399414,-3.161883341817884e-07,0.6532445549964905,0.6886521577835083,-0.0042312778532505035,0.640097439289093,0.5940285325050354,-0.006591765210032463,0.6351971626281738,0.5175662040710449,-0.012827571481466293,0.6259756684303284,0.45280060172080994,-0.019083574414253235,0.678960919380188,0.504132091999054,0.0019324368331581354,0.6423759460449219,0.42103391885757446,-0.015297256410121918,0.6238635182380676,0.36911338567733765,-0.026512140408158302,0.6082391738891602,0.3177138566970825,-0.0340258814394474,0.6967573165893555,0.5076159834861755,-0.007390154991298914,0.6283761858940125,0.4780066907405853,-0.038245655596256256,0.5843872427940369,0.48229077458381653,-0.050938427448272705,0.5531039834022522,0.48050421476364136,-0.05361238867044449,0.7090693712234497,0.5275431275367737,-0.01856801100075245,0.6339200139045715,0.5421152710914612,-0.050586551427841187,0.6374332904815674,0.6209018230438232,-0.048231758177280426,0.6515496373176575,0.6710639595985413,-0.03753438964486122,0.7148953080177307,0.560753345489502,-0.030870044603943825,0.6530869007110596,0.5736232995986938,-0.05334086716175079,0.6540579795837402,0.6280681490898132,-0.050187163054943085,0.6689842343330383,0.6610526442527771,-0.041391365230083466,0.0,0.0,0.0,0.0,0.0,0.0,0.0,0.0,0.0,0.0,0.0,0.0,0.0,0.0,0.0,0.0,0.0,0.0,0.0,0.0,0.0,0.0,0.0,0.0,0.0,0.0,0.0,0.0,0.0,0.0,0.0,0.0,0.0,0.0,0.0,0.0,0.0,0.0,0.0,0.0,0.0,0.0,0.0,0.0,0.0,0.0,0.0,0.0,0.0,0.0,0.0,0.0,0.0,0.0,0.0,0.0,0.0,0.0,0.0,0.0,0.0,0.0,0.0
1783390497.6549828,0.7026764750480652,0.7613111138343811,-3.073345737902855e-07,0.6531291604042053,0.6854612231254578,-0.0027257183101028204,0.6401481032371521,0.5913059711456299,-0.004898141138255596,0.6346601247787476,0.5159432888031006,-0.011175351217389107,0.6236678957939148,0.45209234952926636,-0.017492519691586494,0.678310751914978,0.5045951008796692,0.0027615430299192667,0.6425548195838928,0.42174863815307617,-0.013855199329555035,0.6240847110748291,0.37036556005477905,-0.024565214291214943,0.608849287033081,0.3187938630580902,-0.03186662495136261,0.6959830522537231,0.5080985426902771,-0.007226802408695221,0.6266314387321472,0.47787803411483765,-0.03705473616719246,0.5830254554748535,0.48126021027565,-0.04922746494412422,0.5525460839271545,0.47727900743484497,-0.05198466032743454,0.7080017328262329,0.5277580618858337,-0.01890089549124241,0.633089005947113,0.5396345853805542,-0.05009765177965164,0.636202335357666,0.6184133887290955,-0.04720192775130272,0.6499409079551697,0.6676321029663086,-0.03652190789580345,0.7136741876602173,0.5604593753814697,-0.031561870127916336,0.6528487205505371,0.571073055267334,-0.05359947308897972,0.6537941098213196,0.625471830368042,-0.050167884677648544,0.6683217287063599,0.6581381559371948,-0.04142000526189804,0.0,0.0,0.0,0.0,0.0,0.0,0.0,0.0,0.0,0.0,0.0,0.0,0.0,0.0,0.0,0.0,0.0,0.0,0.0,0.0,0.0,0.0,0.0,0.0,0.0,0.0,0.0,0.0,0.0,0.0,0.0,0.0,0.0,0.0,0.0,0.0,0.0,0.0,0.0,0.0,0.0,0.0,0.0,0.0,0.0,0.0,0.0,0.0,0.0,0.0,0.0,0.0,0.0,0.0,0.0,0.0,0.0,0.0,0.0,0.0,0.0,0.0,0.0
1783390497.8148491,0.7021516561508179,0.7555299401283264,-2.8923011541337473e-07,0.6520673036575317,0.6781686544418335,-0.0018257976043969393,0.6401663422584534,0.5854464173316956,-0.004560168832540512,0.6355245113372803,0.5113856196403503,-0.01144613977521658,0.6249951124191284,0.4474495053291321,-0.01843481883406639,0.6797625422477722,0.5005929470062256,0.0022142387460917234,0.6430019736289978,0.417271226644516,-0.014181103557348251,0.624318540096283,0.3654646873474121,-0.024680737406015396,0.6090348958969116,0.31373000144958496,-0.032015711069107056,0.6967564821243286,0.5054301619529724,-0.008648348972201347,0.6266472935676575,0.47097769379615784,-0.03751880303025246,0.5820420384407043,0.47507521510124207,-0.04910790175199509,0.5509849786758423,0.47235143184661865,-0.051989875733852386,0.7073079943656921,0.5261904001235962,-0.02109324373304844,0.6325294971466064,0.5359166860580444,-0.05100244656205177,0.6350877285003662,0.6115230917930603,-0.047356016933918,0.6487953662872314,0.6575413942337036,-0.03704068064689636,0.7107625007629395,0.5592518448829651,-0.03446448594331741,0.6499592065811157,0.5684856176376343,-0.05536651611328125,0.6509840488433838,0.622046172618866,-0.05124243348836899,0.6656374335289001,0.6532886624336243,-0.04267651587724686,0.0,0.0,0.0,0.0,0.0,0.0,0.0,0.0,0.0,0.0,0.0,0.0,0.0,0.0,0.0,0.0,0.0,0.0,0.0,0.0,0.0,0.0,0.0,0.0,0.0,0.0,0.0,0.0,0.0,0.0,0.0,0.0,0.0,0.0,0.0,0.0,0.0,0.0,0.0,0.0,0.0,0.0,0.0,0.0,0.0,0.0,0.0,0.0,0.0,0.0,0.0,0.0,0.0,0.0,0.0,0.0,0.0,0.0,0.0,0.0,0.0,0.0,0.0
1783390497.95621,0.7026088833808899,0.7546528577804565,-2.9768793297080265e-07,0.6529499292373657,0.6807741522789001,-0.002718827221542597,0.6409157514572144,0.5890442132949829,-0.0057477583177387714,0.6363806128501892,0.5139833688735962,-0.012740316800773144,0.6264564990997314,0.4499090611934662,-0.01978263072669506,0.6801454424858093,0.5010942816734314,0.0012609235709533095,0.6426193714141846,0.41552525758743286,-0.015436278656125069,0.6242649555206299,0.3633158504962921,-0.026116587221622467,0.6094452142715454,0.3118235766887665,-0.03344417363405228,0.696780264377594,0.5051249861717224,-0.008827616460621357,0.6265696287155151,0.47137686610221863,-0.03906466066837311,0.5825716853141785,0.47611305117607117,-0.051081232726573944,0.5520008206367493,0.47393396496772766,-0.05359390377998352,0.7069664001464844,0.5248213410377502,-0.020472774282097816,0.6319090723991394,0.5349711179733276,-0.05129970610141754,0.6356672048568726,0.6114460825920105,-0.04830778390169144,0.6502607464790344,0.6594753861427307,-0.03784191235899925,0.7103986740112305,0.5564277768135071,-0.03308603912591934,0.6497731804847717,0.567107617855072,-0.05508708208799362,0.6516890525817871,0.6203398704528809,-0.051852378994226456,0.6669924855232239,0.6519757509231567,-0.043351512402296066,0.0,0.0,0.0,0.0,0.0,0.0,0.0,0.0,0.0,0.0,0.0,0.0,0.0,0.0,0.0,0.0,0.0,0.0,0.0,0.0,0.0,0.0,0.0,0.0,0.0,0.0,0.0,0.0,0.0,0.0,0.0,0.0,0.0,0.0,0.0,0.0,0.0,0.0,0.0,0.0,0.0,0.0,0.0,0.0,0.0,0.0,0.0,0.0,0.0,0.0,0.0,0.0,0.0,0.0,0.0,0.0,0.0,0.0,0.0,0.0,0.0,0.0,0.0
1783390498.169295,0.7035850882530212,0.7592858076095581,-2.9634423981406144e-07,0.6549369096755981,0.6866506338119507,-0.004634549375623465,0.6427547335624695,0.5926911234855652,-0.008108883164823055,0.6383718252182007,0.5161888599395752,-0.014955478720366955,0.6296703815460205,0.4510599672794342,-0.021850641816854477,0.682361900806427,0.5045413970947266,-0.0017938223900273442,0.6450644731521606,0.416759192943573,-0.018529506400227547,0.6269664168357849,0.3634187579154968,-0.02893281914293766,0.6122147440910339,0.3115118145942688,-0.035931285470724106,0.6989032030105591,0.5088915824890137,-0.010527169331908226,0.6294558644294739,0.4733811914920807,-0.04077959060668945,0.5850309133529663,0.47710952162742615,-0.05303691327571869,0.5537875890731812,0.47566741704940796,-0.05572004243731499,0.709086537361145,0.5292072892189026,-0.020687570795416832,0.6339455842971802,0.5390034317970276,-0.0517314188182354,0.6365638971328735,0.6156005263328552,-0.04896881803870201,0.6501004695892334,0.6655656695365906,-0.038410335779190063,0.7123567461967468,0.5609040856361389,-0.03185514360666275,0.6516119241714478,0.5695304274559021,-0.05357127636671066,0.6523128151893616,0.6223157644271851,-0.05011364445090294,0.666492223739624,0.6555522084236145,-0.041346047073602676,0.0,0.0,0.0,0.0,0.0,0.0,0.0,0.0,0.0,0.0,0.0,0.0,0.0,0.0,0.0,0.0,0.0,0.0,0.0,0.0,0.0,0.0,0.0,0.0,0.0,0.0,0.0,0.0,0.0,0.0,0.0,0.0,0.0,0.0,0.0,0.0,0.0,0.0,0.0,0.0,0.0,0.0,0.0,0.0,0.0,0.0,0.0,0.0,0.0,0.0,0.0,0.0,0.0,0.0,0.0,0.0,0.0,0.0,0.0,0.0,0.0,0.0,0.0
1783390498.321492,0.7039100527763367,0.7613114714622498,-2.99040749496271e-07,0.6552860736846924,0.6874697208404541,-0.004760518204420805,0.6432472467422485,0.5948906540870667,-0.008412392809987068,0.6389586925506592,0.5190723538398743,-0.015571750700473785,0.6306791305541992,0.45554018020629883,-0.0227701123803854,0.6830673217773438,0.5055020451545715,-0.0017180056311190128,0.6453338861465454,0.4182199239730835,-0.019157616421580315,0.6272022724151611,0.3656727075576782,-0.030147584155201912,0.6123750805854797,0.31424281001091003,-0.037420764565467834,0.6992977857589722,0.5100555419921875,-0.010606586933135986,0.6301155090332031,0.47430676221847534,-0.041411884129047394,0.5862929224967957,0.4780019223690033,-0.05367324501276016,0.5551964044570923,0.47684916853904724,-0.05603000894188881,0.7092006206512451,0.5304339528083801,-0.021071363240480423,0.6337414979934692,0.5417072772979736,-0.05250217765569687,0.6370981931686401,0.617975115776062,-0.0502336323261261,0.6510807871818542,0.6677230596542358,-0.0397832989692688,0.7122740745544434,0.5626018643379211,-0.03259237855672836,0.6511078476905823,0.572953999042511,-0.05466286838054657,0.6521406173706055,0.6256719827651978,-0.05167083442211151,0.6666162610054016,0.6588858962059021,-0.043103206902742386,0.0,0.0,0.0,0.0,0.0,0.0,0.0,0.0,0.0,0.0,0.0,0.0,0.0,0.0,0.0,0.0,0.0,0.0,0.0,0.0,0.0,0.0,0.0,0.0,0.0,0.0,0.0,0.0,0.0,0.0,0.0,0.0,0.0,0.0,0.0,0.0,0.0,0.0,0.0,0.0,0.0,0.0,0.0,0.0,0.0,0.0,0.0,0.0,0.0,0.0,0.0,0.0,0.0,0.0,0.0,0.0,0.0,0.0,0.0,0.0,0.0,0.0,0.0
1783390498.4891741,0.7040863037109375,0.7633519768714905,-2.931238896053401e-07,0.6548851132392883,0.6900008916854858,-0.005036880262196064,0.6435400247573853,0.5972499847412109,-0.008836730383336544,0.6399300694465637,0.5213770866394043,-0.016166428104043007,0.632114589214325,0.4577940106391907,-0.023516520857810974,0.683281660079956,0.5074335336685181,-0.0012520193122327328,0.6454513669013977,0.4196832478046417,-0.01865888014435768,0.6274100542068481,0.36679208278656006,-0.029744181782007217,0.6128610968589783,0.3146700859069824,-0.037184540182352066,0.6998766660690308,0.5116593241691589,-0.010182216763496399,0.630859375,0.47444090247154236,-0.04138575494289398,0.5861300826072693,0.47753098607063293,-0.05404428392648697,0.5541951060295105,0.47559505701065063,-0.05656765401363373,0.710085928440094,0.5318703651428223,-0.020732330158352852,0.6343503594398499,0.5422836542129517,-0.05247368663549423,0.6375760436058044,0.6186220645904541,-0.0502471886575222,0.6515824198722839,0.6680195331573486,-0.03973693028092384,0.7131874561309814,0.5637772083282471,-0.032379183918237686,0.651725172996521,0.5738620162010193,-0.054498713463544846,0.6528803706169128,0.6264243721961975,-0.05140279233455658,0.667608380317688,0.6588677763938904,-0.04275915026664734,0.0,0.0,0.0,0.0,0.0,0.0,0.0,0.0,0.0,0.0,0.0,0.0,0.0,0.0,0.0,0.0,0.0,0.0,0.0,0.0,0.0,0.0,0.0,0.0,0.0,0.0,0.0,0.0,0.0,0.0,0.0,0.0,0.0,0.0,0.0,0.0,0.0,0.0,0.0,0.0,0.0,0.0,0.0,0.0,0.0,0.0,0.0,0.0,0.0,0.0,0.0,0.0,0.0,0.0,0.0,0.0,0.0,0.0,0.0,0.0,0.0,0.0,0.0
1783390498.6252742,0.7037094831466675,0.7619650363922119,-2.972616073293466e-07,0.6540231108665466,0.6881243586540222,-0.0038117829244583845,0.6419559717178345,0.595230221748352,-0.00677966233342886,0.6378966569900513,0.5198483467102051,-0.013595596887171268,0.6288408637046814,0.45528656244277954,-0.020324120298027992,0.6809147596359253,0.505596399307251,0.0008822621311992407,0.6448745131492615,0.41871535778045654,-0.016368089243769646,0.6268775463104248,0.36560946702957153,-0.027316050603985786,0.6123634576797485,0.31352031230926514,-0.03472020477056503,0.697830855846405,0.5096604824066162,-0.008869159035384655,0.6284285187721252,0.4734601378440857,-0.039842456579208374,0.5845288038253784,0.4770391285419464,-0.05211678892374039,0.5540929436683655,0.47467002272605896,-0.054502084851264954,0.7090475559234619,0.5295154452323914,-0.02035299874842167,0.6340533494949341,0.5385286808013916,-0.052053164690732956,0.6375346779823303,0.6159244775772095,-0.04911277815699577,0.6517825126647949,0.6645724773406982,-0.038288410753011703,0.7136766314506531,0.5619663596153259,-0.03292199596762657,0.6528117656707764,0.5712085366249084,-0.05525783821940422,0.6541145443916321,0.6249020099639893,-0.05184580758213997,0.6689462065696716,0.6570868492126465,-0.04303550347685814,0.0,0.0,0.0,0.0,0.0,0.0,0.0,0.0,0.0,0.0,0.0,0.0,0.0,0.0,0.0,0.0,0.0,0.0,0.0,0.0,0.0,0.0,0.0,0.0,0.0,0.0,0.0,0.0,0.0,0.0,0.0,0.0,0.0,0.0,0.0,0.0,0.0,0.0,0.0,0.0,0.0,0.0,0.0,0.0,0.0,0.0,0.0,0.0,0.0,0.0,0.0,0.0,0.0,0.0,0.0,0.0,0.0,0.0,0.0,0.0,0.0,0.0,0.0
1783390498.791103,0.7034368515014648,0.7601972818374634,-2.7041633643420937e-07,0.6544937491416931,0.6885499954223633,-0.004183576907962561,0.6430774331092834,0.5974522233009338,-0.0077084437943995,0.6396587491035461,0.5225222110748291,-0.01505541242659092,0.6317735314369202,0.459578275680542,-0.022176170721650124,0.6817782521247864,0.5075358152389526,0.0006762082339264452,0.6468247771263123,0.41903623938560486,-0.01596236601471901,0.6293106079101562,0.36473768949508667,-0.026278700679540634,0.6152322292327881,0.31118544936180115,-0.0334983691573143,0.6982446908950806,0.5098451972007751,-0.008951036259531975,0.6294971108436584,0.47050389647483826,-0.03848244249820709,0.585437536239624,0.4706251323223114,-0.05058305710554123,0.5546297430992126,0.46405020356178284,-0.05355536565184593,0.7091851830482483,0.5285211801528931,-0.02026812732219696,0.6348069906234741,0.5373880863189697,-0.051398035138845444,0.6382442712783813,0.614432692527771,-0.04828277975320816,0.6521357297897339,0.662564754486084,-0.037753984332084656,0.7134652733802795,0.5592895746231079,-0.032675307244062424,0.6528210639953613,0.5693989992141724,-0.05459970235824585,0.6536926031112671,0.6237409114837646,-0.05096740648150444,0.6678532958030701,0.6563652157783508,-0.042336639016866684,0.0,0.0,0.0,0.0,0.0,0.0,0.0,0.0,0.0,0.0,0.0,0.0,0.0,0.0,0.0,0.0,0.0,0.0,0.0,0.0,0.0,0.0,0.0,0.0,0.0,0.0,0.0,0.0,0.0,0.0,0.0,0.0,0.0,0.0,0.0,0.0,0.0,0.0,0.0,0.0,0.0,0.0,0.0,0.0,0.0,0.0,0.0,0.0,0.0,0.0,0.0,0.0,0.0,0.0,0.0,0.0,0.0,0.0,0.0,0.0,0.0,0.0,0.0
1783390498.951861,0.7014788389205933,0.762437105178833,-2.8238244453859807e-07,0.6523072123527527,0.6913740038871765,-0.004836155101656914,0.640859067440033,0.5986446738243103,-0.007851812988519669,0.637580931186676,0.5224350690841675,-0.014680284075438976,0.6302540302276611,0.4580822288990021,-0.021393438801169395,0.6797944903373718,0.5098668336868286,0.0011669098166748881,0.6446670293807983,0.4229312241077423,-0.015456963330507278,0.6272335052490234,0.3698517382144928,-0.026096004992723465,0.6132518649101257,0.3172127306461334,-0.03353353589773178,0.6969711184501648,0.5116328001022339,-0.008008916862308979,0.6292093992233276,0.4761139154434204,-0.03754711523652077,0.5856471061706543,0.47437620162963867,-0.04999714344739914,0.5546302795410156,0.46538105607032776,-0.05322781205177307,0.7085144519805908,0.5300683379173279,-0.019029995426535606,0.6342240571975708,0.5403199791908264,-0.05011908710002899,0.6377963423728943,0.6179015040397644,-0.0474860742688179,0.6515579223632812,0.6664572954177856,-0.03720874711871147,0.7132202982902527,0.5612853169441223,-0.03123852051794529,0.6518577933311462,0.5720277428627014,-0.053201865404844284,0.6531831622123718,0.6256599426269531,-0.04995819926261902,0.6679907441139221,0.658024251461029,-0.041518520563840866,0.0,0.0,0.0,0.0,0.0,0.0,0.0,0.0,0.0,0.0,0.0,0.0,0.0,0.0,0.0,0.0,0.0,0.0,0.0,0.0,0.0,0.0,0.0,0.0,0.0,0.0,0.0,0.0,0.0,0.0,0.0,0.0,0.0,0.0,0.0,0.0,0.0,0.0,0.0,0.0,0.0,0.0,0.0,0.0,0.0,0.0,0.0,0.0,0.0,0.0,0.0,0.0,0.0,0.0,0.0,0.0,0.0,0.0,0.0,0.0,0.0,0.0,0.0
1783390499.087908,0.6989521384239197,0.7636210322380066,-3.003085282671236e-07,0.6515069007873535,0.6934472322463989,-0.0024152561090886593,0.6394346952438354,0.6021947264671326,-0.003655927488580346,0.6366413831710815,0.5273420810699463,-0.009417494758963585,0.6300520300865173,0.4649263620376587,-0.0150611512362957,0.6750326752662659,0.5140025615692139,0.005339909344911575,0.6410559415817261,0.4269729256629944,-0.011190601624548435,0.6227443218231201,0.37392696738243103,-0.02168259583413601,0.6078589558601379,0.3219035267829895,-0.02876557968556881,0.6926062107086182,0.5137412548065186,-0.004813391715288162,0.627062976360321,0.4789291024208069,-0.03433790057897568,0.5835967063903809,0.4760502576828003,-0.04659520462155342,0.5531266927719116,0.4667164981365204,-0.049295321106910706,0.7061017751693726,0.5299714207649231,-0.016925204545259476,0.6344423294067383,0.5420993566513062,-0.048502691090106964,0.637604296207428,0.6221796274185181,-0.046085383743047714,0.651202917098999,0.6719207763671875,-0.035425182431936264,0.7138790488243103,0.5597898364067078,-0.03005705401301384,0.6552130579948425,0.5729387402534485,-0.05188412964344025,0.6557825803756714,0.6275425553321838,-0.04866256192326546,0.6698938608169556,0.6595226526260376,-0.040059905499219894,0.0,0.0,0.0,0.0,0.0,0.0,0.0,0.0,0.0,0.0,0.0,0.0,0.0,0.0,0.0,0.0,0.0,0.0,0.0,0.0,0.0,0.0,0.0,0.0,0.0,0.0,0.0,0.0,0.0,0.0,0.0,0.0,0.0,0.0,0.0,0.0,0.0,0.0,0.0,0.0,0.0,0.0,0.0,0.0,0.0,0.0,0.0,0.0,0.0,0.0,0.0,0.0,0.0,0.0,0.0,0.0,0.0,0.0,0.0,0.0,0.0,0.0,0.0
1783390499.231263,0.6946465373039246,0.7632363438606262,-2.7180786332792195e-07,0.6495649218559265,0.6958882808685303,-0.0024108467623591423,0.6368055939674377,0.6039150357246399,-0.0035454679746180773,0.6347604990005493,0.5289195775985718,-0.009280120953917503,0.6282152533531189,0.4667436182498932,-0.014882992953062057,0.6680457592010498,0.5174995064735413,0.005909672472625971,0.6366523504257202,0.4293668270111084,-0.010822119191288948,0.6193998456001282,0.37681636214256287,-0.020805923268198967,0.6054365038871765,0.32501909136772156,-0.027087610214948654,0.6877201795578003,0.516190767288208,-0.004059290513396263,0.6271353960037231,0.4780053198337555,-0.03420453891158104,0.5841143131256104,0.4762800633907318,-0.04644246771931648,0.5540908575057983,0.46847036480903625,-0.04833899065852165,0.7045564651489258,0.5319833755493164,-0.015925582498311996,0.6370763778686523,0.5433763861656189,-0.048298295587301254,0.6384637355804443,0.6260074973106384,-0.04549558088183403,0.6506137251853943,0.6767263412475586,-0.033681031316518784,0.7167404294013977,0.5615079402923584,-0.02862108312547207,0.6607747673988342,0.570743978023529,-0.04967324435710907,0.6608983874320984,0.6264050006866455,-0.04493953287601471,0.6746126413345337,0.6583630442619324,-0.03492249920964241,0.0,0.0,0.0,0.0,0.0,0.0,0.0,0.0,0.0,0.0,0.0,0.0,0.0,0.0,0.0,0.0,0.0,0.0,0.0,0.0,0.0,0.0,0.0,0.0,0.0,0.0,0.0,0.0,0.0,0.0,0.0,0.0,0.0,0.0,0.0,0.0,0.0,0.0,0.0,0.0,0.0,0.0,0.0,0.0,0.0,0.0,0.0,0.0,0.0,0.0,0.0,0.0,0.0,0.0,0.0,0.0,0.0,0.0,0.0,0.0,0.0,0.0,0.0
1783390499.383669,0.6914331912994385,0.7639050483703613,-2.889441077513766e-07,0.6479006409645081,0.6964729428291321,-0.0014908763114362955,0.6348735094070435,0.6062340140342712,-0.0021691659931093454,0.6315274834632874,0.5329837799072266,-0.007765376009047031,0.6224705576896667,0.4719744026660919,-0.013397217728197575,0.6676831841468811,0.5199539661407471,0.006924617104232311,0.636094868183136,0.43227624893188477,-0.009884032420814037,0.6174798607826233,0.3790821135044098,-0.020426137372851372,0.602044403553009,0.3273477554321289,-0.027232766151428223,0.6870392560958862,0.5183428525924683,-0.0035536608193069696,0.6257832646369934,0.4820522367954254,-0.03392897546291351,0.5826525092124939,0.47964686155319214,-0.046627629548311234,0.5525129437446594,0.471456915140152,-0.04894881695508957,0.7039147615432739,0.5333796143531799,-0.01589406281709671,0.6362773180007935,0.5454581379890442,-0.04850974306464195,0.6384056210517883,0.6280633211135864,-0.04606816917657852,0.6508755683898926,0.6792851090431213,-0.03453706577420235,0.71650230884552,0.5623480677604675,-0.029039690271019936,0.6609789729118347,0.5734481811523438,-0.05086202174425125,0.661280632019043,0.6285631656646729,-0.04678544029593468,0.6749221086502075,0.6602907180786133,-0.037144362926483154,0.0,0.0,0.0,0.0,0.0,0.0,0.0,0.0,0.0,0.0,0.0,0.0,0.0,0.0,0.0,0.0,0.0,0.0,0.0,0.0,0.0,0.0,0.0,0.0,0.0,0.0,0.0,0.0,0.0,0.0,0.0,0.0,0.0,0.0,0.0,0.0,0.0,0.0,0.0,0.0,0.0,0.0,0.0,0.0,0.0,0.0,0.0,0.0,0.0,0.0,0.0,0.0,0.0,0.0,0.0,0.0,0.0,0.0,0.0,0.0,0.0,0.0,0.0
1783390499.519646,0.689443826675415,0.7654180526733398,-2.8978240607102634e-07,0.6469484567642212,0.7006571888923645,-0.0036891289055347443,0.6321905255317688,0.6101207137107849,-0.004889396950602531,0.6296619176864624,0.5376966595649719,-0.010546231642365456,0.6234970092773438,0.4778904616832733,-0.016052694991230965,0.6620485782623291,0.5243045091629028,0.005217038560658693,0.6331952214241028,0.4368423521518707,-0.012824143283069134,0.615206778049469,0.3835128843784332,-0.02418975532054901,0.5995808243751526,0.332577109336853,-0.03126078471541405,0.6826701164245605,0.5214812159538269,-0.004194464068859816,0.6253277063369751,0.48663070797920227,-0.03587457910180092,0.583870530128479,0.48370128870010376,-0.0491284504532814,0.5542610287666321,0.47340303659439087,-0.05130961164832115,0.701408863067627,0.5353562831878662,-0.015656650066375732,0.6378023028373718,0.5474299192428589,-0.049279890954494476,0.6394963264465332,0.6304219961166382,-0.046765923500061035,0.6508563756942749,0.6813715696334839,-0.03468659892678261,0.7166348099708557,0.5637784004211426,-0.028103573247790337,0.6631262302398682,0.5726199746131897,-0.050159625709056854,0.6627407670021057,0.6292517185211182,-0.045541126281023026,0.6752922534942627,0.6624774932861328,-0.03520125895738602,0.0,0.0,0.0,0.0,0.0,0.0,0.0,0.0,0.0,0.0,0.0,0.0,0.0,0.0,0.0,0.0,0.0,0.0,0.0,0.0,0.0,0.0,0.0,0.0,0.0,0.0,0.0,0.0,0.0,0.0,0.0,0.0,0.0,0.0,0.0,0.0,0.0,0.0,0.0,0.0,0.0,0.0,0.0,0.0,0.0,0.0,0.0,0.0,0.0,0.0,0.0,0.0,0.0,0.0,0.0,0.0,0.0,0.0,0.0,0.0,0.0,0.0,0.0
1783390499.6513212,0.683037281036377,0.7664629817008972,-2.5690900429253816e-07,0.6404929757118225,0.7009070515632629,-0.002922401065006852,0.6218744516372681,0.6093558669090271,-0.003236926393583417,0.6185248494148254,0.5415387749671936,-0.008259253576397896,0.6147111058235168,0.48660537600517273,-0.012971892952919006,0.6451082229614258,0.5304903388023376,0.008912967517971992,0.6147263646125793,0.44610071182250977,-0.007587610278278589,0.5979191064834595,0.3962082862854004,-0.018019963055849075,0.5834697484970093,0.3474181592464447,-0.024475399404764175,0.6685774922370911,0.52467280626297,-0.0007374849519692361,0.6224743723869324,0.48948660492897034,-0.03150230646133423,0.5872091054916382,0.4864005744457245,-0.045139577239751816,0.5611518621444702,0.47864577174186707,-0.047130994498729706,0.692173957824707,0.5346179604530334,-0.012448578141629696,0.6388967037200928,0.5508246421813965,-0.04444805532693863,0.6421111822128296,0.6309182047843933,-0.0424187071621418,0.6535629630088806,0.6787978410720825,-0.030760686844587326,0.7140129804611206,0.5603696703910828,-0.025091329589486122,0.6666762232780457,0.5700497031211853,-0.045255523175001144,0.6661590933799744,0.6287692785263062,-0.039940278977155685,0.6783119440078735,0.6627131700515747,-0.02937871590256691,0.0,0.0,0.0,0.0,0.0,0.0,0.0,0.0,0.0,0.0,0.0,0.0,0.0,0.0,0.0,0.0,0.0,0.0,0.0,0.0,0.0,0.0,0.0,0.0,0.0,0.0,0.0,0.0,0.0,0.0,0.0,0.0,0.0,0.0,0.0,0.0,0.0,0.0,0.0,0.0,0.0,0.0,0.0,0.0,0.0,0.0,0.0,0.0,0.0,0.0,0.0,0.0,0.0,0.0,0.0,0.0,0.0,0.0,0.0,0.0,0.0,0.0,0.0
1783390499.792649,0.6776366233825684,0.7625628113746643,-2.0850134774264006e-07,0.633623480796814,0.7068191170692444,-0.004930573515594006,0.6095931529998779,0.61155766248703,-0.005023643374443054,0.6036301851272583,0.5410152673721313,-0.009173350408673286,0.5958142280578613,0.48680904507637024,-0.012843189761042595,0.6294370889663696,0.5366196036338806,0.0075969574972987175,0.597704291343689,0.4539169669151306,-0.008442488498985767,0.5805701017379761,0.40249377489089966,-0.01891253888607025,0.565130889415741,0.3521283268928528,-0.02590876817703247,0.6540378332138062,0.5290358066558838,-0.0009955073473975062,0.6130362749099731,0.4963735044002533,-0.031832706183195114,0.5813117027282715,0.4930602014064789,-0.04558122530579567,0.5569486021995544,0.48387467861175537,-0.047922272235155106,0.6792112588882446,0.5367142558097839,-0.011808237060904503,0.6323981285095215,0.548103928565979,-0.044084582477808,0.6388208270072937,0.6288175582885742,-0.04104192554950714,0.6508191823959351,0.6765395402908325,-0.028843645006418228,0.7038537859916687,0.5578879117965698,-0.02376253344118595,0.6602311134338379,0.567518949508667,-0.044957228004932404,0.661969006061554,0.627036988735199,-0.03973589465022087,0.6747393608093262,0.6591829061508179,-0.029282229021191597,0.0,0.0,0.0,0.0,0.0,0.0,0.0,0.0,0.0,0.0,0.0,0.0,0.0,0.0,0.0,0.0,0.0,0.0,0.0,0.0,0.0,0.0,0.0,0.0,0.0,0.0,0.0,0.0,0.0,0.0,0.0,0.0,0.0,0.0,0.0,0.0,0.0,0.0,0.0,0.0,0.0,0.0,0.0,0.0,0.0,0.0,0.0,0.0,0.0,0.0,0.0,0.0,0.0,0.0,0.0,0.0,0.0,0.0,0.0,0.0,0.0,0.0,0.0
1783390499.951738,0.6681661009788513,0.7532839775085449,-1.1091616158864781e-07,0.6255246996879578,0.7122274041175842,-0.007799700368195772,0.598849356174469,0.6108754277229309,-0.007472313474863768,0.5954331755638123,0.5313941240310669,-0.010610593482851982,0.5870468020439148,0.47457316517829895,-0.013106894679367542,0.614046037197113,0.543393075466156,0.007683508098125458,0.5854227542877197,0.4538903832435608,-0.006674744188785553,0.568111002445221,0.4004719853401184,-0.0160220954567194,0.552787721157074,0.3497409522533417,-0.022261103615164757,0.6400114893913269,0.5338606834411621,0.0007676027016714215,0.6119362115859985,0.4922122061252594,-0.02872997336089611,0.5870653986930847,0.4822345972061157,-0.04251968860626221,0.5653254985809326,0.46620362997055054,-0.04486459493637085,0.6674372553825378,0.5389096140861511,-0.008630883879959583,0.630346953868866,0.5384261608123779,-0.042529914528131485,0.6382130980491638,0.623839259147644,-0.04053875431418419,0.6492690443992615,0.6767178177833557,-0.02800413966178894,0.6953726410865784,0.5542735457420349,-0.019051123410463333,0.6585366129875183,0.5541330575942993,-0.042197033762931824,0.6608909368515015,0.6177463531494141,-0.03716424107551575,0.673498809337616,0.6536509990692139,-0.026293709874153137,0.0,0.0,0.0,0.0,0.0,0.0,0.0,0.0,0.0,0.0,0.0,0.0,0.0,0.0,0.0,0.0,0.0,0.0,0.0,0.0,0.0,0.0,0.0,0.0,0.0,0.0,0.0,0.0,0.0,0.0,0.0,0.0,0.0,0.0,0.0,0.0,0.0,0.0,0.0,0.0,0.0,0.0,0.0,0.0,0.0,0.0,0.0,0.0,0.0,0.0,0.0,0.0,0.0,0.0,0.0,0.0,0.0,0.0,0.0,0.0,0.0,0.0,0.0
1783390500.085488,0.6683781743049622,0.746368408203125,-6.865430890456992e-08,0.6243822574615479,0.7103856205940247,-0.011023691855370998,0.5976211428642273,0.6121317744255066,-0.01317962259054184,0.5930988192558289,0.5311909914016724,-0.01815371960401535,0.5841710567474365,0.47013986110687256,-0.022434644401073456,0.6100273132324219,0.545616090297699,0.0010447491658851504,0.5816630721092224,0.4553982615470886,-0.014784563332796097,0.5648729205131531,0.399494469165802,-0.024550670757889748,0.5492355227470398,0.34767094254493713,-0.030881093814969063,0.6367332935333252,0.5368926525115967,-0.004756369162350893,0.6103541254997253,0.49389317631721497,-0.035415999591350555,0.5881567001342773,0.48332688212394714,-0.04903875291347504,0.5683398842811584,0.46839648485183716,-0.051500920206308365,0.6648154258728027,0.5400731563568115,-0.013088717125356197,0.6322437524795532,0.5331307649612427,-0.049008943140506744,0.6420209407806396,0.6168622970581055,-0.04662078246474266,0.6531981229782104,0.6712729930877686,-0.03343488276004791,0.6934061050415039,0.5513353943824768,-0.022533535957336426,0.6589846014976501,0.5443411469459534,-0.04741384834051132,0.6613295078277588,0.6067116856575012,-0.042286090552806854,0.6724345684051514,0.6450283527374268,-0.03112681210041046,0.0,0.0,0.0,0.0,0.0,0.0,0.0,0.0,0.0,0.0,0.0,0.0,0.0,0.0,0.0,0.0,0.0,0.0,0.0,0.0,0.0,0.0,0.0,0.0,0.0,0.0,0.0,0.0,0.0,0.0,0.0,0.0,0.0,0.0,0.0,0.0,0.0,0.0,0.0,0.0,0.0,0.0,0.0,0.0,0.0,0.0,0.0,0.0,0.0,0.0,0.0,0.0,0.0,0.0,0.0,0.0,0.0,0.0,0.0,0.0,0.0,0.0,0.0
1783390500.274108,0.6693015694618225,0.7462100386619568,-1.091141488274161e-08,0.6247014999389648,0.7120980024337769,-0.013505562208592892,0.5985404253005981,0.6115251779556274,-0.015592197887599468,0.5946183800697327,0.5288323760032654,-0.01998177170753479,0.5850629210472107,0.46715453267097473,-0.023334456607699394,0.6087912917137146,0.5484189391136169,0.00022485728550236672,0.5815295577049255,0.45821428298950195,-0.01481099147349596,0.5658382773399353,0.4032055139541626,-0.02387174405157566,0.5514000058174133,0.3506130874156952,-0.02988269552588463,0.6352928876876831,0.539749264717102,-0.003956290427595377,0.6121811270713806,0.49766960740089417,-0.03240508213639259,0.5935871601104736,0.4823398292064667,-0.04484199360013008,0.5765968561172485,0.4602033793926239,-0.04742588847875595,0.663485050201416,0.543221116065979,-0.011129071936011314,0.6354026794433594,0.5353507399559021,-0.04633253440260887,0.6462648510932922,0.617856502532959,-0.043966203927993774,0.657435953617096,0.6695149540901184,-0.0312211737036705,0.6923311352729797,0.5534322261810303,-0.019636433571577072,0.66136634349823,0.543354868888855,-0.04463624954223633,0.6655065417289734,0.6026526093482971,-0.04008756950497627,0.6768733263015747,0.6366361975669861,-0.029669733718037605,0.0,0.0,0.0,0.0,0.0,0.0,0.0,0.0,0.0,0.0,0.0,0.0,0.0,0.0,0.0,0.0,0.0,0.0,0.0,0.0,0.0,0.0,0.0,0.0,0.0,0.0,0.0,0.0,0.0,0.0,0.0,0.0,0.0,0.0,0.0,0.0,0.0,0.0,0.0,0.0,0.0,0.0,0.0,0.0,0.0,0.0,0.0,0.0,0.0,0.0,0.0,0.0,0.0,0.0,0.0,0.0,0.0,0.0,0.0,0.0,0.0,0.0,0.0
1783390500.5316632,0.6619629263877869,0.7420280575752258,-8.331914358450376e-08,0.6217904090881348,0.7005570530891418,-0.00489978538826108,0.6007408499717712,0.6061128973960876,-0.00655802246183157,0.5980557203292847,0.5313631892204285,-0.01221389602869749,0.5968486666679382,0.4768967926502228,-0.01794755645096302,0.6208956241607666,0.5268027782440186,0.002879231935366988,0.5929931998252869,0.4420766830444336,-0.012077288702130318,0.5783714652061462,0.3877500593662262,-0.021808631718158722,0.5656147599220276,0.3371776342391968,-0.028297191485762596,0.6445525884628296,0.5209845304489136,-0.005796446930617094,0.6046860814094543,0.4814643859863281,-0.035251110792160034,0.5720181465148926,0.47601842880249023,-0.04942759498953819,0.5468552708625793,0.47119012475013733,-0.052760444581508636,0.6689364910125732,0.529132068157196,-0.01583646424114704,0.6218746304512024,0.5331906080245972,-0.048141445964574814,0.6266971826553345,0.614235520362854,-0.044593699276447296,0.637581467628479,0.6678057312965393,-0.03177104517817497,0.6916747689247131,0.5490155220031738,-0.02662627026438713,0.6480394005775452,0.5525671243667603,-0.04808027669787407,0.6491678357124329,0.6142283082008362,-0.0414469949901104,0.6609386801719666,0.6527289748191833,-0.029830224812030792,0.0,0.0,0.0,0.0,0.0,0.0,0.0,0.0,0.0,0.0,0.0,0.0,0.0,0.0,0.0,0.0,0.0,0.0,0.0,0.0,0.0,0.0,0.0,0.0,0.0,0.0,0.0,0.0,0.0,0.0,0.0,0.0,0.0,0.0,0.0,0.0,0.0,0.0,0.0,0.0,0.0,0.0,0.0,0.0,0.0,0.0,0.0,0.0,0.0,0.0,0.0,0.0,0.0,0.0,0.0,0.0,0.0,0.0,0.0,0.0,0.0,0.0,0.0
1783390500.682816,0.6656413078308105,0.7362451553344727,-1.8610001006891252e-07,0.6259393095970154,0.6816297769546509,-0.0031755997333675623,0.6116757392883301,0.5885394811630249,-0.004384948406368494,0.6100977659225464,0.5144355297088623,-0.009641023352742195,0.6077193021774292,0.4555632770061493,-0.014870516024529934,0.639453649520874,0.5069388151168823,0.003943231888115406,0.6119850873947144,0.42468780279159546,-0.01195597741752863,0.5958704948425293,0.37148797512054443,-0.02168973907828331,0.5816047787666321,0.32303595542907715,-0.02805938757956028,0.6600769758224487,0.5040576457977295,-0.005293917842209339,0.6084866523742676,0.4683270752429962,-0.034304503351449966,0.5683301687240601,0.4653829038143158,-0.046934016048908234,0.5383694767951965,0.45883071422576904,-0.04943043366074562,0.6788415908813477,0.5181127190589905,-0.01612227037549019,0.6166139245033264,0.5294514298439026,-0.047436684370040894,0.6171833872795105,0.6073605418205261,-0.04415134713053703,0.6276897192001343,0.6558290719985962,-0.03218783810734749,0.6935669183731079,0.5462116003036499,-0.027729926630854607,0.639711856842041,0.5537998080253601,-0.04864076152443886,0.6390222311019897,0.6094925403594971,-0.04323452711105347,0.6511945128440857,0.6432976126670837,-0.03279793635010719,0.0,0.0,0.0,0.0,0.0,0.0,0.0,0.0,0.0,0.0,0.0,0.0,0.0,0.0,0.0,0.0,0.0,0.0,0.0,0.0,0.0,0.0,0.0,0.0,0.0,0.0,0.0,0.0,0.0,0.0,0.0,0.0,0.0,0.0,0.0,0.0,0.0,0.0,0.0,0.0,0.0,0.0,0.0,0.0,0.0,0.0,0.0,0.0,0.0,0.0,0.0,0.0,0.0,0.0,0.0,0.0,0.0,0.0,0.0,0.0,0.0,0.0,0.0
1783390500.819045,0.6754677295684814,0.7378078699111938,-2.522544946259586e-07,0.6307701468467712,0.6726030707359314,0.002329943235963583,0.6207925081253052,0.5842506289482117,0.001857226830907166,0.6178610324859619,0.5122155547142029,-0.004215488210320473,0.6117696762084961,0.44991737604141235,-0.010475210845470428,0.6536493897438049,0.5025898814201355,0.009776727296411991,0.6244630813598633,0.41944772005081177,-0.004734790418297052,0.6074908971786499,0.3665728271007538,-0.014024808071553707,0.5924598574638367,0.3164308965206146,-0.020860163494944572,0.6707428097724915,0.5017659664154053,-0.0032153858337551355,0.6099019050598145,0.4620403051376343,-0.030958199873566628,0.5669064521789551,0.45887258648872375,-0.04285828396677971,0.5361812710762024,0.4530932307243347,-0.04567820578813553,0.6833781599998474,0.5182710289955139,-0.01771537773311138,0.6140603423118591,0.5257079005241394,-0.046480443328619,0.6172437071800232,0.601996898651123,-0.0429949052631855,0.6308917999267578,0.6484148502349854,-0.032653048634529114,0.6903436183929443,0.5479499697685242,-0.0328810028731823,0.6331348419189453,0.5568944215774536,-0.05320630222558975,0.6344329118728638,0.6109524965286255,-0.04941638559103012,0.6489315032958984,0.642287015914917,-0.041103050112724304,0.0,0.0,0.0,0.0,0.0,0.0,0.0,0.0,0.0,0.0,0.0,0.0,0.0,0.0,0.0,0.0,0.0,0.0,0.0,0.0,0.0,0.0,0.0,0.0,0.0,0.0,0.0,0.0,0.0,0.0,0.0,0.0,0.0,0.0,0.0,0.0,0.0,0.0,0.0,0.0,0.0,0.0,0.0,0.0,0.0,0.0,0.0,0.0,0.0,0.0,0.0,0.0,0.0,0.0,0.0,0.0,0.0,0.0,0.0,0.0,0.0,0.0,0.0
1783390500.959667,0.6816011071205139,0.733970046043396,-2.545568236200779e-07,0.6343721747398376,0.6603423953056335,0.0014014553744345903,0.6247313618659973,0.5715459585189819,0.0003178827464580536,0.6201319098472595,0.4990176856517792,-0.005378497764468193,0.610899806022644,0.4356820285320282,-0.011126135475933552,0.6618792414665222,0.4918294847011566,0.007023598067462444,0.6304830312728882,0.41203343868255615,-0.0067499312572181225,0.6136680841445923,0.3625607490539551,-0.015484937466681004,0.5994798541069031,0.3146118223667145,-0.02170494943857193,0.6761308908462524,0.4960227906703949,-0.004325926769524813,0.6109910607337952,0.4567880630493164,-0.030153151601552963,0.5675807595252991,0.4542643427848816,-0.04137728735804558,0.5365481376647949,0.4509267210960388,-0.0444752536714077,0.6838344931602478,0.5154561996459961,-0.0169018916785717,0.6113475561141968,0.5227501392364502,-0.04406338930130005,0.6137902140617371,0.5948973894119263,-0.0411633662879467,0.6272639036178589,0.6388524174690247,-0.03184690698981285,0.685407280921936,0.5460314750671387,-0.03000664710998535,0.6255855560302734,0.5554080605506897,-0.049098771065473557,0.6270246505737305,0.607613205909729,-0.04535387083888054,0.6417645812034607,0.6382559537887573,-0.03737209364771843,0.0,0.0,0.0,0.0,0.0,0.0,0.0,0.0,0.0,0.0,0.0,0.0,0.0,0.0,0.0,0.0,0.0,0.0,0.0,0.0,0.0,0.0,0.0,0.0,0.0,0.0,0.0,0.0,0.0,0.0,0.0,0.0,0.0,0.0,0.0,0.0,0.0,0.0,0.0,0.0,0.0,0.0,0.0,0.0,0.0,0.0,0.0,0.0,0.0,0.0,0.0,0.0,0.0,0.0,0.0,0.0,0.0,0.0,0.0,0.0,0.0,0.0,0.0
1783390501.19145,0.6850394010543823,0.7330830097198486,-2.3825472794669622e-07,0.6408615112304688,0.6495885252952576,0.0021621754858642817,0.6308766603469849,0.5601386427879333,-0.0007455812301486731,0.625137448310852,0.48704907298088074,-0.007565464358776808,0.6158246397972107,0.42303821444511414,-0.014595628716051579,0.676934540271759,0.48965704441070557,0.0025722444988787174,0.6424522995948792,0.4052824378013611,-0.009996562264859676,0.6253913044929504,0.35548338294029236,-0.01747535727918148,0.6112160086631775,0.30683690309524536,-0.02301606722176075,0.6850815415382385,0.49914827942848206,-0.008031957782804966,0.6125840544700623,0.4547483026981354,-0.030624177306890488,0.570625364780426,0.4513934254646301,-0.039808839559555054,0.5414671897888184,0.44487765431404114,-0.04316367954015732,0.6847772598266602,0.5222679972648621,-0.019154129549860954,0.6101319789886475,0.5223522782325745,-0.04341636225581169,0.614229679107666,0.589542031288147,-0.039897505193948746,0.6291018128395081,0.6289616227149963,-0.03169384226202965,0.6782646775245667,0.5536549091339111,-0.030438002198934555,0.6186665892601013,0.556861162185669,-0.047762032598257065,0.621806800365448,0.6065846681594849,-0.04375850409269333,0.637867271900177,0.6348527073860168,-0.03649977594614029,0.0,0.0,0.0,0.0,0.0,0.0,0.0,0.0,0.0,0.0,0.0,0.0,0.0,0.0,0.0,0.0,0.0,0.0,0.0,0.0,0.0,0.0,0.0,0.0,0.0,0.0,0.0,0.0,0.0,0.0,0.0,0.0,0.0,0.0,0.0,0.0,0.0,0.0,0.0,0.0,0.0,0.0,0.0,0.0,0.0,0.0,0.0,0.0,0.0,0.0,0.0,0.0,0.0,0.0,0.0,0.0,0.0,0.0,0.0,0.0,0.0,0.0,0.0
1783390501.3838952,0.6951502561569214,0.7218275666236877,-2.188541117220666e-07,0.6698673963546753,0.6388837099075317,0.0016410603420808911,0.6577584147453308,0.5465516448020935,-0.004371275659650564,0.6467607021331787,0.46807369589805603,-0.012659485451877117,0.6362817287445068,0.4022781252861023,-0.021119382232427597,0.6970069408416748,0.48232385516166687,-0.008163198828697205,0.6601706743240356,0.38892892003059387,-0.021250048652291298,0.643573522567749,0.3394746780395508,-0.02807323820888996,0.6301357746124268,0.2905934751033783,-0.03318101912736893,0.6948960423469543,0.496175080537796,-0.018078796565532684,0.6230400204658508,0.4403962790966034,-0.039391689002513885,0.5826416611671448,0.43767020106315613,-0.04567762836813927,0.554742693901062,0.43017950654029846,-0.04791755974292755,0.6832695603370667,0.5221646428108215,-0.027663586661219597,0.6139177680015564,0.5084168314933777,-0.04783129319548607,0.6183768510818481,0.5673408508300781,-0.04250213876366615,0.6333963871002197,0.5983659625053406,-0.035259708762168884,0.6667009592056274,0.5531434416770935,-0.037349358201026917,0.6146868467330933,0.5482171773910522,-0.0520695224404335,0.6189321875572205,0.5933127403259277,-0.04816929250955582,0.6346396803855896,0.6142770051956177,-0.04223177954554558,0.0,0.0,0.0,0.0,0.0,0.0,0.0,0.0,0.0,0.0,0.0,0.0,0.0,0.0,0.0,0.0,0.0,0.0,0.0,0.0,0.0,0.0,0.0,0.0,0.0,0.0,0.0,0.0,0.0,0.0,0.0,0.0,0.0,0.0,0.0,0.0,0.0,0.0,0.0,0.0,0.0,0.0,0.0,0.0,0.0,0.0,0.0,0.0,0.0,0.0,0.0,0.0,0.0,0.0,0.0,0.0,0.0,0.0,0.0,0.0,0.0,0.0,0.0
1783390501.5412438,0.6949727535247803,0.720384418964386,-2.2343243699651794e-07,0.6814330220222473,0.6358399391174316,0.0033316276967525482,0.6674292683601379,0.5429441332817078,-0.00217071152292192,0.6490480303764343,0.46697595715522766,-0.00981079787015915,0.6331416964530945,0.4082818627357483,-0.01779242418706417,0.699966311454773,0.4800662398338318,-0.008590453304350376,0.6609128713607788,0.3868252635002136,-0.021167783066630363,0.6439939737319946,0.33554309606552124,-0.027360808104276657,0.6309568881988525,0.28629374504089355,-0.031868238002061844,0.6952985525131226,0.4957003593444824,-0.018130876123905182,0.624066948890686,0.4425029158592224,-0.0381116047501564,0.583514392375946,0.43903741240501404,-0.0433058924973011,0.5570098161697388,0.4324184060096741,-0.044968537986278534,0.6814513802528381,0.5220064520835876,-0.027053415775299072,0.6122130751609802,0.5097091794013977,-0.04457877576351166,0.6161050200462341,0.562524139881134,-0.039590027183294296,0.6316812038421631,0.5905410051345825,-0.033195577561855316,0.663154661655426,0.5512949824333191,-0.03585028275847435,0.6116014719009399,0.5462121963500977,-0.047697704285383224,0.6163010001182556,0.5887352228164673,-0.04368877410888672,0.6321073770523071,0.6083509922027588,-0.038131602108478546,0.0,0.0,0.0,0.0,0.0,0.0,0.0,0.0,0.0,0.0,0.0,0.0,0.0,0.0,0.0,0.0,0.0,0.0,0.0,0.0,0.0,0.0,0.0,0.0,0.0,0.0,0.0,0.0,0.0,0.0,0.0,0.0,0.0,0.0,0.0,0.0,0.0,0.0,0.0,0.0,0.0,0.0,0.0,0.0,0.0,0.0,0.0,0.0,0.0,0.0,0.0,0.0,0.0,0.0,0.0,0.0,0.0,0.0,0.0,0.0,0.0,0.0,0.0
1783390501.6883688,0.6950795650482178,0.7146128416061401,-1.6772631283856754e-07,0.6968313455581665,0.6263476610183716,0.003302947385236621,0.6825887560844421,0.5332409143447876,-0.002902806270867586,0.6577188968658447,0.46028703451156616,-0.010406063869595528,0.6372992396354675,0.4079912602901459,-0.018578452989459038,0.7026501893997192,0.4812142550945282,-0.017389247193932533,0.6650870442390442,0.3846685290336609,-0.030611660331487656,0.6483584046363831,0.3315381109714508,-0.036540769040584564,0.6346344351768494,0.28332099318504333,-0.04056713357567787,0.6910983324050903,0.5019082427024841,-0.026602881029248238,0.6285356879234314,0.43925973773002625,-0.04577620327472687,0.5922524333000183,0.4342336058616638,-0.04902651906013489,0.5689859390258789,0.42973458766937256,-0.04941633716225624,0.6728085279464722,0.5304071307182312,-0.03455999121069908,0.6114281415939331,0.5088417530059814,-0.048730961978435516,0.6152569651603699,0.550240159034729,-0.041963063180446625,0.6297073364257812,0.5725535750389099,-0.03529463708400726,0.6517597436904907,0.5605716109275818,-0.04241735860705376,0.6065753698348999,0.5449647903442383,-0.05029149726033211,0.6120041012763977,0.5799345970153809,-0.04417513310909271,0.6265574097633362,0.5959406495094299,-0.03788624331355095,0.0,0.0,0.0,0.0,0.0,0.0,0.0,0.0,0.0,0.0,0.0,0.0,0.0,0.0,0.0,0.0,0.0,0.0,0.0,0.0,0.0,0.0,0.0,0.0,0.0,0.0,0.0,0.0,0.0,0.0,0.0,0.0,0.0,0.0,0.0,0.0,0.0,0.0,0.0,0.0,0.0,0.0,0.0,0.0,0.0,0.0,0.0,0.0,0.0,0.0,0.0,0.0,0.0,0.0,0.0,0.0,0.0,0.0,0.0,0.0,0.0,0.0,0.0
1783390501.8532,0.6960851550102234,0.701330840587616,-9.787339649847127e-08,0.7022002339363098,0.6159318685531616,0.002678134012967348,0.6880272030830383,0.5241180658340454,-0.0049694799818098545,0.661851704120636,0.45386090874671936,-0.012919827364385128,0.6407039761543274,0.4034493565559387,-0.022030845284461975,0.7039530277252197,0.4823884069919586,-0.027791094034910202,0.6689645051956177,0.38136544823646545,-0.042365845292806625,0.6535190939903259,0.32616403698921204,-0.048713140189647675,0.6400462985038757,0.27753692865371704,-0.052572689950466156,0.6865723133087158,0.5067751407623291,-0.036147307604551315,0.6320040822029114,0.43546831607818604,-0.052496157586574554,0.5991905331611633,0.4228854477405548,-0.0533142164349556,0.5768540501594543,0.41353079676628113,-0.05300876125693321,0.6655045747756958,0.537378191947937,-0.04249647632241249,0.6141462922096252,0.49863892793655396,-0.05334436893463135,0.6187222599983215,0.5340891480445862,-0.04380498453974724,0.6313250064849854,0.5565965175628662,-0.036008384078741074,0.6428387761116028,0.5699320435523987,-0.048673927783966064,0.605452299118042,0.5370085835456848,-0.053789686411619186,0.6116635799407959,0.5657660365104675,-0.04498140886425972,0.6242058277130127,0.5819048881530762,-0.03711378946900368,0.0,0.0,0.0,0.0,0.0,0.0,0.0,0.0,0.0,0.0,0.0,0.0,0.0,0.0,0.0,0.0,0.0,0.0,0.0,0.0,0.0,0.0,0.0,0.0,0.0,0.0,0.0,0.0,0.0,0.0,0.0,0.0,0.0,0.0,0.0,0.0,0.0,0.0,0.0,0.0,0.0,0.0,0.0,0.0,0.0,0.0,0.0,0.0,0.0,0.0,0.0,0.0,0.0,0.0,0.0,0.0,0.0,0.0,0.0,0.0,0.0,0.0,0.0
1783390502.0191202,0.6971019506454468,0.6933932900428772,-1.9857344213392025e-08,0.705884575843811,0.609932005405426,0.0031825131736695766,0.691865086555481,0.5212064981460571,-0.00490117073059082,0.6629946827888489,0.4573076367378235,-0.013012775219976902,0.636672854423523,0.41780468821525574,-0.0227611493319273,0.7043638229370117,0.48322391510009766,-0.031829603016376495,0.6700056195259094,0.38007813692092896,-0.04589100554585457,0.6559394598007202,0.32419896125793457,-0.05156991630792618,0.6441940665245056,0.27538710832595825,-0.054908089339733124,0.6828761696815491,0.5070340633392334,-0.03989722952246666,0.6345183849334717,0.4304642975330353,-0.05248909816145897,0.6062967777252197,0.4164518415927887,-0.05035761371254921,0.5882907509803772,0.4066900908946991,-0.04900257661938667,0.6595523953437805,0.5379766225814819,-0.045710086822509766,0.616481602191925,0.49252596497535706,-0.05268488824367523,0.6212027072906494,0.5242441892623901,-0.041439738124608994,0.6331377625465393,0.5478508472442627,-0.03364739194512367,0.6361362934112549,0.571569561958313,-0.051388926804065704,0.6052718758583069,0.532929003238678,-0.053814806044101715,0.6119314432144165,0.5586380958557129,-0.04403829202055931,0.623360276222229,0.5752835869789124,-0.03623252362012863,0.0,0.0,0.0,0.0,0.0,0.0,0.0,0.0,0.0,0.0,0.0,0.0,0.0,0.0,0.0,0.0,0.0,0.0,0.0,0.0,0.0,0.0,0.0,0.0,0.0,0.0,0.0,0.0,0.0,0.0,0.0,0.0,0.0,0.0,0.0,0.0,0.0,0.0,0.0,0.0,0.0,0.0,0.0,0.0,0.0,0.0,0.0,0.0,0.0,0.0,0.0,0.0,0.0,0.0,0.0,0.0,0.0,0.0,0.0,0.0,0.0,0.0,0.0
1783390502.155752,0.6957993507385254,0.6867339015007019,4.370496142769298e-08,0.7077888250350952,0.6046004891395569,0.004193706903606653,0.6962000727653503,0.5179434418678284,-0.002660487312823534,0.667146623134613,0.45525121688842773,-0.00918465107679367,0.6387535333633423,0.41844838857650757,-0.01761748641729355,0.7041265368461609,0.4860185384750366,-0.033286143094301224,0.6734970808029175,0.3784221112728119,-0.04679727926850319,0.6599242687225342,0.32041221857070923,-0.0518263541162014,0.6483320593833923,0.272417813539505,-0.05416395515203476,0.6798763871192932,0.5105445384979248,-0.040180504322052,0.6385218501091003,0.42562657594680786,-0.0496247299015522,0.6141043305397034,0.4054346978664398,-0.04580914229154587,0.5982222557067871,0.3941096365451813,-0.04363540560007095,0.6550059914588928,0.5400281548500061,-0.04451413452625275,0.62071293592453,0.4832701086997986,-0.04894101619720459,0.6263234615325928,0.5100959539413452,-0.036837898194789886,0.6368972063064575,0.5338250994682312,-0.028574101626873016,0.6312341094017029,0.5720618367195129,-0.04849901422858238,0.6072899103164673,0.5206318497657776,-0.04878934845328331,0.6145320534706116,0.5449548363685608,-0.03737673908472061,0.6245737075805664,0.5650612115859985,-0.028411565348505974,0.0,0.0,0.0,0.0,0.0,0.0,0.0,0.0,0.0,0.0,0.0,0.0,0.0,0.0,0.0,0.0,0.0,0.0,0.0,0.0,0.0,0.0,0.0,0.0,0.0,0.0,0.0,0.0,0.0,0.0,0.0,0.0,0.0,0.0,0.0,0.0,0.0,0.0,0.0,0.0,0.0,0.0,0.0,0.0,0.0,0.0,0.0,0.0,0.0,0.0,0.0,0.0,0.0,0.0,0.0,0.0,0.0,0.0,0.0,0.0,0.0,0.0,0.0
1783390502.412309,0.6972676515579224,0.6874993443489075,1.1150275724958192e-07,0.7103548645973206,0.6038773655891418,0.009174082428216934,0.7025037407875061,0.5207511782646179,0.004920476581901312,0.67648845911026,0.4607512950897217,2.4227989342762157e-05,0.6511829495429993,0.42537981271743774,-0.007023235317319632,0.7044601440429688,0.4864259362220764,-0.02728678099811077,0.6769757866859436,0.3794580399990082,-0.04052657634019852,0.6649666428565979,0.3183225095272064,-0.04796358570456505,0.6548715829849243,0.2679358422756195,-0.05196455121040344,0.677942156791687,0.5092034339904785,-0.03473149240016937,0.6446491479873657,0.41843095421791077,-0.03910369798541069,0.6244314312934875,0.39028194546699524,-0.03488508611917496,0.6098082065582275,0.37328171730041504,-0.033486027270555496,0.652228593826294,0.5374191999435425,-0.03930235281586647,0.627949595451355,0.47763922810554504,-0.03725285828113556,0.6339045166969299,0.5001285672187805,-0.0241391658782959,0.6427717208862305,0.5259575843811035,-0.016542214900255203,0.6282793879508972,0.56795734167099,-0.0435074158012867,0.613442599773407,0.512958824634552,-0.03888245299458504,0.6195953488349915,0.5348767638206482,-0.02619192562997341,0.6273500919342041,0.5578209161758423,-0.01691700704395771,0.0,0.0,0.0,0.0,0.0,0.0,0.0,0.0,0.0,0.0,0.0,0.0,0.0,0.0,0.0,0.0,0.0,0.0,0.0,0.0,0.0,0.0,0.0,0.0,0.0,0.0,0.0,0.0,0.0,0.0,0.0,0.0,0.0,0.0,0.0,0.0,0.0,0.0,0.0,0.0,0.0,0.0,0.0,0.0,0.0,0.0,0.0,0.0,0.0,0.0,0.0,0.0,0.0,0.0,0.0,0.0,0.0,0.0,0.0,0.0,0.0,0.0,0.0
1783390502.801322,0.696320652961731,0.6862860321998596,7.937233448274128e-08,0.7102207541465759,0.604996383190155,0.007606402970850468,0.7040388584136963,0.5200721621513367,0.0030058720149099827,0.6788169145584106,0.45896610617637634,-0.0015060491859912872,0.6534367799758911,0.42362505197525024,-0.008091376163065434,0.7066669464111328,0.48400312662124634,-0.03160616010427475,0.6777395606040955,0.3779347538948059,-0.0463472381234169,0.6654446721076965,0.3176835775375366,-0.05401860177516937,0.655530571937561,0.2674960792064667,-0.05803859978914261,0.6816520094871521,0.5067429542541504,-0.03828681632876396,0.642911434173584,0.4207718074321747,-0.04505640268325806,0.6209442615509033,0.3985125720500946,-0.04116331785917282,0.6059851050376892,0.384681761264801,-0.03968479484319687,0.6565982699394226,0.533897340297699,-0.042101066559553146,0.6262762546539307,0.4781235456466675,-0.042419854551553726,0.6322980523109436,0.5033066272735596,-0.02957735024392605,0.6427212953567505,0.5277286171913147,-0.02184593677520752,0.6324504613876343,0.5637583136558533,-0.04554848372936249,0.6126425266265869,0.5146439075469971,-0.04307755455374718,0.6188791394233704,0.5398736000061035,-0.031361173838377,0.627643883228302,0.5611448884010315,-0.022571373730897903,0.0,0.0,0.0,0.0,0.0,0.0,0.0,0.0,0.0,0.0,0.0,0.0,0.0,0.0,0.0,0.0,0.0,0.0,0.0,0.0,0.0,0.0,0.0,0.0,0.0,0.0,0.0,0.0,0.0,0.0,0.0,0.0,0.0,0.0,0.0,0.0,0.0,0.0,0.0,0.0,0.0,0.0,0.0,0.0,0.0,0.0,0.0,0.0,0.0,0.0,0.0,0.0,0.0,0.0,0.0,0.0,0.0,0.0,0.0,0.0,0.0,0.0,0.0
1783390503.06737,0.688615620136261,0.6920670866966248,-1.6470909258714528e-07,0.671729326248169,0.6149343252182007,0.0017333836294710636,0.6597281098365784,0.531597375869751,-0.005268279928714037,0.6451071500778198,0.4631020128726959,-0.013820575550198555,0.6336829662322998,0.40605345368385315,-0.022655416280031204,0.6982576847076416,0.46760642528533936,-0.014720366336405277,0.6609299778938293,0.3801253139972687,-0.02919900044798851,0.6450602412223816,0.33047398924827576,-0.03637319803237915,0.631782591342926,0.283677339553833,-0.04124752804636955,0.6949160695075989,0.483765572309494,-0.023967282846570015,0.626809298992157,0.4294350743293762,-0.04479053243994713,0.5881081819534302,0.43012335896492004,-0.04935643821954727,0.5625573396682739,0.4274318516254425,-0.050566550344228745,0.682704746723175,0.5096132159233093,-0.03260139748454094,0.6144555807113647,0.49610528349876404,-0.05124105513095856,0.618486762046814,0.548088788986206,-0.04442926496267319,0.6339928507804871,0.5750811696052551,-0.03634161129593849,0.6656553149223328,0.5390903949737549,-0.041263729333877563,0.6132670640945435,0.5330541729927063,-0.05437653884291649,0.6173684597015381,0.5737239122390747,-0.049447160214185715,0.6327307820320129,0.5908190608024597,-0.04305363446474075,0.0,0.0,0.0,0.0,0.0,0.0,0.0,0.0,0.0,0.0,0.0,0.0,0.0,0.0,0.0,0.0,0.0,0.0,0.0,0.0,0.0,0.0,0.0,0.0,0.0,0.0,0.0,0.0,0.0,0.0,0.0,0.0,0.0,0.0,0.0,0.0,0.0,0.0,0.0,0.0,0.0,0.0,0.0,0.0,0.0,0.0,0.0,0.0,0.0,0.0,0.0,0.0,0.0,0.0,0.0,0.0,0.0,0.0,0.0,0.0,0.0,0.0,0.0
1783390503.301376,0.6806022524833679,0.7110452651977539,-3.141412321383541e-07,0.6355749368667603,0.6325711011886597,0.0009652920416556299,0.6248713731765747,0.5480477809906006,-0.0015430387575179338,0.6197300553321838,0.48172619938850403,-0.007813135161995888,0.6128672957420349,0.4224812984466553,-0.014740764163434505,0.6718267798423767,0.47680968046188354,0.0025672344490885735,0.6356986165046692,0.40106838941574097,-0.009498504921793938,0.620216965675354,0.35628223419189453,-0.017382938414812088,0.6076725125312805,0.31022560596466064,-0.023342661559581757,0.6805309653282166,0.4850972294807434,-0.007287920452654362,0.6140672564506531,0.446571946144104,-0.028907421976327896,0.5747377872467041,0.4464946985244751,-0.03794662654399872,0.547419011592865,0.4395219385623932,-0.040858928114175797,0.6810870170593262,0.5047622323036194,-0.01789817214012146,0.6109611988067627,0.5074568390846252,-0.04014056548476219,0.6159759759902954,0.5720533132553101,-0.03846980258822441,0.6314970850944519,0.6088498830795288,-0.03220211714506149,0.6755279898643494,0.5325417518615723,-0.028906628489494324,0.6194895505905151,0.5427093505859375,-0.04534407705068588,0.6235384345054626,0.5894609689712524,-0.043276309967041016,0.6399000883102417,0.6154351830482483,-0.037692900747060776,0.0,0.0,0.0,0.0,0.0,0.0,0.0,0.0,0.0,0.0,0.0,0.0,0.0,0.0,0.0,0.0,0.0,0.0,0.0,0.0,0.0,0.0,0.0,0.0,0.0,0.0,0.0,0.0,0.0,0.0,0.0,0.0,0.0,0.0,0.0,0.0,0.0,0.0,0.0,0.0,0.0,0.0,0.0,0.0,0.0,0.0,0.0,0.0,0.0,0.0,0.0,0.0,0.0,0.0,0.0,0.0,0.0,0.0,0.0,0.0,0.0,0.0,0.0
1783390503.567064,0.6679502725601196,0.7237822413444519,-3.252739873005339e-07,0.6254453063011169,0.6625350117683411,-0.0015390076441690326,0.6115509271621704,0.5796530842781067,-0.001016224967315793,0.6078844666481018,0.5131797194480896,-0.005040056072175503,0.6052843928337097,0.4586838185787201,-0.009098784998059273,0.6403005719184875,0.5010372996330261,0.009580539539456367,0.6105446815490723,0.4245363473892212,-0.004432379268109798,0.5938138365745544,0.3781333863735199,-0.01366869080811739,0.5797131657600403,0.33288875222206116,-0.019648611545562744,0.6573803424835205,0.4960951805114746,0.0007485278183594346,0.6025242209434509,0.4673033058643341,-0.025448162108659744,0.5648722648620605,0.4656764268875122,-0.037050630897283554,0.5373291969299316,0.45713070034980774,-0.039083342999219894,0.6723242402076721,0.5055791735649109,-0.00995940063148737,0.610934317111969,0.5195457339286804,-0.03801215812563896,0.6148643493652344,0.5931897759437561,-0.03707139939069748,0.6273472905158997,0.6402965784072876,-0.027718260884284973,0.6828413605690002,0.5262728333473206,-0.02156001888215542,0.6302448511123657,0.5398139953613281,-0.040409911423921585,0.6315857172012329,0.5899723768234253,-0.0376121960580349,0.64478600025177,0.6208131909370422,-0.02956968918442726,0.0,0.0,0.0,0.0,0.0,0.0,0.0,0.0,0.0,0.0,0.0,0.0,0.0,0.0,0.0,0.0,0.0,0.0,0.0,0.0,0.0,0.0,0.0,0.0,0.0,0.0,0.0,0.0,0.0,0.0,0.0,0.0,0.0,0.0,0.0,0.0,0.0,0.0,0.0,0.0,0.0,0.0,0.0,0.0,0.0,0.0,0.0,0.0,0.0,0.0,0.0,0.0,0.0,0.0,0.0,0.0,0.0,0.0,0.0,0.0,0.0,0.0,0.0
1783390503.797079,0.6620254516601562,0.7251578569412231,-2.5427175387449097e-07,0.6226107478141785,0.6706326007843018,-0.001088580465875566,0.6075572371482849,0.590850830078125,-0.0010716811520978808,0.6049152612686157,0.5263018608093262,-0.0060660201124846935,0.6047639846801758,0.4747399389743805,-0.011127037927508354,0.6290392279624939,0.5080552101135254,0.010000733658671379,0.6017869114875793,0.4334833323955536,-0.004749175626784563,0.5842817425727844,0.3867720365524292,-0.014287342317402363,0.5691428780555725,0.3417099714279175,-0.020464112982153893,0.6481167078018188,0.5006754994392395,0.00015908307977952063,0.5990605354309082,0.46608853340148926,-0.02782646007835865,0.5614944696426392,0.4642864465713501,-0.040664926171302795,0.5337498784065247,0.461004376411438,-0.042742256075143814,0.6671401858329773,0.5089496970176697,-0.011417040601372719,0.6107214689254761,0.5227294564247131,-0.04157419875264168,0.6155778169631958,0.5995107293128967,-0.04042159020900726,0.6281012892723083,0.6484491229057312,-0.029758568853139877,0.6833793520927429,0.5315743684768677,-0.023674748837947845,0.6344156265258789,0.5413844585418701,-0.04349179193377495,0.6366878151893616,0.5936613082885742,-0.03953715041279793,0.6496328711509705,0.6261067986488342,-0.030143622308969498,0.0,0.0,0.0,0.0,0.0,0.0,0.0,0.0,0.0,0.0,0.0,0.0,0.0,0.0,0.0,0.0,0.0,0.0,0.0,0.0,0.0,0.0,0.0,0.0,0.0,0.0,0.0,0.0,0.0,0.0,0.0,0.0,0.0,0.0,0.0,0.0,0.0,0.0,0.0,0.0,0.0,0.0,0.0,0.0,0.0,0.0,0.0,0.0,0.0,0.0,0.0,0.0,0.0,0.0,0.0,0.0,0.0,0.0,0.0,0.0,0.0,0.0,0.0
1783390504.000625,0.6613464951515198,0.7234534621238708,-2.3318280284456705e-07,0.6237110495567322,0.672956109046936,-0.0006800105329602957,0.60814368724823,0.5916534662246704,-0.0001578060328029096,0.6052442193031311,0.5256356596946716,-0.0046272072941064835,0.60309237241745,0.47360923886299133,-0.009287666529417038,0.6274378299713135,0.5094122886657715,0.010401093401014805,0.6015735268592834,0.43274909257888794,-0.0038902675732970238,0.5848941802978516,0.3850676715373993,-0.013147769495844841,0.5706397891044617,0.3400118947029114,-0.01930694654583931,0.6464411616325378,0.5020409226417542,0.0004995862836949527,0.5982270836830139,0.4670269191265106,-0.02755603939294815,0.5603576302528381,0.4669068455696106,-0.04044381529092789,0.5326212644577026,0.4659714698791504,-0.042597997933626175,0.6658577919006348,0.5103005766868591,-0.011061371304094791,0.6099039316177368,0.52131187915802,-0.041272569447755814,0.614672839641571,0.5977171063423157,-0.039756231009960175,0.6272582411766052,0.6469007134437561,-0.028888676315546036,0.6829352974891663,0.5328626036643982,-0.02322002500295639,0.6342647671699524,0.5402044057846069,-0.043570879846811295,0.6359359622001648,0.5933767557144165,-0.03952561318874359,0.6484115123748779,0.6271772384643555,-0.029998084530234337,0.0,0.0,0.0,0.0,0.0,0.0,0.0,0.0,0.0,0.0,0.0,0.0,0.0,0.0,0.0,0.0,0.0,0.0,0.0,0.0,0.0,0.0,0.0,0.0,0.0,0.0,0.0,0.0,0.0,0.0,0.0,0.0,0.0,0.0,0.0,0.0,0.0,0.0,0.0,0.0,0.0,0.0,0.0,0.0,0.0,0.0,0.0,0.0,0.0,0.0,0.0,0.0,0.0,0.0,0.0,0.0,0.0,0.0,0.0,0.0,0.0,0.0,0.0
1783390504.40781,0.6627950668334961,0.7249134182929993,-2.2460719151240482e-07,0.624498724937439,0.6751340627670288,-0.0011780415661633015,0.6091824769973755,0.5942937731742859,-0.0010491119464859366,0.6063907742500305,0.528991162776947,-0.0059289089404046535,0.6028949022293091,0.4770033359527588,-0.01083802804350853,0.6292008757591248,0.5115172266960144,0.01013454794883728,0.6028100252151489,0.4342172145843506,-0.004845913033932447,0.5863538384437561,0.38701891899108887,-0.014673520810902119,0.572157084941864,0.3423265218734741,-0.021124761551618576,0.6480000615119934,0.5041502714157104,0.00012945738853886724,0.6006873846054077,0.46771523356437683,-0.02883118949830532,0.562426745891571,0.4669681489467621,-0.04254014045000076,0.5340436100959778,0.4656766653060913,-0.045035794377326965,0.6671947836875916,0.5119317770004272,-0.011607687920331955,0.6114646792411804,0.52370285987854,-0.04199757054448128,0.6161417961120605,0.5990333557128906,-0.04036550223827362,0.6284570693969727,0.6471012234687805,-0.029316887259483337,0.684135913848877,0.5335707068443298,-0.024073150008916855,0.6353486776351929,0.5404291152954102,-0.04406927898526192,0.6369004845619202,0.5935045480728149,-0.039509229362010956,0.649196982383728,0.6270461678504944,-0.029588960111141205,0.0,0.0,0.0,0.0,0.0,0.0,0.0,0.0,0.0,0.0,0.0,0.0,0.0,0.0,0.0,0.0,0.0,0.0,0.0,0.0,0.0,0.0,0.0,0.0,0.0,0.0,0.0,0.0,0.0,0.0,0.0,0.0,0.0,0.0,0.0,0.0,0.0,0.0,0.0,0.0,0.0,0.0,0.0,0.0,0.0,0.0,0.0,0.0,0.0,0.0,0.0,0.0,0.0,0.0,0.0,0.0,0.0,0.0,0.0,0.0,0.0,0.0,0.0
