ciel274/research-hand-sign/data/raw/hiragana/sign_language_si_1.csv
timestamp,R_joint_0_x,R_joint_0_y,R_joint_0_z,R_joint_1_x,R_joint_1_y,R_joint_1_z,R_joint_2_x,R_joint_2_y,R_joint_2_z,R_joint_3_x,R_joint_3_y,R_joint_3_z,R_joint_4_x,R_joint_4_y,R_joint_4_z,R_joint_5_x,R_joint_5_y,R_joint_5_z,R_joint_6_x,R_joint_6_y,R_joint_6_z,R_joint_7_x,R_joint_7_y,R_joint_7_z,R_joint_8_x,R_joint_8_y,R_joint_8_z,R_joint_9_x,R_joint_9_y,R_joint_9_z,R_joint_10_x,R_joint_10_y,R_joint_10_z,R_joint_11_x,R_joint_11_y,R_joint_11_z,R_joint_12_x,R_joint_12_y,R_joint_12_z,R_joint_13_x,R_joint_13_y,R_joint_13_z,R_joint_14_x,R_joint_14_y,R_joint_14_z,R_joint_15_x,R_joint_15_y,R_joint_15_z,R_joint_16_x,R_joint_16_y,R_joint_16_z,R_joint_17_x,R_joint_17_y,R_joint_17_z,R_joint_18_x,R_joint_18_y,R_joint_18_z,R_joint_19_x,R_joint_19_y,R_joint_19_z,R_joint_20_x,R_joint_20_y,R_joint_20_z,L_joint_0_x,L_joint_0_y,L_joint_0_z,L_joint_1_x,L_joint_1_y,L_joint_1_z,L_joint_2_x,L_joint_2_y,L_joint_2_z,L_joint_3_x,L_joint_3_y,L_joint_3_z,L_joint_4_x,L_joint_4_y,L_joint_4_z,L_joint_5_x,L_joint_5_y,L_joint_5_z,L_joint_6_x,L_joint_6_y,L_joint_6_z,L_joint_7_x,L_joint_7_y,L_joint_7_z,L_joint_8_x,L_joint_8_y,L_joint_8_z,L_joint_9_x,L_joint_9_y,L_joint_9_z,L_joint_10_x,L_joint_10_y,L_joint_10_z,L_joint_11_x,L_joint_11_y,L_joint_11_z,L_joint_12_x,L_joint_12_y,L_joint_12_z,L_joint_13_x,L_joint_13_y,L_joint_13_z,L_joint_14_x,L_joint_14_y,L_joint_14_z,L_joint_15_x,L_joint_15_y,L_joint_15_z,L_joint_16_x,L_joint_16_y,L_joint_16_z,L_joint_17_x,L_joint_17_y,L_joint_17_z,L_joint_18_x,L_joint_18_y,L_joint_18_z,L_joint_19_x,L_joint_19_y,L_joint_19_z,L_joint_20_x,L_joint_20_y,L_joint_20_z
1783390685.1127539,0.7590339779853821,0.8646248579025269,2.929453444266983e-07,0.7363441586494446,0.7802724838256836,0.009429055266082287,0.7010998129844666,0.7096836566925049,0.00761615764349699,0.6737478971481323,0.6459529995918274,0.004710598383098841,0.667357325553894,0.5916669368743896,0.001734485267661512,0.6618748307228088,0.7352015972137451,-0.018844930455088615,0.5970059633255005,0.7082104682922363,-0.026598157361149788,0.5609933733940125,0.696536660194397,-0.029668401926755905,0.5324711203575134,0.6868181824684143,-0.03153211250901222,0.6554122567176819,0.789365291595459,-0.02487448789179325,0.5858429074287415,0.7733688354492188,-0.03547491133213043,0.5456855893135071,0.7694089412689209,-0.03803694620728493,0.5166643261909485,0.7713372111320496,-0.03983862325549126,0.6550809144973755,0.8441221117973328,-0.02674647979438305,0.6012060046195984,0.8297368288040161,-0.029031356796622276,0.6179377436637878,0.8218110799789429,-0.014437196776270866,0.6385471224784851,0.8228971362113953,-0.003041610587388277,0.659408450126648,0.8921511769294739,-0.02807730808854103,0.6222609281539917,0.8723025321960449,-0.024328535422682762,0.638473629951477,0.8649373650550842,-0.009535699151456356,0.655745267868042,0.8656155467033386,0.0027248538099229336,0.0,0.0,0.0,0.0,0.0,0.0,0.0,0.0,0.0,0.0,0.0,0.0,0.0,0.0,0.0,0.0,0.0,0.0,0.0,0.0,0.0,0.0,0.0,0.0,0.0,0.0,0.0,0.0,0.0,0.0,0.0,0.0,0.0,0.0,0.0,0.0,0.0,0.0,0.0,0.0,0.0,0.0,0.0,0.0,0.0,0.0,0.0,0.0,0.0,0.0,0.0,0.0,0.0,0.0,0.0,0.0,0.0,0.0,0.0,0.0,0.0,0.0,0.0
1783390685.388436,0.7603057622909546,0.8663220405578613,2.7708799166248355e-07,0.7371083498001099,0.7827376127243042,0.007851406931877136,0.7001890540122986,0.7124727964401245,0.0048976163379848,0.6724342107772827,0.6476531028747559,0.0008441840182058513,0.668025553226471,0.5899133682250977,-0.0039032665081322193,0.6627175807952881,0.7405093312263489,-0.021185094490647316,0.5979127883911133,0.71136075258255,-0.029968155547976494,0.561866044998169,0.6981955766677856,-0.034408800303936005,0.5328280329704285,0.688992440700531,-0.03729237988591194,0.6566494703292847,0.7955913543701172,-0.027202323079109192,0.587311327457428,0.7786089777946472,-0.036261186003685,0.5474802255630493,0.7758797407150269,-0.03885801136493683,0.5181974768638611,0.7805072069168091,-0.04143352434039116,0.6565444469451904,0.8494638204574585,-0.0293328445404768,0.6023422479629517,0.8315776586532593,-0.03127611428499222,0.6180528998374939,0.8217223882675171,-0.01852141134440899,0.6383966207504272,0.8222765922546387,-0.009058360941708088,0.6609033942222595,0.8961126804351807,-0.03101438842713833,0.623210608959198,0.8742040991783142,-0.027679748833179474,0.6374425292015076,0.8649117350578308,-0.014063062146306038,0.6538875699043274,0.8647785186767578,-0.003069369588047266,0.0,0.0,0.0,0.0,0.0,0.0,0.0,0.0,0.0,0.0,0.0,0.0,0.0,0.0,0.0,0.0,0.0,0.0,0.0,0.0,0.0,0.0,0.0,0.0,0.0,0.0,0.0,0.0,0.0,0.0,0.0,0.0,0.0,0.0,0.0,0.0,0.0,0.0,0.0,0.0,0.0,0.0,0.0,0.0,0.0,0.0,0.0,0.0,0.0,0.0,0.0,0.0,0.0,0.0,0.0,0.0,0.0,0.0,0.0,0.0,0.0,0.0,0.0
1783390685.636896,0.7623071074485779,0.8619785904884338,3.1105261655284266e-07,0.7385183572769165,0.7775761485099792,0.009631224907934666,0.7019038200378418,0.7077282667160034,0.007369327824562788,0.6735303401947021,0.6436185240745544,0.004083589650690556,0.6679123640060425,0.5870798230171204,0.0008165996987372637,0.6636714935302734,0.7338570952415466,-0.021341821178793907,0.5980657935142517,0.7070702314376831,-0.029488947242498398,0.5619208216667175,0.6957369446754456,-0.032771918922662735,0.5329914093017578,0.6873891353607178,-0.03492475673556328,0.6574079990386963,0.7887520790100098,-0.027212636545300484,0.5873746275901794,0.7719675898551941,-0.03859621658921242,0.5463569164276123,0.7689446210861206,-0.04191875085234642,0.5169733166694641,0.7725028395652771,-0.044439494609832764,0.6571478843688965,0.8440226912498474,-0.028520748019218445,0.6047123074531555,0.8280921578407288,-0.029505571350455284,0.6211149096488953,0.8192142248153687,-0.014016623608767986,0.6415113210678101,0.819998025894165,-0.0025144333485513926,0.6614534258842468,0.8910155892372131,-0.02939719893038273,0.6264562606811523,0.8701135516166687,-0.02411465160548687,0.6423012614250183,0.8612566590309143,-0.008863699622452259,0.6588273048400879,0.8615829348564148,0.0034167603589594364,0.0,0.0,0.0,0.0,0.0,0.0,0.0,0.0,0.0,0.0,0.0,0.0,0.0,0.0,0.0,0.0,0.0,0.0,0.0,0.0,0.0,0.0,0.0,0.0,0.0,0.0,0.0,0.0,0.0,0.0,0.0,0.0,0.0,0.0,0.0,0.0,0.0,0.0,0.0,0.0,0.0,0.0,0.0,0.0,0.0,0.0,0.0,0.0,0.0,0.0,0.0,0.0,0.0,0.0,0.0,0.0,0.0,0.0,0.0,0.0,0.0,0.0,0.0
1783390685.872076,0.7615692615509033,0.8582236170768738,3.1103962783163297e-07,0.7373784780502319,0.7742229104042053,0.006602749694138765,0.7003555297851562,0.7044731974601746,0.0029133521020412445,0.6725646257400513,0.639922559261322,-0.00214007287286222,0.6665021777153015,0.58235764503479,-0.007448372431099415,0.6614291071891785,0.7319257855415344,-0.019855203106999397,0.5958382487297058,0.7066968083381653,-0.02707923762500286,0.5598482489585876,0.6952610015869141,-0.02935398556292057,0.5308935642242432,0.6864733099937439,-0.030703721567988396,0.6548891663551331,0.7864450216293335,-0.025622861459851265,0.5870236158370972,0.7722873687744141,-0.03626640886068344,0.5459499359130859,0.7722666263580322,-0.039620060473680496,0.516867995262146,0.7773324847221375,-0.0419384129345417,0.6552605628967285,0.8412764668464661,-0.027540450915694237,0.606701672077179,0.8241580128669739,-0.030572954565286636,0.6247795820236206,0.8165075182914734,-0.017405182123184204,0.6457935571670532,0.817950963973999,-0.006855100858956575,0.6600475907325745,0.8878278136253357,-0.029158350080251694,0.6260783672332764,0.8631922602653503,-0.02594137005507946,0.6433007121086121,0.8546993136405945,-0.01193331554532051,0.6610201001167297,0.8564187288284302,-0.00022042702767066658,0.0,0.0,0.0,0.0,0.0,0.0,0.0,0.0,0.0,0.0,0.0,0.0,0.0,0.0,0.0,0.0,0.0,0.0,0.0,0.0,0.0,0.0,0.0,0.0,0.0,0.0,0.0,0.0,0.0,0.0,0.0,0.0,0.0,0.0,0.0,0.0,0.0,0.0,0.0,0.0,0.0,0.0,0.0,0.0,0.0,0.0,0.0,0.0,0.0,0.0,0.0,0.0,0.0,0.0,0.0,0.0,0.0,0.0,0.0,0.0,0.0,0.0,0.0
1783390686.1383219,0.7613545060157776,0.8603128790855408,3.11963987087438e-07,0.7375523447990417,0.7778533101081848,0.004759358242154121,0.7007352113723755,0.7054795026779175,0.0004967913846485317,0.6734654307365417,0.6406360268592834,-0.0047534434124827385,0.6673088669776917,0.5842529535293579,-0.01056947186589241,0.6630861163139343,0.7338244915008545,-0.021978886798024178,0.5976698994636536,0.7061343193054199,-0.03056764416396618,0.5618481636047363,0.6922270059585571,-0.03390520066022873,0.5328507423400879,0.6816424131393433,-0.03561106324195862,0.6564791202545166,0.7887415885925293,-0.027134280651807785,0.5870097279548645,0.774043619632721,-0.036581411957740784,0.5463546514511108,0.7739902138710022,-0.039239510893821716,0.5166075229644775,0.7799344658851624,-0.04112923890352249,0.6565704345703125,0.8427390456199646,-0.02876601554453373,0.6064613461494446,0.8294142484664917,-0.03233025595545769,0.623927891254425,0.8216831684112549,-0.020904991775751114,0.6451135277748108,0.8221484422683716,-0.011382874101400375,0.6611390113830566,0.8892281651496887,-0.03018043003976345,0.6281014680862427,0.8690090775489807,-0.028203945606946945,0.6443511843681335,0.8608538508415222,-0.015699848532676697,0.6620736718177795,0.8611140847206116,-0.004859189502894878,0.0,0.0,0.0,0.0,0.0,0.0,0.0,0.0,0.0,0.0,0.0,0.0,0.0,0.0,0.0,0.0,0.0,0.0,0.0,0.0,0.0,0.0,0.0,0.0,0.0,0.0,0.0,0.0,0.0,0.0,0.0,0.0,0.0,0.0,0.0,0.0,0.0,0.0,0.0,0.0,0.0,0.0,0.0,0.0,0.0,0.0,0.0,0.0,0.0,0.0,0.0,0.0,0.0,0.0,0.0,0.0,0.0,0.0,0.0,0.0,0.0,0.0,0.0
1783390686.3548632,0.7609937787055969,0.8587824106216431,3.5021795952161483e-07,0.737742006778717,0.7761929631233215,0.003302498022094369,0.7005808353424072,0.7039084434509277,-0.0012795217335224152,0.6734002828598022,0.6386333703994751,-0.006856000050902367,0.6686216592788696,0.581123948097229,-0.01270450558513403,0.6627182960510254,0.732754647731781,-0.021240144968032837,0.5981118083000183,0.7016387581825256,-0.02857821434736252,0.5628849267959595,0.6863448619842529,-0.03048774041235447,0.5346543192863464,0.6746504902839661,-0.03130727261304855,0.6555078625679016,0.7877920866012573,-0.025914842262864113,0.5872519016265869,0.7722007632255554,-0.03606569021940231,0.5457108020782471,0.7715736627578735,-0.03917379304766655,0.5161639451980591,0.7768489718437195,-0.040937308222055435,0.6554203629493713,0.8424548506736755,-0.0272020623087883,0.607651948928833,0.8270005583763123,-0.031550806015729904,0.6265092492103577,0.8199528455734253,-0.020225750282406807,0.6479181051254272,0.821616530418396,-0.010241452604532242,0.6600998044013977,0.888175904750824,-0.028390981256961823,0.628990113735199,0.866281270980835,-0.02654084749519825,0.646426260471344,0.8580214977264404,-0.013938959687948227,0.6644768714904785,0.8593258857727051,-0.002788240322843194,0.0,0.0,0.0,0.0,0.0,0.0,0.0,0.0,0.0,0.0,0.0,0.0,0.0,0.0,0.0,0.0,0.0,0.0,0.0,0.0,0.0,0.0,0.0,0.0,0.0,0.0,0.0,0.0,0.0,0.0,0.0,0.0,0.0,0.0,0.0,0.0,0.0,0.0,0.0,0.0,0.0,0.0,0.0,0.0,0.0,0.0,0.0,0.0,0.0,0.0,0.0,0.0,0.0,0.0,0.0,0.0,0.0,0.0,0.0,0.0,0.0,0.0,0.0
1783390686.5104918,0.7604807019233704,0.8597651124000549,3.383978537385701e-07,0.7380293607711792,0.777991533279419,0.0033714466262608767,0.7014796137809753,0.7050120830535889,-0.0014969793846830726,0.6739151477813721,0.640479564666748,-0.007171702105551958,0.6689245700836182,0.5839002132415771,-0.013379182666540146,0.6640515327453613,0.7337438464164734,-0.023360809311270714,0.5989087224006653,0.7025864720344543,-0.03188297897577286,0.5631417632102966,0.686532199382782,-0.03481888771057129,0.534315288066864,0.6741534471511841,-0.0361737459897995,0.6570870280265808,0.788793683052063,-0.02789914608001709,0.5867606401443481,0.7740769982337952,-0.03716251254081726,0.5456328988075256,0.7728837728500366,-0.03963294252753258,0.515703558921814,0.7777351140975952,-0.04131364822387695,0.6568342447280884,0.8426695466041565,-0.028987590223550797,0.6071703433990479,0.8290808796882629,-0.032787878066301346,0.6251423954963684,0.8206647634506226,-0.021742861717939377,0.6464027762413025,0.8213680386543274,-0.012271006591618061,0.6609837412834167,0.8887354135513306,-0.029926847666502,0.6287517547607422,0.8680393099784851,-0.02790096402168274,0.6451947093009949,0.8593249320983887,-0.015585745684802532,0.6627907156944275,0.8598148226737976,-0.004839958623051643,0.0,0.0,0.0,0.0,0.0,0.0,0.0,0.0,0.0,0.0,0.0,0.0,0.0,0.0,0.0,0.0,0.0,0.0,0.0,0.0,0.0,0.0,0.0,0.0,0.0,0.0,0.0,0.0,0.0,0.0,0.0,0.0,0.0,0.0,0.0,0.0,0.0,0.0,0.0,0.0,0.0,0.0,0.0,0.0,0.0,0.0,0.0,0.0,0.0,0.0,0.0,0.0,0.0,0.0,0.0,0.0,0.0,0.0,0.0,0.0,0.0,0.0,0.0
1783390686.678328,0.7607788443565369,0.8606677055358887,3.2749116485319973e-07,0.7390793561935425,0.7787912487983704,0.004230890888720751,0.7026751041412354,0.7060612440109253,-0.00011836542398668826,0.6746960878372192,0.6410760283470154,-0.005218772683292627,0.6696361303329468,0.583459198474884,-0.010740363970398903,0.6646616458892822,0.734832227230072,-0.022763745859265327,0.5995991826057434,0.7028390169143677,-0.03087376058101654,0.5638477802276611,0.6867228150367737,-0.03344295918941498,0.5355006456375122,0.6743521690368652,-0.034515444189310074,0.6572733521461487,0.7889187932014465,-0.02700614370405674,0.5868939161300659,0.7750581502914429,-0.0365125946700573,0.545762836933136,0.7746029496192932,-0.0388803668320179,0.5162375569343567,0.7800554633140564,-0.040282320231199265,0.6565623879432678,0.8413747549057007,-0.027594292536377907,0.607798159122467,0.827616274356842,-0.030208749696612358,0.6252362728118896,0.8190160393714905,-0.01808033138513565,0.6456334590911865,0.8197138905525208,-0.007966117933392525,0.6604762077331543,0.8859915733337402,-0.02803715132176876,0.628116250038147,0.8655935525894165,-0.024276498705148697,0.6443445086479187,0.8574061393737793,-0.010906362906098366,0.6615222096443176,0.8582974076271057,0.0004900038475170732,0.0,0.0,0.0,0.0,0.0,0.0,0.0,0.0,0.0,0.0,0.0,0.0,0.0,0.0,0.0,0.0,0.0,0.0,0.0,0.0,0.0,0.0,0.0,0.0,0.0,0.0,0.0,0.0,0.0,0.0,0.0,0.0,0.0,0.0,0.0,0.0,0.0,0.0,0.0,0.0,0.0,0.0,0.0,0.0,0.0,0.0,0.0,0.0,0.0,0.0,0.0,0.0,0.0,0.0,0.0,0.0,0.0,0.0,0.0,0.0,0.0,0.0,0.0
1783390686.838939,0.7610765099525452,0.8608911633491516,3.1773791420164343e-07,0.7392974495887756,0.7787002921104431,0.005352492909878492,0.7033252120018005,0.7065728306770325,0.0014857740607112646,0.6756267547607422,0.6422741413116455,-0.0032074942719191313,0.6706663370132446,0.5853548645973206,-0.008333701640367508,0.6650431156158447,0.7340108156204224,-0.022025708109140396,0.5999129414558411,0.703510046005249,-0.029900917783379555,0.5643953680992126,0.6879550814628601,-0.03242848068475723,0.5363138914108276,0.675666868686676,-0.033467937260866165,0.6577843427658081,0.7885593175888062,-0.026407187804579735,0.586858868598938,0.776997983455658,-0.03537853807210922,0.5462133288383484,0.7769295573234558,-0.03741239383816719,0.5172905325889587,0.7819075584411621,-0.03868061676621437,0.657139241695404,0.8413680791854858,-0.02700529247522354,0.6080082654953003,0.8296079635620117,-0.02872518077492714,0.6249935626983643,0.8215212821960449,-0.016429919749498367,0.645370602607727,0.8219034671783447,-0.006468419451266527,0.6609320044517517,0.8865882158279419,-0.02736600674688816,0.6284934878349304,0.8684154748916626,-0.022923335433006287,0.6443784236907959,0.8610578775405884,-0.009447537362575531,0.6614636182785034,0.8615654110908508,0.0019010839750990272,0.0,0.0,0.0,0.0,0.0,0.0,0.0,0.0,0.0,0.0,0.0,0.0,0.0,0.0,0.0,0.0,0.0,0.0,0.0,0.0,0.0,0.0,0.0,0.0,0.0,0.0,0.0,0.0,0.0,0.0,0.0,0.0,0.0,0.0,0.0,0.0,0.0,0.0,0.0,0.0,0.0,0.0,0.0,0.0,0.0,0.0,0.0,0.0,0.0,0.0,0.0,0.0,0.0,0.0,0.0,0.0,0.0,0.0,0.0,0.0,0.0,0.0,0.0
1783390686.999748,0.7614981532096863,0.8627818822860718,3.2124259519150655e-07,0.739875316619873,0.7813921570777893,0.004351308103650808,0.7033387422561646,0.707715630531311,-0.0001744382461765781,0.6755771636962891,0.6428066492080688,-0.005489131435751915,0.6712211966514587,0.584715723991394,-0.011375664733350277,0.6659827828407288,0.735675036907196,-0.023520831018686295,0.6009464859962463,0.7032456398010254,-0.032263584434986115,0.5648474097251892,0.6869193315505981,-0.03553188219666481,0.5362856984138489,0.6739946007728577,-0.037179023027420044,0.6590178608894348,0.7896604537963867,-0.02792041003704071,0.5885789394378662,0.7762115001678467,-0.03769712895154953,0.5470610857009888,0.7759259939193726,-0.04055109620094299,0.5171211361885071,0.7815124988555908,-0.04250002279877663,0.6584466695785522,0.8423779010772705,-0.02857515774667263,0.6086211800575256,0.830171525478363,-0.031222175806760788,0.625805675983429,0.8220720291137695,-0.01907220482826233,0.6461727023124695,0.8226393461227417,-0.009127046912908554,0.6622551679611206,0.887572169303894,-0.02905723638832569,0.628160297870636,0.8690306544303894,-0.02558779902756214,0.6442773342132568,0.8616053462028503,-0.012128550559282303,0.6616377234458923,0.8625501990318298,-0.0007065478130243719,0.0,0.0,0.0,0.0,0.0,0.0,0.0,0.0,0.0,0.0,0.0,0.0,0.0,0.0,0.0,0.0,0.0,0.0,0.0,0.0,0.0,0.0,0.0,0.0,0.0,0.0,0.0,0.0,0.0,0.0,0.0,0.0,0.0,0.0,0.0,0.0,0.0,0.0,0.0,0.0,0.0,0.0,0.0,0.0,0.0,0.0,0.0,0.0,0.0,0.0,0.0,0.0,0.0,0.0,0.0,0.0,0.0,0.0,0.0,0.0,0.0,0.0,0.0
1783390687.124885,0.7622346878051758,0.8627100586891174,3.3557302003828227e-07,0.7398640513420105,0.7811800241470337,0.004812339786440134,0.7036091089248657,0.7080109715461731,0.0004891951684840024,0.6760497093200684,0.642829179763794,-0.00471119349822402,0.6716489791870117,0.5845984220504761,-0.010368425399065018,0.6657001376152039,0.7359367609024048,-0.021872997283935547,0.6023147702217102,0.701233983039856,-0.030087169259786606,0.5668525695800781,0.6829434037208557,-0.033027734607458115,0.5390661358833313,0.66781085729599,-0.034464288502931595,0.6586373448371887,0.7898522615432739,-0.02629164606332779,0.5886278748512268,0.7765659093856812,-0.03610294684767723,0.5471552610397339,0.7756103873252869,-0.03896014392375946,0.5175973773002625,0.7801259756088257,-0.04079197347164154,0.6583448052406311,0.8427799344062805,-0.026945890858769417,0.6084188222885132,0.8291270136833191,-0.02928994782269001,0.6257678866386414,0.8204828500747681,-0.016601353883743286,0.6460665464401245,0.8210321664810181,-0.006252808030694723,0.6626856923103333,0.8876851797103882,-0.027417052537202835,0.628321647644043,0.8685426712036133,-0.023426897823810577,0.6446404457092285,0.8604416251182556,-0.009457284584641457,0.6619501709938049,0.8614682555198669,0.0023590102791786194,0.0,0.0,0.0,0.0,0.0,0.0,0.0,0.0,0.0,0.0,0.0,0.0,0.0,0.0,0.0,0.0,0.0,0.0,0.0,0.0,0.0,0.0,0.0,0.0,0.0,0.0,0.0,0.0,0.0,0.0,0.0,0.0,0.0,0.0,0.0,0.0,0.0,0.0,0.0,0.0,0.0,0.0,0.0,0.0,0.0,0.0,0.0,0.0,0.0,0.0,0.0,0.0,0.0,0.0,0.0,0.0,0.0,0.0,0.0,0.0,0.0,0.0,0.0
1783390687.303784,0.7624807953834534,0.864637017250061,3.3358236350977677e-07,0.7405623197555542,0.7829462289810181,0.005956343375146389,0.7054619193077087,0.708353579044342,0.001974936807528138,0.6788180470466614,0.6428326368331909,-0.002958058612421155,0.6742569208145142,0.5857930183410645,-0.008501139469444752,0.6667052507400513,0.7348595261573792,-0.0220539178699255,0.6036845445632935,0.6997252702713013,-0.030781857669353485,0.5680601000785828,0.6817788481712341,-0.03407810628414154,0.5400381684303284,0.66688072681427,-0.035680513828992844,0.6600940227508545,0.7885415554046631,-0.02717861905694008,0.5893368124961853,0.7761765122413635,-0.03727507218718529,0.5482230186462402,0.775299072265625,-0.03982524946331978,0.5187420845031738,0.7790645956993103,-0.04144183546304703,0.659821629524231,0.8417878150939941,-0.02844354696571827,0.6087075471878052,0.8296635746955872,-0.031346987932920456,0.625669002532959,0.823049783706665,-0.01833038032054901,0.6458069086074829,0.8242693543434143,-0.0076033794321119785,0.6639148592948914,0.888317346572876,-0.02935287356376648,0.6276116371154785,0.8696895241737366,-0.02573740854859352,0.6434412598609924,0.8631301522254944,-0.011256377212703228,0.6603082418441772,0.8640105724334717,0.001017184229567647,0.0,0.0,0.0,0.0,0.0,0.0,0.0,0.0,0.0,0.0,0.0,0.0,0.0,0.0,0.0,0.0,0.0,0.0,0.0,0.0,0.0,0.0,0.0,0.0,0.0,0.0,0.0,0.0,0.0,0.0,0.0,0.0,0.0,0.0,0.0,0.0,0.0,0.0,0.0,0.0,0.0,0.0,0.0,0.0,0.0,0.0,0.0,0.0,0.0,0.0,0.0,0.0,0.0,0.0,0.0,0.0,0.0,0.0,0.0,0.0,0.0,0.0,0.0
1783390687.5029929,0.7634923458099365,0.8647432327270508,3.4142337312914606e-07,0.7414252758026123,0.7822160124778748,0.007533551659435034,0.7055289149284363,0.7085075974464417,0.004440709017217159,0.6773486733436584,0.6434265375137329,0.0002475949004292488,0.673664391040802,0.5850448608398438,-0.004142010118812323,0.6675986647605896,0.7350482940673828,-0.02057759091258049,0.6026960015296936,0.6975682973861694,-0.028173303231596947,0.5668929219245911,0.6795428395271301,-0.030078336596488953,0.5389785170555115,0.6655709147453308,-0.03084225207567215,0.6600255966186523,0.7886383533477783,-0.026192903518676758,0.5875034928321838,0.7709769010543823,-0.03635505586862564,0.5454761981964111,0.7681336998939514,-0.03874960541725159,0.5159290432929993,0.7715845108032227,-0.04005727171897888,0.6584866642951965,0.8427954316139221,-0.027713153511285782,0.606075644493103,0.8253586292266846,-0.029480023309588432,0.6237499713897705,0.8179561495780945,-0.015109407715499401,0.6438618302345276,0.8196237683296204,-0.003598362673074007,0.6616683602333069,0.8895719051361084,-0.02884487248957157,0.6265534162521362,0.8689001798629761,-0.02368042804300785,0.6428089141845703,0.8613697290420532,-0.008371096104383469,0.6592199802398682,0.8627879023551941,0.0043441602028906345,0.0,0.0,0.0,0.0,0.0,0.0,0.0,0.0,0.0,0.0,0.0,0.0,0.0,0.0,0.0,0.0,0.0,0.0,0.0,0.0,0.0,0.0,0.0,0.0,0.0,0.0,0.0,0.0,0.0,0.0,0.0,0.0,0.0,0.0,0.0,0.0,0.0,0.0,0.0,0.0,0.0,0.0,0.0,0.0,0.0,0.0,0.0,0.0,0.0,0.0,0.0,0.0,0.0,0.0,0.0,0.0,0.0,0.0,0.0,0.0,0.0,0.0,0.0
1783390687.690115,0.7630248069763184,0.8659701943397522,3.426733599098952e-07,0.7406167387962341,0.7815850973129272,0.00705892825499177,0.705033004283905,0.7087171673774719,0.003720891196280718,0.6778261661529541,0.6435226202011108,-0.0007793957483954728,0.6741684675216675,0.5854088068008423,-0.0054350788705050945,0.6663001179695129,0.7362660765647888,-0.019709931686520576,0.6023208498954773,0.6999971866607666,-0.026522230356931686,0.5674406290054321,0.6826962232589722,-0.028053946793079376,0.5402026176452637,0.6694358587265015,-0.028643585741519928,0.6584009528160095,0.7907736301422119,-0.025076493620872498,0.5883768200874329,0.7716230750083923,-0.03498813882470131,0.5472826361656189,0.7672534584999084,-0.037655510008335114,0.518283486366272,0.7696764469146729,-0.03922164812684059,0.6571493148803711,0.8451284766197205,-0.026391994208097458,0.6064209342002869,0.8255995512008667,-0.027958499267697334,0.6233618855476379,0.8168657422065735,-0.014357623644173145,0.6434355974197388,0.8186336755752563,-0.0035461292136460543,0.6609036922454834,0.8908976316452026,-0.02736259438097477,0.627128005027771,0.8681482672691345,-0.02237260714173317,0.6427644491195679,0.8587179780006409,-0.007776583544909954,0.659389853477478,0.8601599335670471,0.004354295786470175,0.0,0.0,0.0,0.0,0.0,0.0,0.0,0.0,0.0,0.0,0.0,0.0,0.0,0.0,0.0,0.0,0.0,0.0,0.0,0.0,0.0,0.0,0.0,0.0,0.0,0.0,0.0,0.0,0.0,0.0,0.0,0.0,0.0,0.0,0.0,0.0,0.0,0.0,0.0,0.0,0.0,0.0,0.0,0.0,0.0,0.0,0.0,0.0,0.0,0.0,0.0,0.0,0.0,0.0,0.0,0.0,0.0,0.0,0.0,0.0,0.0,0.0,0.0
1783390687.868702,0.7633190751075745,0.8659384846687317,3.2219261925092724e-07,0.7416077852249146,0.7816150188446045,0.009235989302396774,0.7074155807495117,0.7092306613922119,0.007411169353872538,0.6807819604873657,0.6448835730552673,0.004238649271428585,0.6768988370895386,0.5889000296592712,0.0010419426253065467,0.6679354310035706,0.7360123991966248,-0.017768263816833496,0.604419469833374,0.7009608149528503,-0.024498285725712776,0.569413959980011,0.6842777729034424,-0.02604990266263485,0.542334258556366,0.6711954474449158,-0.02659875527024269,0.659939169883728,0.7900936007499695,-0.023472623899579048,0.589958667755127,0.7725597023963928,-0.03370025008916855,0.5491427183151245,0.7681115865707397,-0.03683246672153473,0.5204984545707703,0.769886314868927,-0.0386778861284256,0.6584056615829468,0.8438112735748291,-0.02483966387808323,0.6089319586753845,0.8266232013702393,-0.02599923685193062,0.6262705326080322,0.8195005059242249,-0.012201947160065174,0.6462380290031433,0.8214449882507324,-0.001196998287923634,0.6620678901672363,0.8892499804496765,-0.02567429281771183,0.6294293403625488,0.8691202402114868,-0.02000034786760807,0.6452684998512268,0.8610268235206604,-0.005191695410758257,0.6617105603218079,0.8626337051391602,0.007129869889467955,0.0,0.0,0.0,0.0,0.0,0.0,0.0,0.0,0.0,0.0,0.0,0.0,0.0,0.0,0.0,0.0,0.0,0.0,0.0,0.0,0.0,0.0,0.0,0.0,0.0,0.0,0.0,0.0,0.0,0.0,0.0,0.0,0.0,0.0,0.0,0.0,0.0,0.0,0.0,0.0,0.0,0.0,0.0,0.0,0.0,0.0,0.0,0.0,0.0,0.0,0.0,0.0,0.0,0.0,0.0,0.0,0.0,0.0,0.0,0.0,0.0,0.0,0.0
1783390688.0132139,0.7645261883735657,0.8672180771827698,3.227015099582786e-07,0.7432443499565125,0.7825753688812256,0.007817000150680542,0.709098219871521,0.7096185684204102,0.005070547107607126,0.6822470426559448,0.6446155905723572,0.0012978726299479604,0.6785720586776733,0.5880759358406067,-0.0025980323553085327,0.6698441505432129,0.7373575568199158,-0.020069731399416924,0.6059685349464417,0.7015495300292969,-0.027439596131443977,0.5708733797073364,0.6845546364784241,-0.029589124023914337,0.5436633825302124,0.6713743209838867,-0.030563952401280403,0.6621195077896118,0.7920488715171814,-0.02521194890141487,0.5909223556518555,0.7742951512336731,-0.03533363714814186,0.5498804450035095,0.7705125212669373,-0.03835446387529373,0.5208981037139893,0.7732158303260803,-0.04024284705519676,0.660714864730835,0.8454432487487793,-0.02610672265291214,0.6084063053131104,0.8274127244949341,-0.0275463555008173,0.6251407265663147,0.8185722231864929,-0.013948369771242142,0.6449448466300964,0.8196872472763062,-0.0031074322760105133,0.6644096374511719,0.8901509046554565,-0.026528798043727875,0.6291868090629578,0.8691039681434631,-0.021180707961320877,0.6439657211303711,0.8589110374450684,-0.0064841387793421745,0.660001814365387,0.8588455319404602,0.0057257795706391335,0.0,0.0,0.0,0.0,0.0,0.0,0.0,0.0,0.0,0.0,0.0,0.0,0.0,0.0,0.0,0.0,0.0,0.0,0.0,0.0,0.0,0.0,0.0,0.0,0.0,0.0,0.0,0.0,0.0,0.0,0.0,0.0,0.0,0.0,0.0,0.0,0.0,0.0,0.0,0.0,0.0,0.0,0.0,0.0,0.0,0.0,0.0,0.0,0.0,0.0,0.0,0.0,0.0,0.0,0.0,0.0,0.0,0.0,0.0,0.0,0.0,0.0,0.0
1783390688.20359,0.7662745118141174,0.8690188527107239,3.08367987145175e-07,0.7449705004692078,0.7846540808677673,0.009619384072721004,0.7107094526290894,0.711188793182373,0.007358177099376917,0.6834343671798706,0.6459655165672302,0.003746545175090432,0.6790479421615601,0.5884994268417358,-0.00013136098277755082,0.6720151901245117,0.7376658916473389,-0.019104963168501854,0.6078118085861206,0.7019310593605042,-0.02623099274933338,0.572217583656311,0.6854924559593201,-0.02825392223894596,0.5444362163543701,0.6723587512969971,-0.029238061979413033,0.6644924283027649,0.7915544509887695,-0.02517624758183956,0.5932298302650452,0.774395763874054,-0.03512490540742874,0.5519866347312927,0.7713657021522522,-0.03772810101509094,0.5227389931678772,0.7745550870895386,-0.0394747294485569,0.6631052494049072,0.8450626730918884,-0.026846596971154213,0.6103761196136475,0.8284154534339905,-0.02775084786117077,0.6271063685417175,0.8208060264587402,-0.013274552300572395,0.6469196081161499,0.822226345539093,-0.0020548738539218903,0.666592538356781,0.8908060193061829,-0.027918895706534386,0.6299608945846558,0.8704906105995178,-0.02183924987912178,0.6450685858726501,0.8618568181991577,-0.006221122574061155,0.6614094972610474,0.862389326095581,0.006473994813859463,0.0,0.0,0.0,0.0,0.0,0.0,0.0,0.0,0.0,0.0,0.0,0.0,0.0,0.0,0.0,0.0,0.0,0.0,0.0,0.0,0.0,0.0,0.0,0.0,0.0,0.0,0.0,0.0,0.0,0.0,0.0,0.0,0.0,0.0,0.0,0.0,0.0,0.0,0.0,0.0,0.0,0.0,0.0,0.0,0.0,0.0,0.0,0.0,0.0,0.0,0.0,0.0,0.0,0.0,0.0,0.0,0.0,0.0,0.0,0.0,0.0,0.0,0.0
1783390688.36273,0.7661807537078857,0.8681429624557495,3.229161222861876e-07,0.7451924085617065,0.7839491367340088,0.006814972963184118,0.7094793915748596,0.7107827067375183,0.0032099070958793163,0.6825289130210876,0.6455216407775879,-0.0014668363146483898,0.6791627407073975,0.5873266458511353,-0.006594181526452303,0.6712761521339417,0.7384394407272339,-0.021059690043330193,0.607088029384613,0.7033202052116394,-0.028760751709342003,0.5719941854476929,0.685614824295044,-0.03103482536971569,0.5448378920555115,0.671535074710846,-0.032006457448005676,0.6643925905227661,0.7929428815841675,-0.026645712554454803,0.5934246778488159,0.7743851542472839,-0.03651408478617668,0.5518494248390198,0.7702195644378662,-0.03871188685297966,0.5221291780471802,0.772930383682251,-0.040055856108665466,0.6633008122444153,0.8467289805412292,-0.02835959382355213,0.609462559223175,0.8285192251205444,-0.0313265323638916,0.6259657144546509,0.8208341002464294,-0.01821112260222435,0.64589524269104,0.8227128982543945,-0.00741992611438036,0.666684627532959,0.8927789330482483,-0.029574163258075714,0.6283867955207825,0.8699731826782227,-0.025985311716794968,0.6437148451805115,0.8613278865814209,-0.011486835777759552,0.6605756282806396,0.8624702095985413,0.0007222599815577269,0.0,0.0,0.0,0.0,0.0,0.0,0.0,0.0,0.0,0.0,0.0,0.0,0.0,0.0,0.0,0.0,0.0,0.0,0.0,0.0,0.0,0.0,0.0,0.0,0.0,0.0,0.0,0.0,0.0,0.0,0.0,0.0,0.0,0.0,0.0,0.0,0.0,0.0,0.0,0.0,0.0,0.0,0.0,0.0,0.0,0.0,0.0,0.0,0.0,0.0,0.0,0.0,0.0,0.0,0.0,0.0,0.0,0.0,0.0,0.0,0.0,0.0,0.0
1783390688.498114,0.7665290236473083,0.8698781132698059,3.2789463944027375e-07,0.7458517551422119,0.784918487071991,0.006133939605206251,0.7106576561927795,0.7108368277549744,0.0027743044774979353,0.6838389039039612,0.6459895372390747,-0.001418918021954596,0.6801454424858093,0.5889777541160583,-0.005956124514341354,0.6729514002799988,0.739459753036499,-0.02158946543931961,0.6083177328109741,0.703026294708252,-0.029525579884648323,0.572653591632843,0.6860920786857605,-0.03190862014889717,0.5448071360588074,0.672720193862915,-0.03277222439646721,0.66521817445755,0.7946808338165283,-0.02666936255991459,0.5940313339233398,0.7736002206802368,-0.036092836409807205,0.5526685118675232,0.7682915329933167,-0.037839751690626144,0.5228070020675659,0.7701452374458313,-0.038726240396499634,0.6634332537651062,0.8480408191680908,-0.02799569070339203,0.610529363155365,0.8281739950180054,-0.030809415504336357,0.6268646717071533,0.8200950622558594,-0.018100418150424957,0.6468720436096191,0.8222405314445496,-0.007431169971823692,0.6663199663162231,0.8937249183654785,-0.028881676495075226,0.6288091540336609,0.8693942427635193,-0.025172077119350433,0.643719494342804,0.8605827689170837,-0.010859088972210884,0.6605995297431946,0.8615438938140869,0.0013060815399512649,0.0,0.0,0.0,0.0,0.0,0.0,0.0,0.0,0.0,0.0,0.0,0.0,0.0,0.0,0.0,0.0,0.0,0.0,0.0,0.0,0.0,0.0,0.0,0.0,0.0,0.0,0.0,0.0,0.0,0.0,0.0,0.0,0.0,0.0,0.0,0.0,0.0,0.0,0.0,0.0,0.0,0.0,0.0,0.0,0.0,0.0,0.0,0.0,0.0,0.0,0.0,0.0,0.0,0.0,0.0,0.0,0.0,0.0,0.0,0.0,0.0,0.0,0.0
1783390688.6441522,0.7670648097991943,0.8699803352355957,3.187574577623309e-07,0.7459818124771118,0.784022867679596,0.00940942857414484,0.711344301700592,0.7101684808731079,0.0075478157959878445,0.6847251057624817,0.6453766822814941,0.00446196086704731,0.6806613802909851,0.5887730121612549,0.0011938819661736488,0.6730773448944092,0.7378790974617004,-0.019056478515267372,0.6098732352256775,0.701361894607544,-0.026032332330942154,0.5747871398925781,0.6845453977584839,-0.02776283584535122,0.5475454926490784,0.671610951423645,-0.02836795151233673,0.6656070351600647,0.7924296259880066,-0.024994652718305588,0.5952495336532593,0.7722489237785339,-0.03492351248860359,0.5538276433944702,0.7673534154891968,-0.03698257729411125,0.5243856310844421,0.7695227861404419,-0.03811303526163101,0.6640456914901733,0.8464969396591187,-0.02664845995604992,0.612167477607727,0.8277781009674072,-0.02807695046067238,0.6283411383628845,0.8199300765991211,-0.013589708134531975,0.647979736328125,0.8219037055969238,-0.002045779023319483,0.6673507690429688,0.8932209610939026,-0.027683762833476067,0.6301437020301819,0.870053231716156,-0.02210107631981373,0.645315945148468,0.8616809844970703,-0.006299423053860664,0.661994457244873,0.8629255294799805,0.0066993506625294685,0.0,0.0,0.0,0.0,0.0,0.0,0.0,0.0,0.0,0.0,0.0,0.0,0.0,0.0,0.0,0.0,0.0,0.0,0.0,0.0,0.0,0.0,0.0,0.0,0.0,0.0,0.0,0.0,0.0,0.0,0.0,0.0,0.0,0.0,0.0,0.0,0.0,0.0,0.0,0.0,0.0,0.0,0.0,0.0,0.0,0.0,0.0,0.0,0.0,0.0,0.0,0.0,0.0,0.0,0.0,0.0,0.0,0.0,0.0,0.0,0.0,0.0,0.0
1783390688.8075168,0.7666559219360352,0.8704279661178589,3.297072908026166e-07,0.7443907260894775,0.785104513168335,0.009871143847703934,0.7106955647468567,0.712162435054779,0.007038882467895746,0.6846802234649658,0.646480143070221,0.002840673550963402,0.6807539463043213,0.588895320892334,-0.001718686893582344,0.6727918982505798,0.7378867268562317,-0.02019719034433365,0.6093130111694336,0.7025192379951477,-0.028009427711367607,0.5743094086647034,0.6857202053070068,-0.030614549294114113,0.5465911626815796,0.6721763014793396,-0.03185775876045227,0.665568470954895,0.7916792035102844,-0.026836641132831573,0.5946905612945557,0.7707296013832092,-0.037172582000494,0.5523465871810913,0.7659436464309692,-0.039652157574892044,0.5224719643592834,0.7685343027114868,-0.04127386212348938,0.6642531156539917,0.8458794355392456,-0.029068617150187492,0.6110236048698425,0.8287083506584167,-0.030398963019251823,0.6259573101997375,0.8205469846725464,-0.015750044956803322,0.6453267931938171,0.8216353058815002,-0.004307243973016739,0.6675843596458435,0.8930662870407104,-0.030647894367575645,0.6281145215034485,0.8710748553276062,-0.024786828085780144,0.642410933971405,0.8618215322494507,-0.00853655394166708,0.6584812998771667,0.8621104955673218,0.004654745105654001,0.0,0.0,0.0,0.0,0.0,0.0,0.0,0.0,0.0,0.0,0.0,0.0,0.0,0.0,0.0,0.0,0.0,0.0,0.0,0.0,0.0,0.0,0.0,0.0,0.0,0.0,0.0,0.0,0.0,0.0,0.0,0.0,0.0,0.0,0.0,0.0,0.0,0.0,0.0,0.0,0.0,0.0,0.0,0.0,0.0,0.0,0.0,0.0,0.0,0.0,0.0,0.0,0.0,0.0,0.0,0.0,0.0,0.0,0.0,0.0,0.0,0.0,0.0
1783390688.972115,0.76727294921875,0.8739134669303894,2.87255687680954e-07,0.7444816827774048,0.7855484485626221,0.01704941689968109,0.7122777104377747,0.7136160135269165,0.016885340213775635,0.6865800619125366,0.6483646035194397,0.01479334942996502,0.6826388239860535,0.5906599760055542,0.012697405181825161,0.6721160411834717,0.7399480938911438,-0.01699095405638218,0.6105034351348877,0.7054103016853333,-0.024005208164453506,0.5759539008140564,0.6889549493789673,-0.02694927714765072,0.5484438538551331,0.6751259565353394,-0.02903604507446289,0.6650762557983398,0.7943106889724731,-0.025028089061379433,0.5955514311790466,0.7751451730728149,-0.036490172147750854,0.5544782280921936,0.7701466083526611,-0.0399799719452858,0.5252123475074768,0.7723894119262695,-0.04292437061667442,0.6641979813575745,0.8489823341369629,-0.02731010504066944,0.6116424798965454,0.8311742544174194,-0.024817831814289093,0.6258561611175537,0.8212151527404785,-0.006684893276542425,0.6447628140449524,0.8208861947059631,0.0057332273572683334,0.6685048341751099,0.8949747681617737,-0.02856205590069294,0.6298820376396179,0.8741180896759033,-0.018162505701184273,0.643534243106842,0.864104151725769,0.0005510083283297718,0.6587676405906677,0.863531768321991,0.014608953148126602,0.0,0.0,0.0,0.0,0.0,0.0,0.0,0.0,0.0,0.0,0.0,0.0,0.0,0.0,0.0,0.0,0.0,0.0,0.0,0.0,0.0,0.0,0.0,0.0,0.0,0.0,0.0,0.0,0.0,0.0,0.0,0.0,0.0,0.0,0.0,0.0,0.0,0.0,0.0,0.0,0.0,0.0,0.0,0.0,0.0,0.0,0.0,0.0,0.0,0.0,0.0,0.0,0.0,0.0,0.0,0.0,0.0,0.0,0.0,0.0,0.0,0.0,0.0
1783390689.150742,0.7689483165740967,0.8754602074623108,3.1868526662037766e-07,0.7481896877288818,0.7894647717475891,0.008804978802800179,0.7134969830513,0.7140964865684509,0.006267028395086527,0.6872298121452332,0.6486300826072693,0.002633911557495594,0.6835916638374329,0.5911118984222412,-0.0012852154904976487,0.6755973696708679,0.7412886023521423,-0.021385857835412025,0.611794650554657,0.7037855386734009,-0.029095632955431938,0.5764544010162354,0.6869452595710754,-0.03092072159051895,0.5487807989120483,0.6737992763519287,-0.03150445595383644,0.6677231192588806,0.7954238653182983,-0.027398081496357918,0.5965961217880249,0.7734748125076294,-0.03811198100447655,0.5544584393501282,0.7682742476463318,-0.04010169580578804,0.5245471000671387,0.7706140279769897,-0.041021689772605896,0.66583251953125,0.8490388989448547,-0.029077352955937386,0.6135315895080566,0.8307133913040161,-0.031225237995386124,0.6297523379325867,0.8237615823745728,-0.016588525846600533,0.6494482755661011,0.8258586525917053,-0.004712087567895651,0.6688094139099121,0.8954309821128845,-0.030146710574626923,0.6306764483451843,0.8729137182235718,-0.025147685781121254,0.6458806991577148,0.8655892610549927,-0.009303363040089607,0.6625935435295105,0.8671162724494934,0.003895173314958811,0.0,0.0,0.0,0.0,0.0,0.0,0.0,0.0,0.0,0.0,0.0,0.0,0.0,0.0,0.0,0.0,0.0,0.0,0.0,0.0,0.0,0.0,0.0,0.0,0.0,0.0,0.0,0.0,0.0,0.0,0.0,0.0,0.0,0.0,0.0,0.0,0.0,0.0,0.0,0.0,0.0,0.0,0.0,0.0,0.0,0.0,0.0,0.0,0.0,0.0,0.0,0.0,0.0,0.0,0.0,0.0,0.0,0.0,0.0,0.0,0.0,0.0,0.0
1783390689.386126,0.7684977054595947,0.8744358420372009,3.2321838716597995e-07,0.7465525269508362,0.7889209389686584,0.007152157370001078,0.7116057872772217,0.7142882943153381,0.0033782515674829483,0.6862284541130066,0.6482094526290894,-0.0014898120425641537,0.6828165650367737,0.5911210775375366,-0.006879810243844986,0.6743084192276001,0.741549551486969,-0.022413257509469986,0.6108829975128174,0.7065525650978088,-0.031523946672677994,0.5759776830673218,0.6890522241592407,-0.03519105166196823,0.5481072068214417,0.6752768158912659,-0.03706682100892067,0.6670144200325012,0.7960404753684998,-0.02865796908736229,0.5969111919403076,0.7744028568267822,-0.039538830518722534,0.5544058084487915,0.7691283822059631,-0.0425102561712265,0.5236082077026367,0.7710540294647217,-0.04452240467071533,0.6656315922737122,0.8502591252326965,-0.030945666134357452,0.6136165857315063,0.8313863277435303,-0.0346430167555809,0.6299411058425903,0.8247243165969849,-0.021483348682522774,0.6499390602111816,0.82658851146698,-0.010622607544064522,0.6689355373382568,0.897600531578064,-0.03270985558629036,0.6296014189720154,0.8737271428108215,-0.029602665454149246,0.6452473402023315,0.8670012354850769,-0.01454959250986576,0.6623406410217285,0.8688222765922546,-0.0019297909457236528,0.0,0.0,0.0,0.0,0.0,0.0,0.0,0.0,0.0,0.0,0.0,0.0,0.0,0.0,0.0,0.0,0.0,0.0,0.0,0.0,0.0,0.0,0.0,0.0,0.0,0.0,0.0,0.0,0.0,0.0,0.0,0.0,0.0,0.0,0.0,0.0,0.0,0.0,0.0,0.0,0.0,0.0,0.0,0.0,0.0,0.0,0.0,0.0,0.0,0.0,0.0,0.0,0.0,0.0,0.0,0.0,0.0,0.0,0.0,0.0,0.0,0.0,0.0
1783390689.670302,0.7673472166061401,0.8733578324317932,3.284588387941767e-07,0.7449215650558472,0.7879092693328857,0.009821821004152298,0.7109883427619934,0.7143874168395996,0.0069367289543151855,0.6853192448616028,0.6488382816314697,0.0026134008076041937,0.6819941401481628,0.5909656882286072,-0.002029201714321971,0.6729327440261841,0.7408061623573303,-0.020429281517863274,0.6095346212387085,0.7058975696563721,-0.02889680489897728,0.5742951035499573,0.6895206570625305,-0.031898241490125656,0.5465073585510254,0.6763415336608887,-0.03338209167122841,0.6660850644111633,0.7946338653564453,-0.027314787730574608,0.5953424572944641,0.7750030159950256,-0.038985442370176315,0.5527856349945068,0.7705051302909851,-0.042273372411727905,0.5228639245033264,0.7726187705993652,-0.04431842267513275,0.6651354432106018,0.849026620388031,-0.029759738594293594,0.613163411617279,0.832076370716095,-0.032168202102184296,0.6291887164115906,0.8254721164703369,-0.017364634200930595,0.6488785743713379,0.8268105983734131,-0.0055193244479596615,0.6687937378883362,0.8965583443641663,-0.03154952824115753,0.6296262145042419,0.8752843737602234,-0.026453891769051552,0.6452929377555847,0.8680105209350586,-0.010047221556305885,0.6619126796722412,0.8694635629653931,0.0034466625656932592,0.0,0.0,0.0,0.0,0.0,0.0,0.0,0.0,0.0,0.0,0.0,0.0,0.0,0.0,0.0,0.0,0.0,0.0,0.0,0.0,0.0,0.0,0.0,0.0,0.0,0.0,0.0,0.0,0.0,0.0,0.0,0.0,0.0,0.0,0.0,0.0,0.0,0.0,0.0,0.0,0.0,0.0,0.0,0.0,0.0,0.0,0.0,0.0,0.0,0.0,0.0,0.0,0.0,0.0,0.0,0.0,0.0,0.0,0.0,0.0,0.0,0.0,0.0
1783390689.9414568,0.76874178647995,0.8756375908851624,3.084068680436758e-07,0.7481709122657776,0.7889958024024963,0.007972687482833862,0.7133711576461792,0.7135317921638489,0.005225910805165768,0.6876451373100281,0.6484217643737793,0.0016040496993809938,0.6834552884101868,0.5924034118652344,-0.0023983593564480543,0.6748194098472595,0.7411766052246094,-0.02216680347919464,0.6114417314529419,0.7045983672142029,-0.030339280143380165,0.5760977268218994,0.6879684925079346,-0.03307582437992096,0.5481433272361755,0.6754835844039917,-0.03438739851117134,0.6670070290565491,0.7954708933830261,-0.02788279391825199,0.5967584252357483,0.7747148871421814,-0.03831873834133148,0.5552884340286255,0.7697288990020752,-0.0402078852057457,0.5249119400978088,0.7721049785614014,-0.041328251361846924,0.6651561856269836,0.8491101861000061,-0.029451292008161545,0.6130139827728271,0.8309685587882996,-0.03192144259810448,0.629546046257019,0.8236399292945862,-0.01759604923427105,0.6493270993232727,0.825942873954773,-0.006041048094630241,0.6682192087173462,0.8960095047950745,-0.03047112748026848,0.6290714740753174,0.8723646402359009,-0.0262664295732975,0.6439366340637207,0.8643879890441895,-0.010729273781180382,0.6607454419136047,0.8653406500816345,0.0022050519473850727,0.0,0.0,0.0,0.0,0.0,0.0,0.0,0.0,0.0,0.0,0.0,0.0,0.0,0.0,0.0,0.0,0.0,0.0,0.0,0.0,0.0,0.0,0.0,0.0,0.0,0.0,0.0,0.0,0.0,0.0,0.0,0.0,0.0,0.0,0.0,0.0,0.0,0.0,0.0,0.0,0.0,0.0,0.0,0.0,0.0,0.0,0.0,0.0,0.0,0.0,0.0,0.0,0.0,0.0,0.0,0.0,0.0,0.0,0.0,0.0,0.0,0.0,0.0
1783390690.166071,0.7695888876914978,0.8740578293800354,3.106343342551554e-07,0.7479110956192017,0.7885026335716248,0.008773819543421268,0.712797224521637,0.7135573029518127,0.0055929673835635185,0.6866394877433777,0.6478144526481628,0.0013145585544407368,0.6828902959823608,0.5901831984519958,-0.0033448298927396536,0.6750470399856567,0.7401634454727173,-0.02218283712863922,0.6115282773971558,0.7033905386924744,-0.03061438724398613,0.5759520530700684,0.6872723698616028,-0.033342573791742325,0.5477730631828308,0.6751851439476013,-0.034751757979393005,0.6679420471191406,0.7939772009849548,-0.028765181079506874,0.5970615148544312,0.7722538113594055,-0.04015469178557396,0.5550678968429565,0.7681910395622253,-0.04252832382917404,0.5250007510185242,0.7717835903167725,-0.04393976181745529,0.6665598154067993,0.8480486869812012,-0.03104989603161812,0.612971842288971,0.829526424407959,-0.034108102321624756,0.6290878057479858,0.8216314315795898,-0.019311262294650078,0.6488281488418579,0.8232017159461975,-0.007373067084699869,0.6698553562164307,0.8953739404678345,-0.03270237147808075,0.6289414763450623,0.87154620885849,-0.028665883466601372,0.643736720085144,0.8631525635719299,-0.012644602917134762,0.6602928638458252,0.8642140626907349,0.0006576686864718795,0.0,0.0,0.0,0.0,0.0,0.0,0.0,0.0,0.0,0.0,0.0,0.0,0.0,0.0,0.0,0.0,0.0,0.0,0.0,0.0,0.0,0.0,0.0,0.0,0.0,0.0,0.0,0.0,0.0,0.0,0.0,0.0,0.0,0.0,0.0,0.0,0.0,0.0,0.0,0.0,0.0,0.0,0.0,0.0,0.0,0.0,0.0,0.0,0.0,0.0,0.0,0.0,0.0,0.0,0.0,0.0,0.0,0.0,0.0,0.0,0.0,0.0,0.0
