ciel274/research-hand-sign/data/raw/hiragana/sign_language_to_1.csv
timestamp,R_joint_0_x,R_joint_0_y,R_joint_0_z,R_joint_1_x,R_joint_1_y,R_joint_1_z,R_joint_2_x,R_joint_2_y,R_joint_2_z,R_joint_3_x,R_joint_3_y,R_joint_3_z,R_joint_4_x,R_joint_4_y,R_joint_4_z,R_joint_5_x,R_joint_5_y,R_joint_5_z,R_joint_6_x,R_joint_6_y,R_joint_6_z,R_joint_7_x,R_joint_7_y,R_joint_7_z,R_joint_8_x,R_joint_8_y,R_joint_8_z,R_joint_9_x,R_joint_9_y,R_joint_9_z,R_joint_10_x,R_joint_10_y,R_joint_10_z,R_joint_11_x,R_joint_11_y,R_joint_11_z,R_joint_12_x,R_joint_12_y,R_joint_12_z,R_joint_13_x,R_joint_13_y,R_joint_13_z,R_joint_14_x,R_joint_14_y,R_joint_14_z,R_joint_15_x,R_joint_15_y,R_joint_15_z,R_joint_16_x,R_joint_16_y,R_joint_16_z,R_joint_17_x,R_joint_17_y,R_joint_17_z,R_joint_18_x,R_joint_18_y,R_joint_18_z,R_joint_19_x,R_joint_19_y,R_joint_19_z,R_joint_20_x,R_joint_20_y,R_joint_20_z,L_joint_0_x,L_joint_0_y,L_joint_0_z,L_joint_1_x,L_joint_1_y,L_joint_1_z,L_joint_2_x,L_joint_2_y,L_joint_2_z,L_joint_3_x,L_joint_3_y,L_joint_3_z,L_joint_4_x,L_joint_4_y,L_joint_4_z,L_joint_5_x,L_joint_5_y,L_joint_5_z,L_joint_6_x,L_joint_6_y,L_joint_6_z,L_joint_7_x,L_joint_7_y,L_joint_7_z,L_joint_8_x,L_joint_8_y,L_joint_8_z,L_joint_9_x,L_joint_9_y,L_joint_9_z,L_joint_10_x,L_joint_10_y,L_joint_10_z,L_joint_11_x,L_joint_11_y,L_joint_11_z,L_joint_12_x,L_joint_12_y,L_joint_12_z,L_joint_13_x,L_joint_13_y,L_joint_13_z,L_joint_14_x,L_joint_14_y,L_joint_14_z,L_joint_15_x,L_joint_15_y,L_joint_15_z,L_joint_16_x,L_joint_16_y,L_joint_16_z,L_joint_17_x,L_joint_17_y,L_joint_17_z,L_joint_18_x,L_joint_18_y,L_joint_18_z,L_joint_19_x,L_joint_19_y,L_joint_19_z,L_joint_20_x,L_joint_20_y,L_joint_20_z
1783391063.8161259,0.6981244683265686,0.8440222144126892,3.9186713252092886e-07,0.7114138007164001,0.7421756982803345,0.027354352176189423,0.7024931311607361,0.6734650731086731,0.031802501529455185,0.6801266074180603,0.635154128074646,0.02985261380672455,0.6597268581390381,0.6220558881759644,0.026881646364927292,0.699882984161377,0.6257750988006592,0.005118169356137514,0.6854744553565979,0.5356673002243042,-0.0026723791379481554,0.6801009178161621,0.480813205242157,-0.00797020923346281,0.6753132343292236,0.4382505714893341,-0.011254836805164814,0.6754968762397766,0.6351688504219055,-0.011323618702590466,0.6660913228988647,0.5290398597717285,-0.022940265014767647,0.6611122488975525,0.4630838632583618,-0.029028940945863724,0.6569573283195496,0.4168126583099365,-0.03253958001732826,0.6493761539459229,0.6581542491912842,-0.023006264120340347,0.6326950192451477,0.5737402439117432,-0.020621558651328087,0.639277994632721,0.5930038094520569,-0.004933718591928482,0.6439459323883057,0.6149430871009827,0.006539152003824711,0.6287741661071777,0.6915947198867798,-0.03329348936676979,0.6157845258712769,0.6294717192649841,-0.02176923118531704,0.6245911121368408,0.6441709995269775,-0.0023218977730721235,0.6312503814697266,0.6651402115821838,0.012494074180722237,0.0,0.0,0.0,0.0,0.0,0.0,0.0,0.0,0.0,0.0,0.0,0.0,0.0,0.0,0.0,0.0,0.0,0.0,0.0,0.0,0.0,0.0,0.0,0.0,0.0,0.0,0.0,0.0,0.0,0.0,0.0,0.0,0.0,0.0,0.0,0.0,0.0,0.0,0.0,0.0,0.0,0.0,0.0,0.0,0.0,0.0,0.0,0.0,0.0,0.0,0.0,0.0,0.0,0.0,0.0,0.0,0.0,0.0,0.0,0.0,0.0,0.0,0.0
1783391063.98261,0.6991487741470337,0.8440203666687012,3.820971983259369e-07,0.714352548122406,0.7446885704994202,0.024098221212625504,0.7054340243339539,0.6745233535766602,0.027723580598831177,0.6827170848846436,0.6355001330375671,0.025824202224612236,0.6614958047866821,0.6221352219581604,0.02299344353377819,0.7032748460769653,0.6262089014053345,0.002174560446292162,0.6873286366462708,0.5369488000869751,-0.0048541659489274025,0.6817298531532288,0.48342493176460266,-0.009523437358438969,0.6763874888420105,0.44160184264183044,-0.012427402660250664,0.6778501272201538,0.6366254091262817,-0.012864799238741398,0.6685678362846375,0.5295590162277222,-0.0226227268576622,0.6638630032539368,0.46474918723106384,-0.027824295684695244,0.6599892377853394,0.4189164638519287,-0.031206706538796425,0.6507288813591003,0.6593677401542664,-0.023504728451371193,0.6346383094787598,0.5705370306968689,-0.021559616550803185,0.6402869820594788,0.5907448530197144,-0.0075065745040774345,0.6448801755905151,0.6145139336585999,0.002550919773057103,0.6296830773353577,0.6897774338722229,-0.03285413235425949,0.6179112195968628,0.6268854141235352,-0.022912366315722466,0.6265215873718262,0.6422756910324097,-0.005160635337233543,0.6330522894859314,0.663346529006958,0.008296024985611439,0.0,0.0,0.0,0.0,0.0,0.0,0.0,0.0,0.0,0.0,0.0,0.0,0.0,0.0,0.0,0.0,0.0,0.0,0.0,0.0,0.0,0.0,0.0,0.0,0.0,0.0,0.0,0.0,0.0,0.0,0.0,0.0,0.0,0.0,0.0,0.0,0.0,0.0,0.0,0.0,0.0,0.0,0.0,0.0,0.0,0.0,0.0,0.0,0.0,0.0,0.0,0.0,0.0,0.0,0.0,0.0,0.0,0.0,0.0,0.0,0.0,0.0,0.0
1783391064.136399,0.6995131373405457,0.8435057401657104,3.7874389136050013e-07,0.7150967121124268,0.7459842562675476,0.02159934677183628,0.7056986689567566,0.6735718846321106,0.024125635623931885,0.6810327172279358,0.6350587010383606,0.021478548645973206,0.6581618189811707,0.6224254369735718,0.01764000952243805,0.7042016983032227,0.6269011497497559,0.0006072062533348799,0.6897011995315552,0.5368607044219971,-0.006473435088992119,0.6844954490661621,0.4838308095932007,-0.010927724651992321,0.6794718503952026,0.44175297021865845,-0.013581146486103535,0.6788244247436523,0.6369139552116394,-0.013685299083590508,0.6704009175300598,0.5307959914207458,-0.02272907830774784,0.6661770939826965,0.46638867259025574,-0.02740984968841076,0.6621856093406677,0.41867512464523315,-0.03052494488656521,0.6521714329719543,0.6594390273094177,-0.02394295670092106,0.6375334858894348,0.5719171762466431,-0.023295754566788673,0.6442140340805054,0.5931032299995422,-0.010626273229718208,0.648684561252594,0.6171884536743164,-0.0012336720246821642,0.6309031844139099,0.6897937059402466,-0.032935984432697296,0.619538426399231,0.6259369850158691,-0.024606050923466682,0.6283568143844604,0.6412607431411743,-0.0078591825440526,0.6343348026275635,0.6627282500267029,0.004938991274684668,0.0,0.0,0.0,0.0,0.0,0.0,0.0,0.0,0.0,0.0,0.0,0.0,0.0,0.0,0.0,0.0,0.0,0.0,0.0,0.0,0.0,0.0,0.0,0.0,0.0,0.0,0.0,0.0,0.0,0.0,0.0,0.0,0.0,0.0,0.0,0.0,0.0,0.0,0.0,0.0,0.0,0.0,0.0,0.0,0.0,0.0,0.0,0.0,0.0,0.0,0.0,0.0,0.0,0.0,0.0,0.0,0.0,0.0,0.0,0.0,0.0,0.0,0.0
1783391064.357506,0.7000740766525269,0.842078447341919,3.926751901417447e-07,0.7152619957923889,0.7431177496910095,0.0247904472053051,0.7073599100112915,0.6736354231834412,0.028144149109721184,0.6854258179664612,0.6356729865074158,0.02579939365386963,0.6640067100524902,0.6239843964576721,0.022374432533979416,0.7053390145301819,0.6271191835403442,0.0015560657484456897,0.6916869878768921,0.5363166928291321,-0.005659996997565031,0.6865166425704956,0.4820833206176758,-0.009667545557022095,0.6817956566810608,0.43981364369392395,-0.011732126586139202,0.6800544857978821,0.6376029849052429,-0.013936004601418972,0.6713834404945374,0.5301325917243958,-0.02502993308007717,0.6664239764213562,0.4644680321216583,-0.030114933848381042,0.6619300246238708,0.417768269777298,-0.03276998922228813,0.6530502438545227,0.6601041555404663,-0.02482421323657036,0.6386772990226746,0.5745750069618225,-0.024159176275134087,0.6450925469398499,0.5957010388374329,-0.010082380846142769,0.6494314670562744,0.6193124651908875,0.0008027972071431577,0.6315155625343323,0.6912322044372559,-0.034188028424978256,0.6200869083404541,0.6265174746513367,-0.024068625643849373,0.6288530230522156,0.6418867707252502,-0.005382033064961433,0.6350887417793274,0.6635327339172363,0.009062358178198338,0.0,0.0,0.0,0.0,0.0,0.0,0.0,0.0,0.0,0.0,0.0,0.0,0.0,0.0,0.0,0.0,0.0,0.0,0.0,0.0,0.0,0.0,0.0,0.0,0.0,0.0,0.0,0.0,0.0,0.0,0.0,0.0,0.0,0.0,0.0,0.0,0.0,0.0,0.0,0.0,0.0,0.0,0.0,0.0,0.0,0.0,0.0,0.0,0.0,0.0,0.0,0.0,0.0,0.0,0.0,0.0,0.0,0.0,0.0,0.0,0.0,0.0,0.0
1783391064.5295749,0.6996577382087708,0.8417587280273438,4.046194419515814e-07,0.7156767249107361,0.7467198967933655,0.020811475813388824,0.7065808176994324,0.6765590310096741,0.023259231820702553,0.6830838918685913,0.6425537467002869,0.020584234967827797,0.6609227061271667,0.6327619552612305,0.01661500707268715,0.7039117217063904,0.6304830312728882,-0.0001523319660918787,0.6930362582206726,0.537018358707428,-0.008258814923465252,0.6892798542976379,0.48116534948349,-0.01362660713493824,0.6856215000152588,0.43644025921821594,-0.01637674868106842,0.6785707473754883,0.6391319632530212,-0.013525721617043018,0.6698323488235474,0.5315425395965576,-0.02135055512189865,0.6652666926383972,0.4647662341594696,-0.02565186284482479,0.660588264465332,0.4159553647041321,-0.02868962287902832,0.6521369814872742,0.660420835018158,-0.023110928013920784,0.6380171179771423,0.5760383605957031,-0.021534455940127373,0.645696759223938,0.5974433422088623,-0.009729037992656231,0.6505914926528931,0.6226687431335449,-0.0009591836715117097,0.6307811737060547,0.6895744204521179,-0.03150024637579918,0.6202223896980286,0.6265594959259033,-0.02240128070116043,0.6292087435722351,0.641521692276001,-0.006039733998477459,0.6351091265678406,0.6623623371124268,0.00643779756501317,0.0,0.0,0.0,0.0,0.0,0.0,0.0,0.0,0.0,0.0,0.0,0.0,0.0,0.0,0.0,0.0,0.0,0.0,0.0,0.0,0.0,0.0,0.0,0.0,0.0,0.0,0.0,0.0,0.0,0.0,0.0,0.0,0.0,0.0,0.0,0.0,0.0,0.0,0.0,0.0,0.0,0.0,0.0,0.0,0.0,0.0,0.0,0.0,0.0,0.0,0.0,0.0,0.0,0.0,0.0,0.0,0.0,0.0,0.0,0.0,0.0,0.0,0.0
1783391064.72671,0.6993359327316284,0.8447772860527039,4.2955551293744065e-07,0.7156587839126587,0.749726414680481,0.02046567015349865,0.7066404819488525,0.6779588460922241,0.022613422945141792,0.6829557418823242,0.6427382826805115,0.019721757620573044,0.6612249612808228,0.6321179270744324,0.01554789487272501,0.7037734985351562,0.6311842203140259,-0.0013907849788665771,0.6939185261726379,0.5351426005363464,-0.01062259916216135,0.6921142935752869,0.47675469517707825,-0.016666648909449577,0.6910467147827148,0.43031176924705505,-0.019529273733496666,0.6784036755561829,0.6391435265541077,-0.014347285032272339,0.6691104769706726,0.5301001071929932,-0.022319452837109566,0.6638036966323853,0.46244609355926514,-0.026694152504205704,0.6589192152023315,0.41462191939353943,-0.029583483934402466,0.6521852016448975,0.6601759791374207,-0.023498516529798508,0.6377160549163818,0.5806318521499634,-0.02135286293923855,0.6453607678413391,0.6014214754104614,-0.009577394463121891,0.6508662700653076,0.6266204118728638,-0.000767262012232095,0.6307646632194519,0.6895976662635803,-0.03156347572803497,0.6203740835189819,0.6304800510406494,-0.022032488137483597,0.6295101046562195,0.6469073295593262,-0.005855168681591749,0.6358417868614197,0.6685950756072998,0.006637635640799999,0.0,0.0,0.0,0.0,0.0,0.0,0.0,0.0,0.0,0.0,0.0,0.0,0.0,0.0,0.0,0.0,0.0,0.0,0.0,0.0,0.0,0.0,0.0,0.0,0.0,0.0,0.0,0.0,0.0,0.0,0.0,0.0,0.0,0.0,0.0,0.0,0.0,0.0,0.0,0.0,0.0,0.0,0.0,0.0,0.0,0.0,0.0,0.0,0.0,0.0,0.0,0.0,0.0,0.0,0.0,0.0,0.0,0.0,0.0,0.0,0.0,0.0,0.0
1783391064.888314,0.7002999782562256,0.8434029221534729,4.172448768713366e-07,0.7162249684333801,0.74692702293396,0.017415909096598625,0.7057772874832153,0.6729360818862915,0.018369536846876144,0.6805594563484192,0.640863299369812,0.014807705767452717,0.6573412418365479,0.632831335067749,0.009822131134569645,0.7036142349243164,0.6310043931007385,-0.003945750650018454,0.6925044655799866,0.5350674986839294,-0.01299993135035038,0.6890323162078857,0.47819435596466064,-0.018684331327676773,0.6859827041625977,0.43215271830558777,-0.02137855812907219,0.6780884861946106,0.6406957507133484,-0.016103489324450493,0.6683229207992554,0.5328121185302734,-0.02305743098258972,0.6630392670631409,0.46569913625717163,-0.02691429853439331,0.6578428745269775,0.41582736372947693,-0.029999064281582832,0.6516653299331665,0.6622353792190552,-0.02490493468940258,0.6368167400360107,0.5786344408988953,-0.024014288559556007,0.6447231769561768,0.5999820828437805,-0.01393235381692648,0.6503431797027588,0.6258569359779358,-0.006435805931687355,0.6301470398902893,0.6901776194572449,-0.03271792083978653,0.6197646856307983,0.6298365592956543,-0.025015097111463547,0.6289474368095398,0.6446410417556763,-0.010517360642552376,0.6352418065071106,0.6652456521987915,0.0005140943685546517,0.0,0.0,0.0,0.0,0.0,0.0,0.0,0.0,0.0,0.0,0.0,0.0,0.0,0.0,0.0,0.0,0.0,0.0,0.0,0.0,0.0,0.0,0.0,0.0,0.0,0.0,0.0,0.0,0.0,0.0,0.0,0.0,0.0,0.0,0.0,0.0,0.0,0.0,0.0,0.0,0.0,0.0,0.0,0.0,0.0,0.0,0.0,0.0,0.0,0.0,0.0,0.0,0.0,0.0,0.0,0.0,0.0,0.0,0.0,0.0,0.0,0.0,0.0
1783391065.04317,0.7006992697715759,0.8449207544326782,4.1804017314461817e-07,0.715463399887085,0.7497829794883728,0.01824485883116722,0.7045556902885437,0.6764512658119202,0.019609473645687103,0.6791616082191467,0.6434145569801331,0.016322916373610497,0.6558905243873596,0.6349070072174072,0.011788291856646538,0.7021428346633911,0.6314724683761597,-0.0024808968883007765,0.6908390522003174,0.5363097786903381,-0.011500559747219086,0.6873868107795715,0.47937801480293274,-0.017381735146045685,0.6843134164810181,0.43364763259887695,-0.020328868180513382,0.6774470210075378,0.6412349939346313,-0.01489578653126955,0.6674960255622864,0.5335787534713745,-0.022443216294050217,0.6619694828987122,0.4668833613395691,-0.026718340814113617,0.6566480994224548,0.4176594018936157,-0.029934212565422058,0.6516724824905396,0.6633496284484863,-0.023868199437856674,0.6357226371765137,0.5801729559898376,-0.022972973063588142,0.64326012134552,0.6018584966659546,-0.012318411841988564,0.6488575339317322,0.6275094151496887,-0.004315664060413837,0.6305270791053772,0.692574143409729,-0.03182869404554367,0.6189367771148682,0.6329438090324402,-0.024178287014365196,0.627816915512085,0.6487736701965332,-0.009472599253058434,0.6340716481208801,0.669708788394928,0.001863216864876449,0.0,0.0,0.0,0.0,0.0,0.0,0.0,0.0,0.0,0.0,0.0,0.0,0.0,0.0,0.0,0.0,0.0,0.0,0.0,0.0,0.0,0.0,0.0,0.0,0.0,0.0,0.0,0.0,0.0,0.0,0.0,0.0,0.0,0.0,0.0,0.0,0.0,0.0,0.0,0.0,0.0,0.0,0.0,0.0,0.0,0.0,0.0,0.0,0.0,0.0,0.0,0.0,0.0,0.0,0.0,0.0,0.0,0.0,0.0,0.0,0.0,0.0,0.0
1783391065.238231,0.7008616924285889,0.8490327596664429,4.1905411762854783e-07,0.7161540985107422,0.7521195411682129,0.018808020278811455,0.7056202292442322,0.6776775121688843,0.020111335441470146,0.6792835593223572,0.6417677402496338,0.016729509457945824,0.6556862592697144,0.6308773756027222,0.012062921188771725,0.7025790214538574,0.6324375867843628,-0.0031086027156561613,0.6908091902732849,0.5378031730651855,-0.012466982007026672,0.6873944997787476,0.48062288761138916,-0.0185866542160511,0.6846653819084167,0.43419742584228516,-0.0217744167894125,0.6772457361221313,0.6422233581542969,-0.015808025375008583,0.6672247648239136,0.5336332321166992,-0.024037105962634087,0.6619502305984497,0.4663310647010803,-0.02861744351685047,0.6568083763122559,0.4172930419445038,-0.031970344483852386,0.651215136051178,0.6648461818695068,-0.024828588590025902,0.6354706287384033,0.5808574557304382,-0.02400783821940422,0.6436762809753418,0.6008650660514832,-0.012813868001103401,0.6495078206062317,0.6264215111732483,-0.004397605545818806,0.6300100684165955,0.6949187517166138,-0.03279082477092743,0.6182600855827332,0.6327072381973267,-0.02499256655573845,0.6278054118156433,0.6472076177597046,-0.009719064459204674,0.634333610534668,0.6687094569206238,0.002123716054484248,0.0,0.0,0.0,0.0,0.0,0.0,0.0,0.0,0.0,0.0,0.0,0.0,0.0,0.0,0.0,0.0,0.0,0.0,0.0,0.0,0.0,0.0,0.0,0.0,0.0,0.0,0.0,0.0,0.0,0.0,0.0,0.0,0.0,0.0,0.0,0.0,0.0,0.0,0.0,0.0,0.0,0.0,0.0,0.0,0.0,0.0,0.0,0.0,0.0,0.0,0.0,0.0,0.0,0.0,0.0,0.0,0.0,0.0,0.0,0.0,0.0,0.0,0.0
1783391065.404021,0.700782060623169,0.8528770208358765,4.0693407754588407e-07,0.7161710858345032,0.7528237700462341,0.02329685166478157,0.7075531482696533,0.6815057396888733,0.02608846314251423,0.684108316898346,0.6455429196357727,0.023290308192372322,0.6626205444335938,0.6341909766197205,0.019290713593363762,0.7055842876434326,0.6352108716964722,-0.00036463700234889984,0.6926618814468384,0.541283905506134,-0.009736267849802971,0.6880956888198853,0.48334982991218567,-0.01620967499911785,0.684222400188446,0.4366784393787384,-0.020047815516591072,0.6801962852478027,0.6441306471824646,-0.015150154940783978,0.669654905796051,0.5355339050292969,-0.025161664932966232,0.6640782356262207,0.46727225184440613,-0.03087191842496395,0.659072756767273,0.41792893409729004,-0.03501603379845619,0.6532676815986633,0.6664711236953735,-0.025608012452721596,0.6366143822669983,0.5796765089035034,-0.023623958230018616,0.6434975862503052,0.6011449694633484,-0.009883924387395382,0.6483781337738037,0.6267699003219604,-0.00012846855679526925,0.6316830515861511,0.6969283223152161,-0.034890640527009964,0.6189287304878235,0.6346525549888611,-0.025305449962615967,0.6278036832809448,0.6497873663902283,-0.008136858232319355,0.6341326832771301,0.6709657311439514,0.004895334132015705,0.0,0.0,0.0,0.0,0.0,0.0,0.0,0.0,0.0,0.0,0.0,0.0,0.0,0.0,0.0,0.0,0.0,0.0,0.0,0.0,0.0,0.0,0.0,0.0,0.0,0.0,0.0,0.0,0.0,0.0,0.0,0.0,0.0,0.0,0.0,0.0,0.0,0.0,0.0,0.0,0.0,0.0,0.0,0.0,0.0,0.0,0.0,0.0,0.0,0.0,0.0,0.0,0.0,0.0,0.0,0.0,0.0,0.0,0.0,0.0,0.0,0.0,0.0
1783391065.5749462,0.7028491497039795,0.8523350954055786,3.950665075080906e-07,0.7176299691200256,0.7511053681373596,0.025577105581760406,0.7081274390220642,0.6799720525741577,0.02941049635410309,0.6852783560752869,0.6424852013587952,0.027408482506871223,0.6638363599777222,0.629635751247406,0.02442776970565319,0.706787109375,0.6319990754127502,0.002138895448297262,0.6932627558708191,0.538794219493866,-0.006736070849001408,0.688733696937561,0.4812220633029938,-0.013186437077820301,0.6850078701972961,0.43553754687309265,-0.01706676557660103,0.6814495921134949,0.6425188183784485,-0.013312856666743755,0.670343816280365,0.5340450406074524,-0.023744352161884308,0.6651275157928467,0.466413289308548,-0.029900070279836655,0.6606512665748596,0.4178313612937927,-0.034188974648714066,0.654424786567688,0.6656253337860107,-0.02420773357152939,0.6379390954971313,0.579023540019989,-0.021885894238948822,0.6450275778770447,0.5993887782096863,-0.00775634590536356,0.6504450440406799,0.6232333779335022,0.002362683415412903,0.6327357888221741,0.697218120098114,-0.03372674807906151,0.6202391386032104,0.6325119733810425,-0.023238183930516243,0.6292948126792908,0.647592306137085,-0.0053512644954025745,0.6360967755317688,0.6685172319412231,0.008219130337238312,0.0,0.0,0.0,0.0,0.0,0.0,0.0,0.0,0.0,0.0,0.0,0.0,0.0,0.0,0.0,0.0,0.0,0.0,0.0,0.0,0.0,0.0,0.0,0.0,0.0,0.0,0.0,0.0,0.0,0.0,0.0,0.0,0.0,0.0,0.0,0.0,0.0,0.0,0.0,0.0,0.0,0.0,0.0,0.0,0.0,0.0,0.0,0.0,0.0,0.0,0.0,0.0,0.0,0.0,0.0,0.0,0.0,0.0,0.0,0.0,0.0,0.0,0.0
1783391065.749718,0.7044088840484619,0.8521386981010437,3.909677843694226e-07,0.7186096906661987,0.7518035173416138,0.022455230355262756,0.7082086801528931,0.6773964166641235,0.025075003504753113,0.6843299865722656,0.6413883566856384,0.022161994129419327,0.6621124744415283,0.6303132176399231,0.01797313056886196,0.7066478729248047,0.630964457988739,-9.308839798904955e-05,0.6942035555839539,0.53782719373703,-0.009467431344091892,0.6900596022605896,0.4806802272796631,-0.016051197424530983,0.6864961981773376,0.4349839985370636,-0.01992187462747097,0.6821304559707642,0.6414857506752014,-0.014945720322430134,0.6711298227310181,0.5334016680717468,-0.024334022775292397,0.6660525798797607,0.46623480319976807,-0.029947597533464432,0.6614095568656921,0.4173504412174225,-0.03417853266000748,0.6560834050178528,0.6649872064590454,-0.025784367695450783,0.6384367942810059,0.5783236622810364,-0.025083595886826515,0.6456378102302551,0.5999160408973694,-0.01289427187293768,0.6513139605522156,0.625004231929779,-0.003995557315647602,0.6347116827964783,0.6966913342475891,-0.03537117317318916,0.6211138963699341,0.6322420835494995,-0.027548113837838173,0.6300898194313049,0.6478762626647949,-0.01161656342446804,0.6368333697319031,0.6693805456161499,0.000603112333919853,0.0,0.0,0.0,0.0,0.0,0.0,0.0,0.0,0.0,0.0,0.0,0.0,0.0,0.0,0.0,0.0,0.0,0.0,0.0,0.0,0.0,0.0,0.0,0.0,0.0,0.0,0.0,0.0,0.0,0.0,0.0,0.0,0.0,0.0,0.0,0.0,0.0,0.0,0.0,0.0,0.0,0.0,0.0,0.0,0.0,0.0,0.0,0.0,0.0,0.0,0.0,0.0,0.0,0.0,0.0,0.0,0.0,0.0,0.0,0.0,0.0,0.0,0.0
1783391065.913016,0.7026616334915161,0.845718264579773,3.7632858607139497e-07,0.7165684700012207,0.7438738346099854,0.029518822208046913,0.7073745131492615,0.676313042640686,0.03417784348130226,0.686743438243866,0.638476550579071,0.03212730213999748,0.6672596335411072,0.6247221231460571,0.029351335018873215,0.7079285979270935,0.6312140822410583,0.002262309193611145,0.6945907473564148,0.5376692414283752,-0.008523226715624332,0.6895256638526917,0.4779464602470398,-0.015594963915646076,0.6856876015663147,0.43268275260925293,-0.019959812983870506,0.6854190826416016,0.640870213508606,-0.01550954021513462,0.6727822422981262,0.5303431153297424,-0.030404331162571907,0.6655930280685425,0.4614471197128296,-0.03811688721179962,0.6604633927345276,0.4149489998817444,-0.043004680424928665,0.6597787141799927,0.66258305311203,-0.028115564957261086,0.6369314193725586,0.5752838850021362,-0.02736653760075569,0.6411448121070862,0.5945197343826294,-0.011334075592458248,0.6469050049781799,0.6164831519126892,0.00029929832089692354,0.6380112767219543,0.6942025423049927,-0.03914186358451843,0.6190118193626404,0.6315419673919678,-0.029146037995815277,0.6263554692268372,0.6479814648628235,-0.010470442473888397,0.6337379813194275,0.6685800552368164,0.0037905608769506216,0.0,0.0,0.0,0.0,0.0,0.0,0.0,0.0,0.0,0.0,0.0,0.0,0.0,0.0,0.0,0.0,0.0,0.0,0.0,0.0,0.0,0.0,0.0,0.0,0.0,0.0,0.0,0.0,0.0,0.0,0.0,0.0,0.0,0.0,0.0,0.0,0.0,0.0,0.0,0.0,0.0,0.0,0.0,0.0,0.0,0.0,0.0,0.0,0.0,0.0,0.0,0.0,0.0,0.0,0.0,0.0,0.0,0.0,0.0,0.0,0.0,0.0,0.0
1783391066.081311,0.7009629011154175,0.8314647078514099,3.607555925100314e-07,0.7062957286834717,0.741262674331665,0.020846055820584297,0.6944011449813843,0.6719887256622314,0.0216029342263937,0.672471821308136,0.6352140307426453,0.015946516767144203,0.6515310406684875,0.6245291829109192,0.009456169791519642,0.6971629858016968,0.6250320672988892,0.0002517107059247792,0.6818151473999023,0.5303810238838196,-0.010696877725422382,0.677527129650116,0.47031307220458984,-0.017259836196899414,0.6739093065261841,0.4234592318534851,-0.02160775661468506,0.6848984956741333,0.6336817145347595,-0.01648913137614727,0.6668254137039185,0.5245792269706726,-0.028720706701278687,0.657118022441864,0.4594246745109558,-0.03573732450604439,0.652327835559845,0.4128141403198242,-0.04104774817824364,0.666802167892456,0.6543986797332764,-0.030001437291502953,0.6301088929176331,0.5673514008522034,-0.035257261246442795,0.6237530708312988,0.6026737689971924,-0.024633433669805527,0.6276893019676208,0.6333038806915283,-0.016146376729011536,0.6492409110069275,0.6826797127723694,-0.04239150881767273,0.6138548851013184,0.6305861473083496,-0.04316660016775131,0.614179253578186,0.6610711216926575,-0.03242991492152214,0.6223618388175964,0.6861587762832642,-0.023307887837290764,0.0,0.0,0.0,0.0,0.0,0.0,0.0,0.0,0.0,0.0,0.0,0.0,0.0,0.0,0.0,0.0,0.0,0.0,0.0,0.0,0.0,0.0,0.0,0.0,0.0,0.0,0.0,0.0,0.0,0.0,0.0,0.0,0.0,0.0,0.0,0.0,0.0,0.0,0.0,0.0,0.0,0.0,0.0,0.0,0.0,0.0,0.0,0.0,0.0,0.0,0.0,0.0,0.0,0.0,0.0,0.0,0.0,0.0,0.0,0.0,0.0,0.0,0.0
1783391066.2416341,0.6986677050590515,0.8263213634490967,3.635882990238315e-07,0.6970342397689819,0.7411902546882629,0.020137734711170197,0.6827803254127502,0.6741809248924255,0.02108098194003105,0.6571768522262573,0.63918536901474,0.014971708878874779,0.6350453495979309,0.629256546497345,0.008857415989041328,0.68672776222229,0.6202408671379089,0.007549467496573925,0.6686265468597412,0.531400203704834,-0.0012800305848941207,0.6632853150367737,0.4752039909362793,-0.0062860650941729546,0.6581297516822815,0.4303893744945526,-0.009958632290363312,0.6792505383491516,0.6263945698738098,-0.009712950326502323,0.6600621938705444,0.5235337018966675,-0.022380588576197624,0.6503267288208008,0.4601205289363861,-0.030047379434108734,0.6445091962814331,0.4143931269645691,-0.0352906696498394,0.6654276847839355,0.6463728547096252,-0.02452063374221325,0.6209513545036316,0.5715055465698242,-0.03109007701277733,0.614191472530365,0.6112692356109619,-0.021596310660243034,0.6188222765922546,0.6407171487808228,-0.013247797265648842,0.6508967876434326,0.6746037602424622,-0.038506705313920975,0.6103361248970032,0.6309302449226379,-0.03984623774886131,0.609794557094574,0.6619371175765991,-0.030661962926387787,0.6183617115020752,0.6842307448387146,-0.022696809843182564,0.0,0.0,0.0,0.0,0.0,0.0,0.0,0.0,0.0,0.0,0.0,0.0,0.0,0.0,0.0,0.0,0.0,0.0,0.0,0.0,0.0,0.0,0.0,0.0,0.0,0.0,0.0,0.0,0.0,0.0,0.0,0.0,0.0,0.0,0.0,0.0,0.0,0.0,0.0,0.0,0.0,0.0,0.0,0.0,0.0,0.0,0.0,0.0,0.0,0.0,0.0,0.0,0.0,0.0,0.0,0.0,0.0,0.0,0.0,0.0,0.0,0.0,0.0
1783391066.414698,0.697311282157898,0.8266407251358032,3.811221915839269e-07,0.6852536201477051,0.7485311627388,0.011987792328000069,0.6685272455215454,0.6823576092720032,0.009336212649941444,0.640303909778595,0.6476868987083435,0.0011235352139919996,0.6169561743736267,0.6394578218460083,-0.006437683943659067,0.6792135238647461,0.6234180927276611,0.0011510646436363459,0.6573643684387207,0.537743866443634,-0.010201840661466122,0.6498705744743347,0.4827840030193329,-0.01689477078616619,0.6436014771461487,0.43809282779693604,-0.022015947848558426,0.6757938861846924,0.6275970339775085,-0.012753601185977459,0.6527223587036133,0.5271616578102112,-0.029999349266290665,0.6414232850074768,0.46559447050094604,-0.04062845557928085,0.6357113718986511,0.4178052842617035,-0.04759771004319191,0.6652308702468872,0.6457049250602722,-0.024821896106004715,0.6162918210029602,0.5714571475982666,-0.03602367267012596,0.60479736328125,0.613426923751831,-0.028306869789958,0.6072754263877869,0.6434406638145447,-0.020433811470866203,0.651694655418396,0.6728501319885254,-0.03665809705853462,0.6068862676620483,0.6369107961654663,-0.04194213077425957,0.6044127345085144,0.6687545776367188,-0.035215772688388824,0.612814724445343,0.6903955340385437,-0.028682691976428032,0.0,0.0,0.0,0.0,0.0,0.0,0.0,0.0,0.0,0.0,0.0,0.0,0.0,0.0,0.0,0.0,0.0,0.0,0.0,0.0,0.0,0.0,0.0,0.0,0.0,0.0,0.0,0.0,0.0,0.0,0.0,0.0,0.0,0.0,0.0,0.0,0.0,0.0,0.0,0.0,0.0,0.0,0.0,0.0,0.0,0.0,0.0,0.0,0.0,0.0,0.0,0.0,0.0,0.0,0.0,0.0,0.0,0.0,0.0,0.0,0.0,0.0,0.0
1783391066.5988,0.6958677172660828,0.824969470500946,3.8371311461560254e-07,0.6623048782348633,0.7649105787277222,0.008271769620478153,0.6440009474754333,0.6973907351493835,0.005290800705552101,0.625771701335907,0.6531245112419128,-0.0019269819604232907,0.6104573011398315,0.6408721208572388,-0.007807078305631876,0.675302267074585,0.618867814540863,0.00021450976782944053,0.6538944244384766,0.5364019870758057,-0.011067992076277733,0.6462908387184143,0.4821939766407013,-0.019306810572743416,0.6412078738212585,0.4380299150943756,-0.026069719344377518,0.677828311920166,0.6266639232635498,-0.011583966203033924,0.6528623700141907,0.5263764262199402,-0.029191642999649048,0.6389880180358887,0.4647091329097748,-0.04301063343882561,0.6327863931655884,0.41872861981391907,-0.0530775785446167,0.6696813106536865,0.6459677219390869,-0.02179933898150921,0.6191506385803223,0.5662410259246826,-0.034377291798591614,0.603043794631958,0.6088582873344421,-0.028705565258860588,0.6042047142982483,0.63944011926651,-0.02249968983232975,0.6563297510147095,0.6714799404144287,-0.03194407373666763,0.6074132919311523,0.6364871859550476,-0.039383016526699066,0.6027397513389587,0.6718822717666626,-0.0345439687371254,0.6109922528266907,0.6934109926223755,-0.029424019157886505,0.0,0.0,0.0,0.0,0.0,0.0,0.0,0.0,0.0,0.0,0.0,0.0,0.0,0.0,0.0,0.0,0.0,0.0,0.0,0.0,0.0,0.0,0.0,0.0,0.0,0.0,0.0,0.0,0.0,0.0,0.0,0.0,0.0,0.0,0.0,0.0,0.0,0.0,0.0,0.0,0.0,0.0,0.0,0.0,0.0,0.0,0.0,0.0,0.0,0.0,0.0,0.0,0.0,0.0,0.0,0.0,0.0,0.0,0.0,0.0,0.0,0.0,0.0
1783391066.943069,0.6775491833686829,0.8193697333335876,2.896782120842545e-07,0.6497199535369873,0.7724831104278564,0.013364315964281559,0.6274088025093079,0.7024292945861816,0.014845755882561207,0.6130787134170532,0.6484214067459106,0.012758852913975716,0.5991383194923401,0.6441696286201477,0.0119356419891119,0.654662013053894,0.6073881983757019,0.0019310080679133534,0.645785927772522,0.541067361831665,-0.005788216833025217,0.6363165378570557,0.49011147022247314,-0.016202151775360107,0.6319601535797119,0.45121708512306213,-0.02776450850069523,0.6701853275299072,0.6177530884742737,-0.009090756066143513,0.6435973048210144,0.5256681442260742,-0.02458643727004528,0.6276888847351074,0.4659053087234497,-0.04077678546309471,0.6216249465942383,0.4261348247528076,-0.05571563541889191,0.6711194515228271,0.6403642892837524,-0.017299970611929893,0.624730110168457,0.5580049753189087,-0.022592242807149887,0.6051480174064636,0.6005329489707947,-0.01383619848638773,0.6098190546035767,0.6345837116241455,-0.00929192267358303,0.663261890411377,0.6640758514404297,-0.025187283754348755,0.6106065511703491,0.6282018423080444,-0.02757694013416767,0.604245126247406,0.6644026041030884,-0.02350495383143425,0.6140661835670471,0.6903449296951294,-0.021677840501070023,0.0,0.0,0.0,0.0,0.0,0.0,0.0,0.0,0.0,0.0,0.0,0.0,0.0,0.0,0.0,0.0,0.0,0.0,0.0,0.0,0.0,0.0,0.0,0.0,0.0,0.0,0.0,0.0,0.0,0.0,0.0,0.0,0.0,0.0,0.0,0.0,0.0,0.0,0.0,0.0,0.0,0.0,0.0,0.0,0.0,0.0,0.0,0.0,0.0,0.0,0.0,0.0,0.0,0.0,0.0,0.0,0.0,0.0,0.0,0.0,0.0,0.0,0.0
1783391067.287981,0.6907318234443665,0.8238149285316467,2.984875209222082e-07,0.6489359140396118,0.7670565843582153,0.008366960100829601,0.632887065410614,0.7061278820037842,0.005699449684470892,0.6169462203979492,0.6646928191184998,-0.0015974354464560747,0.6011106371879578,0.6444699168205261,-0.007750172633677721,0.6691361665725708,0.6185930967330933,0.002243365626782179,0.6497865915298462,0.5393665432929993,-0.009234101511538029,0.642410933971405,0.4868974983692169,-0.018341973423957825,0.6365851163864136,0.44360852241516113,-0.025632333010435104,0.6737924218177795,0.6256484389305115,-0.010233327746391296,0.6493842005729675,0.5278887152671814,-0.026717904955148697,0.6342652440071106,0.46513795852661133,-0.04058746621012688,0.6267058849334717,0.4205087721347809,-0.05090230330824852,0.6673888564109802,0.6446062922477722,-0.021492231637239456,0.6211923956871033,0.5600736141204834,-0.03476240113377571,0.600525975227356,0.600449800491333,-0.030460689216852188,0.5980846285820007,0.6347763538360596,-0.025069158524274826,0.6552679538726807,0.6699146628379822,-0.03267937898635864,0.6068502068519592,0.6346238851547241,-0.041630253195762634,0.5990098118782043,0.6663416624069214,-0.03844188526272774,0.6053887605667114,0.6888594627380371,-0.034133974462747574,0.0,0.0,0.0,0.0,0.0,0.0,0.0,0.0,0.0,0.0,0.0,0.0,0.0,0.0,0.0,0.0,0.0,0.0,0.0,0.0,0.0,0.0,0.0,0.0,0.0,0.0,0.0,0.0,0.0,0.0,0.0,0.0,0.0,0.0,0.0,0.0,0.0,0.0,0.0,0.0,0.0,0.0,0.0,0.0,0.0,0.0,0.0,0.0,0.0,0.0,0.0,0.0,0.0,0.0,0.0,0.0,0.0,0.0,0.0,0.0,0.0,0.0,0.0
1783391067.481369,0.69590163230896,0.8203562498092651,3.1772719921718817e-07,0.7017219662666321,0.7322022914886475,0.02121351659297943,0.6895614266395569,0.666092574596405,0.023569010198116302,0.6652369499206543,0.6282322406768799,0.01944548450410366,0.6456779837608337,0.617731511592865,0.01491678599268198,0.692111074924469,0.6228939294815063,0.004927506670355797,0.6762304902076721,0.5298538208007812,-0.0031483552884310484,0.6728472113609314,0.475971519947052,-0.007338954601436853,0.6701936721801758,0.4333159327507019,-0.010208716616034508,0.6793888807296753,0.627549946308136,-0.011198677122592926,0.6602382659912109,0.5226218700408936,-0.021948887035250664,0.64971923828125,0.4598616659641266,-0.028051134198904037,0.6441466212272644,0.4147741198539734,-0.03256019577383995,0.6613152623176575,0.6459845900535583,-0.024348951876163483,0.6245007514953613,0.5633347630500793,-0.027414444833993912,0.6184369325637817,0.5980504155158997,-0.016077378764748573,0.6215546131134033,0.62624591588974,-0.007419921923428774,0.6436400413513184,0.6732727885246277,-0.036570217460393906,0.6094045639038086,0.6271015405654907,-0.0353875532746315,0.6105590462684631,0.6545255184173584,-0.02476397529244423,0.6177727580070496,0.6740038394927979,-0.01608940213918686,0.0,0.0,0.0,0.0,0.0,0.0,0.0,0.0,0.0,0.0,0.0,0.0,0.0,0.0,0.0,0.0,0.0,0.0,0.0,0.0,0.0,0.0,0.0,0.0,0.0,0.0,0.0,0.0,0.0,0.0,0.0,0.0,0.0,0.0,0.0,0.0,0.0,0.0,0.0,0.0,0.0,0.0,0.0,0.0,0.0,0.0,0.0,0.0,0.0,0.0,0.0,0.0,0.0,0.0,0.0,0.0,0.0,0.0,0.0,0.0,0.0,0.0,0.0
1783391067.670228,0.7004902362823486,0.8240410685539246,3.1630506214241905e-07,0.7139520049095154,0.7336184978485107,0.022828398272395134,0.705962598323822,0.6662326455116272,0.026326417922973633,0.6855930089950562,0.626286506652832,0.02373170480132103,0.6680628061294556,0.6124963760375977,0.020352201536297798,0.706447958946228,0.6225555539131165,0.0024452246725559235,0.6954737901687622,0.5318052768707275,-0.007414523046463728,0.6921375393867493,0.4765796959400177,-0.014104971662163734,0.688804030418396,0.4331420958042145,-0.018567094579339027,0.6878385543823242,0.6301151514053345,-0.013250517658889294,0.6760812997817993,0.5253120064735413,-0.024771953001618385,0.6691174507141113,0.46038559079170227,-0.03218154236674309,0.6645562052726746,0.41408848762512207,-0.03785714507102966,0.6645735502243042,0.6504462957382202,-0.025234494358301163,0.6373960971832275,0.5613977313041687,-0.02720448561012745,0.6378544569015503,0.5909350514411926,-0.014877159148454666,0.6429701447486877,0.6174764037132263,-0.005711286328732967,0.6442879438400269,0.6792711019515991,-0.035997677594423294,0.6185517907142639,0.619587242603302,-0.032188110053539276,0.6235576272010803,0.6427618265151978,-0.018528461456298828,0.6307387948036194,0.6630047559738159,-0.007745048031210899,0.0,0.0,0.0,0.0,0.0,0.0,0.0,0.0,0.0,0.0,0.0,0.0,0.0,0.0,0.0,0.0,0.0,0.0,0.0,0.0,0.0,0.0,0.0,0.0,0.0,0.0,0.0,0.0,0.0,0.0,0.0,0.0,0.0,0.0,0.0,0.0,0.0,0.0,0.0,0.0,0.0,0.0,0.0,0.0,0.0,0.0,0.0,0.0,0.0,0.0,0.0,0.0,0.0,0.0,0.0,0.0,0.0,0.0,0.0,0.0,0.0,0.0,0.0
1783391067.81776,0.7045646905899048,0.8308248519897461,3.8477517705359787e-07,0.7208567261695862,0.7390066981315613,0.02199658937752247,0.7142494320869446,0.6688286662101746,0.025359073653817177,0.6935509443283081,0.6323604583740234,0.022888174280524254,0.6737675666809082,0.6206542253494263,0.01942107267677784,0.7173862457275391,0.6277359127998352,0.002537623280659318,0.7114824056625366,0.5332912802696228,-0.006034036632627249,0.7099343538284302,0.4764677882194519,-0.011875244788825512,0.7077608704566956,0.43221935629844666,-0.015495490282773972,0.6942673921585083,0.6306643486022949,-0.012111975811421871,0.6903833150863647,0.5233688950538635,-0.021424084901809692,0.6860367059707642,0.45763200521469116,-0.02733747474849224,0.6816521883010864,0.4110366106033325,-0.03159940615296364,0.6677954196929932,0.6479783058166504,-0.023035455495119095,0.6507245898246765,0.5619918704032898,-0.02260926179587841,0.6551844477653503,0.5876576900482178,-0.010368077084422112,0.6597204208374023,0.613820493221283,-0.0012483204482123256,0.6449618935585022,0.6762855648994446,-0.03283793851733208,0.6308218836784363,0.6147369146347046,-0.026228154078125954,0.6383488774299622,0.6347722411155701,-0.011053552851080894,0.6443593502044678,0.656417965888977,0.0008147451444528997,0.0,0.0,0.0,0.0,0.0,0.0,0.0,0.0,0.0,0.0,0.0,0.0,0.0,0.0,0.0,0.0,0.0,0.0,0.0,0.0,0.0,0.0,0.0,0.0,0.0,0.0,0.0,0.0,0.0,0.0,0.0,0.0,0.0,0.0,0.0,0.0,0.0,0.0,0.0,0.0,0.0,0.0,0.0,0.0,0.0,0.0,0.0,0.0,0.0,0.0,0.0,0.0,0.0,0.0,0.0,0.0,0.0,0.0,0.0,0.0,0.0,0.0,0.0
1783391068.214588,0.7046753764152527,0.8295780420303345,4.0445067384098365e-07,0.7256771922111511,0.740466833114624,0.01819307915866375,0.7199471592903137,0.6684388518333435,0.020166568458080292,0.69880610704422,0.6324929594993591,0.017732562497258186,0.6780139803886414,0.6190612316131592,0.013913672417402267,0.7218212485313416,0.6299048066139221,-0.0026787715032696724,0.7197324633598328,0.5341892838478088,-0.01065835915505886,0.7198795080184937,0.4782254695892334,-0.015924658626317978,0.718762993812561,0.43264487385749817,-0.018610943108797073,0.6961693167686462,0.6320913434028625,-0.014488703571259975,0.6966804265975952,0.5244622826576233,-0.02005225047469139,0.6961661577224731,0.4597266614437103,-0.022845853120088577,0.6930118203163147,0.41018974781036377,-0.025329552590847015,0.6686761975288391,0.6465816497802734,-0.022905318066477776,0.6594449877738953,0.5619062185287476,-0.021037837490439415,0.6670843958854675,0.5848606824874878,-0.010599593631923199,0.6712424159049988,0.6112487316131592,-0.00314410962164402,0.6457525491714478,0.6699556112289429,-0.030261585488915443,0.6407603025436401,0.6102577447891235,-0.022761961445212364,0.6493805050849915,0.6282798051834106,-0.008494371548295021,0.6541341543197632,0.6506721377372742,0.0023244505282491446,0.0,0.0,0.0,0.0,0.0,0.0,0.0,0.0,0.0,0.0,0.0,0.0,0.0,0.0,0.0,0.0,0.0,0.0,0.0,0.0,0.0,0.0,0.0,0.0,0.0,0.0,0.0,0.0,0.0,0.0,0.0,0.0,0.0,0.0,0.0,0.0,0.0,0.0,0.0,0.0,0.0,0.0,0.0,0.0,0.0,0.0,0.0,0.0,0.0,0.0,0.0,0.0,0.0,0.0,0.0,0.0,0.0,0.0,0.0,0.0,0.0,0.0,0.0
1783391068.465518,0.7044286727905273,0.8317643404006958,4.127675481413462e-07,0.738689124584198,0.761142373085022,0.012316619046032429,0.7389984130859375,0.6854949593544006,0.015953201800584793,0.7217563986778259,0.6306700110435486,0.018207579851150513,0.705456018447876,0.6034104228019714,0.02016311138868332,0.7334070801734924,0.6328409314155579,-0.00640862388536334,0.7401392459869385,0.5321378707885742,-0.008767718449234962,0.7425279021263123,0.47588762640953064,-0.008953039534389973,0.7424582242965698,0.4309191405773163,-0.007847295142710209,0.7035809755325317,0.6289666295051575,-0.010884958319365978,0.7140241265296936,0.5201952457427979,-0.011059100739657879,0.7176504135131836,0.4559287130832672,-0.009201335720717907,0.71656334400177,0.4095830023288727,-0.007842382416129112,0.6758012771606445,0.6381192207336426,-0.012026017531752586,0.6813382506370544,0.5602440237998962,-0.005372157320380211,0.6918815970420837,0.5834470391273499,0.00446989294141531,0.6956465244293213,0.6132268309593201,0.011331464163959026,0.655089795589447,0.6572463512420654,-0.012343988753855228,0.6613987684249878,0.606330156326294,-0.0008068291353993118,0.6698815822601318,0.627632200717926,0.012794973328709602,0.6726053953170776,0.6541159749031067,0.023111823946237564,0.0,0.0,0.0,0.0,0.0,0.0,0.0,0.0,0.0,0.0,0.0,0.0,0.0,0.0,0.0,0.0,0.0,0.0,0.0,0.0,0.0,0.0,0.0,0.0,0.0,0.0,0.0,0.0,0.0,0.0,0.0,0.0,0.0,0.0,0.0,0.0,0.0,0.0,0.0,0.0,0.0,0.0,0.0,0.0,0.0,0.0,0.0,0.0,0.0,0.0,0.0,0.0,0.0,0.0,0.0,0.0,0.0,0.0,0.0,0.0,0.0,0.0,0.0
1783391068.673065,0.7022948265075684,0.8360796570777893,4.337113921337732e-07,0.7404592633247375,0.7769880294799805,0.0032097483053803444,0.7444031238555908,0.7000091671943665,0.0036693422589451075,0.7257799506187439,0.6368309259414673,0.004405874293297529,0.7079854011535645,0.6032832264900208,0.005322509445250034,0.7369260191917419,0.6367052793502808,-0.011471272446215153,0.7444632053375244,0.5312200784683228,-0.014581726863980293,0.7480420470237732,0.4751755893230438,-0.01473966334015131,0.747955322265625,0.42951154708862305,-0.013450165279209614,0.7064769268035889,0.6286413073539734,-0.012657668441534042,0.7186001539230347,0.5177001953125,-0.01386429462581873,0.7244640588760376,0.4522224962711334,-0.012426854111254215,0.7246891856193542,0.4036296606063843,-0.010780049487948418,0.6788491606712341,0.6355630159378052,-0.011543750762939453,0.6869419813156128,0.5584022998809814,-0.008831423707306385,0.6978361010551453,0.5807173252105713,-0.0011114528169855475,0.700616717338562,0.6118124723434448,0.0056218793615698814,0.6589080095291138,0.6530317068099976,-0.010240520350635052,0.6693944931030273,0.601639449596405,-0.002864229027181864,0.6781517863273621,0.6199809908866882,0.008250369690358639,0.6799880266189575,0.6458464860916138,0.0176196601241827,0.0,0.0,0.0,0.0,0.0,0.0,0.0,0.0,0.0,0.0,0.0,0.0,0.0,0.0,0.0,0.0,0.0,0.0,0.0,0.0,0.0,0.0,0.0,0.0,0.0,0.0,0.0,0.0,0.0,0.0,0.0,0.0,0.0,0.0,0.0,0.0,0.0,0.0,0.0,0.0,0.0,0.0,0.0,0.0,0.0,0.0,0.0,0.0,0.0,0.0,0.0,0.0,0.0,0.0,0.0,0.0,0.0,0.0,0.0,0.0,0.0,0.0,0.0
1783391068.863093,0.7000892162322998,0.8400097489356995,4.473679098282446e-07,0.737510621547699,0.7753721475601196,0.006106449291110039,0.7437961101531982,0.6990538835525513,0.00798517931252718,0.7284975647926331,0.6414820551872253,0.010250607505440712,0.7128043174743652,0.6095402240753174,0.012809655629098415,0.7311881184577942,0.6368299126625061,-0.011506494134664536,0.7421407103538513,0.5310110449790955,-0.01346207968890667,0.7465624213218689,0.47483202815055847,-0.013656659051775932,0.7468322515487671,0.4281772971153259,-0.012745250947773457,0.6999173760414124,0.628511905670166,-0.012314743362367153,0.7159618139266968,0.5166334509849548,-0.011275080032646656,0.7242317199707031,0.4529873728752136,-0.00889449380338192,0.7255178689956665,0.40434348583221436,-0.007341382559388876,0.6731574535369873,0.6352107524871826,-0.010203264653682709,0.6863111853599548,0.5523474216461182,-0.0029176585376262665,0.6985169649124146,0.576591432094574,0.00633351132273674,0.7013039588928223,0.6085570454597473,0.012652093544602394,0.6555987596511841,0.6530473828315735,-0.00786242913454771,0.6701942086219788,0.6039068698883057,0.0027695801109075546,0.6804510951042175,0.6230059266090393,0.01418935414403677,0.6832796335220337,0.6488770246505737,0.02309272065758705,0.0,0.0,0.0,0.0,0.0,0.0,0.0,0.0,0.0,0.0,0.0,0.0,0.0,0.0,0.0,0.0,0.0,0.0,0.0,0.0,0.0,0.0,0.0,0.0,0.0,0.0,0.0,0.0,0.0,0.0,0.0,0.0,0.0,0.0,0.0,0.0,0.0,0.0,0.0,0.0,0.0,0.0,0.0,0.0,0.0,0.0,0.0,0.0,0.0,0.0,0.0,0.0,0.0,0.0,0.0,0.0,0.0,0.0,0.0,0.0,0.0,0.0,0.0
1783391069.039213,0.7011419534683228,0.8404251337051392,4.509267910179915e-07,0.7407563328742981,0.78024822473526,0.0038331481628119946,0.7475136518478394,0.7035570740699768,0.004500142298638821,0.7302308082580566,0.6408857703208923,0.0062745846807956696,0.7138645648956299,0.6047027111053467,0.008591988123953342,0.7349592447280884,0.6404310464859009,-0.016073690727353096,0.7442046999931335,0.5311077237129211,-0.018253855407238007,0.7490466833114624,0.47514796257019043,-0.017325812950730324,0.7506228685379028,0.4286864101886749,-0.015370124951004982,0.7032970786094666,0.6328020095825195,-0.015832271426916122,0.7186578512191772,0.5160218477249146,-0.01687346026301384,0.7270601987838745,0.4508751630783081,-0.014618154615163803,0.7290568947792053,0.4027082324028015,-0.012605387717485428,0.676270604133606,0.6380411386489868,-0.012503148056566715,0.6909554600715637,0.554110050201416,-0.0066643268801271915,0.7032259106636047,0.5784505605697632,0.003637098940089345,0.7059633135795593,0.6108647584915161,0.011235557496547699,0.658191978931427,0.6540650129318237,-0.00899839960038662,0.6750202178955078,0.5997343063354492,0.002082269173115492,0.6855626106262207,0.6173256039619446,0.014910785481333733,0.6876572370529175,0.6432896852493286,0.02486998587846756,0.0,0.0,0.0,0.0,0.0,0.0,0.0,0.0,0.0,0.0,0.0,0.0,0.0,0.0,0.0,0.0,0.0,0.0,0.0,0.0,0.0,0.0,0.0,0.0,0.0,0.0,0.0,0.0,0.0,0.0,0.0,0.0,0.0,0.0,0.0,0.0,0.0,0.0,0.0,0.0,0.0,0.0,0.0,0.0,0.0,0.0,0.0,0.0,0.0,0.0,0.0,0.0,0.0,0.0,0.0,0.0,0.0,0.0,0.0,0.0,0.0,0.0,0.0
1783391069.24801,0.701269268989563,0.8431680798530579,4.58383823342956e-07,0.7399270534515381,0.7810640931129456,0.0029490632005035877,0.7476993203163147,0.7038084268569946,0.0028679496608674526,0.7299777865409851,0.6428952813148499,0.003391384147107601,0.7130293846130371,0.609041690826416,0.004349910654127598,0.7355586886405945,0.6419099569320679,-0.014407550916075706,0.7460007071495056,0.5310898423194885,-0.01777898333966732,0.7502455711364746,0.4745795428752899,-0.017868904396891594,0.7503525018692017,0.4274460971355438,-0.01648889109492302,0.7030502557754517,0.6320854425430298,-0.015201200731098652,0.7197010517120361,0.5158189535140991,-0.015561596490442753,0.7273678779602051,0.45062562823295593,-0.013203066773712635,0.7280827164649963,0.40182578563690186,-0.011246474459767342,0.6758647561073303,0.6378561854362488,-0.013539991341531277,0.6909518241882324,0.5544628500938416,-0.008973154239356518,0.7035578489303589,0.5779297351837158,-0.0005392208113335073,0.7062315940856934,0.6104507446289062,0.005945088807493448,0.6580559015274048,0.654807448387146,-0.01183862891048193,0.6756540536880493,0.6033810377120972,-0.003092783037573099,0.6867890357971191,0.6209180951118469,0.007947228848934174,0.6892942786216736,0.6459217071533203,0.01690060645341873,0.0,0.0,0.0,0.0,0.0,0.0,0.0,0.0,0.0,0.0,0.0,0.0,0.0,0.0,0.0,0.0,0.0,0.0,0.0,0.0,0.0,0.0,0.0,0.0,0.0,0.0,0.0,0.0,0.0,0.0,0.0,0.0,0.0,0.0,0.0,0.0,0.0,0.0,0.0,0.0,0.0,0.0,0.0,0.0,0.0,0.0,0.0,0.0,0.0,0.0,0.0,0.0,0.0,0.0,0.0,0.0,0.0,0.0,0.0,0.0,0.0,0.0,0.0
1783391069.4334211,0.7016095519065857,0.8446788191795349,4.684505938712391e-07,0.7394657731056213,0.7798903584480286,0.0019844684284180403,0.7472397685050964,0.7015794515609741,0.0010675810044631362,0.7286568880081177,0.643125057220459,0.0007668031030334532,0.7101693749427795,0.6121702194213867,0.0006438323180191219,0.7331677675247192,0.6412922143936157,-0.01584228314459324,0.7442798018455505,0.5314927101135254,-0.01991354674100876,0.7482052445411682,0.47446510195732117,-0.020455168560147285,0.748367428779602,0.42638257145881653,-0.019483190029859543,0.7009270787239075,0.6322488188743591,-0.016862167045474052,0.7172458171844482,0.5167094469070435,-0.017900889739394188,0.7251865863800049,0.4507857859134674,-0.01587638258934021,0.726790726184845,0.4007229804992676,-0.014350231736898422,0.6737790703773499,0.6389134526252747,-0.015537469647824764,0.6883000731468201,0.5525854229927063,-0.01247477252036333,0.7005244493484497,0.577068030834198,-0.004513949155807495,0.7030982971191406,0.6102813482284546,0.0017602292355149984,0.6562033295631409,0.655631959438324,-0.014170734211802483,0.6715465188026428,0.6011532545089722,-0.007205347064882517,0.6823540329933167,0.6186971068382263,0.003273983718827367,0.6847240924835205,0.6436103582382202,0.011926514096558094,0.0,0.0,0.0,0.0,0.0,0.0,0.0,0.0,0.0,0.0,0.0,0.0,0.0,0.0,0.0,0.0,0.0,0.0,0.0,0.0,0.0,0.0,0.0,0.0,0.0,0.0,0.0,0.0,0.0,0.0,0.0,0.0,0.0,0.0,0.0,0.0,0.0,0.0,0.0,0.0,0.0,0.0,0.0,0.0,0.0,0.0,0.0,0.0,0.0,0.0,0.0,0.0,0.0,0.0,0.0,0.0,0.0,0.0,0.0,0.0,0.0,0.0,0.0
1783391069.575926,0.7009477019309998,0.8421620726585388,4.491873255574319e-07,0.7394542694091797,0.77784663438797,0.003791715716943145,0.7459861636161804,0.6998040676116943,0.004341420251876116,0.7286900281906128,0.6371821761131287,0.005537174176424742,0.7109817266464233,0.6023213863372803,0.007078466005623341,0.7341086268424988,0.6371238827705383,-0.01344254333525896,0.7427418828010559,0.5277357697486877,-0.015595819801092148,0.7463794946670532,0.4710935354232788,-0.014995777979493141,0.7458522915840149,0.42403510212898254,-0.013322386890649796,0.7023795247077942,0.6285061836242676,-0.014295288361608982,0.7175236940383911,0.5130817294120789,-0.01387365348637104,0.7243897318840027,0.4483863115310669,-0.011208207346498966,0.7243614792823792,0.40054526925086975,-0.009215788915753365,0.6753401160240173,0.6359193921089172,-0.01251565758138895,0.6875478625297546,0.55438232421875,-0.006688555236905813,0.700148344039917,0.5765936374664307,0.002400399651378393,0.7035156488418579,0.6079190373420715,0.009016619063913822,0.6572888493537903,0.6539756059646606,-0.010611657984554768,0.6711359620094299,0.5979624390602112,-0.00026890684966929257,0.6818099617958069,0.6145691871643066,0.012007717974483967,0.6844278573989868,0.6401320099830627,0.02156967483460903,0.0,0.0,0.0,0.0,0.0,0.0,0.0,0.0,0.0,0.0,0.0,0.0,0.0,0.0,0.0,0.0,0.0,0.0,0.0,0.0,0.0,0.0,0.0,0.0,0.0,0.0,0.0,0.0,0.0,0.0,0.0,0.0,0.0,0.0,0.0,0.0,0.0,0.0,0.0,0.0,0.0,0.0,0.0,0.0,0.0,0.0,0.0,0.0,0.0,0.0,0.0,0.0,0.0,0.0,0.0,0.0,0.0,0.0,0.0,0.0,0.0,0.0,0.0
1783391069.764224,0.7011412382125854,0.8434572219848633,4.455122279978241e-07,0.7394063472747803,0.776806116104126,0.0037639285437762737,0.7460794448852539,0.6982702016830444,0.004479426424950361,0.7308623790740967,0.6377876996994019,0.005574289709329605,0.7155347466468811,0.60425865650177,0.007023968733847141,0.7323240637779236,0.6364360451698303,-0.011971726082265377,0.7424899339675903,0.5284499526023865,-0.014778271317481995,0.7468196749687195,0.47246429324150085,-0.015079169534146786,0.7469393610954285,0.4250169098377228,-0.014115852303802967,0.7008310556411743,0.6285556554794312,-0.013225900009274483,0.7165704965591431,0.514615535736084,-0.013482348993420601,0.7240527272224426,0.4502536356449127,-0.011668943800032139,0.7246074676513672,0.4010292887687683,-0.010361015796661377,0.674178421497345,0.6362772583961487,-0.012085901573300362,0.6880071759223938,0.5510337352752686,-0.008114435710012913,0.7008965611457825,0.574702799320221,-0.00013728220073971897,0.7039686441421509,0.6069739460945129,0.006075404118746519,0.6569127440452576,0.6539939045906067,-0.010781598277390003,0.6712756752967834,0.5965747237205505,-0.0028042271733283997,0.6824254989624023,0.6136422157287598,0.008104384876787663,0.6854217052459717,0.6391727924346924,0.016985854133963585,0.0,0.0,0.0,0.0,0.0,0.0,0.0,0.0,0.0,0.0,0.0,0.0,0.0,0.0,0.0,0.0,0.0,0.0,0.0,0.0,0.0,0.0,0.0,0.0,0.0,0.0,0.0,0.0,0.0,0.0,0.0,0.0,0.0,0.0,0.0,0.0,0.0,0.0,0.0,0.0,0.0,0.0,0.0,0.0,0.0,0.0,0.0,0.0,0.0,0.0,0.0,0.0,0.0,0.0,0.0,0.0,0.0,0.0,0.0,0.0,0.0,0.0,0.0
