ciel274/research-hand-sign/data/raw/hiragana/sign_language_re_1.csv
timestamp,R_joint_0_x,R_joint_0_y,R_joint_0_z,R_joint_1_x,R_joint_1_y,R_joint_1_z,R_joint_2_x,R_joint_2_y,R_joint_2_z,R_joint_3_x,R_joint_3_y,R_joint_3_z,R_joint_4_x,R_joint_4_y,R_joint_4_z,R_joint_5_x,R_joint_5_y,R_joint_5_z,R_joint_6_x,R_joint_6_y,R_joint_6_z,R_joint_7_x,R_joint_7_y,R_joint_7_z,R_joint_8_x,R_joint_8_y,R_joint_8_z,R_joint_9_x,R_joint_9_y,R_joint_9_z,R_joint_10_x,R_joint_10_y,R_joint_10_z,R_joint_11_x,R_joint_11_y,R_joint_11_z,R_joint_12_x,R_joint_12_y,R_joint_12_z,R_joint_13_x,R_joint_13_y,R_joint_13_z,R_joint_14_x,R_joint_14_y,R_joint_14_z,R_joint_15_x,R_joint_15_y,R_joint_15_z,R_joint_16_x,R_joint_16_y,R_joint_16_z,R_joint_17_x,R_joint_17_y,R_joint_17_z,R_joint_18_x,R_joint_18_y,R_joint_18_z,R_joint_19_x,R_joint_19_y,R_joint_19_z,R_joint_20_x,R_joint_20_y,R_joint_20_z,L_joint_0_x,L_joint_0_y,L_joint_0_z,L_joint_1_x,L_joint_1_y,L_joint_1_z,L_joint_2_x,L_joint_2_y,L_joint_2_z,L_joint_3_x,L_joint_3_y,L_joint_3_z,L_joint_4_x,L_joint_4_y,L_joint_4_z,L_joint_5_x,L_joint_5_y,L_joint_5_z,L_joint_6_x,L_joint_6_y,L_joint_6_z,L_joint_7_x,L_joint_7_y,L_joint_7_z,L_joint_8_x,L_joint_8_y,L_joint_8_z,L_joint_9_x,L_joint_9_y,L_joint_9_z,L_joint_10_x,L_joint_10_y,L_joint_10_z,L_joint_11_x,L_joint_11_y,L_joint_11_z,L_joint_12_x,L_joint_12_y,L_joint_12_z,L_joint_13_x,L_joint_13_y,L_joint_13_z,L_joint_14_x,L_joint_14_y,L_joint_14_z,L_joint_15_x,L_joint_15_y,L_joint_15_z,L_joint_16_x,L_joint_16_y,L_joint_16_z,L_joint_17_x,L_joint_17_y,L_joint_17_z,L_joint_18_x,L_joint_18_y,L_joint_18_z,L_joint_19_x,L_joint_19_y,L_joint_19_z,L_joint_20_x,L_joint_20_y,L_joint_20_z
1784047720.475171,0.0,0.0,0.0,0.0,0.0,0.0,0.0,0.0,0.0,0.0,0.0,0.0,0.0,0.0,0.0,0.0,0.0,0.0,0.0,0.0,0.0,0.0,0.0,0.0,0.0,0.0,0.0,0.0,0.0,0.0,0.0,0.0,0.0,0.0,0.0,0.0,0.0,0.0,0.0,0.0,0.0,0.0,0.0,0.0,0.0,0.0,0.0,0.0,0.0,0.0,0.0,0.0,0.0,0.0,0.0,0.0,0.0,0.0,0.0,0.0,0.0,0.0,0.0,0.0,0.0,0.0,0.0,0.0,0.0,0.0,0.0,0.0,0.0,0.0,0.0,0.0,0.0,0.0,0.0,0.0,0.0,0.0,0.0,0.0,0.0,0.0,0.0,0.0,0.0,0.0,0.0,0.0,0.0,0.0,0.0,0.0,0.0,0.0,0.0,0.0,0.0,0.0,0.0,0.0,0.0,0.0,0.0,0.0,0.0,0.0,0.0,0.0,0.0,0.0,0.0,0.0,0.0,0.0,0.0,0.0,0.0,0.0,0.0,0.0,0.0,0.0
1784047720.575802,0.0,0.0,0.0,0.0,0.0,0.0,0.0,0.0,0.0,0.0,0.0,0.0,0.0,0.0,0.0,0.0,0.0,0.0,0.0,0.0,0.0,0.0,0.0,0.0,0.0,0.0,0.0,0.0,0.0,0.0,0.0,0.0,0.0,0.0,0.0,0.0,0.0,0.0,0.0,0.0,0.0,0.0,0.0,0.0,0.0,0.0,0.0,0.0,0.0,0.0,0.0,0.0,0.0,0.0,0.0,0.0,0.0,0.0,0.0,0.0,0.0,0.0,0.0,0.0,0.0,0.0,0.0,0.0,0.0,0.0,0.0,0.0,0.0,0.0,0.0,0.0,0.0,0.0,0.0,0.0,0.0,0.0,0.0,0.0,0.0,0.0,0.0,0.0,0.0,0.0,0.0,0.0,0.0,0.0,0.0,0.0,0.0,0.0,0.0,0.0,0.0,0.0,0.0,0.0,0.0,0.0,0.0,0.0,0.0,0.0,0.0,0.0,0.0,0.0,0.0,0.0,0.0,0.0,0.0,0.0,0.0,0.0,0.0,0.0,0.0,0.0
1784047720.675771,0.0,0.0,0.0,0.0,0.0,0.0,0.0,0.0,0.0,0.0,0.0,0.0,0.0,0.0,0.0,0.0,0.0,0.0,0.0,0.0,0.0,0.0,0.0,0.0,0.0,0.0,0.0,0.0,0.0,0.0,0.0,0.0,0.0,0.0,0.0,0.0,0.0,0.0,0.0,0.0,0.0,0.0,0.0,0.0,0.0,0.0,0.0,0.0,0.0,0.0,0.0,0.0,0.0,0.0,0.0,0.0,0.0,0.0,0.0,0.0,0.0,0.0,0.0,0.0,0.0,0.0,0.0,0.0,0.0,0.0,0.0,0.0,0.0,0.0,0.0,0.0,0.0,0.0,0.0,0.0,0.0,0.0,0.0,0.0,0.0,0.0,0.0,0.0,0.0,0.0,0.0,0.0,0.0,0.0,0.0,0.0,0.0,0.0,0.0,0.0,0.0,0.0,0.0,0.0,0.0,0.0,0.0,0.0,0.0,0.0,0.0,0.0,0.0,0.0,0.0,0.0,0.0,0.0,0.0,0.0,0.0,0.0,0.0,0.0,0.0,0.0
1784047720.80422,0.7567828893661499,1.1020278930664062,-4.446741002084309e-07,0.7026198506355286,1.060146689414978,-0.036054499447345734,0.6484549641609192,0.9320002794265747,-0.05997217819094658,0.5999821424484253,0.8375110030174255,-0.08363938331604004,0.5588214993476868,0.7717874050140381,-0.1072782427072525,0.7228232026100159,0.7986396551132202,-0.047127071768045425,0.7266297340393066,0.6261988878250122,-0.07909787446260452,0.7290773987770081,0.5412428379058838,-0.09333077073097229,0.7319793105125427,0.4645175635814667,-0.10391686111688614,0.774841845035553,0.8330128192901611,-0.05195073038339615,0.7774876356124878,0.7657890915870667,-0.10924647003412247,0.7592504620552063,0.9071522355079651,-0.11472995579242706,0.7521222233772278,0.9871735572814941,-0.10515449196100235,0.8217638731002808,0.8914768099784851,-0.06048011779785156,0.8301142454147339,0.827147901058197,-0.11876335740089417,0.8040856122970581,0.9592633843421936,-0.10011903941631317,0.7916890978813171,1.0290613174438477,-0.07286965847015381,0.8646569848060608,0.9639753699302673,-0.07125139981508255,0.87320876121521,0.898592472076416,-0.11151987314224243,0.8454521298408508,0.9834450483322144,-0.09681946039199829,0.8294817209243774,1.037112832069397,-0.07660982757806778,0.0,0.0,0.0,0.0,0.0,0.0,0.0,0.0,0.0,0.0,0.0,0.0,0.0,0.0,0.0,0.0,0.0,0.0,0.0,0.0,0.0,0.0,0.0,0.0,0.0,0.0,0.0,0.0,0.0,0.0,0.0,0.0,0.0,0.0,0.0,0.0,0.0,0.0,0.0,0.0,0.0,0.0,0.0,0.0,0.0,0.0,0.0,0.0,0.0,0.0,0.0,0.0,0.0,0.0,0.0,0.0,0.0,0.0,0.0,0.0,0.0,0.0,0.0
1784047720.937061,0.7464255690574646,1.004414677619934,-3.8902484789105074e-08,0.6823081970214844,0.9322871565818787,-0.025615638121962547,0.622024416923523,0.8132154941558838,-0.040751948952674866,0.5751229524612427,0.7327264547348022,-0.05682145804166794,0.5348212122917175,0.6917858123779297,-0.07307794690132141,0.6979073286056519,0.6718599200248718,-0.023111384361982346,0.6974542737007141,0.5199633836746216,-0.04701748862862587,0.699357271194458,0.43101492524147034,-0.060970984399318695,0.703331708908081,0.35250523686408997,-0.07253310829401016,0.7452167868614197,0.6978782415390015,-0.028260566294193268,0.735042929649353,0.6289750933647156,-0.07909871637821198,0.7246561050415039,0.7541761994361877,-0.08832140266895294,0.7243910431861877,0.8463892936706543,-0.08164408057928085,0.7892028093338013,0.7459049820899963,-0.03678229823708534,0.7869595885276794,0.6938088536262512,-0.08687787503004074,0.7660061717033386,0.8124640583992004,-0.0754740834236145,0.7553187608718872,0.8898721933364868,-0.05368402600288391,0.8306787014007568,0.8090864419937134,-0.04709987714886665,0.832863986492157,0.754328727722168,-0.08125375956296921,0.8025219440460205,0.8285970091819763,-0.07160700857639313,0.7815712094306946,0.8834482431411743,-0.05568722262978554,0.0,0.0,0.0,0.0,0.0,0.0,0.0,0.0,0.0,0.0,0.0,0.0,0.0,0.0,0.0,0.0,0.0,0.0,0.0,0.0,0.0,0.0,0.0,0.0,0.0,0.0,0.0,0.0,0.0,0.0,0.0,0.0,0.0,0.0,0.0,0.0,0.0,0.0,0.0,0.0,0.0,0.0,0.0,0.0,0.0,0.0,0.0,0.0,0.0,0.0,0.0,0.0,0.0,0.0,0.0,0.0,0.0,0.0,0.0,0.0,0.0,0.0,0.0
1784047721.073975,0.7394847869873047,0.9384949207305908,-1.281593142721249e-07,0.6749092936515808,0.8767610192298889,-0.020217640325427055,0.614595353603363,0.7586769461631775,-0.03152552619576454,0.5670414566993713,0.6830828189849854,-0.045202694833278656,0.5231497883796692,0.6524803638458252,-0.05902514234185219,0.6783307790756226,0.6085273623466492,-0.014216240495443344,0.6772294640541077,0.45987293124198914,-0.03666161373257637,0.6787267327308655,0.37637922167778015,-0.049058493226766586,0.6806546449661255,0.30295848846435547,-0.05939478054642677,0.7239915132522583,0.6260249614715576,-0.021633880212903023,0.7112882137298584,0.5583187937736511,-0.07187233865261078,0.7079426646232605,0.6790815591812134,-0.08070198446512222,0.7118226885795593,0.7625255584716797,-0.07311710715293884,0.7685965299606323,0.6635335683822632,-0.032615743577480316,0.7602936625480652,0.6138995289802551,-0.08201844245195389,0.7467246055603027,0.7321988344192505,-0.07173626869916916,0.7412033081054688,0.8045300245285034,-0.050072431564331055,0.8129479289054871,0.7144977450370789,-0.045056674629449844,0.8060716390609741,0.6675837635993958,-0.07799606025218964,0.7813154458999634,0.7408545017242432,-0.07016437500715256,0.7655069231987,0.7907025218009949,-0.05545613542199135,0.0,0.0,0.0,0.0,0.0,0.0,0.0,0.0,0.0,0.0,0.0,0.0,0.0,0.0,0.0,0.0,0.0,0.0,0.0,0.0,0.0,0.0,0.0,0.0,0.0,0.0,0.0,0.0,0.0,0.0,0.0,0.0,0.0,0.0,0.0,0.0,0.0,0.0,0.0,0.0,0.0,0.0,0.0,0.0,0.0,0.0,0.0,0.0,0.0,0.0,0.0,0.0,0.0,0.0,0.0,0.0,0.0,0.0,0.0,0.0,0.0,0.0,0.0
1784047721.2078478,0.7301749587059021,0.9137827157974243,-2.2024300960765686e-07,0.6676087975502014,0.8543602228164673,-0.017998671159148216,0.6066720485687256,0.7371918559074402,-0.027011580765247345,0.5595251321792603,0.6678032279014587,-0.03876279294490814,0.5181096792221069,0.6404048204421997,-0.050570059567689896,0.6687833070755005,0.5854061841964722,-0.0092177614569664,0.666020929813385,0.441317617893219,-0.030092228204011917,0.6669454574584961,0.359472393989563,-0.040940266102552414,0.6691951155662537,0.2900208830833435,-0.04990946501493454,0.7127817273139954,0.6002652645111084,-0.017284026369452477,0.6985607743263245,0.5305134057998657,-0.06408484280109406,0.693734884262085,0.6509217023849487,-0.0710589587688446,0.6986855268478394,0.7327853441238403,-0.06260181218385696,0.7564400434494019,0.6340309977531433,-0.02907869592308998,0.7481426000595093,0.5799974799156189,-0.07456517219543457,0.735040009021759,0.6966177821159363,-0.06326327472925186,0.7314820289611816,0.7664170861244202,-0.041930727660655975,0.8008570671081543,0.6818814873695374,-0.042293403297662735,0.7924097776412964,0.6386012434959412,-0.07093366980552673,0.7692779898643494,0.7125089764595032,-0.061910223215818405,0.7561862468719482,0.7599623203277588,-0.04727549850940704,0.0,0.0,0.0,0.0,0.0,0.0,0.0,0.0,0.0,0.0,0.0,0.0,0.0,0.0,0.0,0.0,0.0,0.0,0.0,0.0,0.0,0.0,0.0,0.0,0.0,0.0,0.0,0.0,0.0,0.0,0.0,0.0,0.0,0.0,0.0,0.0,0.0,0.0,0.0,0.0,0.0,0.0,0.0,0.0,0.0,0.0,0.0,0.0,0.0,0.0,0.0,0.0,0.0,0.0,0.0,0.0,0.0,0.0,0.0,0.0,0.0,0.0,0.0
1784047721.3406022,0.7205666303634644,0.9091554284095764,-2.614057166283601e-07,0.6596878170967102,0.8524124622344971,-0.017013657838106155,0.5996816754341125,0.7344883680343628,-0.025740958750247955,0.5529253482818604,0.6648328304290771,-0.037672728300094604,0.5104132890701294,0.6394631862640381,-0.04998375102877617,0.6610236763954163,0.5854288935661316,-0.008810185827314854,0.6560218334197998,0.44311922788619995,-0.029997538775205612,0.6562044024467468,0.36187291145324707,-0.04135487228631973,0.6578739285469055,0.29246786236763,-0.05069311335682869,0.7041385173797607,0.5974568128585815,-0.017544729635119438,0.688107430934906,0.5308906435966492,-0.06344206631183624,0.6834970116615295,0.6460089087486267,-0.07077505439519882,0.6882644295692444,0.7265560030937195,-0.06331948935985565,0.747079074382782,0.6304935812950134,-0.02988550066947937,0.7363359928131104,0.5767273306846619,-0.07529722154140472,0.7232813239097595,0.6929190754890442,-0.06466519087553024,0.7200915813446045,0.7651982307434082,-0.04416508600115776,0.7909290194511414,0.6784643530845642,-0.04357311129570007,0.7806532382965088,0.6378673315048218,-0.07286753505468369,0.7567242980003357,0.710752010345459,-0.06470662355422974,0.7436292767524719,0.7600762248039246,-0.05087430775165558,0.0,0.0,0.0,0.0,0.0,0.0,0.0,0.0,0.0,0.0,0.0,0.0,0.0,0.0,0.0,0.0,0.0,0.0,0.0,0.0,0.0,0.0,0.0,0.0,0.0,0.0,0.0,0.0,0.0,0.0,0.0,0.0,0.0,0.0,0.0,0.0,0.0,0.0,0.0,0.0,0.0,0.0,0.0,0.0,0.0,0.0,0.0,0.0,0.0,0.0,0.0,0.0,0.0,0.0,0.0,0.0,0.0,0.0,0.0,0.0,0.0,0.0,0.0
1784047721.47646,0.7148478031158447,0.9082743525505066,-2.3502725809976255e-07,0.6536555886268616,0.8537054061889648,-0.017962384968996048,0.5918530225753784,0.739316999912262,-0.028484808281064034,0.5427603721618652,0.672505795955658,-0.0419791080057621,0.4988063871860504,0.6487833261489868,-0.05596432462334633,0.6521183848381042,0.5903338193893433,-0.012308414094150066,0.6460841298103333,0.4452184736728668,-0.034815218299627304,0.645742654800415,0.3629140257835388,-0.046699441969394684,0.6467726826667786,0.29301393032073975,-0.05618566647171974,0.6951970458030701,0.6005335450172424,-0.02098798006772995,0.6755863428115845,0.5381453633308411,-0.06846089661121368,0.6732670068740845,0.6525750160217285,-0.07627629488706589,0.6805000901222229,0.7301238775253296,-0.06890641152858734,0.7380368709564209,0.6312369704246521,-0.03315738961100578,0.7233160138130188,0.5853703618049622,-0.0796160101890564,0.711691677570343,0.7003406286239624,-0.0689287856221199,0.7101793885231018,0.7691980600357056,-0.048199307173490524,0.7816975116729736,0.6769945025444031,-0.04671110212802887,0.7670906782150269,0.6392014622688293,-0.07558847963809967,0.7439104914665222,0.714531421661377,-0.06634602695703506,0.7324953079223633,0.7639245986938477,-0.051726166158914566,0.0,0.0,0.0,0.0,0.0,0.0,0.0,0.0,0.0,0.0,0.0,0.0,0.0,0.0,0.0,0.0,0.0,0.0,0.0,0.0,0.0,0.0,0.0,0.0,0.0,0.0,0.0,0.0,0.0,0.0,0.0,0.0,0.0,0.0,0.0,0.0,0.0,0.0,0.0,0.0,0.0,0.0,0.0,0.0,0.0,0.0,0.0,0.0,0.0,0.0,0.0,0.0,0.0,0.0,0.0,0.0,0.0,0.0,0.0,0.0,0.0,0.0,0.0
1784047721.6036649,0.7075315713882446,0.897962212562561,-2.3361018008927203e-07,0.6481252312660217,0.8424484133720398,-0.01846139319241047,0.588647723197937,0.7317802906036377,-0.029072219505906105,0.5407466888427734,0.6666399836540222,-0.04262017086148262,0.49829959869384766,0.6417379975318909,-0.056502655148506165,0.6466245651245117,0.579799234867096,-0.011149167083203793,0.6417646408081055,0.439492404460907,-0.03325774148106575,0.6419641375541687,0.3594585061073303,-0.045495014637708664,0.6436070203781128,0.2912221848964691,-0.05541960150003433,0.6891345977783203,0.5911650657653809,-0.01955830678343773,0.6701353192329407,0.5247918963432312,-0.06669166684150696,0.6658034324645996,0.6395944952964783,-0.07496743649244308,0.6714808344841003,0.7205744981765747,-0.0679389238357544,0.7318074107170105,0.6233152151107788,-0.03156742826104164,0.7179762125015259,0.5719354152679443,-0.07787572592496872,0.7064139246940613,0.6872846484184265,-0.06759485602378845,0.7043441534042358,0.7597404718399048,-0.04705900326371193,0.7752494215965271,0.6698227524757385,-0.045013800263404846,0.7618400454521179,0.630569577217102,-0.07470370829105377,0.7395110726356506,0.7038169503211975,-0.06640808284282684,0.7281794548034668,0.7536455392837524,-0.052264418452978134,0.0,0.0,0.0,0.0,0.0,0.0,0.0,0.0,0.0,0.0,0.0,0.0,0.0,0.0,0.0,0.0,0.0,0.0,0.0,0.0,0.0,0.0,0.0,0.0,0.0,0.0,0.0,0.0,0.0,0.0,0.0,0.0,0.0,0.0,0.0,0.0,0.0,0.0,0.0,0.0,0.0,0.0,0.0,0.0,0.0,0.0,0.0,0.0,0.0,0.0,0.0,0.0,0.0,0.0,0.0,0.0,0.0,0.0,0.0,0.0,0.0,0.0,0.0
1784047721.737953,0.7072715163230896,0.888558030128479,-2.2534997867751372e-07,0.6486831903457642,0.8330350518226624,-0.01890426315367222,0.5891922116279602,0.7247570753097534,-0.030205832794308662,0.5402908325195312,0.6592380404472351,-0.04421664774417877,0.49806058406829834,0.6337721347808838,-0.05856830254197121,0.645508348941803,0.573638916015625,-0.0117723373696208,0.6406044363975525,0.43466830253601074,-0.034175802022218704,0.6409952044487,0.3548400104045868,-0.047039132565259933,0.6425741910934448,0.28618571162223816,-0.057562194764614105,0.6876952052116394,0.5853769779205322,-0.01994345709681511,0.6694806814193726,0.5171977281570435,-0.06683898717164993,0.665831446647644,0.6305959224700928,-0.07530366629362106,0.6710419654846191,0.7095438838005066,-0.06884610652923584,0.7301559448242188,0.6169201731681824,-0.03170502185821533,0.7163373827934265,0.563139796257019,-0.07766859978437424,0.7053387761116028,0.6767944097518921,-0.06725428253412247,0.7025901079177856,0.7482497096061707,-0.047113705426454544,0.7733769416809082,0.6623954176902771,-0.0449766181409359,0.7596564292907715,0.6204914450645447,-0.07474278658628464,0.7375950813293457,0.6948552131652832,-0.06625352799892426,0.7250277996063232,0.7460780739784241,-0.05227182060480118,0.0,0.0,0.0,0.0,0.0,0.0,0.0,0.0,0.0,0.0,0.0,0.0,0.0,0.0,0.0,0.0,0.0,0.0,0.0,0.0,0.0,0.0,0.0,0.0,0.0,0.0,0.0,0.0,0.0,0.0,0.0,0.0,0.0,0.0,0.0,0.0,0.0,0.0,0.0,0.0,0.0,0.0,0.0,0.0,0.0,0.0,0.0,0.0,0.0,0.0,0.0,0.0,0.0,0.0,0.0,0.0,0.0,0.0,0.0,0.0,0.0,0.0,0.0
1784047721.869927,0.7060853242874146,0.8836790323257446,-2.3963201556398417e-07,0.6474537253379822,0.8305502533912659,-0.01855452172458172,0.5880891680717468,0.723349392414093,-0.029295148327946663,0.5409271121025085,0.6571516990661621,-0.042676012963056564,0.499922513961792,0.6299754977226257,-0.056383583694696426,0.6447616815567017,0.5697664618492126,-0.010952587239444256,0.6393339037895203,0.43182700872421265,-0.03214314207434654,0.6398699283599854,0.35301417112350464,-0.04421549290418625,0.6413953900337219,0.28554585576057434,-0.05420481413602829,0.686928391456604,0.5814825296401978,-0.018969640135765076,0.6677305698394775,0.5152698755264282,-0.06510944664478302,0.6644691824913025,0.6258842945098877,-0.07401876151561737,0.6694432497024536,0.7066220641136169,-0.06787090003490448,0.7291641235351562,0.6129956841468811,-0.030430633574724197,0.7144529819488525,0.5617760419845581,-0.07622240483760834,0.7039934396743774,0.6735363602638245,-0.06736467778682709,0.7011908292770386,0.7468402981758118,-0.04812907427549362,0.772389829158783,0.6583330035209656,-0.0432356521487236,0.757413923740387,0.6167004108428955,-0.07375968247652054,0.7361482381820679,0.6911975145339966,-0.06657882779836655,0.7240393161773682,0.7449759840965271,-0.05323859304189682,0.0,0.0,0.0,0.0,0.0,0.0,0.0,0.0,0.0,0.0,0.0,0.0,0.0,0.0,0.0,0.0,0.0,0.0,0.0,0.0,0.0,0.0,0.0,0.0,0.0,0.0,0.0,0.0,0.0,0.0,0.0,0.0,0.0,0.0,0.0,0.0,0.0,0.0,0.0,0.0,0.0,0.0,0.0,0.0,0.0,0.0,0.0,0.0,0.0,0.0,0.0,0.0,0.0,0.0,0.0,0.0,0.0,0.0,0.0,0.0,0.0,0.0,0.0
1784047722.008116,0.7057499885559082,0.882347583770752,-2.2877598837567348e-07,0.6475183367729187,0.8295606970787048,-0.01960965432226658,0.5881185531616211,0.7223479151725769,-0.031184155493974686,0.5414711833000183,0.6547732353210449,-0.04515378549695015,0.5004429221153259,0.6253484487533569,-0.059462159872055054,0.6447851061820984,0.5702012181282043,-0.01302360463887453,0.639109194278717,0.432171106338501,-0.03520476445555687,0.6396503448486328,0.35216328501701355,-0.04809051752090454,0.6414779424667358,0.2831650972366333,-0.058600474148988724,0.6867453455924988,0.5813183188438416,-0.02082548290491104,0.6676368713378906,0.5124034285545349,-0.06788236647844315,0.6638112664222717,0.6214435696601868,-0.0773186907172203,0.668301522731781,0.702803373336792,-0.07139898836612701,0.728891134262085,0.6123419404029846,-0.032076068222522736,0.7148285508155823,0.5603488087654114,-0.07855532318353653,0.7041234970092773,0.6714795231819153,-0.06975802779197693,0.7009296417236328,0.7451796531677246,-0.0504113994538784,0.7720915079116821,0.6570015549659729,-0.044760383665561676,0.7572382092475891,0.6144440770149231,-0.07556403428316116,0.7365229725837708,0.689054548740387,-0.06829874962568283,0.7250535488128662,0.7428418397903442,-0.05485359579324722,0.0,0.0,0.0,0.0,0.0,0.0,0.0,0.0,0.0,0.0,0.0,0.0,0.0,0.0,0.0,0.0,0.0,0.0,0.0,0.0,0.0,0.0,0.0,0.0,0.0,0.0,0.0,0.0,0.0,0.0,0.0,0.0,0.0,0.0,0.0,0.0,0.0,0.0,0.0,0.0,0.0,0.0,0.0,0.0,0.0,0.0,0.0,0.0,0.0,0.0,0.0,0.0,0.0,0.0,0.0,0.0,0.0,0.0,0.0,0.0,0.0,0.0,0.0
1784047722.142071,0.7056779265403748,0.8798007965087891,-2.2614221961703151e-07,0.6471550464630127,0.8286310434341431,-0.019714130088686943,0.587263822555542,0.721896231174469,-0.03180690482258797,0.5402346849441528,0.6536390781402588,-0.04625455290079117,0.4984968900680542,0.6240851879119873,-0.06113366410136223,0.6451963782310486,0.5705944895744324,-0.014128516428172588,0.639171838760376,0.4313027262687683,-0.03674447908997536,0.639889121055603,0.3513876795768738,-0.04968435689806938,0.6418530344963074,0.2826955020427704,-0.060111112892627716,0.6872650384902954,0.5819057822227478,-0.022057678550481796,0.6678854823112488,0.5126105546951294,-0.06971300393342972,0.66402268409729,0.6227161884307861,-0.07902617752552032,0.6687402129173279,0.7037925720214844,-0.0728122666478157,0.7294902801513672,0.6129149198532104,-0.033376652747392654,0.7149230241775513,0.5611838102340698,-0.08041680604219437,0.7043505311012268,0.6738885641098022,-0.07119626551866531,0.7015470266342163,0.7468663454055786,-0.05137516185641289,0.7726469039916992,0.6572364568710327,-0.046066492795944214,0.7566050291061401,0.614722728729248,-0.07679130136966705,0.7361986041069031,0.6909790635108948,-0.06881509721279144,0.7257649898529053,0.7440406084060669,-0.054796576499938965,0.0,0.0,0.0,0.0,0.0,0.0,0.0,0.0,0.0,0.0,0.0,0.0,0.0,0.0,0.0,0.0,0.0,0.0,0.0,0.0,0.0,0.0,0.0,0.0,0.0,0.0,0.0,0.0,0.0,0.0,0.0,0.0,0.0,0.0,0.0,0.0,0.0,0.0,0.0,0.0,0.0,0.0,0.0,0.0,0.0,0.0,0.0,0.0,0.0,0.0,0.0,0.0,0.0,0.0,0.0,0.0,0.0,0.0,0.0,0.0,0.0,0.0,0.0
1784047722.275658,0.7087666392326355,0.8838201761245728,-2.3694482820246776e-07,0.6507851481437683,0.8322860598564148,-0.020637691020965576,0.5896389484405518,0.7227088809013367,-0.03255429118871689,0.541449248790741,0.6560331583023071,-0.04640693590044975,0.4989880919456482,0.6265423893928528,-0.060738082975149155,0.646790623664856,0.5736384987831116,-0.015791326761245728,0.6401299238204956,0.4341922104358673,-0.03843403607606888,0.6407414078712463,0.3535836637020111,-0.05137393996119499,0.642683744430542,0.28357264399528503,-0.06191487982869148,0.6890678405761719,0.5838301777839661,-0.022945627570152283,0.6690312623977661,0.5169647932052612,-0.07045003026723862,0.6662451028823853,0.6277856230735779,-0.0794956386089325,0.6717080473899841,0.7089969515800476,-0.07332151383161545,0.7317063212394714,0.6146525144577026,-0.03351215273141861,0.7165733575820923,0.5622767806053162,-0.08072230219841003,0.7062950134277344,0.6740979552268982,-0.07179505378007889,0.7033684253692627,0.7482883334159851,-0.0523490272462368,0.7753196954727173,0.6589798331260681,-0.0454586036503315,0.7585731148719788,0.6161564588546753,-0.07700266689062119,0.7377089858055115,0.6930301189422607,-0.06971005350351334,0.7261829972267151,0.7476279735565186,-0.05623913183808327,0.0,0.0,0.0,0.0,0.0,0.0,0.0,0.0,0.0,0.0,0.0,0.0,0.0,0.0,0.0,0.0,0.0,0.0,0.0,0.0,0.0,0.0,0.0,0.0,0.0,0.0,0.0,0.0,0.0,0.0,0.0,0.0,0.0,0.0,0.0,0.0,0.0,0.0,0.0,0.0,0.0,0.0,0.0,0.0,0.0,0.0,0.0,0.0,0.0,0.0,0.0,0.0,0.0,0.0,0.0,0.0,0.0,0.0,0.0,0.0,0.0,0.0,0.0
1784047722.410646,0.7087042927742004,0.8837790489196777,-2.3092393064416683e-07,0.6502447724342346,0.8309921026229858,-0.019957371056079865,0.5901089906692505,0.7225806713104248,-0.03179626539349556,0.5430194735527039,0.6553362011909485,-0.045940231531858444,0.5016186237335205,0.6249011158943176,-0.06049209088087082,0.6477095484733582,0.5728861689567566,-0.014243029989302158,0.6412449479103088,0.43348366022109985,-0.037143807858228683,0.6417136788368225,0.35327085852622986,-0.05037233233451843,0.6436027884483337,0.28368237614631653,-0.06106796860694885,0.6899930834770203,0.5839568376541138,-0.0220776479691267,0.6694764494895935,0.5173147320747375,-0.07010465860366821,0.6659689545631409,0.6280703544616699,-0.07961864024400711,0.6713926792144775,0.7085282206535339,-0.07367853820323944,0.7324188351631165,0.6150233149528503,-0.03339569643139839,0.7172409296035767,0.5633766055107117,-0.08122694492340088,0.7066724896430969,0.6761183738708496,-0.07227295637130737,0.7037658095359802,0.7498899698257446,-0.052622489631175995,0.7758364081382751,0.6597678065299988,-0.04608067497611046,0.7599866390228271,0.6173352599143982,-0.07792440056800842,0.7386350631713867,0.6946606040000916,-0.0704258605837822,0.7267119884490967,0.7492840886116028,-0.05668133869767189,0.0,0.0,0.0,0.0,0.0,0.0,0.0,0.0,0.0,0.0,0.0,0.0,0.0,0.0,0.0,0.0,0.0,0.0,0.0,0.0,0.0,0.0,0.0,0.0,0.0,0.0,0.0,0.0,0.0,0.0,0.0,0.0,0.0,0.0,0.0,0.0,0.0,0.0,0.0,0.0,0.0,0.0,0.0,0.0,0.0,0.0,0.0,0.0,0.0,0.0,0.0,0.0,0.0,0.0,0.0,0.0,0.0,0.0,0.0,0.0,0.0,0.0,0.0
1784047722.55196,0.7094911336898804,0.882046639919281,-2.3802610371603805e-07,0.6504615545272827,0.8303340077400208,-0.019370539113879204,0.5901693105697632,0.7227205038070679,-0.031322699040174484,0.5431188941001892,0.6544615626335144,-0.045697130262851715,0.5014765858650208,0.6238189935684204,-0.060520291328430176,0.6484097838401794,0.5718899369239807,-0.014032208360731602,0.6424393057823181,0.4308561086654663,-0.0367448590695858,0.6428966522216797,0.3508031666278839,-0.04976542666554451,0.6443830728530884,0.28192010521888733,-0.060310497879981995,0.6907872557640076,0.5836498737335205,-0.0220740158110857,0.6700649857521057,0.5173993706703186,-0.07000624388456345,0.6671401858329773,0.6290681958198547,-0.07926466315984726,0.6727304458618164,0.7098705768585205,-0.07317700237035751,0.7330650091171265,0.6145523190498352,-0.03351922333240509,0.7171709537506104,0.5635322332382202,-0.08110696822404861,0.7072424292564392,0.6776173710823059,-0.07168187201023102,0.7047351002693176,0.7514070868492126,-0.05180882662534714,0.776328980922699,0.6587874293327332,-0.046281848102808,0.7595060467720032,0.6161507368087769,-0.07799400389194489,0.7380734086036682,0.6946662664413452,-0.07009810954332352,0.7260724306106567,0.7498312592506409,-0.05606487765908241,0.0,0.0,0.0,0.0,0.0,0.0,0.0,0.0,0.0,0.0,0.0,0.0,0.0,0.0,0.0,0.0,0.0,0.0,0.0,0.0,0.0,0.0,0.0,0.0,0.0,0.0,0.0,0.0,0.0,0.0,0.0,0.0,0.0,0.0,0.0,0.0,0.0,0.0,0.0,0.0,0.0,0.0,0.0,0.0,0.0,0.0,0.0,0.0,0.0,0.0,0.0,0.0,0.0,0.0,0.0,0.0,0.0,0.0,0.0,0.0,0.0,0.0,0.0
1784047722.715164,0.7104928493499756,0.8828720450401306,-2.4451333047181834e-07,0.6521281003952026,0.8303236365318298,-0.019487107172608376,0.5918413996696472,0.7225913405418396,-0.03143308311700821,0.5440731644630432,0.6549652814865112,-0.04576427862048149,0.5024307370185852,0.6239416599273682,-0.06055183708667755,0.6491049528121948,0.5724760890007019,-0.014025616459548473,0.643073558807373,0.4314725995063782,-0.03669890761375427,0.6430528163909912,0.3510775566101074,-0.04958745464682579,0.644024670124054,0.281946063041687,-0.05998915061354637,0.6913105249404907,0.5836425423622131,-0.02187768556177616,0.6707224249839783,0.5170567631721497,-0.06985825300216675,0.6678063273429871,0.6285586357116699,-0.07909706979990005,0.6732922792434692,0.7095035910606384,-0.0728786364197731,0.7336018681526184,0.6140947341918945,-0.033121269196271896,0.7175595760345459,0.5632521510124207,-0.08075694739818573,0.7075979709625244,0.677347719669342,-0.0714465007185936,0.7051485776901245,0.751097559928894,-0.051542505621910095,0.7769980430603027,0.6578305959701538,-0.04565569385886192,0.7597564458847046,0.6153993010520935,-0.0772581547498703,0.7386216521263123,0.6943375468254089,-0.06939279288053513,0.727088451385498,0.7493588924407959,-0.0553373247385025,0.0,0.0,0.0,0.0,0.0,0.0,0.0,0.0,0.0,0.0,0.0,0.0,0.0,0.0,0.0,0.0,0.0,0.0,0.0,0.0,0.0,0.0,0.0,0.0,0.0,0.0,0.0,0.0,0.0,0.0,0.0,0.0,0.0,0.0,0.0,0.0,0.0,0.0,0.0,0.0,0.0,0.0,0.0,0.0,0.0,0.0,0.0,0.0,0.0,0.0,0.0,0.0,0.0,0.0,0.0,0.0,0.0,0.0,0.0,0.0,0.0,0.0,0.0
1784047722.915623,0.7094094157218933,0.880294680595398,-2.3689646866387193e-07,0.6515796184539795,0.8289057016372681,-0.019911862909793854,0.5919166207313538,0.7226325273513794,-0.0323706679046154,0.544832170009613,0.6552060842514038,-0.04720295965671539,0.5035036206245422,0.6235402822494507,-0.062422189861536026,0.6488484740257263,0.5715068578720093,-0.01503389049321413,0.6429941058158875,0.4302435517311096,-0.03833949938416481,0.6429315209388733,0.3501627445220947,-0.051595721393823624,0.6441295742988586,0.281544953584671,-0.06215447559952736,0.6908299326896667,0.5829166769981384,-0.022901121526956558,0.6703233122825623,0.5166698694229126,-0.07142350822687149,0.6662981510162354,0.6281218528747559,-0.08073973655700684,0.671443521976471,0.7086589932441711,-0.07452566921710968,0.7327896952629089,0.613731324672699,-0.03421633318066597,0.7171140313148499,0.5628196001052856,-0.08232742547988892,0.7066041231155396,0.676805317401886,-0.0728379413485527,0.7043655514717102,0.7500760555267334,-0.05268597602844238,0.7758886218070984,0.657789945602417,-0.04687802121043205,0.7596036195755005,0.6163830161094666,-0.07880549877882004,0.7383851408958435,0.6941262483596802,-0.07097524404525757,0.7271869778633118,0.7479483485221863,-0.05682581663131714,0.0,0.0,0.0,0.0,0.0,0.0,0.0,0.0,0.0,0.0,0.0,0.0,0.0,0.0,0.0,0.0,0.0,0.0,0.0,0.0,0.0,0.0,0.0,0.0,0.0,0.0,0.0,0.0,0.0,0.0,0.0,0.0,0.0,0.0,0.0,0.0,0.0,0.0,0.0,0.0,0.0,0.0,0.0,0.0,0.0,0.0,0.0,0.0,0.0,0.0,0.0,0.0,0.0,0.0,0.0,0.0,0.0,0.0,0.0,0.0,0.0,0.0,0.0
1784047723.146268,0.7104597687721252,0.882810652256012,-2.483781429418741e-07,0.6533486843109131,0.8308065533638,-0.019710196182131767,0.5931952595710754,0.7218698263168335,-0.032066624611616135,0.5450273752212524,0.65414959192276,-0.046780314296483994,0.5027827024459839,0.6223146915435791,-0.061991896480321884,0.6499860286712646,0.5745646357536316,-0.015476019121706486,0.6417816281318665,0.4321384131908417,-0.03888346999883652,0.6410803198814392,0.35127687454223633,-0.0521688312292099,0.6417381167411804,0.2820959687232971,-0.06274310499429703,0.6917063593864441,0.58547043800354,-0.02346000075340271,0.6695614457130432,0.517945408821106,-0.072203129529953,0.6663846373558044,0.6286770105361938,-0.08165836334228516,0.6719129681587219,0.7091085314750671,-0.07548003643751144,0.7338423132896423,0.6155632734298706,-0.034801844507455826,0.7168339490890503,0.5630389451980591,-0.08290668576955795,0.7072713375091553,0.6768139004707336,-0.07332050055265427,0.7053013443946838,0.7500157356262207,-0.05315455421805382,0.7773952484130859,0.6585279107093811,-0.04743647202849388,0.7591474652290344,0.6149734258651733,-0.07897959649562836,0.738331139087677,0.6934062242507935,-0.07067254930734634,0.7274277210235596,0.747498631477356,-0.05633340775966644,0.0,0.0,0.0,0.0,0.0,0.0,0.0,0.0,0.0,0.0,0.0,0.0,0.0,0.0,0.0,0.0,0.0,0.0,0.0,0.0,0.0,0.0,0.0,0.0,0.0,0.0,0.0,0.0,0.0,0.0,0.0,0.0,0.0,0.0,0.0,0.0,0.0,0.0,0.0,0.0,0.0,0.0,0.0,0.0,0.0,0.0,0.0,0.0,0.0,0.0,0.0,0.0,0.0,0.0,0.0,0.0,0.0,0.0,0.0,0.0,0.0,0.0,0.0
