ciel274/research-hand-sign/data/raw/hiragana/sign_language_tu_3.csv
timestamp,R_joint_0_x,R_joint_0_y,R_joint_0_z,R_joint_1_x,R_joint_1_y,R_joint_1_z,R_joint_2_x,R_joint_2_y,R_joint_2_z,R_joint_3_x,R_joint_3_y,R_joint_3_z,R_joint_4_x,R_joint_4_y,R_joint_4_z,R_joint_5_x,R_joint_5_y,R_joint_5_z,R_joint_6_x,R_joint_6_y,R_joint_6_z,R_joint_7_x,R_joint_7_y,R_joint_7_z,R_joint_8_x,R_joint_8_y,R_joint_8_z,R_joint_9_x,R_joint_9_y,R_joint_9_z,R_joint_10_x,R_joint_10_y,R_joint_10_z,R_joint_11_x,R_joint_11_y,R_joint_11_z,R_joint_12_x,R_joint_12_y,R_joint_12_z,R_joint_13_x,R_joint_13_y,R_joint_13_z,R_joint_14_x,R_joint_14_y,R_joint_14_z,R_joint_15_x,R_joint_15_y,R_joint_15_z,R_joint_16_x,R_joint_16_y,R_joint_16_z,R_joint_17_x,R_joint_17_y,R_joint_17_z,R_joint_18_x,R_joint_18_y,R_joint_18_z,R_joint_19_x,R_joint_19_y,R_joint_19_z,R_joint_20_x,R_joint_20_y,R_joint_20_z,L_joint_0_x,L_joint_0_y,L_joint_0_z,L_joint_1_x,L_joint_1_y,L_joint_1_z,L_joint_2_x,L_joint_2_y,L_joint_2_z,L_joint_3_x,L_joint_3_y,L_joint_3_z,L_joint_4_x,L_joint_4_y,L_joint_4_z,L_joint_5_x,L_joint_5_y,L_joint_5_z,L_joint_6_x,L_joint_6_y,L_joint_6_z,L_joint_7_x,L_joint_7_y,L_joint_7_z,L_joint_8_x,L_joint_8_y,L_joint_8_z,L_joint_9_x,L_joint_9_y,L_joint_9_z,L_joint_10_x,L_joint_10_y,L_joint_10_z,L_joint_11_x,L_joint_11_y,L_joint_11_z,L_joint_12_x,L_joint_12_y,L_joint_12_z,L_joint_13_x,L_joint_13_y,L_joint_13_z,L_joint_14_x,L_joint_14_y,L_joint_14_z,L_joint_15_x,L_joint_15_y,L_joint_15_z,L_joint_16_x,L_joint_16_y,L_joint_16_z,L_joint_17_x,L_joint_17_y,L_joint_17_z,L_joint_18_x,L_joint_18_y,L_joint_18_z,L_joint_19_x,L_joint_19_y,L_joint_19_z,L_joint_20_x,L_joint_20_y,L_joint_20_z
1783390930.150809,0.7320053577423096,0.8870439529418945,-1.5335396597038198e-07,0.6914889216423035,0.8441240787506104,-0.00834212452173233,0.656348466873169,0.7336212396621704,-0.009455704130232334,0.6424171924591064,0.640716552734375,-0.013855058699846268,0.6489759087562561,0.5654406547546387,-0.015714310109615326,0.6565988659858704,0.6502333879470825,0.024315249174833298,0.6388583779335022,0.5637314319610596,0.008445498533546925,0.6288360357284546,0.5685839653015137,-0.004540835041552782,0.6270285248756409,0.5930476188659668,-0.01038960088044405,0.6814441680908203,0.6280861496925354,0.018567552790045738,0.6652231812477112,0.5411193370819092,-0.00023928970040287822,0.6516575217247009,0.5514736175537109,-0.013375503942370415,0.6464518904685974,0.5775935053825378,-0.01590609736740589,0.7100257873535156,0.6206494569778442,0.0073296912014484406,0.6981068253517151,0.5263965725898743,-0.007472032681107521,0.6808602809906006,0.478885680437088,-0.018070364370942116,0.6682708859443665,0.44041475653648376,-0.02237781323492527,0.7391414046287537,0.6238366961479187,-0.005407318472862244,0.7458211183547974,0.5426468253135681,-0.01313516590744257,0.7492048740386963,0.4861387610435486,-0.018469175323843956,0.752372682094574,0.4314248561859131,-0.021520480513572693,0.0,0.0,0.0,0.0,0.0,0.0,0.0,0.0,0.0,0.0,0.0,0.0,0.0,0.0,0.0,0.0,0.0,0.0,0.0,0.0,0.0,0.0,0.0,0.0,0.0,0.0,0.0,0.0,0.0,0.0,0.0,0.0,0.0,0.0,0.0,0.0,0.0,0.0,0.0,0.0,0.0,0.0,0.0,0.0,0.0,0.0,0.0,0.0,0.0,0.0,0.0,0.0,0.0,0.0,0.0,0.0,0.0,0.0,0.0,0.0,0.0,0.0,0.0
1783390930.369798,0.7332863807678223,0.876246988773346,-1.5357957749984052e-07,0.6927739381790161,0.8349165320396423,-0.008203629404306412,0.6580596566200256,0.7264653444290161,-0.01110354159027338,0.6433846354484558,0.6307249665260315,-0.018115587532520294,0.6540861129760742,0.5568180084228516,-0.023630982264876366,0.6581677198410034,0.6459046006202698,0.027288127690553665,0.6376594305038452,0.5604109764099121,0.013278516940772533,0.6358421444892883,0.5598056316375732,-0.001368364435620606,0.6369372010231018,0.5728672742843628,-0.00994177721440792,0.6834293603897095,0.6250690221786499,0.02075537107884884,0.6676043272018433,0.5423355102539062,0.002639476442709565,0.6600711345672607,0.5510590076446533,-0.014183225110173225,0.6537726521492004,0.5737681984901428,-0.019894422963261604,0.7096179723739624,0.616534411907196,0.00932292826473713,0.6952695250511169,0.5205805897712708,-0.0009095635614357889,0.6801861524581909,0.46710899472236633,-0.01000763289630413,0.6653677225112915,0.4233446717262268,-0.014405507594347,0.7361604571342468,0.6185441017150879,-0.004014861769974232,0.7228092551231384,0.5384674072265625,-0.006119912955909967,0.7155606150627136,0.48566722869873047,-0.006619641091674566,0.709787905216217,0.4376879632472992,-0.007014742586761713,0.0,0.0,0.0,0.0,0.0,0.0,0.0,0.0,0.0,0.0,0.0,0.0,0.0,0.0,0.0,0.0,0.0,0.0,0.0,0.0,0.0,0.0,0.0,0.0,0.0,0.0,0.0,0.0,0.0,0.0,0.0,0.0,0.0,0.0,0.0,0.0,0.0,0.0,0.0,0.0,0.0,0.0,0.0,0.0,0.0,0.0,0.0,0.0,0.0,0.0,0.0,0.0,0.0,0.0,0.0,0.0,0.0,0.0,0.0,0.0,0.0,0.0,0.0
1783390930.5289001,0.7358558773994446,0.8720294833183289,-1.1282404699386461e-07,0.6944130063056946,0.8328601717948914,-0.008754252456128597,0.6599726676940918,0.7241294384002686,-0.010329874232411385,0.6455269455909729,0.6277611255645752,-0.015678782016038895,0.6531906127929688,0.5549243092536926,-0.019419902935624123,0.6590728163719177,0.646838366985321,0.031246131286025047,0.6409956812858582,0.5663484930992126,0.01951446942985058,0.6344960927963257,0.5585831999778748,0.005443226080387831,0.6315403580665588,0.5670441389083862,-0.00294722942635417,0.6832190752029419,0.6243594288825989,0.025989128276705742,0.6669566035270691,0.5457128286361694,0.0116968909278512,0.6585768461227417,0.5462340712547302,-0.003855715738609433,0.6524786353111267,0.5602514147758484,-0.009600643068552017,0.7090899348258972,0.6144886612892151,0.015634123235940933,0.6917921304702759,0.5202361345291138,0.006961281411349773,0.6776291131973267,0.4654708504676819,-0.0011996078537777066,0.6650872826576233,0.42031851410865784,-0.005235691089183092,0.7359464168548584,0.6154015064239502,0.0032089888118207455,0.7206457853317261,0.533611536026001,0.0012362187262624502,0.7126146554946899,0.4794318377971649,0.0011599062709137797,0.7071309685707092,0.4291035532951355,0.001144684967584908,0.0,0.0,0.0,0.0,0.0,0.0,0.0,0.0,0.0,0.0,0.0,0.0,0.0,0.0,0.0,0.0,0.0,0.0,0.0,0.0,0.0,0.0,0.0,0.0,0.0,0.0,0.0,0.0,0.0,0.0,0.0,0.0,0.0,0.0,0.0,0.0,0.0,0.0,0.0,0.0,0.0,0.0,0.0,0.0,0.0,0.0,0.0,0.0,0.0,0.0,0.0,0.0,0.0,0.0,0.0,0.0,0.0,0.0,0.0,0.0,0.0,0.0,0.0
1783390930.688501,0.7359701991081238,0.873551607131958,-7.748483454861343e-08,0.6946160197257996,0.8322867155075073,-0.00966283492743969,0.6605038046836853,0.7237883806228638,-0.011416549794375896,0.6454055905342102,0.6285249590873718,-0.016659168526530266,0.6514987945556641,0.5532597899436951,-0.020151209086179733,0.6584305763244629,0.646753191947937,0.03076876699924469,0.6399310231208801,0.5644587874412537,0.01822720468044281,0.6323033571243286,0.5557124614715576,0.003166463691741228,0.6281890869140625,0.56572425365448,-0.005564585793763399,0.6820423603057861,0.624261200428009,0.026144225150346756,0.66530442237854,0.5422114729881287,0.013504096306860447,0.6544387936592102,0.5334466099739075,-0.002081669634208083,0.6456716060638428,0.541213870048523,-0.008741015568375587,0.7077962756156921,0.615253746509552,0.016208389773964882,0.6905662417411804,0.5213869214057922,0.008664505556225777,0.6761588454246521,0.46653562784194946,0.0009206125396303833,0.6631604433059692,0.42238640785217285,-0.0032228354830294847,0.7347872257232666,0.6170288324356079,0.003979890141636133,0.7195778489112854,0.5355609059333801,0.002246140269562602,0.7109115719795227,0.4812129735946655,0.0022671588230878115,0.7044433355331421,0.4306178092956543,0.002340377075597644,0.0,0.0,0.0,0.0,0.0,0.0,0.0,0.0,0.0,0.0,0.0,0.0,0.0,0.0,0.0,0.0,0.0,0.0,0.0,0.0,0.0,0.0,0.0,0.0,0.0,0.0,0.0,0.0,0.0,0.0,0.0,0.0,0.0,0.0,0.0,0.0,0.0,0.0,0.0,0.0,0.0,0.0,0.0,0.0,0.0,0.0,0.0,0.0,0.0,0.0,0.0,0.0,0.0,0.0,0.0,0.0,0.0,0.0,0.0,0.0,0.0,0.0,0.0
1783390930.859832,0.7363828420639038,0.8751145601272583,-4.6972765233022074e-08,0.6956180930137634,0.8358389735221863,-0.010761586017906666,0.6605409383773804,0.7243613004684448,-0.012263346463441849,0.644818127155304,0.6261045932769775,-0.017063865438103676,0.6502876281738281,0.5492599010467529,-0.02022290974855423,0.6604374051094055,0.6465018391609192,0.032637275755405426,0.6421825885772705,0.5650020837783813,0.021807324141263962,0.6346051692962646,0.5552800893783569,0.007708734832704067,0.6307145953178406,0.5645506381988525,-0.0007025627419352531,0.6845204830169678,0.6243044137954712,0.028701478615403175,0.6693683862686157,0.5424070954322815,0.01833449862897396,0.6582314372062683,0.5310143828392029,0.0031695247162133455,0.649007260799408,0.5334721803665161,-0.004064562730491161,0.7094579935073853,0.616220235824585,0.01915920339524746,0.6941331624984741,0.5245551466941833,0.012834299355745316,0.6800317764282227,0.4702918231487274,0.0046038515865802765,0.666865348815918,0.42548054456710815,-0.000618266873061657,0.7349030375480652,0.6191928386688232,0.007228987757116556,0.719351053237915,0.5399109125137329,0.005873154383152723,0.7103277444839478,0.4867585003376007,0.005409051664173603,0.7032777667045593,0.4358522593975067,0.004636393394321203,0.0,0.0,0.0,0.0,0.0,0.0,0.0,0.0,0.0,0.0,0.0,0.0,0.0,0.0,0.0,0.0,0.0,0.0,0.0,0.0,0.0,0.0,0.0,0.0,0.0,0.0,0.0,0.0,0.0,0.0,0.0,0.0,0.0,0.0,0.0,0.0,0.0,0.0,0.0,0.0,0.0,0.0,0.0,0.0,0.0,0.0,0.0,0.0,0.0,0.0,0.0,0.0,0.0,0.0,0.0,0.0,0.0,0.0,0.0,0.0,0.0,0.0,0.0
1783390930.991262,0.7355480194091797,0.872096598148346,-4.370515682694531e-08,0.6944297552108765,0.8320592641830444,-0.011631976813077927,0.6595157980918884,0.7194389700889587,-0.013165675103664398,0.6467147469520569,0.6192352175712585,-0.017834890633821487,0.6541128754615784,0.5418631434440613,-0.020595144480466843,0.6600354909896851,0.6445300579071045,0.03337506577372551,0.6411852836608887,0.5607565641403198,0.021151350811123848,0.635869562625885,0.5574894547462463,0.005646827165037394,0.6347054839134216,0.5756831765174866,-0.002854853169992566,0.6843242645263672,0.6217578649520874,0.030555587261915207,0.669143557548523,0.5375382304191589,0.021592456847429276,0.6580296754837036,0.523988664150238,0.007131633814424276,0.6486145853996277,0.5272769927978516,0.0003734765632543713,0.7094014286994934,0.6138402223587036,0.02167333848774433,0.6944046020507812,0.5231512784957886,0.017378823831677437,0.680303156375885,0.4682341516017914,0.010618901811540127,0.6671790480613708,0.4247643053531647,0.006375676020979881,0.7351240515708923,0.6174127459526062,0.010039335116744041,0.7193434238433838,0.5389364957809448,0.010602780617773533,0.7097908854484558,0.4872669279575348,0.01150963082909584,0.7022568583488464,0.4383293390274048,0.011796261183917522,0.0,0.0,0.0,0.0,0.0,0.0,0.0,0.0,0.0,0.0,0.0,0.0,0.0,0.0,0.0,0.0,0.0,0.0,0.0,0.0,0.0,0.0,0.0,0.0,0.0,0.0,0.0,0.0,0.0,0.0,0.0,0.0,0.0,0.0,0.0,0.0,0.0,0.0,0.0,0.0,0.0,0.0,0.0,0.0,0.0,0.0,0.0,0.0,0.0,0.0,0.0,0.0,0.0,0.0,0.0,0.0,0.0,0.0,0.0,0.0,0.0,0.0,0.0
1783390931.157878,0.7363831400871277,0.8714151382446289,1.8278312197139712e-08,0.6943569779396057,0.8290579915046692,-0.012453215196728706,0.6600027084350586,0.7211310863494873,-0.014196518808603287,0.6446508765220642,0.6233699917793274,-0.018634064123034477,0.6499181389808655,0.5453078150749207,-0.021079599857330322,0.6616075038909912,0.6422604322433472,0.03284981846809387,0.6439401507377625,0.561351478099823,0.0219973586499691,0.6352473497390747,0.5555967688560486,0.0073397038504481316,0.6299325823783875,0.5687336325645447,-0.0010188957676291466,0.685084342956543,0.6205945611000061,0.030782688409090042,0.6714867949485779,0.5351526141166687,0.02614658512175083,0.6594014167785645,0.5081473588943481,0.013679240830242634,0.6478648781776428,0.49373528361320496,0.005968645680695772,0.709697961807251,0.6149106025695801,0.022468326613307,0.6949490904808044,0.5257824659347534,0.018666774034500122,0.6807193756103516,0.47068607807159424,0.011419645510613918,0.6669274568557739,0.424903929233551,0.00596531992778182,0.7347985506057739,0.6193610429763794,0.011490040458738804,0.719092071056366,0.5411170721054077,0.010864325799047947,0.7093855738639832,0.48946434259414673,0.010637439787387848,0.7008553743362427,0.4401024281978607,0.00970072764903307,0.0,0.0,0.0,0.0,0.0,0.0,0.0,0.0,0.0,0.0,0.0,0.0,0.0,0.0,0.0,0.0,0.0,0.0,0.0,0.0,0.0,0.0,0.0,0.0,0.0,0.0,0.0,0.0,0.0,0.0,0.0,0.0,0.0,0.0,0.0,0.0,0.0,0.0,0.0,0.0,0.0,0.0,0.0,0.0,0.0,0.0,0.0,0.0,0.0,0.0,0.0,0.0,0.0,0.0,0.0,0.0,0.0,0.0,0.0,0.0,0.0,0.0,0.0
1783390931.2889228,0.7373514771461487,0.8677371740341187,-2.8502686433284907e-08,0.6949993371963501,0.8287636041641235,-0.011993813328444958,0.6594639420509338,0.717194676399231,-0.01319768838584423,0.6456122398376465,0.6164137721061707,-0.017257850617170334,0.6524069905281067,0.5386454463005066,-0.01946239359676838,0.6594784259796143,0.6427074670791626,0.03285130485892296,0.6407440304756165,0.5616399645805359,0.02176067791879177,0.6344945430755615,0.5538622736930847,0.006885234732180834,0.6316359043121338,0.5664241313934326,-0.001774490694515407,0.6833816170692444,0.6189562082290649,0.03034401871263981,0.6682204604148865,0.536933958530426,0.02330545336008072,0.6578956842422485,0.5186879634857178,0.009439143352210522,0.6483330726623535,0.5152323246002197,0.0017457829089835286,0.7082355618476868,0.6104065775871277,0.021800154820084572,0.6934444308280945,0.5215775370597839,0.017414802685379982,0.6801241636276245,0.46849122643470764,0.009923737496137619,0.6669829487800598,0.42538881301879883,0.004550144542008638,0.7340136170387268,0.6125714778900146,0.01060081459581852,0.7179914712905884,0.5351147055625916,0.010152475908398628,0.7086108326911926,0.4844413995742798,0.010021284222602844,0.700639009475708,0.43581095337867737,0.009176425635814667,0.0,0.0,0.0,0.0,0.0,0.0,0.0,0.0,0.0,0.0,0.0,0.0,0.0,0.0,0.0,0.0,0.0,0.0,0.0,0.0,0.0,0.0,0.0,0.0,0.0,0.0,0.0,0.0,0.0,0.0,0.0,0.0,0.0,0.0,0.0,0.0,0.0,0.0,0.0,0.0,0.0,0.0,0.0,0.0,0.0,0.0,0.0,0.0,0.0,0.0,0.0,0.0,0.0,0.0,0.0,0.0,0.0,0.0,0.0,0.0,0.0,0.0,0.0
1783390931.4268959,0.7361527681350708,0.8576133847236633,-5.070593545042357e-08,0.6961628198623657,0.8176577687263489,-0.01060707401484251,0.6616126894950867,0.7053170800209045,-0.012199274264276028,0.6478717923164368,0.6065765023231506,-0.017256803810596466,0.6541128754615784,0.528939962387085,-0.020750369876623154,0.6618791222572327,0.6338215470314026,0.033253904432058334,0.6424520015716553,0.5512257218360901,0.020901810377836227,0.6355959177017212,0.5425676107406616,0.005187108181416988,0.633136510848999,0.5589715838432312,-0.0036727949045598507,0.6845453381538391,0.610803484916687,0.029488297179341316,0.6689517498016357,0.5268229246139526,0.01819165050983429,0.6588209867477417,0.5180373787879944,0.00274660880677402,0.6511984467506409,0.5320817828178406,-0.003931670915335417,0.7082953453063965,0.601206362247467,0.019897598773241043,0.6935833692550659,0.5083996057510376,0.01477402076125145,0.6792625188827515,0.4544380307197571,0.007190156728029251,0.6664142608642578,0.4146016538143158,0.002513581421226263,0.7331392765045166,0.6034414172172546,0.007649746257811785,0.7175407409667969,0.525700569152832,0.008229115046560764,0.7083508968353271,0.4750334620475769,0.008619079366326332,0.7015129923820496,0.42964401841163635,0.008311163634061813,0.0,0.0,0.0,0.0,0.0,0.0,0.0,0.0,0.0,0.0,0.0,0.0,0.0,0.0,0.0,0.0,0.0,0.0,0.0,0.0,0.0,0.0,0.0,0.0,0.0,0.0,0.0,0.0,0.0,0.0,0.0,0.0,0.0,0.0,0.0,0.0,0.0,0.0,0.0,0.0,0.0,0.0,0.0,0.0,0.0,0.0,0.0,0.0,0.0,0.0,0.0,0.0,0.0,0.0,0.0,0.0,0.0,0.0,0.0,0.0,0.0,0.0,0.0
1783390931.550163,0.7378872632980347,0.8545855283737183,-2.833945345059874e-08,0.6960475444793701,0.8131920099258423,-0.011958671733736992,0.6625253558158875,0.7021651268005371,-0.013808848336338997,0.64975506067276,0.6030532121658325,-0.01898064650595188,0.6558739542961121,0.5243368148803711,-0.022530656307935715,0.6602481007575989,0.6310733556747437,0.035059988498687744,0.6399081945419312,0.5519444942474365,0.023809095844626427,0.6360474824905396,0.5423837900161743,0.008342523127794266,0.6361210942268372,0.5527428388595581,-0.0007768508512526751,0.6845083832740784,0.607391893863678,0.03177417442202568,0.6683949828147888,0.5265671014785767,0.021138479933142662,0.6597329378128052,0.516382098197937,0.004864883609116077,0.6531521081924438,0.5234602093696594,-0.0026561596896499395,0.7091516852378845,0.5977973937988281,0.022532671689987183,0.6941045522689819,0.5071511268615723,0.0170852430164814,0.6804741024971008,0.4519190490245819,0.009307640604674816,0.6683505773544312,0.40819239616394043,0.0047116451896727085,0.7352097034454346,0.5999472737312317,0.010524891316890717,0.7189117074012756,0.5213890671730042,0.010624086484313011,0.7095730900764465,0.46953538060188293,0.011288798414170742,0.7024617791175842,0.42161989212036133,0.011467463336884975,0.0,0.0,0.0,0.0,0.0,0.0,0.0,0.0,0.0,0.0,0.0,0.0,0.0,0.0,0.0,0.0,0.0,0.0,0.0,0.0,0.0,0.0,0.0,0.0,0.0,0.0,0.0,0.0,0.0,0.0,0.0,0.0,0.0,0.0,0.0,0.0,0.0,0.0,0.0,0.0,0.0,0.0,0.0,0.0,0.0,0.0,0.0,0.0,0.0,0.0,0.0,0.0,0.0,0.0,0.0,0.0,0.0,0.0,0.0,0.0,0.0,0.0,0.0
1783390931.690243,0.738639235496521,0.8534801602363586,-1.948636452198116e-08,0.6976745128631592,0.8134841322898865,-0.011622591875493526,0.6628463268280029,0.7016931176185608,-0.013501410372555256,0.6489483118057251,0.6025753021240234,-0.01869041472673416,0.6557138562202454,0.5252963900566101,-0.02233823761343956,0.6601606607437134,0.6316777467727661,0.03410673141479492,0.6399574875831604,0.5501359105110168,0.023192977532744408,0.6369203329086304,0.5386810898780823,0.008122981525957584,0.6370552182197571,0.5501237511634827,-0.00075597531395033,0.6847383379936218,0.6077366471290588,0.03081340342760086,0.6684315204620361,0.5274524688720703,0.020617486909031868,0.6611033082008362,0.5171073079109192,0.004500274080783129,0.6551551222801208,0.5252400636672974,-0.0030597441364079714,0.7098848223686218,0.5976247787475586,0.021744953468441963,0.6940511465072632,0.5068982243537903,0.01687900722026825,0.6809845566749573,0.4514354467391968,0.008798379451036453,0.668667733669281,0.40824583172798157,0.0036711457651108503,0.7363131046295166,0.5991489291191101,0.010018741711974144,0.7198981642723083,0.5209900736808777,0.010496255941689014,0.7106378674507141,0.46866127848625183,0.010880873538553715,0.7034228444099426,0.4202795624732971,0.010617872700095177,0.0,0.0,0.0,0.0,0.0,0.0,0.0,0.0,0.0,0.0,0.0,0.0,0.0,0.0,0.0,0.0,0.0,0.0,0.0,0.0,0.0,0.0,0.0,0.0,0.0,0.0,0.0,0.0,0.0,0.0,0.0,0.0,0.0,0.0,0.0,0.0,0.0,0.0,0.0,0.0,0.0,0.0,0.0,0.0,0.0,0.0,0.0,0.0,0.0,0.0,0.0,0.0,0.0,0.0,0.0,0.0,0.0,0.0,0.0,0.0,0.0,0.0,0.0
1783390931.824972,0.7383967041969299,0.8556891083717346,-1.8128220702351427e-08,0.6983506083488464,0.8144927024841309,-0.011170435696840286,0.6636940240859985,0.7043311595916748,-0.013066009618341923,0.649432897567749,0.6063762903213501,-0.018500909209251404,0.6546544432640076,0.5286210775375366,-0.022429084405303,0.6609857678413391,0.6309955716133118,0.035304512828588486,0.6422907710075378,0.551233172416687,0.024303874000906944,0.6366906762123108,0.5407072305679321,0.008993629366159439,0.634232759475708,0.5528469681739807,-6.922933971509337e-05,0.6851006150245667,0.6079496145248413,0.03147038817405701,0.6692373156547546,0.5265404582023621,0.020947635173797607,0.6598183512687683,0.5155013799667358,0.0043564955703914165,0.6522427201271057,0.5239129066467285,-0.003495203796774149,0.7101288437843323,0.5987634062767029,0.02185199223458767,0.6948961615562439,0.508180558681488,0.01654624752700329,0.681323766708374,0.45374026894569397,0.008195631206035614,0.6684547066688538,0.411920964717865,0.003021937096491456,0.736461877822876,0.6016860604286194,0.009597737342119217,0.7212849259376526,0.5235521197319031,0.009372018277645111,0.7119988203048706,0.47085893154144287,0.00926832016557455,0.7043889760971069,0.4223625659942627,0.008786983788013458,0.0,0.0,0.0,0.0,0.0,0.0,0.0,0.0,0.0,0.0,0.0,0.0,0.0,0.0,0.0,0.0,0.0,0.0,0.0,0.0,0.0,0.0,0.0,0.0,0.0,0.0,0.0,0.0,0.0,0.0,0.0,0.0,0.0,0.0,0.0,0.0,0.0,0.0,0.0,0.0,0.0,0.0,0.0,0.0,0.0,0.0,0.0,0.0,0.0,0.0,0.0,0.0,0.0,0.0,0.0,0.0,0.0,0.0,0.0,0.0,0.0,0.0,0.0
1783390931.9594991,0.740383505821228,0.8577559590339661,-2.0804181488642826e-08,0.6995213627815247,0.816157877445221,-0.010831975378096104,0.665996789932251,0.7061519622802734,-0.012860250659286976,0.6520435810089111,0.6083401441574097,-0.01825987733900547,0.6559216380119324,0.5294732451438904,-0.022195417433977127,0.6641572117805481,0.6319839358329773,0.03345757722854614,0.6446416974067688,0.5525450110435486,0.022391660138964653,0.6403684616088867,0.5389452576637268,0.00736228609457612,0.639596164226532,0.5473492741584778,-0.0015825963346287608,0.6884685754776001,0.6089227795600891,0.02957633137702942,0.6730751991271973,0.5284499526023865,0.019145237281918526,0.6649436950683594,0.5168011784553528,0.0029684877954423428,0.6580881476402283,0.5227956175804138,-0.0048982431180775166,0.7132429480552673,0.5997472405433655,0.02010493166744709,0.6982824206352234,0.5091003179550171,0.014497478492558002,0.6851971745491028,0.45514655113220215,0.006104964297264814,0.6726431250572205,0.41303306818008423,0.0007367163198068738,0.7385554313659668,0.602243185043335,0.008124615997076035,0.7230812907218933,0.5235041975975037,0.007433021906763315,0.7143971920013428,0.47080180048942566,0.007133010309189558,0.7076658606529236,0.422246515750885,0.006478950846940279,0.0,0.0,0.0,0.0,0.0,0.0,0.0,0.0,0.0,0.0,0.0,0.0,0.0,0.0,0.0,0.0,0.0,0.0,0.0,0.0,0.0,0.0,0.0,0.0,0.0,0.0,0.0,0.0,0.0,0.0,0.0,0.0,0.0,0.0,0.0,0.0,0.0,0.0,0.0,0.0,0.0,0.0,0.0,0.0,0.0,0.0,0.0,0.0,0.0,0.0,0.0,0.0,0.0,0.0,0.0,0.0,0.0,0.0,0.0,0.0,0.0,0.0,0.0
1783390932.120579,0.7426599264144897,0.8476863503456116,-5.102962674641276e-08,0.7029954195022583,0.807067334651947,-0.01062439102679491,0.6697895526885986,0.694671630859375,-0.011851378716528416,0.6589975953102112,0.5941500663757324,-0.016458578407764435,0.6658779978752136,0.5176626443862915,-0.01953141763806343,0.6696359515190125,0.6246917247772217,0.032745640724897385,0.6509113907814026,0.5430551171302795,0.020712291821837425,0.6453711986541748,0.5324180126190186,0.005222954787313938,0.6438408493995667,0.5459891557693481,-0.0038021113723516464,0.6925417184829712,0.6011586785316467,0.028814686462283134,0.6771293878555298,0.5174859166145325,0.0172504261136055,0.6666020750999451,0.5076732039451599,0.0012724122498184443,0.6582232713699341,0.5179051160812378,-0.006206517107784748,0.7161198258399963,0.5920366644859314,0.01913384161889553,0.7022645473480225,0.4987025558948517,0.012690950185060501,0.6881875395774841,0.44568127393722534,0.0037445209454745054,0.6754950284957886,0.4061650335788727,-0.001933323685079813,0.7407801151275635,0.5944353938102722,0.006931046023964882,0.7263731956481934,0.51587975025177,0.006068503949791193,0.7173478007316589,0.46436211466789246,0.005227276589721441,0.710405170917511,0.41774094104766846,0.0039055966772139072,0.0,0.0,0.0,0.0,0.0,0.0,0.0,0.0,0.0,0.0,0.0,0.0,0.0,0.0,0.0,0.0,0.0,0.0,0.0,0.0,0.0,0.0,0.0,0.0,0.0,0.0,0.0,0.0,0.0,0.0,0.0,0.0,0.0,0.0,0.0,0.0,0.0,0.0,0.0,0.0,0.0,0.0,0.0,0.0,0.0,0.0,0.0,0.0,0.0,0.0,0.0,0.0,0.0,0.0,0.0,0.0,0.0,0.0,0.0,0.0,0.0,0.0,0.0
1783390932.256892,0.7457252144813538,0.8413294553756714,-2.5653848823026237e-08,0.705703616142273,0.8012091517448425,-0.011858711950480938,0.6730882525444031,0.6904538869857788,-0.01365532074123621,0.6609745621681213,0.5909749865531921,-0.01865784451365471,0.6667865514755249,0.5132977366447449,-0.02225336618721485,0.6715018153190613,0.621058464050293,0.03317594528198242,0.6528705954551697,0.5420786738395691,0.021801484748721123,0.6477310657501221,0.5284666419029236,0.006324781104922295,0.6457691192626953,0.5373942255973816,-0.0029636952094733715,0.6948524117469788,0.5974575877189636,0.029799381271004677,0.6789051294326782,0.516789972782135,0.018993044272065163,0.6700007319450378,0.5037782788276672,0.0025988866109400988,0.6627349853515625,0.5095361471176147,-0.005562647711485624,0.718864381313324,0.5879149436950684,0.020613279193639755,0.7041289210319519,0.49670013785362244,0.01430901326239109,0.6914588809013367,0.4411768913269043,0.005253687500953674,0.6798862218856812,0.39836549758911133,-0.0006012739613652229,0.7439268231391907,0.5900847315788269,0.008837602101266384,0.7288956046104431,0.5115247964859009,0.007890029810369015,0.720529317855835,0.4590222239494324,0.007297609467059374,0.7142470479011536,0.4114914834499359,0.006160394754260778,0.0,0.0,0.0,0.0,0.0,0.0,0.0,0.0,0.0,0.0,0.0,0.0,0.0,0.0,0.0,0.0,0.0,0.0,0.0,0.0,0.0,0.0,0.0,0.0,0.0,0.0,0.0,0.0,0.0,0.0,0.0,0.0,0.0,0.0,0.0,0.0,0.0,0.0,0.0,0.0,0.0,0.0,0.0,0.0,0.0,0.0,0.0,0.0,0.0,0.0,0.0,0.0,0.0,0.0,0.0,0.0,0.0,0.0,0.0,0.0,0.0,0.0,0.0
1783390932.418869,0.7466162443161011,0.847618579864502,6.109239336637984e-08,0.705787718296051,0.805200457572937,-0.01148147601634264,0.672855794429779,0.6948263645172119,-0.011930652894079685,0.6590386033058167,0.5965913534164429,-0.015408911742269993,0.6631895303726196,0.5185906887054443,-0.01746627874672413,0.6726852655410767,0.6256109476089478,0.03565721586346626,0.654898464679718,0.5495111346244812,0.026839831843972206,0.6485946178436279,0.5333849787712097,0.012895556166768074,0.6455623507499695,0.5357216596603394,0.004126450978219509,0.6961833238601685,0.6019840240478516,0.03266789764165878,0.6826673746109009,0.5199654698371887,0.027850640937685966,0.6726704239845276,0.48964157700538635,0.013625905849039555,0.6634218692779541,0.471844881772995,0.004342777654528618,0.7204057574272156,0.5939883589744568,0.023610221222043037,0.7060862183570862,0.5059031844139099,0.01928335800766945,0.6930302977561951,0.44922780990600586,0.010039051994681358,0.680225133895874,0.40262532234191895,0.0029945862479507923,0.7452816367149353,0.5959223508834839,0.012022553943097591,0.7308362126350403,0.5174684524536133,0.010684609413146973,0.7218972444534302,0.4644845724105835,0.009132396429777145,0.7137235999107361,0.41469576954841614,0.006910267286002636,0.0,0.0,0.0,0.0,0.0,0.0,0.0,0.0,0.0,0.0,0.0,0.0,0.0,0.0,0.0,0.0,0.0,0.0,0.0,0.0,0.0,0.0,0.0,0.0,0.0,0.0,0.0,0.0,0.0,0.0,0.0,0.0,0.0,0.0,0.0,0.0,0.0,0.0,0.0,0.0,0.0,0.0,0.0,0.0,0.0,0.0,0.0,0.0,0.0,0.0,0.0,0.0,0.0,0.0,0.0,0.0,0.0,0.0,0.0,0.0,0.0,0.0,0.0
1783390932.55844,0.7413655519485474,0.8734670281410217,-9.201745143627704e-08,0.6986754536628723,0.8362969756126404,-0.009931442327797413,0.6637508273124695,0.7259435653686523,-0.01124337688088417,0.6524327397346497,0.6291958689689636,-0.015676045790314674,0.6623831987380981,0.5523990988731384,-0.018466878682374954,0.6663916110992432,0.6486276388168335,0.028261452913284302,0.6467127203941345,0.5678297877311707,0.015186035074293613,0.6409419178962708,0.5604174733161926,7.416598964482546e-05,0.6396499276161194,0.5750062465667725,-0.008172496221959591,0.6900479793548584,0.6263124346733093,0.023775897920131683,0.6755740642547607,0.541510283946991,0.011593890376389027,0.6633944511413574,0.5291588306427002,-0.0037118971813470125,0.6524114608764648,0.5372805595397949,-0.010624237358570099,0.7150838971138,0.6198460459709167,0.013864124193787575,0.7023328542709351,0.5258270502090454,0.006232136860489845,0.6864795684814453,0.4739190340042114,-0.003167327493429184,0.6719853281974792,0.43824416399002075,-0.008547105826437473,0.7398216724395752,0.6243996620178223,0.0017264351481571794,0.7255925536155701,0.5453327298164368,-0.0009846932953223586,0.7156601548194885,0.4915573298931122,-0.0033716342877596617,0.7076328992843628,0.4435708224773407,-0.005099297966808081,0.0,0.0,0.0,0.0,0.0,0.0,0.0,0.0,0.0,0.0,0.0,0.0,0.0,0.0,0.0,0.0,0.0,0.0,0.0,0.0,0.0,0.0,0.0,0.0,0.0,0.0,0.0,0.0,0.0,0.0,0.0,0.0,0.0,0.0,0.0,0.0,0.0,0.0,0.0,0.0,0.0,0.0,0.0,0.0,0.0,0.0,0.0,0.0,0.0,0.0,0.0,0.0,0.0,0.0,0.0,0.0,0.0,0.0,0.0,0.0,0.0,0.0,0.0
1783390932.685178,0.7356434464454651,0.9133899807929993,-1.7620021708353306e-07,0.6933488249778748,0.8760673999786377,-0.008631239645183086,0.6579338312149048,0.771460235118866,-0.01171848550438881,0.6455038189888,0.6744557023048401,-0.018553894013166428,0.6542801260948181,0.5944535136222839,-0.023547207936644554,0.6576159000396729,0.6886624097824097,0.027978118509054184,0.6374217867851257,0.6024051904678345,0.012980476021766663,0.6318342685699463,0.6029664874076843,-0.0028285374864935875,0.6293512582778931,0.6258206367492676,-0.011158146895468235,0.6811849474906921,0.6665046811103821,0.022508783265948296,0.6653554439544678,0.5849887728691101,0.008525168523192406,0.6559683680534363,0.5851669907569885,-0.006565176881849766,0.6470545530319214,0.601961612701416,-0.012624558992683887,0.7066660523414612,0.6588304042816162,0.011676164343953133,0.6917802095413208,0.5662332773208618,0.004150925669819117,0.6766908764839172,0.5165703296661377,-0.00385805731639266,0.6625009775161743,0.4792660176753998,-0.008448926731944084,0.7321774363517761,0.6633557677268982,-0.0013376334682106972,0.7165189385414124,0.5867003798484802,-0.0029347490053623915,0.7067447304725647,0.534464955329895,-0.003783626714721322,0.6989566683769226,0.4862108826637268,-0.004523796029388905,0.0,0.0,0.0,0.0,0.0,0.0,0.0,0.0,0.0,0.0,0.0,0.0,0.0,0.0,0.0,0.0,0.0,0.0,0.0,0.0,0.0,0.0,0.0,0.0,0.0,0.0,0.0,0.0,0.0,0.0,0.0,0.0,0.0,0.0,0.0,0.0,0.0,0.0,0.0,0.0,0.0,0.0,0.0,0.0,0.0,0.0,0.0,0.0,0.0,0.0,0.0,0.0,0.0,0.0,0.0,0.0,0.0,0.0,0.0,0.0,0.0,0.0,0.0
1783390932.8195279,0.7289310097694397,0.9215227961540222,-1.0490136759244706e-07,0.6886389851570129,0.8828994035720825,-0.006871633231639862,0.6521310210227966,0.7747473120689392,-0.0076960911974310875,0.635405957698822,0.6801547408103943,-0.012704351916909218,0.6422472596168518,0.6049924492835999,-0.015936177223920822,0.654421865940094,0.6924845576286316,0.032643310725688934,0.6354082822799683,0.6060464382171631,0.020477283746004105,0.6277036666870117,0.6047306656837463,0.005900559481233358,0.6237819790840149,0.6230053305625916,-0.002251954283565283,0.6771170496940613,0.6725540161132812,0.026577962562441826,0.661406934261322,0.587593674659729,0.014974106103181839,0.6476202011108398,0.5806818604469299,7.992549944901839e-05,0.6355913281440735,0.5930888056755066,-0.006237549241632223,0.7011956572532654,0.6650828719139099,0.015236890874803066,0.6866629719734192,0.5737156867980957,0.009999165311455727,0.6698578000068665,0.522413969039917,0.002520098350942135,0.6535449028015137,0.483563095331192,-0.0019435090944170952,0.72586989402771,0.6680672764778137,0.0016055115265771747,0.711348831653595,0.5899577736854553,0.0016673309728503227,0.7010829448699951,0.5368828177452087,0.0013755431864410639,0.6927883625030518,0.48807603120803833,0.0007869194960221648,0.0,0.0,0.0,0.0,0.0,0.0,0.0,0.0,0.0,0.0,0.0,0.0,0.0,0.0,0.0,0.0,0.0,0.0,0.0,0.0,0.0,0.0,0.0,0.0,0.0,0.0,0.0,0.0,0.0,0.0,0.0,0.0,0.0,0.0,0.0,0.0,0.0,0.0,0.0,0.0,0.0,0.0,0.0,0.0,0.0,0.0,0.0,0.0,0.0,0.0,0.0,0.0,0.0,0.0,0.0,0.0,0.0,0.0,0.0,0.0,0.0,0.0,0.0
1783390932.955347,0.7286772131919861,0.9052271842956543,-3.531970804715456e-08,0.6860669255256653,0.8672258257865906,-0.009953364729881287,0.6498792767524719,0.7585610747337341,-0.011891900561749935,0.6332475543022156,0.6628203392028809,-0.017781423404812813,0.6401506066322327,0.5865243673324585,-0.021884620189666748,0.6500005722045898,0.6811045408248901,0.03527376800775528,0.6302946209907532,0.5981906652450562,0.021973786875605583,0.6242195963859558,0.5931494235992432,0.005751358810812235,0.6235807538032532,0.609510064125061,-0.0029214327223598957,0.6731070280075073,0.6579923033714294,0.031206239014863968,0.6571069955825806,0.5745914578437805,0.020312095060944557,0.645676851272583,0.5655441880226135,0.005715486127883196,0.6363687515258789,0.5748493671417236,-8.917982631828636e-05,0.6973900198936462,0.6478131413459778,0.021083733066916466,0.681045413017273,0.5550743341445923,0.016602084040641785,0.6644816994667053,0.503820538520813,0.01075141690671444,0.6492972373962402,0.46487700939178467,0.007720119785517454,0.722276508808136,0.6499885320663452,0.008147490210831165,0.7053070068359375,0.5705724954605103,0.009300612844526768,0.6948660612106323,0.5183810591697693,0.010695502161979675,0.6866458654403687,0.46999940276145935,0.011643724516034126,0.0,0.0,0.0,0.0,0.0,0.0,0.0,0.0,0.0,0.0,0.0,0.0,0.0,0.0,0.0,0.0,0.0,0.0,0.0,0.0,0.0,0.0,0.0,0.0,0.0,0.0,0.0,0.0,0.0,0.0,0.0,0.0,0.0,0.0,0.0,0.0,0.0,0.0,0.0,0.0,0.0,0.0,0.0,0.0,0.0,0.0,0.0,0.0,0.0,0.0,0.0,0.0,0.0,0.0,0.0,0.0,0.0,0.0,0.0,0.0,0.0,0.0,0.0
1783390933.140065,0.7302660942077637,0.9029538631439209,-3.3529275356158905e-08,0.6886694431304932,0.8632785677909851,-0.0110101867467165,0.6528456211090088,0.7557132840156555,-0.013156425207853317,0.6370370984077454,0.6580878496170044,-0.019092068076133728,0.6416054964065552,0.5796878337860107,-0.02322644554078579,0.6510663628578186,0.6772373914718628,0.036347292363643646,0.6305543780326843,0.5966788530349731,0.02455613575875759,0.6239634156227112,0.591830313205719,0.008920577354729176,0.6223337054252625,0.6081719994544983,8.109273767331615e-05,0.6745679378509521,0.6539050936698914,0.03239123895764351,0.6580879092216492,0.5709913372993469,0.02210904285311699,0.6461542248725891,0.5607910752296448,0.00634505832567811,0.6367132663726807,0.5689165592193604,-0.0007777256541885436,0.6987582445144653,0.6445095539093018,0.02238868549466133,0.6831217408180237,0.5543021559715271,0.01748870499432087,0.6672388315200806,0.502441942691803,0.010132038965821266,0.6528259515762329,0.4631105661392212,0.005818095523864031,0.7237603664398193,0.6474645137786865,0.009584878571331501,0.7074998617172241,0.5689032673835754,0.01005910336971283,0.6970062255859375,0.5166704058647156,0.010725866071879864,0.6885941624641418,0.46860405802726746,0.010926658287644386,0.0,0.0,0.0,0.0,0.0,0.0,0.0,0.0,0.0,0.0,0.0,0.0,0.0,0.0,0.0,0.0,0.0,0.0,0.0,0.0,0.0,0.0,0.0,0.0,0.0,0.0,0.0,0.0,0.0,0.0,0.0,0.0,0.0,0.0,0.0,0.0,0.0,0.0,0.0,0.0,0.0,0.0,0.0,0.0,0.0,0.0,0.0,0.0,0.0,0.0,0.0,0.0,0.0,0.0,0.0,0.0,0.0,0.0,0.0,0.0,0.0,0.0,0.0
1783390933.2923179,0.7320879101753235,0.9084028601646423,-9.709814463576549e-08,0.6909148693084717,0.8705572485923767,-0.009879532270133495,0.6536597013473511,0.7616406083106995,-0.011374319903552532,0.636853039264679,0.666634202003479,-0.016382724046707153,0.6445269584655762,0.5912298560142517,-0.01967274211347103,0.6506825089454651,0.6837420463562012,0.0317988358438015,0.6320381760597229,0.6049084663391113,0.019436195492744446,0.6258837580680847,0.5963299870491028,0.004291640594601631,0.6231601238250732,0.6048052310943604,-0.004741753917187452,0.674734890460968,0.6609129309654236,0.027236176654696465,0.6584526300430298,0.5828596353530884,0.014569486491382122,0.6485099196434021,0.5769956707954407,-0.0011784036178141832,0.63958740234375,0.5850534439086914,-0.008070962503552437,0.7002667188644409,0.6517579555511475,0.01715673878788948,0.683964192867279,0.5619068145751953,0.009515689685940742,0.6688048839569092,0.5109193921089172,0.0010772653622552752,0.6537261605262756,0.4697090685367584,-0.0036076309625059366,0.7265775203704834,0.6535205841064453,0.004734542686492205,0.7103163003921509,0.5756068825721741,0.002517524641007185,0.7001416087150574,0.5235188007354736,0.0014554262161254883,0.6915544271469116,0.47362786531448364,0.0006354380748234689,0.0,0.0,0.0,0.0,0.0,0.0,0.0,0.0,0.0,0.0,0.0,0.0,0.0,0.0,0.0,0.0,0.0,0.0,0.0,0.0,0.0,0.0,0.0,0.0,0.0,0.0,0.0,0.0,0.0,0.0,0.0,0.0,0.0,0.0,0.0,0.0,0.0,0.0,0.0,0.0,0.0,0.0,0.0,0.0,0.0,0.0,0.0,0.0,0.0,0.0,0.0,0.0,0.0,0.0,0.0,0.0,0.0,0.0,0.0,0.0,0.0,0.0,0.0
1783390933.449142,0.7325778603553772,0.8955211043357849,-5.999023500180556e-08,0.6914591193199158,0.8577539324760437,-0.011144026182591915,0.6554956436157227,0.7496705055236816,-0.01417052187025547,0.6401181817054749,0.6531257033348083,-0.020904280245304108,0.6437140703201294,0.5748511552810669,-0.025726689025759697,0.6547920107841492,0.6700337529182434,0.03392583504319191,0.6354071497917175,0.5850818157196045,0.0195641927421093,0.6279467940330505,0.581602156162262,0.0022314595989882946,0.6253477931022644,0.6039512753486633,-0.007211154792457819,0.6780136227607727,0.6486937403678894,0.02964841201901436,0.6615250706672668,0.5629297494888306,0.015200302936136723,0.6493587493896484,0.5599339008331299,-0.0022340896539390087,0.6404589414596558,0.5809581875801086,-0.009046370163559914,0.7019932270050049,0.6397745609283447,0.019406618550419807,0.6866368651390076,0.5469451546669006,0.013425447046756744,0.6710216999053955,0.49522337317466736,0.006010944955050945,0.6573296785354614,0.45825618505477905,0.00207227049395442,0.7273319959640503,0.6430063843727112,0.006265247706323862,0.7114414572715759,0.5657107830047607,0.0069479262456297874,0.7007596492767334,0.5145899057388306,0.007753054611384869,0.6925360560417175,0.4679327607154846,0.008120618760585785,0.0,0.0,0.0,0.0,0.0,0.0,0.0,0.0,0.0,0.0,0.0,0.0,0.0,0.0,0.0,0.0,0.0,0.0,0.0,0.0,0.0,0.0,0.0,0.0,0.0,0.0,0.0,0.0,0.0,0.0,0.0,0.0,0.0,0.0,0.0,0.0,0.0,0.0,0.0,0.0,0.0,0.0,0.0,0.0,0.0,0.0,0.0,0.0,0.0,0.0,0.0,0.0,0.0,0.0,0.0,0.0,0.0,0.0,0.0,0.0,0.0,0.0,0.0
1783390933.585859,0.7357698082923889,0.8809662461280823,-5.919195089632012e-08,0.6930294632911682,0.8433904051780701,-0.010689826682209969,0.6580299735069275,0.7338915467262268,-0.01264319196343422,0.6452141404151917,0.6346631050109863,-0.0182328000664711,0.6511134505271912,0.5566345453262329,-0.02197165973484516,0.6598609089851379,0.6574065685272217,0.034912288188934326,0.6406588554382324,0.5748277306556702,0.022717678919434547,0.6350021958351135,0.5696395635604858,0.007252268493175507,0.6338529586791992,0.588472843170166,-0.0013034589355811477,0.6835778951644897,0.6354835629463196,0.031017499044537544,0.6682864427566528,0.5511019229888916,0.019288962706923485,0.6588358879089355,0.5468642115592957,0.003486772533506155,0.6519331932067871,0.5621132850646973,-0.0030608598608523607,0.707078754901886,0.6262207627296448,0.021192187443375587,0.6924712061882019,0.5350038409233093,0.01602710410952568,0.6768919825553894,0.4841148853302002,0.008673508651554585,0.6631002426147461,0.44592800736427307,0.004250344354659319,0.7313557267189026,0.6283296942710876,0.008624243550002575,0.7157389521598816,0.5515725016593933,0.009311595931649208,0.7052640914916992,0.5008684396743774,0.009876228868961334,0.6971612572669983,0.45355647802352905,0.009770814329385757,0.0,0.0,0.0,0.0,0.0,0.0,0.0,0.0,0.0,0.0,0.0,0.0,0.0,0.0,0.0,0.0,0.0,0.0,0.0,0.0,0.0,0.0,0.0,0.0,0.0,0.0,0.0,0.0,0.0,0.0,0.0,0.0,0.0,0.0,0.0,0.0,0.0,0.0,0.0,0.0,0.0,0.0,0.0,0.0,0.0,0.0,0.0,0.0,0.0,0.0,0.0,0.0,0.0,0.0,0.0,0.0,0.0,0.0,0.0,0.0,0.0,0.0,0.0
1783390933.7143512,0.7368146181106567,0.8772534728050232,2.6460686086693386e-08,0.6946699023246765,0.8367432355880737,-0.012821794487535954,0.6584449410438538,0.7290958166122437,-0.01428345125168562,0.6436411142349243,0.6307616233825684,-0.018710855394601822,0.6511892080307007,0.5541236400604248,-0.021330280229449272,0.659058690071106,0.6563979387283325,0.03533363342285156,0.639369010925293,0.581063985824585,0.025545446202158928,0.6342058777809143,0.5711535215377808,0.0113522382453084,0.6329184770584106,0.578170120716095,0.0028665720019489527,0.68235844373703,0.632655918598175,0.033213965594768524,0.6683336496353149,0.553726851940155,0.027546314522624016,0.6591794490814209,0.5335170030593872,0.014156009070575237,0.650932788848877,0.5241398811340332,0.006479205563664436,0.7064317464828491,0.6237519383430481,0.02480556257069111,0.6916450262069702,0.536652684211731,0.020667849108576775,0.6776739358901978,0.48369619250297546,0.013325829058885574,0.6642847657203674,0.4394068717956543,0.008143069222569466,0.7314541935920715,0.6256392598152161,0.013614606112241745,0.7152610421180725,0.5480669140815735,0.01361227035522461,0.7055302262306213,0.4966719448566437,0.013802193105220795,0.6971074938774109,0.44704610109329224,0.013160581700503826,0.0,0.0,0.0,0.0,0.0,0.0,0.0,0.0,0.0,0.0,0.0,0.0,0.0,0.0,0.0,0.0,0.0,0.0,0.0,0.0,0.0,0.0,0.0,0.0,0.0,0.0,0.0,0.0,0.0,0.0,0.0,0.0,0.0,0.0,0.0,0.0,0.0,0.0,0.0,0.0,0.0,0.0,0.0,0.0,0.0,0.0,0.0,0.0,0.0,0.0,0.0,0.0,0.0,0.0,0.0,0.0,0.0,0.0,0.0,0.0,0.0,0.0,0.0
1783390933.856983,0.7321474552154541,0.881619393825531,-2.9765088171984644e-08,0.6900780200958252,0.8427512049674988,-0.009168433956801891,0.6554616689682007,0.7369449138641357,-0.010280300863087177,0.6410266160964966,0.6424556374549866,-0.015048175118863583,0.6467665433883667,0.5668376088142395,-0.017809178680181503,0.657128095626831,0.659170925617218,0.03415869548916817,0.6372929215431213,0.5753641128540039,0.022356554865837097,0.6299223303794861,0.5731320977210999,0.0077032786794006824,0.6283631324768066,0.5910614132881165,-0.00014907936565577984,0.6801425814628601,0.6372787952423096,0.02987014502286911,0.6652371883392334,0.550292432308197,0.020648211240768433,0.6514302492141724,0.5365597605705261,0.006602288689464331,0.6408619284629822,0.5409215688705444,0.00033834806527011096,0.7041440606117249,0.6294837594032288,0.019798139110207558,0.6893888711929321,0.5394712686538696,0.015254129655659199,0.6729714870452881,0.4870806038379669,0.008124161511659622,0.6587761044502258,0.4474526345729828,0.0038847625255584717,0.7289344072341919,0.6323619484901428,0.007193189579993486,0.7137739658355713,0.5554102659225464,0.007262187544256449,0.7030119299888611,0.5038047432899475,0.007203917019069195,0.694527268409729,0.4550265967845917,0.006923113018274307,0.0,0.0,0.0,0.0,0.0,0.0,0.0,0.0,0.0,0.0,0.0,0.0,0.0,0.0,0.0,0.0,0.0,0.0,0.0,0.0,0.0,0.0,0.0,0.0,0.0,0.0,0.0,0.0,0.0,0.0,0.0,0.0,0.0,0.0,0.0,0.0,0.0,0.0,0.0,0.0,0.0,0.0,0.0,0.0,0.0,0.0,0.0,0.0,0.0,0.0,0.0,0.0,0.0,0.0,0.0,0.0,0.0,0.0,0.0,0.0,0.0,0.0,0.0
1783390933.989631,0.7320736050605774,0.8869869112968445,-7.455276573864467e-08,0.6908442378044128,0.851158082485199,-0.008653007447719574,0.6537677049636841,0.7440944910049438,-0.009188533760607243,0.6361513137817383,0.650073766708374,-0.013585533946752548,0.6425772905349731,0.5754563212394714,-0.016284950077533722,0.6539410352706909,0.6624060273170471,0.03437720239162445,0.6345621943473816,0.5827282071113586,0.02270331233739853,0.6263241171836853,0.5768386721611023,0.007856689393520355,0.6229279041290283,0.5904457569122314,-0.0006513542030006647,0.6769159436225891,0.6402748823165894,0.029403705149888992,0.6604868173599243,0.558143675327301,0.01870063878595829,0.6462982296943665,0.5468964576721191,0.003619341179728508,0.6348041296005249,0.5542135238647461,-0.003259594552218914,0.7010805606842041,0.6319290995597839,0.0187984686344862,0.6862596869468689,0.5436097979545593,0.012974929064512253,0.6699914336204529,0.49228304624557495,0.00489149522036314,0.6550822854042053,0.4537259042263031,5.021327888243832e-05,0.7261247634887695,0.6348304152488708,0.005764647852629423,0.7116950154304504,0.5581033825874329,0.004772854503244162,0.7013463973999023,0.5060169696807861,0.0037884414196014404,0.6926280856132507,0.4574717581272125,0.002781076356768608,0.0,0.0,0.0,0.0,0.0,0.0,0.0,0.0,0.0,0.0,0.0,0.0,0.0,0.0,0.0,0.0,0.0,0.0,0.0,0.0,0.0,0.0,0.0,0.0,0.0,0.0,0.0,0.0,0.0,0.0,0.0,0.0,0.0,0.0,0.0,0.0,0.0,0.0,0.0,0.0,0.0,0.0,0.0,0.0,0.0,0.0,0.0,0.0,0.0,0.0,0.0,0.0,0.0,0.0,0.0,0.0,0.0,0.0,0.0,0.0,0.0,0.0,0.0
1783390934.128932,0.7310384511947632,0.8900049328804016,-3.221696687205622e-08,0.6901413202285767,0.8511649370193481,-0.010065200738608837,0.6540718078613281,0.7435713410377502,-0.011526920832693577,0.6371912956237793,0.6470930576324463,-0.016519546508789062,0.6406323313713074,0.5685272812843323,-0.019730549305677414,0.6540798544883728,0.6637747287750244,0.03400542214512825,0.6351962089538574,0.5825450420379639,0.022545695304870605,0.6271913051605225,0.5783761143684387,0.007912860251963139,0.6237058043479919,0.5935194492340088,-0.0003545713552739471,0.6774362325668335,0.6414747834205627,0.030046671628952026,0.6618503928184509,0.5584697127342224,0.022432614117860794,0.6488856077194214,0.5422654747962952,0.009088692255318165,0.6376935839653015,0.540397047996521,0.002179276430979371,0.7016756534576416,0.6340715885162354,0.020127970725297928,0.6862248182296753,0.5446094870567322,0.015600891783833504,0.6701324582099915,0.49225425720214844,0.009110741317272186,0.6546096801757812,0.4498939514160156,0.004689851775765419,0.7263801097869873,0.6378825902938843,0.007647312246263027,0.7107093930244446,0.5598798990249634,0.007045615464448929,0.7003442049026489,0.5077804327011108,0.0072646657936275005,0.6912322640419006,0.45765164494514465,0.006910312920808792,0.0,0.0,0.0,0.0,0.0,0.0,0.0,0.0,0.0,0.0,0.0,0.0,0.0,0.0,0.0,0.0,0.0,0.0,0.0,0.0,0.0,0.0,0.0,0.0,0.0,0.0,0.0,0.0,0.0,0.0,0.0,0.0,0.0,0.0,0.0,0.0,0.0,0.0,0.0,0.0,0.0,0.0,0.0,0.0,0.0,0.0,0.0,0.0,0.0,0.0,0.0,0.0,0.0,0.0,0.0,0.0,0.0,0.0,0.0,0.0,0.0,0.0,0.0
1783390934.300029,0.7321152091026306,0.8885357975959778,-2.8253476003214928e-08,0.6900085806846619,0.8507027626037598,-0.011214604601264,0.6535177826881409,0.742675244808197,-0.01318908017128706,0.6370131373405457,0.6444579362869263,-0.018703661859035492,0.6415117383003235,0.5654574036598206,-0.022374993190169334,0.6546433568000793,0.6642230749130249,0.0353032723069191,0.6345042586326599,0.5831098556518555,0.02383546717464924,0.6284084320068359,0.5814872980117798,0.008801892399787903,0.6270319819450378,0.5984979867935181,0.0003839368000626564,0.677974283695221,0.6411542296409607,0.032031524926424026,0.6620373129844666,0.5582259297370911,0.023819826543331146,0.6498532295227051,0.5446693301200867,0.00965140387415886,0.6397054195404053,0.5462769269943237,0.0028334499802440405,0.7018847465515137,0.632452130317688,0.022637205198407173,0.6857747435569763,0.5429956912994385,0.018745342269539833,0.6699504256248474,0.4902086853981018,0.012173707596957684,0.6551699638366699,0.44790273904800415,0.00791826844215393,0.7262791395187378,0.635351300239563,0.010464584454894066,0.7101874947547913,0.5575167536735535,0.011192488484084606,0.6999685764312744,0.5054516196250916,0.011925777420401573,0.6915165185928345,0.4552399218082428,0.011957154609262943,0.0,0.0,0.0,0.0,0.0,0.0,0.0,0.0,0.0,0.0,0.0,0.0,0.0,0.0,0.0,0.0,0.0,0.0,0.0,0.0,0.0,0.0,0.0,0.0,0.0,0.0,0.0,0.0,0.0,0.0,0.0,0.0,0.0,0.0,0.0,0.0,0.0,0.0,0.0,0.0,0.0,0.0,0.0,0.0,0.0,0.0,0.0,0.0,0.0,0.0,0.0,0.0,0.0,0.0,0.0,0.0,0.0,0.0,0.0,0.0,0.0,0.0,0.0
1783390934.4604979,0.7310280203819275,0.8877903819084167,-3.586970720448335e-08,0.6895829439163208,0.8495655059814453,-0.010870184749364853,0.6538822054862976,0.7407806515693665,-0.012502724304795265,0.638076901435852,0.6433074474334717,-0.017651980742812157,0.6427964568138123,0.5656993985176086,-0.02105673961341381,0.6539240479469299,0.6651443839073181,0.034949228167533875,0.6341014504432678,0.584398627281189,0.023592986166477203,0.627922534942627,0.5784581303596497,0.008749153465032578,0.6263787150382996,0.5926334261894226,0.00035892301821149886,0.6773942112922668,0.6418628096580505,0.031496502459049225,0.6614785194396973,0.5592275857925415,0.022134358063340187,0.6502249836921692,0.5479854941368103,0.007573334500193596,0.6410349011421204,0.5534119606018066,0.0009861120488494635,0.701560914516449,0.6325059533119202,0.022095635533332825,0.6852287650108337,0.5419839024543762,0.01750093139708042,0.669730544090271,0.48908546566963196,0.010819428600370884,0.655418336391449,0.44760215282440186,0.006735517177730799,0.7264499068260193,0.63480544090271,0.00998608022928238,0.7102030515670776,0.5574122071266174,0.010219455696642399,0.7000897526741028,0.5054343938827515,0.01080046035349369,0.6919061541557312,0.45554158091545105,0.01087572705000639,0.0,0.0,0.0,0.0,0.0,0.0,0.0,0.0,0.0,0.0,0.0,0.0,0.0,0.0,0.0,0.0,0.0,0.0,0.0,0.0,0.0,0.0,0.0,0.0,0.0,0.0,0.0,0.0,0.0,0.0,0.0,0.0,0.0,0.0,0.0,0.0,0.0,0.0,0.0,0.0,0.0,0.0,0.0,0.0,0.0,0.0,0.0,0.0,0.0,0.0,0.0,0.0,0.0,0.0,0.0,0.0,0.0,0.0,0.0,0.0,0.0,0.0,0.0
