ciel274/research-hand-sign/data/raw/hiragana/sign_language_ti_3.csv
timestamp,R_joint_0_x,R_joint_0_y,R_joint_0_z,R_joint_1_x,R_joint_1_y,R_joint_1_z,R_joint_2_x,R_joint_2_y,R_joint_2_z,R_joint_3_x,R_joint_3_y,R_joint_3_z,R_joint_4_x,R_joint_4_y,R_joint_4_z,R_joint_5_x,R_joint_5_y,R_joint_5_z,R_joint_6_x,R_joint_6_y,R_joint_6_z,R_joint_7_x,R_joint_7_y,R_joint_7_z,R_joint_8_x,R_joint_8_y,R_joint_8_z,R_joint_9_x,R_joint_9_y,R_joint_9_z,R_joint_10_x,R_joint_10_y,R_joint_10_z,R_joint_11_x,R_joint_11_y,R_joint_11_z,R_joint_12_x,R_joint_12_y,R_joint_12_z,R_joint_13_x,R_joint_13_y,R_joint_13_z,R_joint_14_x,R_joint_14_y,R_joint_14_z,R_joint_15_x,R_joint_15_y,R_joint_15_z,R_joint_16_x,R_joint_16_y,R_joint_16_z,R_joint_17_x,R_joint_17_y,R_joint_17_z,R_joint_18_x,R_joint_18_y,R_joint_18_z,R_joint_19_x,R_joint_19_y,R_joint_19_z,R_joint_20_x,R_joint_20_y,R_joint_20_z,L_joint_0_x,L_joint_0_y,L_joint_0_z,L_joint_1_x,L_joint_1_y,L_joint_1_z,L_joint_2_x,L_joint_2_y,L_joint_2_z,L_joint_3_x,L_joint_3_y,L_joint_3_z,L_joint_4_x,L_joint_4_y,L_joint_4_z,L_joint_5_x,L_joint_5_y,L_joint_5_z,L_joint_6_x,L_joint_6_y,L_joint_6_z,L_joint_7_x,L_joint_7_y,L_joint_7_z,L_joint_8_x,L_joint_8_y,L_joint_8_z,L_joint_9_x,L_joint_9_y,L_joint_9_z,L_joint_10_x,L_joint_10_y,L_joint_10_z,L_joint_11_x,L_joint_11_y,L_joint_11_z,L_joint_12_x,L_joint_12_y,L_joint_12_z,L_joint_13_x,L_joint_13_y,L_joint_13_z,L_joint_14_x,L_joint_14_y,L_joint_14_z,L_joint_15_x,L_joint_15_y,L_joint_15_z,L_joint_16_x,L_joint_16_y,L_joint_16_z,L_joint_17_x,L_joint_17_y,L_joint_17_z,L_joint_18_x,L_joint_18_y,L_joint_18_z,L_joint_19_x,L_joint_19_y,L_joint_19_z,L_joint_20_x,L_joint_20_y,L_joint_20_z
1783390888.3134341,0.7330068945884705,0.9191954731941223,-2.712120590331324e-07,0.6937870979309082,0.9006115794181824,-0.024339836090803146,0.6621143221855164,0.8405903577804565,-0.04183606803417206,0.6711470484733582,0.7747035622596741,-0.05913004279136658,0.7054671049118042,0.7389625310897827,-0.07155779749155045,0.6469877362251282,0.7234558463096619,-0.02242046594619751,0.6342791318893433,0.655228316783905,-0.04804874211549759,0.653840184211731,0.720429539680481,-0.05993293970823288,0.6645153760910034,0.7623403072357178,-0.06428999453783035,0.6803586483001709,0.6948127150535583,-0.02230505831539631,0.6749780178070068,0.6173950433731079,-0.04860822111368179,0.6893011927604675,0.6967536211013794,-0.0554438941180706,0.6891498565673828,0.7310895323753357,-0.054762229323387146,0.7146548628807068,0.6828256845474243,-0.02598259411752224,0.7133891582489014,0.6021837592124939,-0.04876915365457535,0.719633936882019,0.6790926456451416,-0.0447009839117527,0.7168084979057312,0.7318533062934875,-0.035677820444107056,0.74664306640625,0.6865566968917847,-0.032124366611242294,0.7476439476013184,0.6002575159072876,-0.044793639332056046,0.7521523237228394,0.5477414727210999,-0.04597590118646622,0.7511656880378723,0.4947054088115692,-0.04407404363155365,0.0,0.0,0.0,0.0,0.0,0.0,0.0,0.0,0.0,0.0,0.0,0.0,0.0,0.0,0.0,0.0,0.0,0.0,0.0,0.0,0.0,0.0,0.0,0.0,0.0,0.0,0.0,0.0,0.0,0.0,0.0,0.0,0.0,0.0,0.0,0.0,0.0,0.0,0.0,0.0,0.0,0.0,0.0,0.0,0.0,0.0,0.0,0.0,0.0,0.0,0.0,0.0,0.0,0.0,0.0,0.0,0.0,0.0,0.0,0.0,0.0,0.0,0.0
1783390888.4451368,0.7330145835876465,0.9212555289268494,-2.869188620024943e-07,0.6926358342170715,0.8982237577438354,-0.02450096234679222,0.660941481590271,0.8366484045982361,-0.04209722951054573,0.6706811189651489,0.7714201211929321,-0.0590331144630909,0.7061559557914734,0.7360200881958008,-0.071100614964962,0.6476437449455261,0.7201457023620605,-0.022420300170779228,0.6358349919319153,0.6546242237091064,-0.04698801785707474,0.6549369096755981,0.7203079462051392,-0.059318907558918,0.6651502847671509,0.763524055480957,-0.0648161843419075,0.6810486912727356,0.6910834908485413,-0.0218633022159338,0.6757568120956421,0.6140074729919434,-0.045739512890577316,0.690279483795166,0.697754442691803,-0.0515877939760685,0.6886171102523804,0.7299719452857971,-0.051392827183008194,0.7147905826568604,0.6808419823646545,-0.025044195353984833,0.7144855856895447,0.6005117893218994,-0.045523520559072495,0.7202738523483276,0.6778281331062317,-0.04009014368057251,0.7175832986831665,0.7316727042198181,-0.03139539062976837,0.7478416562080383,0.6876669526100159,-0.03087679296731949,0.7479493021965027,0.5999799966812134,-0.04324967786669731,0.7526460289955139,0.5466384887695312,-0.04438590630888939,0.7520385980606079,0.4933543801307678,-0.04302920028567314,0.0,0.0,0.0,0.0,0.0,0.0,0.0,0.0,0.0,0.0,0.0,0.0,0.0,0.0,0.0,0.0,0.0,0.0,0.0,0.0,0.0,0.0,0.0,0.0,0.0,0.0,0.0,0.0,0.0,0.0,0.0,0.0,0.0,0.0,0.0,0.0,0.0,0.0,0.0,0.0,0.0,0.0,0.0,0.0,0.0,0.0,0.0,0.0,0.0,0.0,0.0,0.0,0.0,0.0,0.0,0.0,0.0,0.0,0.0,0.0,0.0,0.0,0.0
1783390888.582839,0.734777569770813,0.9206032752990723,-2.8023043796565617e-07,0.6958563327789307,0.899616539478302,-0.02659856714308262,0.6641820073127747,0.8405423164367676,-0.04469806328415871,0.6721327304840088,0.7752112746238708,-0.06184966862201691,0.7069246172904968,0.7384942173957825,-0.07373425364494324,0.6487237811088562,0.7191919684410095,-0.023654084652662277,0.638816773891449,0.6553847193717957,-0.04857789725065231,0.6571967601776123,0.7220481038093567,-0.059392135590314865,0.6672662496566772,0.7619127631187439,-0.06344380974769592,0.6825677156448364,0.6914265751838684,-0.022384759038686752,0.6791951060295105,0.6132156848907471,-0.04881037399172783,0.6930943727493286,0.6973139643669128,-0.05384549871087074,0.6927248239517212,0.7309109568595886,-0.051676519215106964,0.717174768447876,0.6816474199295044,-0.025113947689533234,0.7177973389625549,0.6048089861869812,-0.04947551339864731,0.7242443561553955,0.6866665482521057,-0.04417824000120163,0.7215616703033447,0.7390046119689941,-0.03374394029378891,0.7499321699142456,0.6881980299949646,-0.03041287325322628,0.7518283724784851,0.6023914813995361,-0.044813066720962524,0.7570815682411194,0.5501093864440918,-0.046009261161088943,0.7566197514533997,0.4948866069316864,-0.0437169224023819,0.0,0.0,0.0,0.0,0.0,0.0,0.0,0.0,0.0,0.0,0.0,0.0,0.0,0.0,0.0,0.0,0.0,0.0,0.0,0.0,0.0,0.0,0.0,0.0,0.0,0.0,0.0,0.0,0.0,0.0,0.0,0.0,0.0,0.0,0.0,0.0,0.0,0.0,0.0,0.0,0.0,0.0,0.0,0.0,0.0,0.0,0.0,0.0,0.0,0.0,0.0,0.0,0.0,0.0,0.0,0.0,0.0,0.0,0.0,0.0,0.0,0.0,0.0
1783390888.714426,0.7342086434364319,0.9220755100250244,-2.776625649403286e-07,0.6968580484390259,0.9024832844734192,-0.027182023972272873,0.665841281414032,0.841499388217926,-0.04503416270017624,0.6747593879699707,0.7793630957603455,-0.06150568649172783,0.7079682350158691,0.745008647441864,-0.07261588424444199,0.6474144458770752,0.7243240475654602,-0.02595233917236328,0.6388924717903137,0.6580907106399536,-0.05036229267716408,0.6570864915847778,0.7242319583892822,-0.061356041580438614,0.6671597957611084,0.7650630474090576,-0.06609455496072769,0.6822579503059387,0.6959049701690674,-0.0239173024892807,0.6782091856002808,0.6187019348144531,-0.04844802990555763,0.6922778487205505,0.7033472061157227,-0.05338615924119949,0.6920547485351562,0.7327090501785278,-0.05238564684987068,0.7173699140548706,0.6854270696640015,-0.025759093463420868,0.7181774377822876,0.6078940033912659,-0.04815622419118881,0.7233703136444092,0.6884177327156067,-0.04314171150326729,0.7205505967140198,0.7408038377761841,-0.03425072878599167,0.7508636713027954,0.6911502480506897,-0.030279768630862236,0.7541645169258118,0.6053885221481323,-0.04476593807339668,0.7600277066230774,0.5537384152412415,-0.0473187081515789,0.7605980634689331,0.5001117587089539,-0.04662813991308212,0.0,0.0,0.0,0.0,0.0,0.0,0.0,0.0,0.0,0.0,0.0,0.0,0.0,0.0,0.0,0.0,0.0,0.0,0.0,0.0,0.0,0.0,0.0,0.0,0.0,0.0,0.0,0.0,0.0,0.0,0.0,0.0,0.0,0.0,0.0,0.0,0.0,0.0,0.0,0.0,0.0,0.0,0.0,0.0,0.0,0.0,0.0,0.0,0.0,0.0,0.0,0.0,0.0,0.0,0.0,0.0,0.0,0.0,0.0,0.0,0.0,0.0,0.0
1783390888.8506932,0.734637439250946,0.927827775478363,-3.37113334580863e-07,0.6973022222518921,0.9043015837669373,-0.02586091123521328,0.6673061847686768,0.8440346717834473,-0.04260006174445152,0.6763896942138672,0.7813275456428528,-0.05704674497246742,0.7100558280944824,0.7489610314369202,-0.06562584638595581,0.6480023860931396,0.7299286127090454,-0.027904396876692772,0.6387450098991394,0.6642029285430908,-0.05100596696138382,0.6570424437522888,0.7289934754371643,-0.06065678596496582,0.666845440864563,0.7722278237342834,-0.0652724951505661,0.6837009787559509,0.7005877494812012,-0.02469990961253643,0.6773593425750732,0.6240503191947937,-0.04470325633883476,0.6929603219032288,0.7150017619132996,-0.04562005400657654,0.6902244091033936,0.7350691556930542,-0.04404149949550629,0.7172165513038635,0.6904816627502441,-0.02516157180070877,0.7176624536514282,0.6122432351112366,-0.043564118444919586,0.7209753394126892,0.68965744972229,-0.03521706163883209,0.7186487317085266,0.7402142882347107,-0.02663782238960266,0.7513840198516846,0.6958752870559692,-0.028351079672574997,0.7549298405647278,0.6081508994102478,-0.04375571757555008,0.7605396509170532,0.5560628175735474,-0.04743057116866112,0.761447012424469,0.5036880373954773,-0.04854435473680496,0.0,0.0,0.0,0.0,0.0,0.0,0.0,0.0,0.0,0.0,0.0,0.0,0.0,0.0,0.0,0.0,0.0,0.0,0.0,0.0,0.0,0.0,0.0,0.0,0.0,0.0,0.0,0.0,0.0,0.0,0.0,0.0,0.0,0.0,0.0,0.0,0.0,0.0,0.0,0.0,0.0,0.0,0.0,0.0,0.0,0.0,0.0,0.0,0.0,0.0,0.0,0.0,0.0,0.0,0.0,0.0,0.0,0.0,0.0,0.0,0.0,0.0,0.0
1783390889.0127292,0.7345495820045471,0.9275023341178894,-2.656438482517842e-07,0.695050835609436,0.9061540365219116,-0.023899974301457405,0.6644334197044373,0.8467177748680115,-0.04098668321967125,0.6738948225975037,0.7820296287536621,-0.057920318096876144,0.7083823680877686,0.7476583123207092,-0.06998565047979355,0.6474540829658508,0.729280412197113,-0.0211309976875782,0.636052131652832,0.6633350253105164,-0.04658836871385574,0.6554155945777893,0.7305024266242981,-0.05885552614927292,0.6659573316574097,0.7708287239074707,-0.06374160200357437,0.6815671920776367,0.7006667256355286,-0.02107294835150242,0.6773069500923157,0.6261283159255981,-0.04759747534990311,0.6903582811355591,0.7078379392623901,-0.054227229207754135,0.6905590891838074,0.74351966381073,-0.05330731347203255,0.7166001200675964,0.6890011429786682,-0.024898359552025795,0.7156980633735657,0.610378086566925,-0.04801999777555466,0.7204321026802063,0.6882383823394775,-0.043907079845666885,0.717281699180603,0.7408586740493774,-0.03473096340894699,0.7489995360374451,0.6930861473083496,-0.031165672466158867,0.7522060871124268,0.6066076159477234,-0.04478311166167259,0.7578732371330261,0.55458003282547,-0.04640265926718712,0.7584764957427979,0.5017378926277161,-0.04450937360525131,0.0,0.0,0.0,0.0,0.0,0.0,0.0,0.0,0.0,0.0,0.0,0.0,0.0,0.0,0.0,0.0,0.0,0.0,0.0,0.0,0.0,0.0,0.0,0.0,0.0,0.0,0.0,0.0,0.0,0.0,0.0,0.0,0.0,0.0,0.0,0.0,0.0,0.0,0.0,0.0,0.0,0.0,0.0,0.0,0.0,0.0,0.0,0.0,0.0,0.0,0.0,0.0,0.0,0.0,0.0,0.0,0.0,0.0,0.0,0.0,0.0,0.0,0.0
1783390889.1509702,0.7327343225479126,0.9235306978225708,-2.841514117335464e-07,0.6931633949279785,0.8995841145515442,-0.02428472228348255,0.6610428094863892,0.8382752537727356,-0.04152124747633934,0.6710557341575623,0.7721759676933289,-0.05804428085684776,0.7057944536209106,0.7353979349136353,-0.06957986950874329,0.6467205286026001,0.7287380695343018,-0.02424386329948902,0.633008599281311,0.6621623039245605,-0.049456167966127396,0.6523732542991638,0.729706883430481,-0.06167314201593399,0.6635302901268005,0.771801233291626,-0.06726691126823425,0.679530143737793,0.6972929239273071,-0.023024095222353935,0.6725793480873108,0.6232962608337402,-0.04579565301537514,0.6878944635391235,0.7081912755966187,-0.05065887048840523,0.6862463355064392,0.7317752838134766,-0.050906673073768616,0.7126738429069519,0.6846028566360474,-0.02558770403265953,0.7106309533119202,0.6057840585708618,-0.0454552061855793,0.7166076302528381,0.6862021088600159,-0.03958239406347275,0.7151637077331543,0.7397815585136414,-0.031569693237543106,0.745011568069458,0.6888859272003174,-0.03075007162988186,0.7478048205375671,0.6019522547721863,-0.04433922469615936,0.7533326148986816,0.5501320958137512,-0.04703371599316597,0.7532818913459778,0.49741607904434204,-0.04717077687382698,0.0,0.0,0.0,0.0,0.0,0.0,0.0,0.0,0.0,0.0,0.0,0.0,0.0,0.0,0.0,0.0,0.0,0.0,0.0,0.0,0.0,0.0,0.0,0.0,0.0,0.0,0.0,0.0,0.0,0.0,0.0,0.0,0.0,0.0,0.0,0.0,0.0,0.0,0.0,0.0,0.0,0.0,0.0,0.0,0.0,0.0,0.0,0.0,0.0,0.0,0.0,0.0,0.0,0.0,0.0,0.0,0.0,0.0,0.0,0.0,0.0,0.0,0.0
1783390889.288772,0.7309101223945618,0.9209147691726685,-2.569926209616824e-07,0.6914406418800354,0.899519681930542,-0.024794507771730423,0.6584205031394958,0.8386087417602539,-0.04228876903653145,0.6672111749649048,0.7723482847213745,-0.059427760541439056,0.7041707038879395,0.7359556555747986,-0.07163601368665695,0.6448385715484619,0.7269396185874939,-0.02261083386838436,0.6310606002807617,0.6602368950843811,-0.04891950637102127,0.650664210319519,0.7289214730262756,-0.06175866723060608,0.6613739728927612,0.7683092951774597,-0.06714165210723877,0.6771557331085205,0.696079671382904,-0.022011620923876762,0.6714076399803162,0.6180626749992371,-0.04831867665052414,0.6851472854614258,0.6998268365859985,-0.054742831736803055,0.6844048500061035,0.73150634765625,-0.054079074412584305,0.7108845114707947,0.6837049722671509,-0.025395270437002182,0.7087742686271667,0.6031281352043152,-0.04819778352975845,0.7143191695213318,0.682610034942627,-0.043673425912857056,0.711692750453949,0.735123872756958,-0.034535691142082214,0.7428923845291138,0.6879459023475647,-0.03133365884423256,0.7453807592391968,0.6014893651008606,-0.04461457580327988,0.7506478428840637,0.5498407483100891,-0.0463130846619606,0.7504713535308838,0.4969523847103119,-0.04476689547300339,0.0,0.0,0.0,0.0,0.0,0.0,0.0,0.0,0.0,0.0,0.0,0.0,0.0,0.0,0.0,0.0,0.0,0.0,0.0,0.0,0.0,0.0,0.0,0.0,0.0,0.0,0.0,0.0,0.0,0.0,0.0,0.0,0.0,0.0,0.0,0.0,0.0,0.0,0.0,0.0,0.0,0.0,0.0,0.0,0.0,0.0,0.0,0.0,0.0,0.0,0.0,0.0,0.0,0.0,0.0,0.0,0.0,0.0,0.0,0.0,0.0,0.0,0.0
1783390889.4435892,0.7301110625267029,0.923480749130249,-2.8112606287322706e-07,0.6914575099945068,0.9040314555168152,-0.02387980930507183,0.6594913601875305,0.8465079069137573,-0.04118329659104347,0.6657646298408508,0.7800865769386292,-0.0582093745470047,0.6983438730239868,0.7425586581230164,-0.07032866775989532,0.6422829031944275,0.7290470004081726,-0.02208084985613823,0.628523051738739,0.661399245262146,-0.048474524170160294,0.6479657888412476,0.7272952795028687,-0.060879550874233246,0.6595211625099182,0.7694555521011353,-0.0655248612165451,0.6751976609230042,0.7003746628761292,-0.02210497297346592,0.6700173616409302,0.6203809976577759,-0.04885601997375488,0.6837731003761292,0.7037526965141296,-0.05469577759504318,0.6832157373428345,0.7390623688697815,-0.05309484526515007,0.7090600728988647,0.6888631582260132,-0.026092655956745148,0.7071431875228882,0.6077702641487122,-0.049382660537958145,0.7121453285217285,0.6834132075309753,-0.04476061463356018,0.7093268036842346,0.7342556715011597,-0.03540102764964104,0.7414678335189819,0.692804217338562,-0.032506827265024185,0.7437853217124939,0.6055476069450378,-0.04626346752047539,0.7486513257026672,0.552919864654541,-0.04787181317806244,0.7480496168136597,0.4996795952320099,-0.046152323484420776,0.0,0.0,0.0,0.0,0.0,0.0,0.0,0.0,0.0,0.0,0.0,0.0,0.0,0.0,0.0,0.0,0.0,0.0,0.0,0.0,0.0,0.0,0.0,0.0,0.0,0.0,0.0,0.0,0.0,0.0,0.0,0.0,0.0,0.0,0.0,0.0,0.0,0.0,0.0,0.0,0.0,0.0,0.0,0.0,0.0,0.0,0.0,0.0,0.0,0.0,0.0,0.0,0.0,0.0,0.0,0.0,0.0,0.0,0.0,0.0,0.0,0.0,0.0
1783390889.577739,0.7293986082077026,0.9243978261947632,-2.928601077201165e-07,0.6899072527885437,0.9022919535636902,-0.023813830688595772,0.6571491360664368,0.8405954837799072,-0.040758367627859116,0.6644140481948853,0.7718972563743591,-0.0572284534573555,0.699930727481842,0.7360422015190125,-0.06861471384763718,0.6422462463378906,0.7284775376319885,-0.022036327049136162,0.6271792650222778,0.6589659452438354,-0.04717693850398064,0.6464499235153198,0.7253236174583435,-0.05954703316092491,0.6575601100921631,0.7679952383041382,-0.06520264595746994,0.6747475862503052,0.6976408958435059,-0.0214077178388834,0.6670932769775391,0.617498517036438,-0.045068319886922836,0.6817951798439026,0.701636552810669,-0.05044980347156525,0.6798568367958069,0.7276601195335388,-0.050536490976810455,0.7071447372436523,0.6860102415084839,-0.024608707055449486,0.7046782970428467,0.6044695973396301,-0.04432111978530884,0.7096736431121826,0.6832256317138672,-0.03784748539328575,0.7074610590934753,0.7361845970153809,-0.02916930429637432,0.7399132251739502,0.6901575326919556,-0.03054610826075077,0.7405868768692017,0.6011090278625488,-0.04284045845270157,0.7450531125068665,0.5475457906723022,-0.0444704033434391,0.7440287470817566,0.4947517514228821,-0.043916746973991394,0.0,0.0,0.0,0.0,0.0,0.0,0.0,0.0,0.0,0.0,0.0,0.0,0.0,0.0,0.0,0.0,0.0,0.0,0.0,0.0,0.0,0.0,0.0,0.0,0.0,0.0,0.0,0.0,0.0,0.0,0.0,0.0,0.0,0.0,0.0,0.0,0.0,0.0,0.0,0.0,0.0,0.0,0.0,0.0,0.0,0.0,0.0,0.0,0.0,0.0,0.0,0.0,0.0,0.0,0.0,0.0,0.0,0.0,0.0,0.0,0.0,0.0,0.0
1783390889.717705,0.7278264164924622,0.9204117655754089,-2.575096402779309e-07,0.6875105500221252,0.9004435539245605,-0.02418050728738308,0.6551018953323364,0.8422081470489502,-0.0420369952917099,0.6622434258460999,0.7755079865455627,-0.06001069396734238,0.6971195936203003,0.7380607724189758,-0.07327304035425186,0.6393532752990723,0.7251831889152527,-0.020498763769865036,0.6260111331939697,0.6579890847206116,-0.04737866297364235,0.6460577845573425,0.7242573499679565,-0.06085857376456261,0.6574446558952332,0.7659735679626465,-0.06609942764043808,0.6718214750289917,0.6955803036689758,-0.02085794322192669,0.666476845741272,0.6163310408592224,-0.048776932060718536,0.6798292994499207,0.6954523921012878,-0.05671757087111473,0.6800983548164368,0.7348008751869202,-0.05619772523641586,0.7059277892112732,0.6830107569694519,-0.025252144783735275,0.7029716968536377,0.602713406085968,-0.04912978783249855,0.7083263993263245,0.6789136528968811,-0.04614730179309845,0.7053292393684387,0.7319213151931763,-0.03728141263127327,0.7378847599029541,0.6862117052078247,-0.03211721405386925,0.7389606833457947,0.5993154644966125,-0.044800106436014175,0.7429567575454712,0.5466381311416626,-0.0461125373840332,0.7413756847381592,0.4940408170223236,-0.044094640761613846,0.0,0.0,0.0,0.0,0.0,0.0,0.0,0.0,0.0,0.0,0.0,0.0,0.0,0.0,0.0,0.0,0.0,0.0,0.0,0.0,0.0,0.0,0.0,0.0,0.0,0.0,0.0,0.0,0.0,0.0,0.0,0.0,0.0,0.0,0.0,0.0,0.0,0.0,0.0,0.0,0.0,0.0,0.0,0.0,0.0,0.0,0.0,0.0,0.0,0.0,0.0,0.0,0.0,0.0,0.0,0.0,0.0,0.0,0.0,0.0,0.0,0.0,0.0
1783390889.858596,0.7277286648750305,0.9236918687820435,-3.100209937656473e-07,0.6887956857681274,0.9047755599021912,-0.021856077015399933,0.6540558934211731,0.8443942666053772,-0.036773696541786194,0.6621618270874023,0.7792119383811951,-0.05130763724446297,0.6983291506767273,0.7461442351341248,-0.0608312264084816,0.6386221051216125,0.7247549891471863,-0.02075423114001751,0.627829909324646,0.6599934101104736,-0.045117687433958054,0.6465347409248352,0.7282465100288391,-0.056308452039957047,0.6561105847358704,0.7676097750663757,-0.06108010932803154,0.6723206043243408,0.6969449520111084,-0.021245289593935013,0.6679571270942688,0.618243932723999,-0.046326279640197754,0.6804868578910828,0.7013723254203796,-0.05084562674164772,0.6791641712188721,0.7352298498153687,-0.04894936457276344,0.7067357897758484,0.6870187520980835,-0.02542920596897602,0.7051480412483215,0.6093005537986755,-0.047441013157367706,0.7093857526779175,0.6874811053276062,-0.04211718589067459,0.7059623599052429,0.7381240725517273,-0.032703835517168045,0.7395308017730713,0.6917099952697754,-0.031941626220941544,0.7414013147354126,0.6039848923683167,-0.04591292887926102,0.7445907592773438,0.5518574118614197,-0.04794428125023842,0.7430448532104492,0.4982997477054596,-0.046660132706165314,0.0,0.0,0.0,0.0,0.0,0.0,0.0,0.0,0.0,0.0,0.0,0.0,0.0,0.0,0.0,0.0,0.0,0.0,0.0,0.0,0.0,0.0,0.0,0.0,0.0,0.0,0.0,0.0,0.0,0.0,0.0,0.0,0.0,0.0,0.0,0.0,0.0,0.0,0.0,0.0,0.0,0.0,0.0,0.0,0.0,0.0,0.0,0.0,0.0,0.0,0.0,0.0,0.0,0.0,0.0,0.0,0.0,0.0,0.0,0.0,0.0,0.0,0.0
1783390890.014646,0.7288723587989807,0.9302182197570801,-3.3680413480396965e-07,0.6914005279541016,0.9102530479431152,-0.02473074197769165,0.6591746807098389,0.8518814444541931,-0.041265618056058884,0.6654772162437439,0.7893821597099304,-0.05676755681633949,0.6969466805458069,0.7538931369781494,-0.06701917946338654,0.641114354133606,0.7358304262161255,-0.023325828835368156,0.6302245855331421,0.6690469980239868,-0.04775993525981903,0.6483993530273438,0.734250009059906,-0.05898146703839302,0.6592526435852051,0.7774395942687988,-0.06372025609016418,0.6752942204475403,0.706824541091919,-0.021963834762573242,0.6698682904243469,0.6265689730644226,-0.0450887531042099,0.6845754981040955,0.7145867347717285,-0.048945918679237366,0.6832649111747742,0.7420124411582947,-0.047699492424726486,0.708490788936615,0.6957009434700012,-0.02445431426167488,0.7083091139793396,0.6172323226928711,-0.04582316800951958,0.7130956649780273,0.6963216662406921,-0.03991316258907318,0.7114883065223694,0.7472315430641174,-0.03106987103819847,0.7418272495269775,0.6995748281478882,-0.029513631016016006,0.7429154515266418,0.6117094159126282,-0.0436335913836956,0.7461851835250854,0.559346079826355,-0.045996539294719696,0.745205283164978,0.5063687562942505,-0.045628249645233154,0.0,0.0,0.0,0.0,0.0,0.0,0.0,0.0,0.0,0.0,0.0,0.0,0.0,0.0,0.0,0.0,0.0,0.0,0.0,0.0,0.0,0.0,0.0,0.0,0.0,0.0,0.0,0.0,0.0,0.0,0.0,0.0,0.0,0.0,0.0,0.0,0.0,0.0,0.0,0.0,0.0,0.0,0.0,0.0,0.0,0.0,0.0,0.0,0.0,0.0,0.0,0.0,0.0,0.0,0.0,0.0,0.0,0.0,0.0,0.0,0.0,0.0,0.0
1783390890.152877,0.7307057976722717,0.9296873211860657,-2.9697326908717514e-07,0.6907063126564026,0.9085935950279236,-0.023355035111308098,0.6580684781074524,0.8502739667892456,-0.04040353372693062,0.6654738783836365,0.7849875092506409,-0.05705052614212036,0.6998609304428101,0.7475970387458801,-0.0687069296836853,0.6433405876159668,0.7323092222213745,-0.02174166589975357,0.6303307414054871,0.6668317317962646,-0.04643020033836365,0.650095522403717,0.7344881296157837,-0.0584876723587513,0.6605413556098938,0.7741559147834778,-0.06385907530784607,0.6759552359580994,0.7027114033699036,-0.02188548631966114,0.6703357696533203,0.6247445344924927,-0.046330925077199936,0.6843903660774231,0.7076030373573303,-0.05202566459774971,0.6828978657722473,0.7387785911560059,-0.05155542120337486,0.7096473574638367,0.6914700865745544,-0.02569233998656273,0.7079882621765137,0.6111136674880981,-0.04679618030786514,0.7136059999465942,0.6893459558486938,-0.04143252968788147,0.7109553217887878,0.741112470626831,-0.03256633132696152,0.7426368594169617,0.6965440511703491,-0.032001055777072906,0.7428350448608398,0.6088138818740845,-0.04464605823159218,0.7462592124938965,0.5562395453453064,-0.04575115442276001,0.7445577383041382,0.5030151009559631,-0.04422326758503914,0.0,0.0,0.0,0.0,0.0,0.0,0.0,0.0,0.0,0.0,0.0,0.0,0.0,0.0,0.0,0.0,0.0,0.0,0.0,0.0,0.0,0.0,0.0,0.0,0.0,0.0,0.0,0.0,0.0,0.0,0.0,0.0,0.0,0.0,0.0,0.0,0.0,0.0,0.0,0.0,0.0,0.0,0.0,0.0,0.0,0.0,0.0,0.0,0.0,0.0,0.0,0.0,0.0,0.0,0.0,0.0,0.0,0.0,0.0,0.0,0.0,0.0,0.0
1783390890.279295,0.73089998960495,0.9263401031494141,-2.656871345152467e-07,0.689928412437439,0.9038098454475403,-0.024416813626885414,0.6570912599563599,0.8456451296806335,-0.04272028058767319,0.6648518443107605,0.7806208729743958,-0.060866910964250565,0.7003324031829834,0.7423858642578125,-0.07415499538183212,0.6435222029685974,0.7269192934036255,-0.021301433444023132,0.6307539939880371,0.6623213887214661,-0.047126103192567825,0.6502519845962524,0.7303920984268188,-0.06026935577392578,0.6610310077667236,0.771003007888794,-0.06590959429740906,0.6759354472160339,0.697964072227478,-0.021440740674734116,0.6708390712738037,0.6213099360466003,-0.04761987924575806,0.684106707572937,0.702328622341156,-0.054751940071582794,0.6834860444068909,0.7377511262893677,-0.05452970415353775,0.7099137902259827,0.6868868470191956,-0.02545892260968685,0.7075364589691162,0.608354926109314,-0.047768376767635345,0.713371992111206,0.6871585845947266,-0.043375540524721146,0.7110595703125,0.7410513162612915,-0.034379743039608,0.7422862648963928,0.69237220287323,-0.03206438571214676,0.7426073551177979,0.6057438254356384,-0.0442749559879303,0.7456837892532349,0.5525980591773987,-0.04502096772193909,0.7435007691383362,0.4993184506893158,-0.0429861880838871,0.0,0.0,0.0,0.0,0.0,0.0,0.0,0.0,0.0,0.0,0.0,0.0,0.0,0.0,0.0,0.0,0.0,0.0,0.0,0.0,0.0,0.0,0.0,0.0,0.0,0.0,0.0,0.0,0.0,0.0,0.0,0.0,0.0,0.0,0.0,0.0,0.0,0.0,0.0,0.0,0.0,0.0,0.0,0.0,0.0,0.0,0.0,0.0,0.0,0.0,0.0,0.0,0.0,0.0,0.0,0.0,0.0,0.0,0.0,0.0,0.0,0.0,0.0
1783390890.4213812,0.7312116026878357,0.9287728071212769,-2.9930941991551663e-07,0.6909022927284241,0.9079052209854126,-0.02228401042521,0.6573917865753174,0.8483364582061768,-0.038690101355314255,0.6648361086845398,0.7817651033401489,-0.05490821972489357,0.6992208957672119,0.7458077669143677,-0.06618422269821167,0.6428966522216797,0.731759250164032,-0.02083846740424633,0.6291021704673767,0.6649126410484314,-0.04511844366788864,0.6488375663757324,0.7303639054298401,-0.056546520441770554,0.6596068739891052,0.7717229127883911,-0.061291493475437164,0.6755246520042419,0.7020432949066162,-0.02127562277019024,0.6694031953811646,0.6227623820304871,-0.044871363788843155,0.6835117340087891,0.7046775221824646,-0.04961162805557251,0.6818250417709351,0.7357286810874939,-0.048476893454790115,0.7089865803718567,0.6905295848846436,-0.025335857644677162,0.7065991759300232,0.6095224618911743,-0.04569147154688835,0.712286651134491,0.6866547465324402,-0.03947281464934349,0.7101049423217773,0.7388653755187988,-0.030152253806591034,0.7418100833892822,0.6951516270637512,-0.03188183158636093,0.7419817447662354,0.6073176860809326,-0.04433760046958923,0.7452080249786377,0.5545649528503418,-0.04516180604696274,0.7433630228042603,0.5016500949859619,-0.04345378652215004,0.0,0.0,0.0,0.0,0.0,0.0,0.0,0.0,0.0,0.0,0.0,0.0,0.0,0.0,0.0,0.0,0.0,0.0,0.0,0.0,0.0,0.0,0.0,0.0,0.0,0.0,0.0,0.0,0.0,0.0,0.0,0.0,0.0,0.0,0.0,0.0,0.0,0.0,0.0,0.0,0.0,0.0,0.0,0.0,0.0,0.0,0.0,0.0,0.0,0.0,0.0,0.0,0.0,0.0,0.0,0.0,0.0,0.0,0.0,0.0,0.0,0.0,0.0
1783390890.551144,0.7312764525413513,0.9291496276855469,-2.876271025797905e-07,0.6913074254989624,0.9080885648727417,-0.02307281456887722,0.6575767397880554,0.8497277498245239,-0.04025885462760925,0.6644845008850098,0.783847451210022,-0.05723447725176811,0.6990639567375183,0.7471617460250854,-0.0691882073879242,0.6428089737892151,0.7309216260910034,-0.021770264953374863,0.6296018958091736,0.6656327843666077,-0.0465298630297184,0.6494998335838318,0.7328325510025024,-0.0582609586417675,0.6597223281860352,0.7719919681549072,-0.06327012181282043,0.675283670425415,0.7019220590591431,-0.02222837693989277,0.6692418456077576,0.6245185136795044,-0.046771228313446045,0.6829487085342407,0.7056813836097717,-0.05222411826252937,0.681442141532898,0.7368970513343811,-0.05144482105970383,0.709019124507904,0.6904463768005371,-0.02635352313518524,0.7058584690093994,0.6111662983894348,-0.04746304824948311,0.7115479707717896,0.6891341209411621,-0.04198145121335983,0.7090317010879517,0.7413874268531799,-0.0329333059489727,0.7414488792419434,0.6948690414428711,-0.03298896551132202,0.741585910320282,0.6075122356414795,-0.04541695863008499,0.7441548109054565,0.554677426815033,-0.04639236256480217,0.7415339350700378,0.5013609528541565,-0.0447525754570961,0.0,0.0,0.0,0.0,0.0,0.0,0.0,0.0,0.0,0.0,0.0,0.0,0.0,0.0,0.0,0.0,0.0,0.0,0.0,0.0,0.0,0.0,0.0,0.0,0.0,0.0,0.0,0.0,0.0,0.0,0.0,0.0,0.0,0.0,0.0,0.0,0.0,0.0,0.0,0.0,0.0,0.0,0.0,0.0,0.0,0.0,0.0,0.0,0.0,0.0,0.0,0.0,0.0,0.0,0.0,0.0,0.0,0.0,0.0,0.0,0.0,0.0,0.0
1783390890.681756,0.730379581451416,0.9281190633773804,-2.7306984407005075e-07,0.6904778480529785,0.905014157295227,-0.02518273890018463,0.6574979424476624,0.8465408682823181,-0.043879855424165726,0.6644392609596252,0.7810049653053284,-0.0620773509144783,0.6996760964393616,0.7440598011016846,-0.07519208639860153,0.6432521343231201,0.7304320335388184,-0.02342790737748146,0.6297964453697205,0.6646354794502258,-0.04840335622429848,0.6490620374679565,0.7312425971031189,-0.06028038263320923,0.6593105792999268,0.7713372707366943,-0.06545260548591614,0.6753743290901184,0.7006690502166748,-0.022846059873700142,0.6690523028373718,0.6235358715057373,-0.046897828578948975,0.6830621361732483,0.7056348919868469,-0.0522189661860466,0.6810669302940369,0.7337753772735596,-0.05175074189901352,0.7086989879608154,0.688794732093811,-0.02609146200120449,0.7054473161697388,0.6086941361427307,-0.04666304588317871,0.7116628885269165,0.6870166063308716,-0.040817853063344955,0.7098865509033203,0.7401332259178162,-0.03195912018418312,0.7411931157112122,0.6934564113616943,-0.03209890425205231,0.740956723690033,0.6065719127655029,-0.04426996782422066,0.7438294291496277,0.5534804463386536,-0.04532919451594353,0.741535484790802,0.5008435249328613,-0.04404141753911972,0.0,0.0,0.0,0.0,0.0,0.0,0.0,0.0,0.0,0.0,0.0,0.0,0.0,0.0,0.0,0.0,0.0,0.0,0.0,0.0,0.0,0.0,0.0,0.0,0.0,0.0,0.0,0.0,0.0,0.0,0.0,0.0,0.0,0.0,0.0,0.0,0.0,0.0,0.0,0.0,0.0,0.0,0.0,0.0,0.0,0.0,0.0,0.0,0.0,0.0,0.0,0.0,0.0,0.0,0.0,0.0,0.0,0.0,0.0,0.0,0.0,0.0,0.0
1783390890.8189068,0.7291615009307861,0.9248210787773132,-2.7348116304892756e-07,0.6879691481590271,0.9001137018203735,-0.02345804125070572,0.6545793414115906,0.8397397398948669,-0.04125064238905907,0.6633326411247253,0.7725673317909241,-0.05893155187368393,0.699470043182373,0.7351279258728027,-0.07163099199533463,0.641322135925293,0.7254049777984619,-0.021642712876200676,0.6272884607315063,0.6589289307594299,-0.046899162232875824,0.6469051837921143,0.7276624441146851,-0.059277407824993134,0.6573178768157959,0.7666791081428528,-0.06472158432006836,0.6736048460006714,0.6959373354911804,-0.02178935892879963,0.6670817732810974,0.6185084581375122,-0.04606284201145172,0.6812478303909302,0.7002866864204407,-0.05143868178129196,0.6796924471855164,0.7289708256721497,-0.05082596838474274,0.7071534991264343,0.6842117309570312,-0.02572007291018963,0.7029616832733154,0.6039755940437317,-0.04623851925134659,0.7096545696258545,0.6832028031349182,-0.04010492190718651,0.7082732915878296,0.7360200881958008,-0.030751816928386688,0.7394489049911499,0.6884151101112366,-0.032258253544569016,0.7389994263648987,0.601076066493988,-0.04402095079421997,0.7413254976272583,0.5482555031776428,-0.04457712173461914,0.7382227182388306,0.49532920122146606,-0.04274682328104973,0.0,0.0,0.0,0.0,0.0,0.0,0.0,0.0,0.0,0.0,0.0,0.0,0.0,0.0,0.0,0.0,0.0,0.0,0.0,0.0,0.0,0.0,0.0,0.0,0.0,0.0,0.0,0.0,0.0,0.0,0.0,0.0,0.0,0.0,0.0,0.0,0.0,0.0,0.0,0.0,0.0,0.0,0.0,0.0,0.0,0.0,0.0,0.0,0.0,0.0,0.0,0.0,0.0,0.0,0.0,0.0,0.0,0.0,0.0,0.0,0.0,0.0,0.0
1783390890.9499578,0.7260452508926392,0.9215612411499023,-2.7363708454686275e-07,0.6844049692153931,0.8999943733215332,-0.023464230820536613,0.6520437598228455,0.8386414647102356,-0.04120081290602684,0.6625263094902039,0.772110104560852,-0.059126533567905426,0.7002412676811218,0.7362446784973145,-0.07255782186985016,0.6411837339401245,0.7208820581436157,-0.02074047364294529,0.6280105710029602,0.6548636555671692,-0.04636169224977493,0.6480578184127808,0.7226027250289917,-0.05922863259911537,0.6589101552963257,0.764410674571991,-0.06444234400987625,0.6739694476127625,0.6929653286933899,-0.021510161459445953,0.6694737076759338,0.6130431890487671,-0.048680298030376434,0.6829906702041626,0.6931029558181763,-0.05648958310484886,0.682669460773468,0.7344721555709839,-0.05595657601952553,0.7079638242721558,0.6820377707481384,-0.025972364470362663,0.7056732177734375,0.5999591946601868,-0.04883326590061188,0.7117353081703186,0.6766344904899597,-0.04548190161585808,0.708677351474762,0.7315863966941833,-0.03655016049742699,0.7397289276123047,0.6871764063835144,-0.032846514135599136,0.7389659285545349,0.601214587688446,-0.04489815980195999,0.7421374320983887,0.5485419631004333,-0.04568686708807945,0.7397763729095459,0.4966350495815277,-0.0434143990278244,0.0,0.0,0.0,0.0,0.0,0.0,0.0,0.0,0.0,0.0,0.0,0.0,0.0,0.0,0.0,0.0,0.0,0.0,0.0,0.0,0.0,0.0,0.0,0.0,0.0,0.0,0.0,0.0,0.0,0.0,0.0,0.0,0.0,0.0,0.0,0.0,0.0,0.0,0.0,0.0,0.0,0.0,0.0,0.0,0.0,0.0,0.0,0.0,0.0,0.0,0.0,0.0,0.0,0.0,0.0,0.0,0.0,0.0,0.0,0.0,0.0,0.0,0.0
1783390891.080775,0.7202737927436829,0.9231072068214417,-2.7812225766865595e-07,0.6820005774497986,0.9032831192016602,-0.02458675391972065,0.6539146304130554,0.8362913727760315,-0.04192328453063965,0.6681501269340515,0.7665103673934937,-0.05905267596244812,0.7056467533111572,0.7325750589370728,-0.07200159132480621,0.6431242823600769,0.7178638577461243,-0.02285965532064438,0.6351926922798157,0.6485450267791748,-0.04778414964675903,0.6536114811897278,0.714803159236908,-0.06001083180308342,0.6610394716262817,0.7530831694602966,-0.0649474561214447,0.677649974822998,0.6912739276885986,-0.02325616404414177,0.6780462265014648,0.6071081161499023,-0.05241965502500534,0.6914000511169434,0.6892131567001343,-0.060725584626197815,0.6897667050361633,0.7363653182983398,-0.05927998572587967,0.7113852500915527,0.6814126372337341,-0.02706252411007881,0.712598443031311,0.5966060161590576,-0.052822306752204895,0.7204196453094482,0.67308509349823,-0.05074436962604523,0.716585636138916,0.7268032431602478,-0.04130027815699577,0.7413549423217773,0.6864049434661865,-0.03298143669962883,0.7415683269500732,0.6017971634864807,-0.04539146274328232,0.7463212013244629,0.5528169274330139,-0.04525050148367882,0.7446048855781555,0.503253698348999,-0.0418151319026947,0.0,0.0,0.0,0.0,0.0,0.0,0.0,0.0,0.0,0.0,0.0,0.0,0.0,0.0,0.0,0.0,0.0,0.0,0.0,0.0,0.0,0.0,0.0,0.0,0.0,0.0,0.0,0.0,0.0,0.0,0.0,0.0,0.0,0.0,0.0,0.0,0.0,0.0,0.0,0.0,0.0,0.0,0.0,0.0,0.0,0.0,0.0,0.0,0.0,0.0,0.0,0.0,0.0,0.0,0.0,0.0,0.0,0.0,0.0,0.0,0.0,0.0,0.0
1783390891.217888,0.7179816961288452,0.9257748126983643,-2.917694530424342e-07,0.6798446774482727,0.9049915075302124,-0.0241556316614151,0.6526354551315308,0.836677610874176,-0.04184282571077347,0.6685570478439331,0.7689086198806763,-0.0591646209359169,0.7053089737892151,0.7333472967147827,-0.07208927720785141,0.6429786682128906,0.714459240436554,-0.021955197677016258,0.6388587355613708,0.6473826766014099,-0.046512454748153687,0.6563833951950073,0.7174676656723022,-0.059158727526664734,0.663112461566925,0.7559655904769897,-0.06463273614645004,0.6770389676094055,0.6912123560905457,-0.022949742153286934,0.6782487630844116,0.6046388149261475,-0.05151396244764328,0.69195556640625,0.6875101923942566,-0.06077016144990921,0.690804660320282,0.7335146069526672,-0.06031990051269531,0.7102711200714111,0.6839402318000793,-0.027229219675064087,0.7130167484283447,0.5966070294380188,-0.05172118917107582,0.7217934131622314,0.6698259711265564,-0.050266899168491364,0.7186656594276428,0.7202643156051636,-0.04188843071460724,0.7399802803993225,0.6908653974533081,-0.03354610130190849,0.7397257089614868,0.6048905253410339,-0.044183503836393356,0.7438852787017822,0.5556970238685608,-0.04354055970907211,0.7408290505409241,0.5048367977142334,-0.04047601297497749,0.0,0.0,0.0,0.0,0.0,0.0,0.0,0.0,0.0,0.0,0.0,0.0,0.0,0.0,0.0,0.0,0.0,0.0,0.0,0.0,0.0,0.0,0.0,0.0,0.0,0.0,0.0,0.0,0.0,0.0,0.0,0.0,0.0,0.0,0.0,0.0,0.0,0.0,0.0,0.0,0.0,0.0,0.0,0.0,0.0,0.0,0.0,0.0,0.0,0.0,0.0,0.0,0.0,0.0,0.0,0.0,0.0,0.0,0.0,0.0,0.0,0.0,0.0
1783390891.3855228,0.7170413732528687,0.9355000853538513,-3.231925234103983e-07,0.6803315281867981,0.9186325669288635,-0.02606256678700447,0.652247965335846,0.8536382913589478,-0.044225890189409256,0.6668463945388794,0.7876684069633484,-0.06144271418452263,0.7015660405158997,0.7523308992385864,-0.07379141449928284,0.642628014087677,0.730056881904602,-0.02544853463768959,0.6380561590194702,0.65537029504776,-0.051182422786951065,0.6529271602630615,0.7221499085426331,-0.06348878890275955,0.6584785580635071,0.7601828575134277,-0.06856205314397812,0.6769507527351379,0.7075919508934021,-0.025096749886870384,0.6774295568466187,0.619439423084259,-0.05394745618104935,0.6887897849082947,0.7029216885566711,-0.06164633482694626,0.6871650218963623,0.7438021898269653,-0.06033720448613167,0.7096074223518372,0.700648844242096,-0.028299925848841667,0.7115168571472168,0.6183416247367859,-0.0537162721157074,0.7163194417953491,0.6933833360671997,-0.05068514123558998,0.7115980982780457,0.7414045333862305,-0.04122430458664894,0.7385553121566772,0.7057467103004456,-0.033758942037820816,0.736894428730011,0.6188540458679199,-0.0463273823261261,0.7385152578353882,0.5674033164978027,-0.04624626412987709,0.7343407273292542,0.5141077041625977,-0.04338314011693001,0.0,0.0,0.0,0.0,0.0,0.0,0.0,0.0,0.0,0.0,0.0,0.0,0.0,0.0,0.0,0.0,0.0,0.0,0.0,0.0,0.0,0.0,0.0,0.0,0.0,0.0,0.0,0.0,0.0,0.0,0.0,0.0,0.0,0.0,0.0,0.0,0.0,0.0,0.0,0.0,0.0,0.0,0.0,0.0,0.0,0.0,0.0,0.0,0.0,0.0,0.0,0.0,0.0,0.0,0.0,0.0,0.0,0.0,0.0,0.0,0.0,0.0,0.0
1783390891.518216,0.7175417542457581,0.9596267938613892,-3.632115976870409e-07,0.6805949807167053,0.941351592540741,-0.022305747494101524,0.6512317657470703,0.8804388046264648,-0.03994720056653023,0.6660382151603699,0.8186429738998413,-0.05775074660778046,0.7028469443321228,0.7849187254905701,-0.07152655720710754,0.644889771938324,0.7549270987510681,-0.02257068268954754,0.6382908225059509,0.6861454248428345,-0.049088697880506516,0.6535086035728455,0.7524371147155762,-0.06281968206167221,0.660585343837738,0.7909955978393555,-0.06862659752368927,0.678928017616272,0.7329005599021912,-0.02470630593597889,0.679186999797821,0.648294985294342,-0.05425574257969856,0.6913196444511414,0.7311987280845642,-0.06327500194311142,0.689323902130127,0.7738739252090454,-0.0628037303686142,0.7119709253311157,0.7257829904556274,-0.030169792473316193,0.7136019468307495,0.641594648361206,-0.056501876562833786,0.7212749123573303,0.714576244354248,-0.05467149242758751,0.7181350588798523,0.7620770931243896,-0.04581907019019127,0.742254912853241,0.7316455245018005,-0.03752346336841583,0.7406023144721985,0.6444018483161926,-0.050044648349285126,0.7437551617622375,0.5938303470611572,-0.049788132309913635,0.740898609161377,0.5409372448921204,-0.046852100640535355,0.0,0.0,0.0,0.0,0.0,0.0,0.0,0.0,0.0,0.0,0.0,0.0,0.0,0.0,0.0,0.0,0.0,0.0,0.0,0.0,0.0,0.0,0.0,0.0,0.0,0.0,0.0,0.0,0.0,0.0,0.0,0.0,0.0,0.0,0.0,0.0,0.0,0.0,0.0,0.0,0.0,0.0,0.0,0.0,0.0,0.0,0.0,0.0,0.0,0.0,0.0,0.0,0.0,0.0,0.0,0.0,0.0,0.0,0.0,0.0,0.0,0.0,0.0
1783390891.6520221,0.7188016176223755,0.9663383364677429,-2.967432806144643e-07,0.6804453134536743,0.9491369724273682,-0.024240843951702118,0.6507304906845093,0.8876969218254089,-0.04126834124326706,0.6667640209197998,0.8258122205734253,-0.05806620046496391,0.7029690146446228,0.7937690615653992,-0.06984167546033859,0.6422591805458069,0.759223222732544,-0.021121788769960403,0.6376657485961914,0.6891103386878967,-0.04645974934101105,0.6517103910446167,0.7595100402832031,-0.058048103004693985,0.6590407490730286,0.7993572354316711,-0.06235465407371521,0.6773941516876221,0.736724853515625,-0.021307967603206635,0.6792984008789062,0.6537143588066101,-0.0505380854010582,0.6888231635093689,0.7397680282592773,-0.05694618448615074,0.6878998279571533,0.7828909158706665,-0.05395396798849106,0.7116320133209229,0.7302990555763245,-0.025286143645644188,0.7148835062980652,0.6543276309967041,-0.051647886633872986,0.7184879183769226,0.7377164363861084,-0.04698913171887398,0.7139509320259094,0.7901325821876526,-0.03533914312720299,0.7419480681419373,0.736732006072998,-0.03148448467254639,0.7461588382720947,0.6527867317199707,-0.04526115581393242,0.7511814832687378,0.602893054485321,-0.04491875693202019,0.7506232857704163,0.5492224097251892,-0.04083370417356491,0.0,0.0,0.0,0.0,0.0,0.0,0.0,0.0,0.0,0.0,0.0,0.0,0.0,0.0,0.0,0.0,0.0,0.0,0.0,0.0,0.0,0.0,0.0,0.0,0.0,0.0,0.0,0.0,0.0,0.0,0.0,0.0,0.0,0.0,0.0,0.0,0.0,0.0,0.0,0.0,0.0,0.0,0.0,0.0,0.0,0.0,0.0,0.0,0.0,0.0,0.0,0.0,0.0,0.0,0.0,0.0,0.0,0.0,0.0,0.0,0.0,0.0,0.0
1783390891.787733,0.7156136631965637,0.9639523029327393,-2.927824027665338e-07,0.6773730516433716,0.9447138905525208,-0.02176143042743206,0.6468722224235535,0.8801958560943604,-0.03797740489244461,0.6599119901657104,0.8157980442047119,-0.054745521396398544,0.6987009048461914,0.7874724268913269,-0.06680774688720703,0.6383956074714661,0.758070707321167,-0.018143773078918457,0.6313767433166504,0.6884665489196777,-0.04279487207531929,0.6478053331375122,0.7593530416488647,-0.05447390303015709,0.6551657319068909,0.7983107566833496,-0.059163134545087814,0.6718549132347107,0.7335124015808105,-0.019955391064286232,0.6714985370635986,0.6522531509399414,-0.047403812408447266,0.6829789280891418,0.734161913394928,-0.05429047346115112,0.6810269355773926,0.7739516496658325,-0.0526602566242218,0.7057947516441345,0.7258585095405579,-0.025459878146648407,0.7067636847496033,0.6428796052932739,-0.049598172307014465,0.7134271860122681,0.7218470573425293,-0.04558027535676956,0.7095444798469543,0.7724460363388062,-0.035535525530576706,0.7369771599769592,0.7323870062828064,-0.03314550966024399,0.739939272403717,0.6477709412574768,-0.04564798250794411,0.7452684640884399,0.5989347100257874,-0.04583122581243515,0.7441021203994751,0.5464107990264893,-0.042911428958177567,0.0,0.0,0.0,0.0,0.0,0.0,0.0,0.0,0.0,0.0,0.0,0.0,0.0,0.0,0.0,0.0,0.0,0.0,0.0,0.0,0.0,0.0,0.0,0.0,0.0,0.0,0.0,0.0,0.0,0.0,0.0,0.0,0.0,0.0,0.0,0.0,0.0,0.0,0.0,0.0,0.0,0.0,0.0,0.0,0.0,0.0,0.0,0.0,0.0,0.0,0.0,0.0,0.0,0.0,0.0,0.0,0.0,0.0,0.0,0.0,0.0,0.0,0.0
1783390891.948555,0.7171695232391357,0.9629837274551392,-2.7495113386066805e-07,0.6776865124702454,0.9434944987297058,-0.023002853617072105,0.6466655135154724,0.8803097605705261,-0.04027243331074715,0.6590365767478943,0.8138457536697388,-0.057962264865636826,0.6965490579605103,0.7781610488891602,-0.07088688015937805,0.6383787989616394,0.7540076375007629,-0.018227946013212204,0.6292358040809631,0.6857255697250366,-0.042705778032541275,0.6454017758369446,0.7542440295219421,-0.054456498473882675,0.6539735794067383,0.7942273020744324,-0.05906873568892479,0.6722459197044373,0.7293869853019714,-0.019577978178858757,0.6709402203559875,0.648918628692627,-0.047471463680267334,0.6817751526832581,0.7299471497535706,-0.05485951155424118,0.6810441613197327,0.7727301716804504,-0.053221940994262695,0.7062458992004395,0.7216405868530273,-0.02469654753804207,0.7064874768257141,0.6388623714447021,-0.049182094633579254,0.7117102742195129,0.7178792357444763,-0.04526376724243164,0.7082250714302063,0.7714340090751648,-0.03505647927522659,0.7371910214424133,0.7284512519836426,-0.032098378986120224,0.7394142746925354,0.6442161202430725,-0.04477456584572792,0.7436851859092712,0.59331214427948,-0.044794946908950806,0.7421256303787231,0.5397872924804688,-0.04154935106635094,0.0,0.0,0.0,0.0,0.0,0.0,0.0,0.0,0.0,0.0,0.0,0.0,0.0,0.0,0.0,0.0,0.0,0.0,0.0,0.0,0.0,0.0,0.0,0.0,0.0,0.0,0.0,0.0,0.0,0.0,0.0,0.0,0.0,0.0,0.0,0.0,0.0,0.0,0.0,0.0,0.0,0.0,0.0,0.0,0.0,0.0,0.0,0.0,0.0,0.0,0.0,0.0,0.0,0.0,0.0,0.0,0.0,0.0,0.0,0.0,0.0,0.0,0.0
1783390892.0861728,0.7175065279006958,0.9606634974479675,-2.8602079282791237e-07,0.6786431074142456,0.9398751258850098,-0.02337614633142948,0.6482861638069153,0.877103328704834,-0.04058936610817909,0.6602718830108643,0.8114163279533386,-0.05796307697892189,0.6975222826004028,0.7766329050064087,-0.0703381896018982,0.6380622982978821,0.7514751553535461,-0.019396552816033363,0.6302514672279358,0.6831704378128052,-0.04385252669453621,0.6470966339111328,0.7540922164916992,-0.055282577872276306,0.6552519798278809,0.7905231714248657,-0.05995773896574974,0.672603964805603,0.7273252010345459,-0.020449288189411163,0.6717813014984131,0.6464900374412537,-0.04872168228030205,0.6828255653381348,0.7293576002120972,-0.055738963186740875,0.6819649934768677,0.771385669708252,-0.05388692766427994,0.7067089676856995,0.719852864742279,-0.02519167773425579,0.7065504193305969,0.6376064419746399,-0.049770813435316086,0.7121777534484863,0.7173859477043152,-0.04556627571582794,0.7088897228240967,0.769839346408844,-0.03520936518907547,0.7376226782798767,0.7264057993888855,-0.03221528232097626,0.7395269274711609,0.6425625681877136,-0.04467015340924263,0.7435681819915771,0.5924027562141418,-0.04459477588534355,0.7417600750923157,0.5391250848770142,-0.041359320282936096,0.0,0.0,0.0,0.0,0.0,0.0,0.0,0.0,0.0,0.0,0.0,0.0,0.0,0.0,0.0,0.0,0.0,0.0,0.0,0.0,0.0,0.0,0.0,0.0,0.0,0.0,0.0,0.0,0.0,0.0,0.0,0.0,0.0,0.0,0.0,0.0,0.0,0.0,0.0,0.0,0.0,0.0,0.0,0.0,0.0,0.0,0.0,0.0,0.0,0.0,0.0,0.0,0.0,0.0,0.0,0.0,0.0,0.0,0.0,0.0,0.0,0.0,0.0
1783390892.2255309,0.7182189226150513,0.9578617215156555,-2.787703010653786e-07,0.6798065900802612,0.9377062320709229,-0.02247428335249424,0.6485235095024109,0.8748646974563599,-0.039304040372371674,0.6603856682777405,0.8085589408874512,-0.056477900594472885,0.6982460618019104,0.7731303572654724,-0.06897708028554916,0.6389760971069336,0.7507620453834534,-0.019102785736322403,0.6300486922264099,0.6801841855049133,-0.04352997988462448,0.6467077136039734,0.7477169036865234,-0.055076368153095245,0.6551305055618286,0.7862977981567383,-0.05975069850683212,0.6735325455665588,0.7260549068450928,-0.02049528993666172,0.6727073788642883,0.6435829997062683,-0.04858934134244919,0.6837267875671387,0.7243839502334595,-0.05592029541730881,0.6828152537345886,0.7672132253646851,-0.05437589809298515,0.7076689004898071,0.7185295820236206,-0.025486672297120094,0.7075852155685425,0.6365674138069153,-0.05021054297685623,0.7124910950660706,0.7151376008987427,-0.046725206077098846,0.7085161805152893,0.7680932283401489,-0.0369291752576828,0.7384398579597473,0.7250877022743225,-0.03262757882475853,0.7406836748123169,0.6412485837936401,-0.0458182767033577,0.7452312707901001,0.5904118418693542,-0.04645044729113579,0.7439404129981995,0.5371640920639038,-0.043754227459430695,0.0,0.0,0.0,0.0,0.0,0.0,0.0,0.0,0.0,0.0,0.0,0.0,0.0,0.0,0.0,0.0,0.0,0.0,0.0,0.0,0.0,0.0,0.0,0.0,0.0,0.0,0.0,0.0,0.0,0.0,0.0,0.0,0.0,0.0,0.0,0.0,0.0,0.0,0.0,0.0,0.0,0.0,0.0,0.0,0.0,0.0,0.0,0.0,0.0,0.0,0.0,0.0,0.0,0.0,0.0,0.0,0.0,0.0,0.0,0.0,0.0,0.0,0.0
1783390892.388535,0.7191855311393738,0.9588019847869873,-2.855978209481691e-07,0.6805630922317505,0.9400248527526855,-0.02298961766064167,0.6489010453224182,0.8765696883201599,-0.0397895872592926,0.6604835987091064,0.8096973896026611,-0.05673430114984512,0.6979324221611023,0.7746332883834839,-0.06867263466119766,0.6396632790565491,0.7496942281723022,-0.019695384427905083,0.6303600668907166,0.679063618183136,-0.04471820220351219,0.6476414203643799,0.7489933371543884,-0.056027695536613464,0.6569995880126953,0.7882537841796875,-0.060183100402355194,0.6744129061698914,0.7258846759796143,-0.02072884328663349,0.6735312342643738,0.6420246958732605,-0.04952723905444145,0.6850062012672424,0.7250804305076599,-0.0559995099902153,0.6848783493041992,0.7682249546051025,-0.053336355835199356,0.7086641788482666,0.7190136313438416,-0.02551117353141308,0.7085033655166626,0.6382845044136047,-0.050901368260383606,0.7135920524597168,0.7191452383995056,-0.0464758425951004,0.7100400328636169,0.772203803062439,-0.035549815744161606,0.7393763065338135,0.7259831428527832,-0.03248567879199982,0.7420408129692078,0.6422412991523743,-0.04593351110816002,0.747235119342804,0.5918616056442261,-0.046151839196681976,0.746590793132782,0.5384367108345032,-0.04280073568224907,0.0,0.0,0.0,0.0,0.0,0.0,0.0,0.0,0.0,0.0,0.0,0.0,0.0,0.0,0.0,0.0,0.0,0.0,0.0,0.0,0.0,0.0,0.0,0.0,0.0,0.0,0.0,0.0,0.0,0.0,0.0,0.0,0.0,0.0,0.0,0.0,0.0,0.0,0.0,0.0,0.0,0.0,0.0,0.0,0.0,0.0,0.0,0.0,0.0,0.0,0.0,0.0,0.0,0.0,0.0,0.0,0.0,0.0,0.0,0.0,0.0,0.0,0.0
1783390892.520345,0.7176404595375061,0.958111047744751,-2.8371454163789167e-07,0.6793895363807678,0.9408276677131653,-0.023542696610093117,0.6481391787528992,0.8774389028549194,-0.040323615074157715,0.6599649786949158,0.8114950060844421,-0.05715668573975563,0.6966507434844971,0.7776603698730469,-0.06882469356060028,0.6371500492095947,0.7515804171562195,-0.020154455676674843,0.6298829317092896,0.6811532974243164,-0.045353006571531296,0.6462998390197754,0.7510473132133484,-0.05611466243863106,0.6546745896339417,0.7898633480072021,-0.05981208384037018,0.6719942092895508,0.7268645167350769,-0.02094315178692341,0.6720751523971558,0.644614040851593,-0.049894094467163086,0.6831150650978088,0.7278143763542175,-0.05584883689880371,0.6826951503753662,0.7688289880752563,-0.05286310240626335,0.7064283490180969,0.7194235920906067,-0.025604620575904846,0.7069382071495056,0.639718770980835,-0.05180881544947624,0.7126100659370422,0.7220247387886047,-0.0471208319067955,0.7093878984451294,0.7739173173904419,-0.0358755886554718,0.7373440265655518,0.7256026268005371,-0.03246569260954857,0.7410641312599182,0.6427321434020996,-0.04646578058600426,0.7460359334945679,0.5945851802825928,-0.04662276804447174,0.7447835803031921,0.5414647459983826,-0.04316689446568489,0.0,0.0,0.0,0.0,0.0,0.0,0.0,0.0,0.0,0.0,0.0,0.0,0.0,0.0,0.0,0.0,0.0,0.0,0.0,0.0,0.0,0.0,0.0,0.0,0.0,0.0,0.0,0.0,0.0,0.0,0.0,0.0,0.0,0.0,0.0,0.0,0.0,0.0,0.0,0.0,0.0,0.0,0.0,0.0,0.0,0.0,0.0,0.0,0.0,0.0,0.0,0.0,0.0,0.0,0.0,0.0,0.0,0.0,0.0,0.0,0.0,0.0,0.0
