ciel274/research-hand-sign/data/raw/hiragana/sign_language_ko_1.csv
timestamp,R_joint_0_x,R_joint_0_y,R_joint_0_z,R_joint_1_x,R_joint_1_y,R_joint_1_z,R_joint_2_x,R_joint_2_y,R_joint_2_z,R_joint_3_x,R_joint_3_y,R_joint_3_z,R_joint_4_x,R_joint_4_y,R_joint_4_z,R_joint_5_x,R_joint_5_y,R_joint_5_z,R_joint_6_x,R_joint_6_y,R_joint_6_z,R_joint_7_x,R_joint_7_y,R_joint_7_z,R_joint_8_x,R_joint_8_y,R_joint_8_z,R_joint_9_x,R_joint_9_y,R_joint_9_z,R_joint_10_x,R_joint_10_y,R_joint_10_z,R_joint_11_x,R_joint_11_y,R_joint_11_z,R_joint_12_x,R_joint_12_y,R_joint_12_z,R_joint_13_x,R_joint_13_y,R_joint_13_z,R_joint_14_x,R_joint_14_y,R_joint_14_z,R_joint_15_x,R_joint_15_y,R_joint_15_z,R_joint_16_x,R_joint_16_y,R_joint_16_z,R_joint_17_x,R_joint_17_y,R_joint_17_z,R_joint_18_x,R_joint_18_y,R_joint_18_z,R_joint_19_x,R_joint_19_y,R_joint_19_z,R_joint_20_x,R_joint_20_y,R_joint_20_z,L_joint_0_x,L_joint_0_y,L_joint_0_z,L_joint_1_x,L_joint_1_y,L_joint_1_z,L_joint_2_x,L_joint_2_y,L_joint_2_z,L_joint_3_x,L_joint_3_y,L_joint_3_z,L_joint_4_x,L_joint_4_y,L_joint_4_z,L_joint_5_x,L_joint_5_y,L_joint_5_z,L_joint_6_x,L_joint_6_y,L_joint_6_z,L_joint_7_x,L_joint_7_y,L_joint_7_z,L_joint_8_x,L_joint_8_y,L_joint_8_z,L_joint_9_x,L_joint_9_y,L_joint_9_z,L_joint_10_x,L_joint_10_y,L_joint_10_z,L_joint_11_x,L_joint_11_y,L_joint_11_z,L_joint_12_x,L_joint_12_y,L_joint_12_z,L_joint_13_x,L_joint_13_y,L_joint_13_z,L_joint_14_x,L_joint_14_y,L_joint_14_z,L_joint_15_x,L_joint_15_y,L_joint_15_z,L_joint_16_x,L_joint_16_y,L_joint_16_z,L_joint_17_x,L_joint_17_y,L_joint_17_z,L_joint_18_x,L_joint_18_y,L_joint_18_z,L_joint_19_x,L_joint_19_y,L_joint_19_z,L_joint_20_x,L_joint_20_y,L_joint_20_z
1783390611.424573,0.68623948097229,0.7646192312240601,-3.9585930267094227e-07,0.6513681411743164,0.7034772038459778,0.0019678433891385794,0.6414136290550232,0.628223717212677,0.002838637912645936,0.639110803604126,0.5734883546829224,0.0009806326124817133,0.6340891122817993,0.5254333019256592,-0.0013671647757291794,0.6741741895675659,0.5679243803024292,0.01030450314283371,0.6321187019348145,0.5509471297264099,-0.0023951639886945486,0.6024273037910461,0.5485492944717407,-0.015443642623722553,0.5779335498809814,0.5441514253616333,-0.023934604600071907,0.6884620189666748,0.5699138045310974,0.0021630132105201483,0.6352166533470154,0.5542780160903931,-0.008275366388261318,0.601158857345581,0.5547307729721069,-0.01945747248828411,0.5738048553466797,0.5541037917137146,-0.027452148497104645,0.6963862180709839,0.5855553150177002,-0.00782354362308979,0.642426073551178,0.5694741010665894,-0.019090769812464714,0.6084461808204651,0.5690668225288391,-0.025374935939908028,0.5820440649986267,0.5644310116767883,-0.029036857187747955,0.6965264081954956,0.610892117023468,-0.018231002613902092,0.6531280875205994,0.5987587571144104,-0.028086258098483086,0.6281299591064453,0.5962288975715637,-0.03246277570724487,0.6079666018486023,0.5878368616104126,-0.034499894827604294,0.0,0.0,0.0,0.0,0.0,0.0,0.0,0.0,0.0,0.0,0.0,0.0,0.0,0.0,0.0,0.0,0.0,0.0,0.0,0.0,0.0,0.0,0.0,0.0,0.0,0.0,0.0,0.0,0.0,0.0,0.0,0.0,0.0,0.0,0.0,0.0,0.0,0.0,0.0,0.0,0.0,0.0,0.0,0.0,0.0,0.0,0.0,0.0,0.0,0.0,0.0,0.0,0.0,0.0,0.0,0.0,0.0,0.0,0.0,0.0,0.0,0.0,0.0
1783390611.559327,0.6859809160232544,0.7618165016174316,-3.904618779415614e-07,0.651790976524353,0.7014146447181702,0.0020162148866802454,0.6413465142250061,0.6254622936248779,0.0032878348138183355,0.6397675275802612,0.5707294344902039,0.0018998243613168597,0.6351739764213562,0.5229272842407227,1.3091994333080947e-05,0.6731635928153992,0.5671458840370178,0.009650534018874168,0.6316432356834412,0.548747718334198,-0.003077212255448103,0.602285623550415,0.5461104512214661,-0.015630291774868965,0.5782455801963806,0.5425196886062622,-0.023579109460115433,0.688073456287384,0.5696678161621094,0.0017883904511108994,0.635044276714325,0.5525429844856262,-0.008738928474485874,0.6008505821228027,0.5532187223434448,-0.01920672319829464,0.5734876394271851,0.5534745454788208,-0.026414349675178528,0.6966041922569275,0.5853424072265625,-0.007942250929772854,0.6429380774497986,0.5690779089927673,-0.01951576955616474,0.6097281575202942,0.5702114701271057,-0.025207264348864555,0.583882212638855,0.5667988657951355,-0.02813073620200157,0.6974002122879028,0.6102749109268188,-0.01804296486079693,0.6548177599906921,0.5981327891349792,-0.028479866683483124,0.6299732327461243,0.596267580986023,-0.03281064331531525,0.6095796823501587,0.5881369709968567,-0.03453290835022926,0.0,0.0,0.0,0.0,0.0,0.0,0.0,0.0,0.0,0.0,0.0,0.0,0.0,0.0,0.0,0.0,0.0,0.0,0.0,0.0,0.0,0.0,0.0,0.0,0.0,0.0,0.0,0.0,0.0,0.0,0.0,0.0,0.0,0.0,0.0,0.0,0.0,0.0,0.0,0.0,0.0,0.0,0.0,0.0,0.0,0.0,0.0,0.0,0.0,0.0,0.0,0.0,0.0,0.0,0.0,0.0,0.0,0.0,0.0,0.0,0.0,0.0,0.0
1783390611.721408,0.6865348219871521,0.7588019967079163,-3.7905985550423793e-07,0.6508698463439941,0.6974409818649292,0.0009550838149152696,0.6400993466377258,0.6208070516586304,0.001765348599292338,0.6384723782539368,0.5657498240470886,0.0001124440532294102,0.6339890360832214,0.5181195139884949,-0.0018940489972010255,0.6735367774963379,0.565071165561676,0.008921586908400059,0.6312735080718994,0.5460547208786011,-0.0039724321104586124,0.6021540760993958,0.5433507561683655,-0.016602810472249985,0.57833331823349,0.5393783450126648,-0.024595677852630615,0.6878007650375366,0.5673078894615173,0.001573026180267334,0.6343945264816284,0.5499535202980042,-0.008835556916892529,0.6001771688461304,0.5502222180366516,-0.01924271322786808,0.5731440186500549,0.5496037602424622,-0.02663867361843586,0.6956104636192322,0.5822979211807251,-0.007788803894072771,0.6423352956771851,0.5665407180786133,-0.019231656566262245,0.609018087387085,0.5673465728759766,-0.025046376511454582,0.5834644436836243,0.5641673803329468,-0.02820122241973877,0.6958144903182983,0.6061840653419495,-0.0176506657153368,0.6532463431358337,0.5953102111816406,-0.027801020070910454,0.628645658493042,0.593447744846344,-0.0322093665599823,0.6085871458053589,0.5854101777076721,-0.034148070961236954,0.0,0.0,0.0,0.0,0.0,0.0,0.0,0.0,0.0,0.0,0.0,0.0,0.0,0.0,0.0,0.0,0.0,0.0,0.0,0.0,0.0,0.0,0.0,0.0,0.0,0.0,0.0,0.0,0.0,0.0,0.0,0.0,0.0,0.0,0.0,0.0,0.0,0.0,0.0,0.0,0.0,0.0,0.0,0.0,0.0,0.0,0.0,0.0,0.0,0.0,0.0,0.0,0.0,0.0,0.0,0.0,0.0,0.0,0.0,0.0,0.0,0.0,0.0
1783390611.860328,0.6851511001586914,0.7570260167121887,-3.7741003211522184e-07,0.6495914459228516,0.6951825618743896,0.0010025418596342206,0.639376163482666,0.620082437992096,0.0015227572293952107,0.6382673382759094,0.5654692053794861,-0.000445510377176106,0.6339384913444519,0.5172066688537598,-0.0027520782314240932,0.6707496047019958,0.5636393427848816,0.009471893310546875,0.629468560218811,0.5453987717628479,-0.0035449983552098274,0.6001790165901184,0.5438397526741028,-0.016489185392856598,0.5759671330451965,0.5413135290145874,-0.024584826081991196,0.6852332949638367,0.5649657249450684,0.002073141746222973,0.6322730779647827,0.5487638115882874,-0.007995663210749626,0.5980817079544067,0.5492371320724487,-0.01866319589316845,0.5708237886428833,0.5492180585861206,-0.026366323232650757,0.6933462619781494,0.5792983174324036,-0.007373366970568895,0.6402978301048279,0.5640944242477417,-0.01826309971511364,0.6067594885826111,0.5643777251243591,-0.024451253935694695,0.5809358954429626,0.5614314675331116,-0.028077486902475357,0.6937386989593506,0.6028646230697632,-0.017340905964374542,0.6508320569992065,0.5924198627471924,-0.026836605742573738,0.6258465051651001,0.5917144417762756,-0.031113386154174805,0.6054235696792603,0.5854964852333069,-0.03313663974404335,0.0,0.0,0.0,0.0,0.0,0.0,0.0,0.0,0.0,0.0,0.0,0.0,0.0,0.0,0.0,0.0,0.0,0.0,0.0,0.0,0.0,0.0,0.0,0.0,0.0,0.0,0.0,0.0,0.0,0.0,0.0,0.0,0.0,0.0,0.0,0.0,0.0,0.0,0.0,0.0,0.0,0.0,0.0,0.0,0.0,0.0,0.0,0.0,0.0,0.0,0.0,0.0,0.0,0.0,0.0,0.0,0.0,0.0,0.0,0.0,0.0,0.0,0.0
1783390611.98794,0.6844083070755005,0.7559243440628052,-3.7553849097093916e-07,0.6483593583106995,0.6925971508026123,0.001049049780704081,0.6377802491188049,0.6171340942382812,0.0017968310276046395,0.635959804058075,0.5622220635414124,-3.1155945180216804e-05,0.6313912868499756,0.5143365859985352,-0.002192149171605706,0.6697759628295898,0.5621381998062134,0.010239502415060997,0.6281406283378601,0.5443704724311829,-0.0027029875200241804,0.5988178253173828,0.5422234535217285,-0.015633735805749893,0.5744392275810242,0.5387102365493774,-0.023832077160477638,0.6842027902603149,0.5635114312171936,0.0027772781904786825,0.6310286521911621,0.548114001750946,-0.0077357119880616665,0.5967026352882385,0.5487741827964783,-0.018678467720746994,0.5692453980445862,0.5481842756271362,-0.026416940614581108,0.6925930976867676,0.5782966613769531,-0.006766858045011759,0.6391739249229431,0.5638706684112549,-0.018231937661767006,0.6053529977798462,0.5639920830726624,-0.024587012827396393,0.5792033672332764,0.5601853132247925,-0.028080277144908905,0.6935626864433289,0.6025148034095764,-0.016814345493912697,0.6507459282875061,0.5919255614280701,-0.02673114836215973,0.6257829070091248,0.5900353193283081,-0.031172161921858788,0.6052969098091125,0.5822485685348511,-0.033170346170663834,0.0,0.0,0.0,0.0,0.0,0.0,0.0,0.0,0.0,0.0,0.0,0.0,0.0,0.0,0.0,0.0,0.0,0.0,0.0,0.0,0.0,0.0,0.0,0.0,0.0,0.0,0.0,0.0,0.0,0.0,0.0,0.0,0.0,0.0,0.0,0.0,0.0,0.0,0.0,0.0,0.0,0.0,0.0,0.0,0.0,0.0,0.0,0.0,0.0,0.0,0.0,0.0,0.0,0.0,0.0,0.0,0.0,0.0,0.0,0.0,0.0,0.0,0.0
1783390612.127392,0.6838489770889282,0.7540285587310791,-3.7350790194068395e-07,0.6475012898445129,0.692571222782135,0.0015017585828900337,0.6366019248962402,0.6157817244529724,0.00263927667401731,0.6350976824760437,0.5607316493988037,0.0012022627051919699,0.6303091645240784,0.5131550431251526,-0.0005623169126920402,0.6709318161010742,0.5593483448028564,0.009873724542558193,0.6282575130462646,0.5413459539413452,-0.0022985779214650393,0.598600447177887,0.5394954085350037,-0.01436654757708311,0.5743266940116882,0.5357012748718262,-0.022015200927853584,0.6851770281791687,0.5611961483955383,0.002392672933638096,0.6313570141792297,0.5450806021690369,-0.007421060465276241,0.5971390008926392,0.5455257892608643,-0.01754946820437908,0.5697475671768188,0.5444595813751221,-0.024690771475434303,0.6927459239959717,0.5763850808143616,-0.007019342388957739,0.6381707787513733,0.5617595911026001,-0.017866797745227814,0.6045674681663513,0.5611186623573303,-0.023377729579806328,0.5784225463867188,0.555609941482544,-0.02640165574848652,0.6924842596054077,0.6007966995239258,-0.01689140871167183,0.6492074131965637,0.5895382761955261,-0.026466524228453636,0.6239020228385925,0.5873184204101562,-0.030422808602452278,0.6031879186630249,0.5783592462539673,-0.03206275776028633,0.0,0.0,0.0,0.0,0.0,0.0,0.0,0.0,0.0,0.0,0.0,0.0,0.0,0.0,0.0,0.0,0.0,0.0,0.0,0.0,0.0,0.0,0.0,0.0,0.0,0.0,0.0,0.0,0.0,0.0,0.0,0.0,0.0,0.0,0.0,0.0,0.0,0.0,0.0,0.0,0.0,0.0,0.0,0.0,0.0,0.0,0.0,0.0,0.0,0.0,0.0,0.0,0.0,0.0,0.0,0.0,0.0,0.0,0.0,0.0,0.0,0.0,0.0
1783390612.2619321,0.684066891670227,0.7511749267578125,-3.7347649595176335e-07,0.6480852961540222,0.6884295344352722,0.002555069513618946,0.6379424333572388,0.6124151349067688,0.004195834044367075,0.636162519454956,0.5581912398338318,0.0029414300806820393,0.6319237351417542,0.5117446184158325,0.0013634376227855682,0.6704213619232178,0.5574671030044556,0.011672614142298698,0.6297281384468079,0.538107693195343,-0.00025161050143651664,0.6007333993911743,0.5357449054718018,-0.012289092876017094,0.5761842727661133,0.5309412479400635,-0.019934028387069702,0.685282826423645,0.5595417618751526,0.003673422848805785,0.6329268217086792,0.5422219634056091,-0.006541349925100803,0.5993103384971619,0.5422956347465515,-0.016899431124329567,0.5720713138580322,0.5412061214447021,-0.023915616795420647,0.6936611533164978,0.5745334625244141,-0.006228531710803509,0.6403246521949768,0.5578092336654663,-0.01741107366979122,0.6068776249885559,0.557166576385498,-0.023108497262001038,0.5806673765182495,0.5522645115852356,-0.025951970368623734,0.6941386461257935,0.5985662937164307,-0.016479983925819397,0.6517664194107056,0.5851922035217285,-0.026059651747345924,0.6264728307723999,0.5817872881889343,-0.029941190034151077,0.6057438254356384,0.5726833939552307,-0.0313953272998333,0.0,0.0,0.0,0.0,0.0,0.0,0.0,0.0,0.0,0.0,0.0,0.0,0.0,0.0,0.0,0.0,0.0,0.0,0.0,0.0,0.0,0.0,0.0,0.0,0.0,0.0,0.0,0.0,0.0,0.0,0.0,0.0,0.0,0.0,0.0,0.0,0.0,0.0,0.0,0.0,0.0,0.0,0.0,0.0,0.0,0.0,0.0,0.0,0.0,0.0,0.0,0.0,0.0,0.0,0.0,0.0,0.0,0.0,0.0,0.0,0.0,0.0,0.0
1783390612.3971698,0.683705747127533,0.7503219842910767,-3.8551272041331686e-07,0.6489861607551575,0.690001368522644,0.0035133198834955692,0.6386256814002991,0.6137001514434814,0.005369638092815876,0.6376440525054932,0.557978630065918,0.004228636622428894,0.6331005096435547,0.510221540927887,0.0026380177587270737,0.669103741645813,0.5560885667800903,0.011416957713663578,0.6285578012466431,0.5365289449691772,-4.0263752453029156e-05,0.5995428562164307,0.5343641042709351,-0.01147202868014574,0.5754764676094055,0.5308862924575806,-0.018636301159858704,0.6840501427650452,0.5575432181358337,0.0029913843609392643,0.6310305595397949,0.5417692065238953,-0.006365311332046986,0.5976330637931824,0.5420593023300171,-0.015884164720773697,0.5708980560302734,0.5428221225738525,-0.022370604798197746,0.6926552057266235,0.5725612640380859,-0.0072169071063399315,0.6389405131340027,0.5568816661834717,-0.017784658819437027,0.6063209176063538,0.5569605231285095,-0.02285194583237171,0.5811132192611694,0.5537307262420654,-0.025333639234304428,0.6935523152351379,0.5967755317687988,-0.01771339401602745,0.6510944366455078,0.5836018919944763,-0.027425605803728104,0.6260361671447754,0.5812397003173828,-0.03126037120819092,0.6055887937545776,0.5735388398170471,-0.03256399929523468,0.0,0.0,0.0,0.0,0.0,0.0,0.0,0.0,0.0,0.0,0.0,0.0,0.0,0.0,0.0,0.0,0.0,0.0,0.0,0.0,0.0,0.0,0.0,0.0,0.0,0.0,0.0,0.0,0.0,0.0,0.0,0.0,0.0,0.0,0.0,0.0,0.0,0.0,0.0,0.0,0.0,0.0,0.0,0.0,0.0,0.0,0.0,0.0,0.0,0.0,0.0,0.0,0.0,0.0,0.0,0.0,0.0,0.0,0.0,0.0,0.0,0.0,0.0
1783390612.5604632,0.6836068034172058,0.7505806088447571,-3.914989576969674e-07,0.6487216353416443,0.689232349395752,0.003390299389138818,0.6384156942367554,0.6124752759933472,0.005433084908872843,0.6373209953308105,0.556986391544342,0.004469722975045443,0.6324746012687683,0.5097552537918091,0.003043267410248518,0.6685301065444946,0.5547491908073425,0.012118140235543251,0.6280919313430786,0.5362510681152344,0.0007148188888095319,0.5991231799125671,0.5351877808570862,-0.010940460488200188,0.574944794178009,0.5319243669509888,-0.018358631059527397,0.6833956241607666,0.5558997392654419,0.0037337113171815872,0.6304959654808044,0.5410595536231995,-0.005708269774913788,0.5969211459159851,0.542172372341156,-0.0158121008425951,0.570054292678833,0.5426180362701416,-0.022804412990808487,0.6919941902160645,0.5707369446754456,-0.006470340769737959,0.6387419700622559,0.5560460686683655,-0.017302414402365685,0.6056848168373108,0.5570546388626099,-0.023158913478255272,0.5802890062332153,0.55368971824646,-0.026190124452114105,0.69288170337677,0.5948604941368103,-0.01694406382739544,0.6504374146461487,0.5820921659469604,-0.026823846623301506,0.625493049621582,0.579926609992981,-0.03103519044816494,0.6053022742271423,0.5717993974685669,-0.03267553821206093,0.0,0.0,0.0,0.0,0.0,0.0,0.0,0.0,0.0,0.0,0.0,0.0,0.0,0.0,0.0,0.0,0.0,0.0,0.0,0.0,0.0,0.0,0.0,0.0,0.0,0.0,0.0,0.0,0.0,0.0,0.0,0.0,0.0,0.0,0.0,0.0,0.0,0.0,0.0,0.0,0.0,0.0,0.0,0.0,0.0,0.0,0.0,0.0,0.0,0.0,0.0,0.0,0.0,0.0,0.0,0.0,0.0,0.0,0.0,0.0,0.0,0.0,0.0
1783390612.698001,0.6833126544952393,0.7516016364097595,-4.0099237708091096e-07,0.6482712030410767,0.6880696415901184,0.003957408480346203,0.6379624009132385,0.6122412085533142,0.006215968634933233,0.6358014941215515,0.5577623844146729,0.005311496555805206,0.6313851475715637,0.511792778968811,0.003878323594108224,0.6693227291107178,0.5545274019241333,0.012738698162138462,0.6286491751670837,0.5395254492759705,0.001884141587652266,0.5990877151489258,0.5407690405845642,-0.009709597565233707,0.574600338935852,0.5384944677352905,-0.017325032502412796,0.6835567951202393,0.5552999973297119,0.004109233617782593,0.6299560070037842,0.5431100130081177,-0.004986302461475134,0.5963038206100464,0.544909656047821,-0.01553998701274395,0.5692310929298401,0.5449973344802856,-0.023060642182826996,0.6917306184768677,0.5702104568481445,-0.006162400357425213,0.6377119421958923,0.5573153495788574,-0.01689930446445942,0.6042547821998596,0.5582147240638733,-0.023351993411779404,0.5784167647361755,0.5541886687278748,-0.026925519108772278,0.692356288433075,0.5945489406585693,-0.016614971682429314,0.6497414708137512,0.5809627175331116,-0.02645707130432129,0.6244416236877441,0.5775033235549927,-0.03098996728658676,0.603805422782898,0.5684233903884888,-0.032974451780319214,0.0,0.0,0.0,0.0,0.0,0.0,0.0,0.0,0.0,0.0,0.0,0.0,0.0,0.0,0.0,0.0,0.0,0.0,0.0,0.0,0.0,0.0,0.0,0.0,0.0,0.0,0.0,0.0,0.0,0.0,0.0,0.0,0.0,0.0,0.0,0.0,0.0,0.0,0.0,0.0,0.0,0.0,0.0,0.0,0.0,0.0,0.0,0.0,0.0,0.0,0.0,0.0,0.0,0.0,0.0,0.0,0.0,0.0,0.0,0.0,0.0,0.0,0.0
1783390612.861873,0.6835753917694092,0.7521951198577881,-3.7840692357349326e-07,0.647563099861145,0.6882430911064148,0.004974182695150375,0.636137068271637,0.6128613948822021,0.008243080228567123,0.6321090459823608,0.5591661930084229,0.007963758893311024,0.6278539299964905,0.5139409899711609,0.007229832001030445,0.6718267798423767,0.558134138584137,0.016907669603824615,0.6310015916824341,0.544705331325531,0.008764730766415596,0.6017693281173706,0.5461347103118896,-0.0012927369680255651,0.5774727463722229,0.5423320531845093,-0.008228994905948639,0.6853749752044678,0.5585909485816956,0.008189280517399311,0.6318203210830688,0.5466751456260681,0.0011105169542133808,0.599337100982666,0.5493835806846619,-0.00875006802380085,0.5728968977928162,0.5505005121231079,-0.015718279406428337,0.6925583481788635,0.5725669264793396,-0.0021134992130100727,0.6381872892379761,0.5594946146011353,-0.01123757939785719,0.6054261922836304,0.5608418583869934,-0.017315546050667763,0.5798906683921814,0.5580291152000427,-0.020627813413739204,0.6917886137962341,0.5954692959785461,-0.012559521943330765,0.6486253142356873,0.5814650058746338,-0.020829398185014725,0.6234303116798401,0.5787043571472168,-0.024555057287216187,0.6028180718421936,0.5717975497245789,-0.0259951613843441,0.0,0.0,0.0,0.0,0.0,0.0,0.0,0.0,0.0,0.0,0.0,0.0,0.0,0.0,0.0,0.0,0.0,0.0,0.0,0.0,0.0,0.0,0.0,0.0,0.0,0.0,0.0,0.0,0.0,0.0,0.0,0.0,0.0,0.0,0.0,0.0,0.0,0.0,0.0,0.0,0.0,0.0,0.0,0.0,0.0,0.0,0.0,0.0,0.0,0.0,0.0,0.0,0.0,0.0,0.0,0.0,0.0,0.0,0.0,0.0,0.0,0.0,0.0
1783390612.993972,0.6820101141929626,0.7503831386566162,-3.8529705648215895e-07,0.6473020315170288,0.6876642107963562,0.0040152654983103275,0.6362932920455933,0.6131547689437866,0.006645863875746727,0.6321384310722351,0.5599832534790039,0.006069232244044542,0.6250063180923462,0.5138120055198669,0.005087026860564947,0.6712602376937866,0.559412956237793,0.01494478341192007,0.6306683421134949,0.54680335521698,0.004938636440783739,0.6013668775558472,0.548041045665741,-0.006397230550646782,0.5768460035324097,0.546273946762085,-0.013769000768661499,0.6850160956382751,0.5593239665031433,0.006771609652787447,0.6323129534721375,0.5484423041343689,-0.0011967679020017385,0.5994448065757751,0.5508767366409302,-0.011362075805664062,0.5725784301757812,0.5515767931938171,-0.018489589914679527,0.6924576759338379,0.5721254348754883,-0.003118107095360756,0.6394275426864624,0.5611280798912048,-0.012880264781415462,0.6068776249885559,0.5627953410148621,-0.018951093778014183,0.5808101892471313,0.5603557825088501,-0.022130955010652542,0.6923858523368835,0.5943233370780945,-0.013208809308707714,0.6502491235733032,0.5838614106178284,-0.02214459516108036,0.625058650970459,0.582129716873169,-0.026108333840966225,0.6036176085472107,0.5756760239601135,-0.027519790455698967,0.0,0.0,0.0,0.0,0.0,0.0,0.0,0.0,0.0,0.0,0.0,0.0,0.0,0.0,0.0,0.0,0.0,0.0,0.0,0.0,0.0,0.0,0.0,0.0,0.0,0.0,0.0,0.0,0.0,0.0,0.0,0.0,0.0,0.0,0.0,0.0,0.0,0.0,0.0,0.0,0.0,0.0,0.0,0.0,0.0,0.0,0.0,0.0,0.0,0.0,0.0,0.0,0.0,0.0,0.0,0.0,0.0,0.0,0.0,0.0,0.0,0.0,0.0
1783390613.123729,0.6800218820571899,0.7490546107292175,-4.054540454490052e-07,0.6468237638473511,0.6881469488143921,0.003629610873758793,0.6362913250923157,0.6129491329193115,0.006178926210850477,0.6326115727424622,0.5601514577865601,0.005828928668051958,0.6246325373649597,0.5138946175575256,0.0050069247372448444,0.6724869012832642,0.5579066872596741,0.012475654482841492,0.6311735510826111,0.547121524810791,0.001605181023478508,0.6017548441886902,0.5492591261863708,-0.009962703101336956,0.5773995518684387,0.5486886501312256,-0.017362412065267563,0.6867184042930603,0.5587847232818604,0.0045258416794240475,0.6334318518638611,0.5490117073059082,-0.004030327312648296,0.600651204586029,0.5522003173828125,-0.013557507656514645,0.5737776160240173,0.5537489652633667,-0.020123839378356934,0.694384753704071,0.5722503066062927,-0.005088324658572674,0.6399618983268738,0.5625631213188171,-0.01521050464361906,0.6079999804496765,0.5648093819618225,-0.02024734765291214,0.5821335315704346,0.5620536804199219,-0.02268112264573574,0.6950662732124329,0.595360517501831,-0.014965761452913284,0.652675449848175,0.5860382318496704,-0.02445906773209572,0.6277240514755249,0.583897054195404,-0.02825481817126274,0.6061838269233704,0.5757300853729248,-0.029459990561008453,0.0,0.0,0.0,0.0,0.0,0.0,0.0,0.0,0.0,0.0,0.0,0.0,0.0,0.0,0.0,0.0,0.0,0.0,0.0,0.0,0.0,0.0,0.0,0.0,0.0,0.0,0.0,0.0,0.0,0.0,0.0,0.0,0.0,0.0,0.0,0.0,0.0,0.0,0.0,0.0,0.0,0.0,0.0,0.0,0.0,0.0,0.0,0.0,0.0,0.0,0.0,0.0,0.0,0.0,0.0,0.0,0.0,0.0,0.0,0.0,0.0,0.0,0.0
1783390614.266156,0.6806859970092773,0.7482918500900269,-4.014664796159195e-07,0.6476311087608337,0.6884297132492065,0.0024946979247033596,0.6373065114021301,0.6135233044624329,0.004307492170482874,0.633876621723175,0.5601294040679932,0.003703198628500104,0.6266032457351685,0.512664258480072,0.002736701164394617,0.67514568567276,0.5573302507400513,0.010428126901388168,0.6314211487770081,0.5464147329330444,-0.00024556039716117084,0.6021906733512878,0.5488253831863403,-0.011315863579511642,0.5791007280349731,0.5477814674377441,-0.018422240391373634,0.6888296008110046,0.5590112209320068,0.00303074368275702,0.6338450312614441,0.5490872263908386,-0.005228564143180847,0.6010202765464783,0.5519959926605225,-0.014204301871359348,0.574762761592865,0.5526553988456726,-0.020623432472348213,0.6953976154327393,0.5729851722717285,-0.006011330056935549,0.6403735876083374,0.562722384929657,-0.01582288183271885,0.6084837317466736,0.5647701025009155,-0.020628470927476883,0.58307945728302,0.5616119503974915,-0.023232711479067802,0.6952147483825684,0.5958589315414429,-0.015377398580312729,0.652606189250946,0.5875622034072876,-0.02489963173866272,0.6282079219818115,0.58683180809021,-0.028787875548005104,0.6073857545852661,0.5793169736862183,-0.03016783855855465,0.0,0.0,0.0,0.0,0.0,0.0,0.0,0.0,0.0,0.0,0.0,0.0,0.0,0.0,0.0,0.0,0.0,0.0,0.0,0.0,0.0,0.0,0.0,0.0,0.0,0.0,0.0,0.0,0.0,0.0,0.0,0.0,0.0,0.0,0.0,0.0,0.0,0.0,0.0,0.0,0.0,0.0,0.0,0.0,0.0,0.0,0.0,0.0,0.0,0.0,0.0,0.0,0.0,0.0,0.0,0.0,0.0,0.0,0.0,0.0,0.0,0.0,0.0
1783390614.790373,0.6732473969459534,0.7176564931869507,-3.347272468090523e-07,0.631959855556488,0.6507103443145752,0.00948365218937397,0.6241801977157593,0.5775250196456909,0.015044929459691048,0.6222964525222778,0.527746856212616,0.016443919390439987,0.6229308843612671,0.48534098267555237,0.01730365678668022,0.6631583571434021,0.5260347127914429,0.025833619758486748,0.6203915476799011,0.5154334902763367,0.022773530334234238,0.5917422771453857,0.522695779800415,0.014959899708628654,0.5690478086471558,0.5262924432754517,0.009656365029513836,0.6724215149879456,0.5238166451454163,0.01586274802684784,0.6157914996147156,0.5162662863731384,0.015638938173651695,0.5863360166549683,0.5253258943557739,0.008489898405969143,0.564044713973999,0.5331871509552002,0.0030668703839182854,0.674098789691925,0.5328713059425354,0.004496733658015728,0.6178092956542969,0.5238341093063354,0.0034671418834477663,0.5868489146232605,0.5288348197937012,-0.00029984282446093857,0.5640170574188232,0.5319855809211731,-0.0031628350261598825,0.6700500249862671,0.5486617684364319,-0.007154820952564478,0.6247739791870117,0.5373969674110413,-0.007490114308893681,0.6013893485069275,0.5358096361160278,-0.007742358837276697,0.5823449492454529,0.5306702256202698,-0.007585929706692696,0.0,0.0,0.0,0.0,0.0,0.0,0.0,0.0,0.0,0.0,0.0,0.0,0.0,0.0,0.0,0.0,0.0,0.0,0.0,0.0,0.0,0.0,0.0,0.0,0.0,0.0,0.0,0.0,0.0,0.0,0.0,0.0,0.0,0.0,0.0,0.0,0.0,0.0,0.0,0.0,0.0,0.0,0.0,0.0,0.0,0.0,0.0,0.0,0.0,0.0,0.0,0.0,0.0,0.0,0.0,0.0,0.0,0.0,0.0,0.0,0.0,0.0,0.0
1783390615.028192,0.6746702194213867,0.7016938924789429,-4.1115134763458627e-07,0.6367685198783875,0.6334154009819031,0.01708991266787052,0.6326449513435364,0.5644870400428772,0.02388404868543148,0.630832850933075,0.5143775939941406,0.024067942053079605,0.6303131580352783,0.4730960428714752,0.023246856406331062,0.6624925136566162,0.5116037726402283,0.03245561942458153,0.6163115501403809,0.4993159770965576,0.02657473273575306,0.5852158665657043,0.5093963146209717,0.01624613255262375,0.5588299632072449,0.5142316818237305,0.00976069737225771,0.6714584231376648,0.5083000659942627,0.017856035381555557,0.6125579476356506,0.49905818700790405,0.015223423950374126,0.578853189945221,0.5078415274620056,0.005332866217941046,0.5511691570281982,0.5158267021179199,-0.0018302988028153777,0.6737439632415771,0.5161322355270386,0.002130261156708002,0.6127657294273376,0.5082922577857971,-0.000297765014693141,0.5778102874755859,0.5141291618347168,-0.00571798998862505,0.5509260892868042,0.5177420377731323,-0.009645855985581875,0.6693521738052368,0.5305687189102173,-0.013192829675972462,0.6182622909545898,0.5207711458206177,-0.013314011506736279,0.5920560956001282,0.5212568044662476,-0.013825537636876106,0.5706058740615845,0.518572986125946,-0.01413002796471119,0.0,0.0,0.0,0.0,0.0,0.0,0.0,0.0,0.0,0.0,0.0,0.0,0.0,0.0,0.0,0.0,0.0,0.0,0.0,0.0,0.0,0.0,0.0,0.0,0.0,0.0,0.0,0.0,0.0,0.0,0.0,0.0,0.0,0.0,0.0,0.0,0.0,0.0,0.0,0.0,0.0,0.0,0.0,0.0,0.0,0.0,0.0,0.0,0.0,0.0,0.0,0.0,0.0,0.0,0.0,0.0,0.0,0.0,0.0,0.0,0.0,0.0,0.0
1783390615.354985,0.6833049654960632,0.6991308331489563,-4.7324721208497067e-07,0.6438608765602112,0.6278762817382812,0.01910834200680256,0.6401419639587402,0.5596311688423157,0.025270842015743256,0.6381775736808777,0.511867880821228,0.024904396384954453,0.6404200792312622,0.47197332978248596,0.023199236020445824,0.6760771870613098,0.503854513168335,0.02961585484445095,0.6281715035438538,0.49407070875167847,0.022077366709709167,0.5951704382896423,0.5089414119720459,0.010102094151079655,0.5665643811225891,0.5164392590522766,0.0024968639481812716,0.6840357184410095,0.5043109059333801,0.01460311096161604,0.6230916976928711,0.49733540415763855,0.009904884733259678,0.5872247815132141,0.5121363997459412,-0.0025007252115756273,0.5586830973625183,0.5215663909912109,-0.011804611422121525,0.685302197933197,0.515354573726654,-0.0006574980798177421,0.6233808398246765,0.5056445002555847,-0.004923006519675255,0.5882277488708496,0.5165902376174927,-0.012185432948172092,0.5622174143791199,0.5225033164024353,-0.01750643365085125,0.6798931956291199,0.5312985181808472,-0.014808174222707748,0.6302443742752075,0.5191968679428101,-0.014674165286123753,0.6063289642333984,0.5218527317047119,-0.014845694415271282,0.5877278447151184,0.5190891623497009,-0.015389617532491684,0.0,0.0,0.0,0.0,0.0,0.0,0.0,0.0,0.0,0.0,0.0,0.0,0.0,0.0,0.0,0.0,0.0,0.0,0.0,0.0,0.0,0.0,0.0,0.0,0.0,0.0,0.0,0.0,0.0,0.0,0.0,0.0,0.0,0.0,0.0,0.0,0.0,0.0,0.0,0.0,0.0,0.0,0.0,0.0,0.0,0.0,0.0,0.0,0.0,0.0,0.0,0.0,0.0,0.0,0.0,0.0,0.0,0.0,0.0,0.0,0.0,0.0,0.0
1783390615.568757,0.6924299001693726,0.6986644864082336,-4.862841365138593e-07,0.6521210670471191,0.6290079951286316,0.01855960302054882,0.6474909782409668,0.5603256225585938,0.02516908571124077,0.6463507413864136,0.5102919340133667,0.0256161130964756,0.6490556597709656,0.47059357166290283,0.024818794801831245,0.6857722401618958,0.5036478638648987,0.02991497330367565,0.6354915499687195,0.4935082793235779,0.02275553159415722,0.6020973324775696,0.5071777701377869,0.010886275209486485,0.5733305811882019,0.512260377407074,0.0032915123738348484,0.6933971047401428,0.5033646821975708,0.01557520218193531,0.6301683187484741,0.4952634871006012,0.01171329990029335,0.5935447216033936,0.5097500085830688,-0.00031537190079689026,0.5646774768829346,0.5169816613197327,-0.009555904194712639,0.6933211088180542,0.5130942463874817,0.0008799971546977758,0.6302062273025513,0.5028375387191772,-0.0027889299672096968,0.5944558382034302,0.5132969617843628,-0.010221343487501144,0.5682789087295532,0.5179392099380493,-0.01587328128516674,0.6863490343093872,0.5269607305526733,-0.01278007309883833,0.6350537538528442,0.5175735354423523,-0.012828963808715343,0.6109936237335205,0.5214640498161316,-0.013532728888094425,0.592725396156311,0.5184674859046936,-0.014367650263011456,0.0,0.0,0.0,0.0,0.0,0.0,0.0,0.0,0.0,0.0,0.0,0.0,0.0,0.0,0.0,0.0,0.0,0.0,0.0,0.0,0.0,0.0,0.0,0.0,0.0,0.0,0.0,0.0,0.0,0.0,0.0,0.0,0.0,0.0,0.0,0.0,0.0,0.0,0.0,0.0,0.0,0.0,0.0,0.0,0.0,0.0,0.0,0.0,0.0,0.0,0.0,0.0,0.0,0.0,0.0,0.0,0.0,0.0,0.0,0.0,0.0,0.0,0.0
1783390615.8392792,0.6939695477485657,0.7036464810371399,-4.6688009547324327e-07,0.6544696688652039,0.6332994103431702,0.01550673320889473,0.6493799090385437,0.5641592144966125,0.0213457141071558,0.6482437252998352,0.5139979720115662,0.021513957530260086,0.6496382355690002,0.4740733802318573,0.020824279636144638,0.6877213716506958,0.5076559782028198,0.029565710574388504,0.6361823081970215,0.4969507157802582,0.022046007215976715,0.6028595566749573,0.5098108649253845,0.009845389053225517,0.573625385761261,0.514695942401886,0.0023154909722507,0.6937853693962097,0.5065662264823914,0.016736404970288277,0.6299394369125366,0.4986433684825897,0.01301361434161663,0.594506561756134,0.5125076770782471,0.00126501580234617,0.5657223463058472,0.5212222337722778,-0.007272535469383001,0.6921398043632507,0.5148741006851196,0.003148790216073394,0.6282646059989929,0.5049605965614319,0.0004384859639685601,0.593631386756897,0.5159257650375366,-0.006067892070859671,0.5675133466720581,0.522884726524353,-0.010759024880826473,0.6839681267738342,0.5269104242324829,-0.009962627664208412,0.6326290369033813,0.5211164355278015,-0.009772720746695995,0.6081737279891968,0.5270438194274902,-0.010209907777607441,0.5889885425567627,0.5270620584487915,-0.010266881436109543,0.0,0.0,0.0,0.0,0.0,0.0,0.0,0.0,0.0,0.0,0.0,0.0,0.0,0.0,0.0,0.0,0.0,0.0,0.0,0.0,0.0,0.0,0.0,0.0,0.0,0.0,0.0,0.0,0.0,0.0,0.0,0.0,0.0,0.0,0.0,0.0,0.0,0.0,0.0,0.0,0.0,0.0,0.0,0.0,0.0,0.0,0.0,0.0,0.0,0.0,0.0,0.0,0.0,0.0,0.0,0.0,0.0,0.0,0.0,0.0,0.0,0.0,0.0
1783390615.99741,0.70102459192276,0.7115172147750854,-4.96486450174416e-07,0.6604176759719849,0.6398588418960571,0.019009003415703773,0.656093180179596,0.5710769295692444,0.026102891191840172,0.6545609831809998,0.5199019908905029,0.026976613327860832,0.6554454565048218,0.4794175326824188,0.02673696167767048,0.6924588680267334,0.5138452053070068,0.031827639788389206,0.6426532864570618,0.504492998123169,0.02401522919535637,0.6090697646141052,0.5172488689422607,0.011149127967655659,0.5792981386184692,0.5213814377784729,0.0031126770190894604,0.6995154023170471,0.5136927962303162,0.017457926645874977,0.6364019513130188,0.5061707496643066,0.013246477581560612,0.6017942428588867,0.5206338763237,0.0003584728401619941,0.573255717754364,0.5269783735275269,-0.009024201892316341,0.6999822854995728,0.5221903920173645,0.002747746417298913,0.6360412240028381,0.5122477412223816,-5.230723036220297e-05,0.6017444729804993,0.5222545266151428,-0.007344512268900871,0.5754702091217041,0.5261157751083374,-0.012803260236978531,0.6937804222106934,0.5348936319351196,-0.011031534522771835,0.6418697834014893,0.5267300605773926,-0.00987136922776699,0.6173043251037598,0.5310550928115845,-0.009845240041613579,0.5981020331382751,0.5284186005592346,-0.009929961524903774,0.0,0.0,0.0,0.0,0.0,0.0,0.0,0.0,0.0,0.0,0.0,0.0,0.0,0.0,0.0,0.0,0.0,0.0,0.0,0.0,0.0,0.0,0.0,0.0,0.0,0.0,0.0,0.0,0.0,0.0,0.0,0.0,0.0,0.0,0.0,0.0,0.0,0.0,0.0,0.0,0.0,0.0,0.0,0.0,0.0,0.0,0.0,0.0,0.0,0.0,0.0,0.0,0.0,0.0,0.0,0.0,0.0,0.0,0.0,0.0,0.0,0.0,0.0
1783390616.1579788,0.7055588960647583,0.7109361290931702,-4.647154980830237e-07,0.6642614006996155,0.6398390531539917,0.019293352961540222,0.6590446829795837,0.5713012218475342,0.02684933878481388,0.6569402813911438,0.5215057134628296,0.027852918952703476,0.658498227596283,0.48083189129829407,0.027682559564709663,0.696183979511261,0.5130493640899658,0.03457195311784744,0.6474353671073914,0.5047704577445984,0.028914809226989746,0.6146784424781799,0.5168092846870422,0.01742156594991684,0.5858691930770874,0.5206183195114136,0.009865262545645237,0.7037710547447205,0.5120158195495605,0.019767023622989655,0.6420032382011414,0.5078015923500061,0.017281755805015564,0.6071752309799194,0.5206894278526306,0.005249083507806063,0.5789441466331482,0.5263261198997498,-0.0038395526353269815,0.7044254541397095,0.5218453407287598,0.004389890935271978,0.641925036907196,0.5157811641693115,0.0019135435577481985,0.6074509620666504,0.5244210958480835,-0.005173913668841124,0.5814009308815002,0.5268139243125916,-0.010465491563081741,0.6985670328140259,0.5368012189865112,-0.010091961361467838,0.6473674774169922,0.5299138426780701,-0.009180326946079731,0.6234571933746338,0.5329118371009827,-0.00937121082097292,0.6047782301902771,0.5291273593902588,-0.009693621657788754,0.0,0.0,0.0,0.0,0.0,0.0,0.0,0.0,0.0,0.0,0.0,0.0,0.0,0.0,0.0,0.0,0.0,0.0,0.0,0.0,0.0,0.0,0.0,0.0,0.0,0.0,0.0,0.0,0.0,0.0,0.0,0.0,0.0,0.0,0.0,0.0,0.0,0.0,0.0,0.0,0.0,0.0,0.0,0.0,0.0,0.0,0.0,0.0,0.0,0.0,0.0,0.0,0.0,0.0,0.0,0.0,0.0,0.0,0.0,0.0,0.0,0.0,0.0
1783390616.295014,0.7058990597724915,0.7080473899841309,-4.403894138249598e-07,0.6660509705543518,0.638209879398346,0.017481984570622444,0.6602878570556641,0.5679100751876831,0.02484319545328617,0.6581535339355469,0.5177521705627441,0.02629147097468376,0.6590489149093628,0.47662949562072754,0.02658967487514019,0.697571873664856,0.5112734436988831,0.032044682651758194,0.6479672789573669,0.49975740909576416,0.026833707466721535,0.6143051981925964,0.5113911032676697,0.016151513904333115,0.5854582190513611,0.5160198211669922,0.00940534844994545,0.7045999765396118,0.5107799172401428,0.01868988201022148,0.6429169178009033,0.5008321404457092,0.01762794516980648,0.6059862971305847,0.5134577751159668,0.006808917969465256,0.5770053863525391,0.5214052796363831,-0.0016671952325850725,0.7044212222099304,0.5216947793960571,0.004691406153142452,0.6431288719177246,0.5127956867218018,0.003275941824540496,0.6073768138885498,0.5208563208580017,-0.0035957745276391506,0.5808095335960388,0.5248304605484009,-0.008960849605500698,0.6977860927581787,0.5366318225860596,-0.00849005114287138,0.6502565741539001,0.5276143550872803,-0.0068138292990624905,0.6276313662528992,0.5306605696678162,-0.006895528174936771,0.6099827289581299,0.5279002785682678,-0.007324342615902424,0.0,0.0,0.0,0.0,0.0,0.0,0.0,0.0,0.0,0.0,0.0,0.0,0.0,0.0,0.0,0.0,0.0,0.0,0.0,0.0,0.0,0.0,0.0,0.0,0.0,0.0,0.0,0.0,0.0,0.0,0.0,0.0,0.0,0.0,0.0,0.0,0.0,0.0,0.0,0.0,0.0,0.0,0.0,0.0,0.0,0.0,0.0,0.0,0.0,0.0,0.0,0.0,0.0,0.0,0.0,0.0,0.0,0.0,0.0,0.0,0.0,0.0,0.0
1783390616.428019,0.706898033618927,0.7050568461418152,-4.4898413875671395e-07,0.6670621633529663,0.6350281238555908,0.016395412385463715,0.6613378524780273,0.5649256706237793,0.022955328226089478,0.6593146324157715,0.5146244764328003,0.02361626736819744,0.661436140537262,0.4738716781139374,0.023230889812111855,0.6968844532966614,0.5074101686477661,0.03062206506729126,0.6483843326568604,0.4973258376121521,0.024064671248197556,0.6154388189315796,0.5100289583206177,0.012667478062212467,0.5868070721626282,0.5149984359741211,0.005496111698448658,0.704592764377594,0.5066146850585938,0.01715087890625,0.6439749002456665,0.49958133697509766,0.013741384260356426,0.607481062412262,0.5124714970588684,0.0021200375631451607,0.5783847570419312,0.5205362439155579,-0.006388434208929539,0.7055870890617371,0.5177561640739441,0.002944659674540162,0.6440194845199585,0.5092729926109314,-0.0006303113186731935,0.6084272861480713,0.5179365277290344,-0.007605055347084999,0.5820987820625305,0.5226840376853943,-0.012388159520924091,0.7003621459007263,0.5334343910217285,-0.010526958853006363,0.6516534090042114,0.5225980281829834,-0.010781877674162388,0.6283965706825256,0.5239588618278503,-0.011319107376039028,0.6105057001113892,0.5202971696853638,-0.011571901850402355,0.0,0.0,0.0,0.0,0.0,0.0,0.0,0.0,0.0,0.0,0.0,0.0,0.0,0.0,0.0,0.0,0.0,0.0,0.0,0.0,0.0,0.0,0.0,0.0,0.0,0.0,0.0,0.0,0.0,0.0,0.0,0.0,0.0,0.0,0.0,0.0,0.0,0.0,0.0,0.0,0.0,0.0,0.0,0.0,0.0,0.0,0.0,0.0,0.0,0.0,0.0,0.0,0.0,0.0,0.0,0.0,0.0,0.0,0.0,0.0,0.0,0.0,0.0
1783390616.560103,0.7083803415298462,0.7051690220832825,-4.4051586201021564e-07,0.6675320863723755,0.6349776387214661,0.015618734061717987,0.6620516777038574,0.5648725628852844,0.021770820021629333,0.6599004864692688,0.5142130851745605,0.022158993408083916,0.6622850894927979,0.47428518533706665,0.02166595682501793,0.6985552906990051,0.5089190006256104,0.030690276995301247,0.6511396765708923,0.49661293625831604,0.023754289373755455,0.6185916066169739,0.5084279179573059,0.011616689153015614,0.5896625518798828,0.5131565928459167,0.0038190309423953295,0.7062609791755676,0.507917046546936,0.017784036695957184,0.6460539102554321,0.5007209777832031,0.014093353413045406,0.6114980578422546,0.5138018131256104,0.001625332166440785,0.5834797024726868,0.5204591751098633,-0.007623821962624788,0.7074516415596008,0.5177778005599976,0.00405891053378582,0.6463635563850403,0.5093949437141418,0.0008143227896653116,0.6116675734519958,0.5184888243675232,-0.006696928758174181,0.5854262113571167,0.5231121778488159,-0.012059089727699757,0.7020115256309509,0.5328367948532104,-0.009067810140550137,0.6531190872192383,0.5240079760551453,-0.008675123564898968,0.6296945810317993,0.5263367295265198,-0.009369171224534512,0.6112645268440247,0.5237681865692139,-0.009935052134096622,0.0,0.0,0.0,0.0,0.0,0.0,0.0,0.0,0.0,0.0,0.0,0.0,0.0,0.0,0.0,0.0,0.0,0.0,0.0,0.0,0.0,0.0,0.0,0.0,0.0,0.0,0.0,0.0,0.0,0.0,0.0,0.0,0.0,0.0,0.0,0.0,0.0,0.0,0.0,0.0,0.0,0.0,0.0,0.0,0.0,0.0,0.0,0.0,0.0,0.0,0.0,0.0,0.0,0.0,0.0,0.0,0.0,0.0,0.0,0.0,0.0,0.0,0.0
1783390616.72632,0.7153437733650208,0.7087252736091614,-4.989119020137878e-07,0.6727523803710938,0.6373012065887451,0.019616881385445595,0.6672693490982056,0.57034832239151,0.0265069380402565,0.665124773979187,0.5199964642524719,0.02659686654806137,0.6659426689147949,0.4788261651992798,0.025496339425444603,0.7031463980674744,0.5110174417495728,0.03433528169989586,0.6540705561637878,0.5019601583480835,0.025911502540111542,0.6210649013519287,0.5157598257064819,0.012181898579001427,0.5915327668190002,0.5220980644226074,0.003458682680502534,0.7111857533454895,0.5102463960647583,0.018550030887126923,0.6482064723968506,0.5043854117393494,0.013581165112555027,0.613135039806366,0.5194277763366699,-0.0001647293975111097,0.5847775936126709,0.5268853902816772,-0.010301750153303146,0.7123410105705261,0.518641471862793,0.0020732327830046415,0.6487045884132385,0.5096401572227478,-0.0018729626899585128,0.6134691834449768,0.5220709443092346,-0.009761628694832325,0.5876426696777344,0.528457760810852,-0.015569041483104229,0.7071030735969543,0.532056450843811,-0.013535257428884506,0.6534845232963562,0.5260193943977356,-0.013943066820502281,0.6282154321670532,0.5325347185134888,-0.014841055497527122,0.6092706918716431,0.5318340063095093,-0.015510470606386662,0.0,0.0,0.0,0.0,0.0,0.0,0.0,0.0,0.0,0.0,0.0,0.0,0.0,0.0,0.0,0.0,0.0,0.0,0.0,0.0,0.0,0.0,0.0,0.0,0.0,0.0,0.0,0.0,0.0,0.0,0.0,0.0,0.0,0.0,0.0,0.0,0.0,0.0,0.0,0.0,0.0,0.0,0.0,0.0,0.0,0.0,0.0,0.0,0.0,0.0,0.0,0.0,0.0,0.0,0.0,0.0,0.0,0.0,0.0,0.0,0.0,0.0,0.0
1783390616.9572961,0.7224183082580566,0.7238196730613708,-4.922379730487592e-07,0.6792702078819275,0.6548095941543579,0.015644339844584465,0.6718913316726685,0.5854438543319702,0.021323325112462044,0.6699428558349609,0.5317187905311584,0.021016597747802734,0.6701271533966064,0.4882029592990875,0.01983514614403248,0.7096912264823914,0.525324285030365,0.03150530159473419,0.6599079370498657,0.516298770904541,0.02148662507534027,0.626746654510498,0.5269716382026672,0.007210399955511093,0.597904622554779,0.5311633944511414,-0.0016702988650649786,0.7173731327056885,0.5243661999702454,0.017368480563163757,0.6554569602012634,0.5141544938087463,0.010054953396320343,0.6200485229492188,0.5283851027488708,-0.004092592746019363,0.5910058617591858,0.5367007255554199,-0.013723536394536495,0.7188280820846558,0.5322920083999634,0.0021055196411907673,0.6558535695075989,0.5211706757545471,-0.004411549773067236,0.6205862760543823,0.5329027771949768,-0.012420074082911015,0.5939489603042603,0.538212776184082,-0.017497561872005463,0.7143603563308716,0.5456414222717285,-0.012573243118822575,0.6624004244804382,0.536828875541687,-0.014934152364730835,0.6372610330581665,0.5425838232040405,-0.0161269698292017,0.6180911064147949,0.5408432483673096,-0.01656808704137802,0.0,0.0,0.0,0.0,0.0,0.0,0.0,0.0,0.0,0.0,0.0,0.0,0.0,0.0,0.0,0.0,0.0,0.0,0.0,0.0,0.0,0.0,0.0,0.0,0.0,0.0,0.0,0.0,0.0,0.0,0.0,0.0,0.0,0.0,0.0,0.0,0.0,0.0,0.0,0.0,0.0,0.0,0.0,0.0,0.0,0.0,0.0,0.0,0.0,0.0,0.0,0.0,0.0,0.0,0.0,0.0,0.0,0.0,0.0,0.0,0.0,0.0,0.0
1783390617.162581,0.7240830063819885,0.7249824404716492,-4.5047636376693845e-07,0.6821742653846741,0.654854416847229,0.015453184954822063,0.6758127212524414,0.5841536521911621,0.02073635905981064,0.6731016635894775,0.5323779582977295,0.02008245140314102,0.675716757774353,0.49209198355674744,0.018510932102799416,0.7123411297798157,0.5247008204460144,0.02902769297361374,0.6641681790351868,0.5159092545509338,0.0208135973662138,0.6314147710800171,0.5283826589584351,0.008345691487193108,0.6025114059448242,0.5326893925666809,0.0004003894282504916,0.7203615307807922,0.5236520171165466,0.015210391953587532,0.6600359678268433,0.5179940462112427,0.0100456103682518,0.6250258684158325,0.5304130911827087,-0.0020122549030929804,0.5962768197059631,0.5368545055389404,-0.010670925490558147,0.7219972014427185,0.5340014696121216,0.0005585640901699662,0.6598441004753113,0.5262724161148071,-0.004083653911948204,0.6248418688774109,0.5358626842498779,-0.010236641392111778,0.5984339714050293,0.5396854281425476,-0.014391074888408184,0.7169988751411438,0.5514431595802307,-0.01355371717363596,0.6668721437454224,0.5409327149391174,-0.014418714679777622,0.6425982117652893,0.5433177351951599,-0.014237051829695702,0.6235339641571045,0.5406155586242676,-0.01383152510970831,0.0,0.0,0.0,0.0,0.0,0.0,0.0,0.0,0.0,0.0,0.0,0.0,0.0,0.0,0.0,0.0,0.0,0.0,0.0,0.0,0.0,0.0,0.0,0.0,0.0,0.0,0.0,0.0,0.0,0.0,0.0,0.0,0.0,0.0,0.0,0.0,0.0,0.0,0.0,0.0,0.0,0.0,0.0,0.0,0.0,0.0,0.0,0.0,0.0,0.0,0.0,0.0,0.0,0.0,0.0,0.0,0.0,0.0,0.0,0.0,0.0,0.0,0.0
