ciel274/research-hand-sign/data/raw/hiragana/sign_language_no_3.csv
timestamp,R_joint_0_x,R_joint_0_y,R_joint_0_z,R_joint_1_x,R_joint_1_y,R_joint_1_z,R_joint_2_x,R_joint_2_y,R_joint_2_z,R_joint_3_x,R_joint_3_y,R_joint_3_z,R_joint_4_x,R_joint_4_y,R_joint_4_z,R_joint_5_x,R_joint_5_y,R_joint_5_z,R_joint_6_x,R_joint_6_y,R_joint_6_z,R_joint_7_x,R_joint_7_y,R_joint_7_z,R_joint_8_x,R_joint_8_y,R_joint_8_z,R_joint_9_x,R_joint_9_y,R_joint_9_z,R_joint_10_x,R_joint_10_y,R_joint_10_z,R_joint_11_x,R_joint_11_y,R_joint_11_z,R_joint_12_x,R_joint_12_y,R_joint_12_z,R_joint_13_x,R_joint_13_y,R_joint_13_z,R_joint_14_x,R_joint_14_y,R_joint_14_z,R_joint_15_x,R_joint_15_y,R_joint_15_z,R_joint_16_x,R_joint_16_y,R_joint_16_z,R_joint_17_x,R_joint_17_y,R_joint_17_z,R_joint_18_x,R_joint_18_y,R_joint_18_z,R_joint_19_x,R_joint_19_y,R_joint_19_z,R_joint_20_x,R_joint_20_y,R_joint_20_z,L_joint_0_x,L_joint_0_y,L_joint_0_z,L_joint_1_x,L_joint_1_y,L_joint_1_z,L_joint_2_x,L_joint_2_y,L_joint_2_z,L_joint_3_x,L_joint_3_y,L_joint_3_z,L_joint_4_x,L_joint_4_y,L_joint_4_z,L_joint_5_x,L_joint_5_y,L_joint_5_z,L_joint_6_x,L_joint_6_y,L_joint_6_z,L_joint_7_x,L_joint_7_y,L_joint_7_z,L_joint_8_x,L_joint_8_y,L_joint_8_z,L_joint_9_x,L_joint_9_y,L_joint_9_z,L_joint_10_x,L_joint_10_y,L_joint_10_z,L_joint_11_x,L_joint_11_y,L_joint_11_z,L_joint_12_x,L_joint_12_y,L_joint_12_z,L_joint_13_x,L_joint_13_y,L_joint_13_z,L_joint_14_x,L_joint_14_y,L_joint_14_z,L_joint_15_x,L_joint_15_y,L_joint_15_z,L_joint_16_x,L_joint_16_y,L_joint_16_z,L_joint_17_x,L_joint_17_y,L_joint_17_z,L_joint_18_x,L_joint_18_y,L_joint_18_z,L_joint_19_x,L_joint_19_y,L_joint_19_z,L_joint_20_x,L_joint_20_y,L_joint_20_z
1784046055.044681,0.770902693271637,0.9360692501068115,-3.485951793891218e-08,0.7133187055587769,0.8402387499809265,0.02203749492764473,0.6797646284103394,0.7524076104164124,0.01531660184264183,0.6536993980407715,0.6850762367248535,-0.0053508044220507145,0.6284347772598267,0.6122491359710693,-0.028255948796868324,0.7526242136955261,0.6347194910049438,0.024495434015989304,0.7431741952896118,0.551254391670227,0.0011552339419722557,0.7425283193588257,0.4940747022628784,-0.014790559187531471,0.74692702293396,0.4446130692958832,-0.026465699076652527,0.7743282914161682,0.6566519737243652,-0.010908245109021664,0.7130374908447266,0.571209192276001,-0.04592528194189072,0.6713972687721252,0.6358245611190796,-0.05019117891788483,0.6626598238945007,0.6888521909713745,-0.044388510286808014,0.789828896522522,0.6952085494995117,-0.04944092035293579,0.7288194894790649,0.6123417615890503,-0.08696608245372772,0.6870570182800293,0.6762303709983826,-0.07348046451807022,0.6801827549934387,0.7289631962776184,-0.05347370728850365,0.7974462509155273,0.7454003095626831,-0.08745576441287994,0.7493281960487366,0.6698387861251831,-0.11604953557252884,0.7099905610084534,0.7047837972640991,-0.10792075097560883,0.6982070207595825,0.7571753263473511,-0.09439585357904434,0.0,0.0,0.0,0.0,0.0,0.0,0.0,0.0,0.0,0.0,0.0,0.0,0.0,0.0,0.0,0.0,0.0,0.0,0.0,0.0,0.0,0.0,0.0,0.0,0.0,0.0,0.0,0.0,0.0,0.0,0.0,0.0,0.0,0.0,0.0,0.0,0.0,0.0,0.0,0.0,0.0,0.0,0.0,0.0,0.0,0.0,0.0,0.0,0.0,0.0,0.0,0.0,0.0,0.0,0.0,0.0,0.0,0.0,0.0,0.0,0.0,0.0,0.0
1784046055.183157,0.7712981104850769,0.9000248908996582,-1.0789953108769623e-07,0.7118985056877136,0.8235662579536438,0.00023472913017030805,0.6768395900726318,0.7345818281173706,-0.012734444811940193,0.6505194902420044,0.6695564985275269,-0.03298451378941536,0.6273323893547058,0.599567711353302,-0.054460082203149796,0.7493118643760681,0.6005104184150696,-0.004340275190770626,0.7462970018386841,0.477661669254303,-0.031096074730157852,0.7482666969299316,0.39240390062332153,-0.050546951591968536,0.7522443532943726,0.31881022453308105,-0.06481410562992096,0.7782275080680847,0.6239858865737915,-0.023681851103901863,0.7022613286972046,0.5456680059432983,-0.0623098760843277,0.6572566032409668,0.6252666711807251,-0.06817922741174698,0.6498350501060486,0.6839321255683899,-0.06408156454563141,0.7947856783866882,0.6648976802825928,-0.04587781801819801,0.7229654788970947,0.5827559232711792,-0.08257821947336197,0.6791068911552429,0.652829647064209,-0.06887063384056091,0.6727165579795837,0.713218092918396,-0.04963262006640434,0.8007211089134216,0.7165281772613525,-0.06897275149822235,0.7465101480484009,0.6416112184524536,-0.0975416898727417,0.7065378427505493,0.6770302057266235,-0.08981727808713913,0.6942327618598938,0.7260679602622986,-0.07616255432367325,0.0,0.0,0.0,0.0,0.0,0.0,0.0,0.0,0.0,0.0,0.0,0.0,0.0,0.0,0.0,0.0,0.0,0.0,0.0,0.0,0.0,0.0,0.0,0.0,0.0,0.0,0.0,0.0,0.0,0.0,0.0,0.0,0.0,0.0,0.0,0.0,0.0,0.0,0.0,0.0,0.0,0.0,0.0,0.0,0.0,0.0,0.0,0.0,0.0,0.0,0.0,0.0,0.0,0.0,0.0,0.0,0.0,0.0,0.0,0.0,0.0,0.0,0.0
1784046055.3479218,0.7704435586929321,0.84765625,-1.6232785071679245e-07,0.7085567712783813,0.762468159198761,0.0033106855116784573,0.6731554865837097,0.6711074709892273,-0.006018135696649551,0.6483888626098633,0.6058139204978943,-0.023947615176439285,0.630930483341217,0.5336073040962219,-0.04263049364089966,0.7471262812614441,0.5342904329299927,0.007323471363633871,0.744799792766571,0.40657132863998413,-0.014776185154914856,0.7432670593261719,0.3250506818294525,-0.029116207733750343,0.7448527812957764,0.2544604241847992,-0.039377178996801376,0.7736818790435791,0.5520429611206055,-0.01231431495398283,0.6997666954994202,0.47353628277778625,-0.05071403831243515,0.6586353778839111,0.5554119348526001,-0.05703362077474594,0.6549885272979736,0.6178616285324097,-0.05158957093954086,0.7890229225158691,0.5864618420600891,-0.03475707769393921,0.7163345813751221,0.5098755359649658,-0.07099930942058563,0.6777099370956421,0.5841907858848572,-0.05926503613591194,0.6757044792175293,0.6451175212860107,-0.0401771105825901,0.7945223450660706,0.6321255564689636,-0.05785340070724487,0.7390566468238831,0.5603991150856018,-0.08373779058456421,0.7036401033401489,0.6002981066703796,-0.07583971321582794,0.6965510249137878,0.6513589024543762,-0.06154157593846321,0.0,0.0,0.0,0.0,0.0,0.0,0.0,0.0,0.0,0.0,0.0,0.0,0.0,0.0,0.0,0.0,0.0,0.0,0.0,0.0,0.0,0.0,0.0,0.0,0.0,0.0,0.0,0.0,0.0,0.0,0.0,0.0,0.0,0.0,0.0,0.0,0.0,0.0,0.0,0.0,0.0,0.0,0.0,0.0,0.0,0.0,0.0,0.0,0.0,0.0,0.0,0.0,0.0,0.0,0.0,0.0,0.0,0.0,0.0,0.0,0.0,0.0,0.0
1784046055.547272,0.7714908719062805,0.8443483710289001,-2.245622994223595e-07,0.7093133330345154,0.7553157806396484,-0.002878755098208785,0.6714144349098206,0.6639437079429626,-0.016855450347065926,0.6429072618484497,0.5951233506202698,-0.03832186758518219,0.6241874098777771,0.5234376192092896,-0.060175664722919464,0.7433128356933594,0.5236178636550903,-0.0004900946514680982,0.7449579238891602,0.39541351795196533,-0.024600163102149963,0.7438832521438599,0.31378844380378723,-0.03960954770445824,0.7472821474075317,0.2429153323173523,-0.050808120518922806,0.7704521417617798,0.5410173535346985,-0.01771567016839981,0.6962058544158936,0.4662911593914032,-0.055519912391901016,0.6567112803459167,0.5565261840820312,-0.0604216493666172,0.6575610041618347,0.6126280426979065,-0.05519551411271095,0.7870712876319885,0.5748438835144043,-0.0381682924926281,0.713739275932312,0.5021486878395081,-0.07543172687292099,0.6798379421234131,0.5829982161521912,-0.06131190061569214,0.6848912239074707,0.6405264735221863,-0.041344888508319855,0.7945973873138428,0.6202185153961182,-0.05974656343460083,0.7336745262145996,0.5477603077888489,-0.08631391823291779,0.7011027932167053,0.5938640832901001,-0.07658068835735321,0.7008636593818665,0.6449971199035645,-0.06138261407613754,0.0,0.0,0.0,0.0,0.0,0.0,0.0,0.0,0.0,0.0,0.0,0.0,0.0,0.0,0.0,0.0,0.0,0.0,0.0,0.0,0.0,0.0,0.0,0.0,0.0,0.0,0.0,0.0,0.0,0.0,0.0,0.0,0.0,0.0,0.0,0.0,0.0,0.0,0.0,0.0,0.0,0.0,0.0,0.0,0.0,0.0,0.0,0.0,0.0,0.0,0.0,0.0,0.0,0.0,0.0,0.0,0.0,0.0,0.0,0.0,0.0,0.0,0.0
1784046055.764776,0.7766726613044739,0.857703685760498,-2.632176290262578e-07,0.7139878273010254,0.770410418510437,-0.003605471458286047,0.6752042770385742,0.6746910810470581,-0.019338589161634445,0.6443465948104858,0.6063718795776367,-0.04198092222213745,0.6138554811477661,0.5418308973312378,-0.06581470370292664,0.746416449546814,0.5307151079177856,-0.007521177642047405,0.7430351972579956,0.40743497014045715,-0.03447763994336128,0.7437757849693298,0.3234017789363861,-0.05197707191109657,0.7497320175170898,0.25106796622276306,-0.06501812487840652,0.7774531245231628,0.5506811141967773,-0.024958955124020576,0.6938571333885193,0.4876103103160858,-0.06538102775812149,0.6557537913322449,0.5827051401138306,-0.07025865465402603,0.6593027710914612,0.6422296166419983,-0.06509117037057877,0.794769287109375,0.5899754762649536,-0.04534991458058357,0.7110861539840698,0.5318537950515747,-0.08286762237548828,0.6795010566711426,0.6128996014595032,-0.06696008890867233,0.6885907053947449,0.6695565581321716,-0.0463416762650013,0.8015609979629517,0.6406022310256958,-0.06698549538850784,0.731751561164856,0.5797829031944275,-0.09331703931093216,0.701953113079071,0.6255892515182495,-0.0826912596821785,0.7072640061378479,0.673500120639801,-0.0672587901353836,0.0,0.0,0.0,0.0,0.0,0.0,0.0,0.0,0.0,0.0,0.0,0.0,0.0,0.0,0.0,0.0,0.0,0.0,0.0,0.0,0.0,0.0,0.0,0.0,0.0,0.0,0.0,0.0,0.0,0.0,0.0,0.0,0.0,0.0,0.0,0.0,0.0,0.0,0.0,0.0,0.0,0.0,0.0,0.0,0.0,0.0,0.0,0.0,0.0,0.0,0.0,0.0,0.0,0.0,0.0,0.0,0.0,0.0,0.0,0.0,0.0,0.0,0.0
1784046055.968523,0.7807151079177856,0.8563978672027588,-2.344690415156947e-07,0.7164419889450073,0.7681499719619751,-0.0044575841166079044,0.6775436401367188,0.6750152111053467,-0.020374849438667297,0.6451712250709534,0.607723593711853,-0.04282388091087341,0.6162145137786865,0.5422359704971313,-0.06622324138879776,0.7485178112983704,0.5248926281929016,-0.007557474076747894,0.7442297339439392,0.4035748839378357,-0.03400572016835213,0.7449939846992493,0.3208003044128418,-0.05128378048539162,0.7516485452651978,0.24833351373672485,-0.06425075232982635,0.7780386209487915,0.5444994568824768,-0.02386578731238842,0.6936184763908386,0.4870378375053406,-0.06295592337846756,0.6561434864997864,0.5825775861740112,-0.06781674176454544,0.6603056788444519,0.6362384557723999,-0.06303868442773819,0.7948118448257446,0.5843246579170227,-0.043060675263404846,0.711110532283783,0.5305541753768921,-0.08022929728031158,0.6791921854019165,0.6122261881828308,-0.06449954211711884,0.6877442002296448,0.6641702055931091,-0.04406766965985298,0.8010615110397339,0.6358209252357483,-0.0634986013174057,0.7310938239097595,0.5776459574699402,-0.08937350660562515,0.7012614607810974,0.6252090334892273,-0.07833462953567505,0.7062380313873291,0.6710588932037354,-0.06252487748861313,0.0,0.0,0.0,0.0,0.0,0.0,0.0,0.0,0.0,0.0,0.0,0.0,0.0,0.0,0.0,0.0,0.0,0.0,0.0,0.0,0.0,0.0,0.0,0.0,0.0,0.0,0.0,0.0,0.0,0.0,0.0,0.0,0.0,0.0,0.0,0.0,0.0,0.0,0.0,0.0,0.0,0.0,0.0,0.0,0.0,0.0,0.0,0.0,0.0,0.0,0.0,0.0,0.0,0.0,0.0,0.0,0.0,0.0,0.0,0.0,0.0,0.0,0.0
1784046056.172503,0.7783582806587219,0.8543772101402283,-2.4707486545594293e-07,0.7142506241798401,0.7665545344352722,-0.004735730122774839,0.6747586727142334,0.675365686416626,-0.02051417902112007,0.6429778337478638,0.6088535189628601,-0.04272446408867836,0.6151578426361084,0.5427179336547852,-0.06572192162275314,0.7451464533805847,0.5233771800994873,-0.007674432825297117,0.7401883006095886,0.40055781602859497,-0.0338897742331028,0.7395033240318298,0.3183121681213379,-0.05065913498401642,0.7439447641372681,0.24624696373939514,-0.06319190561771393,0.7749313712120056,0.5426744222640991,-0.023677004501223564,0.6915174722671509,0.48621702194213867,-0.0628238320350647,0.6543391942977905,0.5819291472434998,-0.06759225577116013,0.6575563549995422,0.6356959342956543,-0.0627591535449028,0.7926031947135925,0.582024872303009,-0.04260846599936485,0.7099719047546387,0.5284484624862671,-0.07983285188674927,0.6791797280311584,0.6110419034957886,-0.06417550891637802,0.6878882646560669,0.6627383828163147,-0.04376295581459999,0.8003059029579163,0.6332573294639587,-0.06280531734228134,0.7306626439094543,0.577035665512085,-0.0885954424738884,0.7012739777565002,0.6250852942466736,-0.07770763337612152,0.7065054774284363,0.6700630187988281,-0.06198747083544731,0.0,0.0,0.0,0.0,0.0,0.0,0.0,0.0,0.0,0.0,0.0,0.0,0.0,0.0,0.0,0.0,0.0,0.0,0.0,0.0,0.0,0.0,0.0,0.0,0.0,0.0,0.0,0.0,0.0,0.0,0.0,0.0,0.0,0.0,0.0,0.0,0.0,0.0,0.0,0.0,0.0,0.0,0.0,0.0,0.0,0.0,0.0,0.0,0.0,0.0,0.0,0.0,0.0,0.0,0.0,0.0,0.0,0.0,0.0,0.0,0.0,0.0,0.0
1784046056.3732638,0.7839759588241577,0.8550522327423096,-2.301191273090808e-07,0.7187345623970032,0.767517626285553,-0.002349465386942029,0.6794378161430359,0.6783807277679443,-0.020270874723792076,0.6451056599617004,0.6165624856948853,-0.04456277936697006,0.6136236190795898,0.5509148836135864,-0.07013628631830215,0.7465188503265381,0.527239978313446,-0.014691511169075966,0.73796147108078,0.40008091926574707,-0.04404537007212639,0.7381083965301514,0.3111053705215454,-0.06381752341985703,0.742882490158081,0.23582196235656738,-0.07837004959583282,0.7785040736198425,0.5511957406997681,-0.03284430876374245,0.6865118741989136,0.5022419095039368,-0.07198673486709595,0.6501378417015076,0.592875063419342,-0.07612743228673935,0.6532086133956909,0.6456589698791504,-0.07224442064762115,0.7949467897415161,0.5951107740402222,-0.0532960444688797,0.7016201615333557,0.5502229928970337,-0.08820783346891403,0.6735807657241821,0.6283614635467529,-0.06992568075656891,0.6827985644340515,0.6786794662475586,-0.049833543598651886,0.8006740808486938,0.6498312950134277,-0.07502453029155731,0.723736047744751,0.6046697497367859,-0.09994907677173615,0.6966898441314697,0.6518458724021912,-0.08774089813232422,0.701675295829773,0.6959315538406372,-0.07193969935178757,0.0,0.0,0.0,0.0,0.0,0.0,0.0,0.0,0.0,0.0,0.0,0.0,0.0,0.0,0.0,0.0,0.0,0.0,0.0,0.0,0.0,0.0,0.0,0.0,0.0,0.0,0.0,0.0,0.0,0.0,0.0,0.0,0.0,0.0,0.0,0.0,0.0,0.0,0.0,0.0,0.0,0.0,0.0,0.0,0.0,0.0,0.0,0.0,0.0,0.0,0.0,0.0,0.0,0.0,0.0,0.0,0.0,0.0,0.0,0.0,0.0,0.0,0.0
1784046056.578413,0.7998815774917603,0.8784851431846619,-2.0670589151450258e-07,0.7223377823829651,0.7804234027862549,0.01351425051689148,0.6818538308143616,0.6926292777061462,-0.003910462372004986,0.6443321108818054,0.632044792175293,-0.029598133638501167,0.6051613092422485,0.5827854871749878,-0.05790720880031586,0.7462455630302429,0.5465566515922546,-0.02208321914076805,0.7320088744163513,0.41363951563835144,-0.055608682334423065,0.7299957275390625,0.3195405900478363,-0.07783865928649902,0.7320026755332947,0.23832827806472778,-0.0945214033126831,0.7694659233093262,0.5831258893013,-0.0475240983068943,0.6575829386711121,0.5385803580284119,-0.08314445614814758,0.6283776760101318,0.6301666498184204,-0.07947201281785965,0.6380823850631714,0.6756986379623413,-0.0737362802028656,0.7748028635978699,0.6422951221466064,-0.0733407586812973,0.6637144684791565,0.6096919178962708,-0.102862648665905,0.647861659526825,0.6809635758399963,-0.07804719358682632,0.6680369973182678,0.7172425985336304,-0.05769225209951401,0.7705081105232239,0.7055302858352661,-0.09905027598142624,0.6829398274421692,0.6744357943534851,-0.12001510709524155,0.6663487553596497,0.7184004783630371,-0.10478798300027847,0.6826901435852051,0.7485257983207703,-0.08961527794599533,0.0,0.0,0.0,0.0,0.0,0.0,0.0,0.0,0.0,0.0,0.0,0.0,0.0,0.0,0.0,0.0,0.0,0.0,0.0,0.0,0.0,0.0,0.0,0.0,0.0,0.0,0.0,0.0,0.0,0.0,0.0,0.0,0.0,0.0,0.0,0.0,0.0,0.0,0.0,0.0,0.0,0.0,0.0,0.0,0.0,0.0,0.0,0.0,0.0,0.0,0.0,0.0,0.0,0.0,0.0,0.0,0.0,0.0,0.0,0.0,0.0,0.0,0.0
1784046056.792654,0.8124443292617798,0.917657196521759,-1.908083930857174e-07,0.7802750468254089,0.7803176641464233,0.012837343849241734,0.7155135869979858,0.6873335242271423,0.0012499584117904305,0.6414280533790588,0.6638399958610535,-0.015192689374089241,0.591139018535614,0.6587520241737366,-0.03522004187107086,0.7282180786132812,0.6227511167526245,-0.02826947346329689,0.6801035404205322,0.5062969326972961,-0.05136774480342865,0.6581431031227112,0.43537214398384094,-0.06670946627855301,0.6430936455726624,0.36705926060676575,-0.07957823574542999,0.7264308929443359,0.6799113154411316,-0.046791400760412216,0.6197640299797058,0.6573387384414673,-0.06949230283498764,0.6061912775039673,0.6792979836463928,-0.07120023667812347,0.6096301674842834,0.6727237105369568,-0.07478879392147064,0.7185842394828796,0.7533618807792664,-0.06278632581233978,0.619004487991333,0.7355603575706482,-0.07875426113605499,0.6389344930648804,0.7584303617477417,-0.06482364237308502,0.6685522794723511,0.7589250206947327,-0.05609366297721863,0.7105056643486023,0.8265256881713867,-0.07782379537820816,0.6314874887466431,0.7891260385513306,-0.08913037180900574,0.6329412460327148,0.7979410290718079,-0.07825300097465515,0.6469287872314453,0.7971793413162231,-0.0692783072590828,0.0,0.0,0.0,0.0,0.0,0.0,0.0,0.0,0.0,0.0,0.0,0.0,0.0,0.0,0.0,0.0,0.0,0.0,0.0,0.0,0.0,0.0,0.0,0.0,0.0,0.0,0.0,0.0,0.0,0.0,0.0,0.0,0.0,0.0,0.0,0.0,0.0,0.0,0.0,0.0,0.0,0.0,0.0,0.0,0.0,0.0,0.0,0.0,0.0,0.0,0.0,0.0,0.0,0.0,0.0,0.0,0.0,0.0,0.0,0.0,0.0,0.0,0.0
1784046056.990101,0.8033884167671204,0.945853590965271,1.2701990215191472e-07,0.7745237946510315,0.7911558747291565,0.010398109443485737,0.7085970044136047,0.7217760682106018,0.005518787540495396,0.6447938084602356,0.7182744741439819,0.00023100980615708977,0.59855717420578,0.7453490495681763,-0.006701207719743252,0.6742703914642334,0.7089318633079529,-0.019291089847683907,0.5833178162574768,0.6693376302719116,-0.02959931641817093,0.5267971754074097,0.6571946144104004,-0.040943827480077744,0.4768797755241394,0.6486963033676147,-0.04957523196935654,0.6538242697715759,0.7956854104995728,-0.02558707632124424,0.5691238641738892,0.7404914498329163,-0.022882694378495216,0.5669373273849487,0.7111529111862183,-0.01590673439204693,0.5753680467605591,0.6906805038452148,-0.016409622505307198,0.6444178223609924,0.8745777010917664,-0.0287603959441185,0.5761030316352844,0.7917842864990234,-0.020030014216899872,0.5930536985397339,0.7683994174003601,-0.0018757566576823592,0.6168196797370911,0.7685667276382446,0.005677481647580862,0.6450430750846863,0.9344844818115234,-0.03179727494716644,0.593214750289917,0.8528193831443787,-0.020570604130625725,0.6066308617591858,0.8296976089477539,-0.0007173146004788578,0.6259681582450867,0.826339066028595,0.01091347448527813,0.0,0.0,0.0,0.0,0.0,0.0,0.0,0.0,0.0,0.0,0.0,0.0,0.0,0.0,0.0,0.0,0.0,0.0,0.0,0.0,0.0,0.0,0.0,0.0,0.0,0.0,0.0,0.0,0.0,0.0,0.0,0.0,0.0,0.0,0.0,0.0,0.0,0.0,0.0,0.0,0.0,0.0,0.0,0.0,0.0,0.0,0.0,0.0,0.0,0.0,0.0,0.0,0.0,0.0,0.0,0.0,0.0,0.0,0.0,0.0,0.0,0.0,0.0
1784046057.164048,0.7602699995040894,0.9347512125968933,3.169533044911077e-07,0.7289913296699524,0.7733491659164429,0.007109240163117647,0.6588064432144165,0.7233102917671204,0.012635886669158936,0.6006503105163574,0.7235252261161804,0.022049935534596443,0.5625535845756531,0.7503635883331299,0.03172154352068901,0.6161366105079651,0.7360764145851135,-0.02665043994784355,0.5221703052520752,0.7181324362754822,-0.02026790753006935,0.4698864221572876,0.7218039631843567,-0.01627853326499462,0.42698347568511963,0.7215684652328491,-0.015296953730285168,0.5988302230834961,0.8224883675575256,-0.02122589945793152,0.5365002155303955,0.7698948979377747,-0.00010540732182562351,0.5343198180198669,0.739379346370697,0.01538078673183918,0.537877082824707,0.7197720408439636,0.019275225698947906,0.5969876050949097,0.8922761082649231,-0.011429505422711372,0.5660141110420227,0.8217929005622864,0.017795244231820107,0.5910449028015137,0.8050253987312317,0.032436951994895935,0.6148329973220825,0.8109979033470154,0.032777391374111176,0.601355791091919,0.9407140016555786,-0.0018477232661098242,0.5864613652229309,0.8664298057556152,0.023652631789445877,0.6074036359786987,0.8518692851066589,0.036706939339637756,0.6272608637809753,0.8610118627548218,0.04074123501777649,0.0,0.0,0.0,0.0,0.0,0.0,0.0,0.0,0.0,0.0,0.0,0.0,0.0,0.0,0.0,0.0,0.0,0.0,0.0,0.0,0.0,0.0,0.0,0.0,0.0,0.0,0.0,0.0,0.0,0.0,0.0,0.0,0.0,0.0,0.0,0.0,0.0,0.0,0.0,0.0,0.0,0.0,0.0,0.0,0.0,0.0,0.0,0.0,0.0,0.0,0.0,0.0,0.0,0.0,0.0,0.0,0.0,0.0,0.0,0.0,0.0,0.0,0.0
1784046057.331994,0.7495476007461548,0.938130795955658,3.8574366811872096e-08,0.7220450043678284,0.7873530387878418,0.014728602953255177,0.6612654328346252,0.7408175468444824,0.025649257004261017,0.6061437129974365,0.7347840666770935,0.03920841962099075,0.5716906189918518,0.7649474740028381,0.052574917674064636,0.6013506650924683,0.7454995512962341,-0.01179127674549818,0.5117371082305908,0.7270743250846863,3.933985499315895e-05,0.4624810516834259,0.7254279851913452,0.006325181573629379,0.421353816986084,0.7286893129348755,0.008432025089859962,0.5865499377250671,0.8275151252746582,-0.005253862123936415,0.546230673789978,0.7686135172843933,0.023660501465201378,0.5669177770614624,0.7510738968849182,0.04263267666101456,0.5884799957275391,0.7479775547981262,0.04789923131465912,0.588456392288208,0.8940848112106323,0.006014702375978231,0.5671602487564087,0.8241961598396301,0.039464253932237625,0.5913013815879822,0.8162547945976257,0.052938103675842285,0.6134475469589233,0.8259716033935547,0.05095665156841278,0.5940238833427429,0.940853476524353,0.01855594292283058,0.5832382440567017,0.8761929869651794,0.04753458872437477,0.6042468547821045,0.8683334589004517,0.060641635209321976,0.6237013936042786,0.8757575154304504,0.06387428194284439,0.0,0.0,0.0,0.0,0.0,0.0,0.0,0.0,0.0,0.0,0.0,0.0,0.0,0.0,0.0,0.0,0.0,0.0,0.0,0.0,0.0,0.0,0.0,0.0,0.0,0.0,0.0,0.0,0.0,0.0,0.0,0.0,0.0,0.0,0.0,0.0,0.0,0.0,0.0,0.0,0.0,0.0,0.0,0.0,0.0,0.0,0.0,0.0,0.0,0.0,0.0,0.0,0.0,0.0,0.0,0.0,0.0,0.0,0.0,0.0,0.0,0.0,0.0
1784046057.5112052,0.7501441836357117,0.9427614212036133,-2.6043252887575363e-08,0.7234178185462952,0.7907692193984985,0.02058110386133194,0.6614763140678406,0.7482208013534546,0.03479655832052231,0.606285035610199,0.7453734874725342,0.04959144443273544,0.5732196569442749,0.7785325050354004,0.06367573887109756,0.6016207337379456,0.7424915432929993,0.0004238109686411917,0.511934220790863,0.7259028553962708,0.0154607854783535,0.4614514112472534,0.7254356741905212,0.022883441299200058,0.4197652339935303,0.7298822999000549,0.02516108565032482,0.5859428644180298,0.8261105418205261,0.003173701697960496,0.5479878187179565,0.7711326479911804,0.03356898948550224,0.5700150728225708,0.7567331790924072,0.05147302895784378,0.5925580263137817,0.7570220828056335,0.056340787559747696,0.5886183977127075,0.8959272503852844,0.010723317973315716,0.567567765712738,0.8287045955657959,0.04565230384469032,0.5923515558242798,0.8228928446769714,0.058610569685697556,0.6143913865089417,0.833329975605011,0.056203652173280716,0.595417320728302,0.947039008140564,0.019747329875826836,0.5847483277320862,0.8820751309394836,0.049443818628787994,0.6071187257766724,0.8770065903663635,0.06275706738233566,0.6268798112869263,0.8853329420089722,0.06622029095888138,0.0,0.0,0.0,0.0,0.0,0.0,0.0,0.0,0.0,0.0,0.0,0.0,0.0,0.0,0.0,0.0,0.0,0.0,0.0,0.0,0.0,0.0,0.0,0.0,0.0,0.0,0.0,0.0,0.0,0.0,0.0,0.0,0.0,0.0,0.0,0.0,0.0,0.0,0.0,0.0,0.0,0.0,0.0,0.0,0.0,0.0,0.0,0.0,0.0,0.0,0.0,0.0,0.0,0.0,0.0,0.0,0.0,0.0,0.0,0.0,0.0,0.0,0.0
1784046057.7005079,0.7505385279655457,0.944963276386261,-2.6536339348126603e-08,0.7225483655929565,0.7903540134429932,0.0270333644002676,0.6606979966163635,0.7475953102111816,0.043406859040260315,0.6058868169784546,0.7430278062820435,0.05895409360527992,0.5729283690452576,0.7762941122055054,0.07318102568387985,0.6005885601043701,0.7423380613327026,0.0072183432057499886,0.5106574892997742,0.726548433303833,0.025998247787356377,0.4615958333015442,0.7259583473205566,0.03604767844080925,0.42068880796432495,0.7300412654876709,0.0399659126996994,0.5846020579338074,0.8254659175872803,0.007835488766431808,0.545789897441864,0.7705124616622925,0.04167952015995979,0.5676005482673645,0.7568577527999878,0.060682740062475204,0.58957439661026,0.7567099928855896,0.06600701808929443,0.5878434777259827,0.8965181708335876,0.013941938057541847,0.5703861713409424,0.8306979537010193,0.05220799148082733,0.5960745215415955,0.825314462184906,0.06470365077257156,0.618108868598938,0.8353480100631714,0.0613446906208992,0.5955317616462708,0.9485409259796143,0.022127553820610046,0.5877310633659363,0.8840715289115906,0.05521109327673912,0.6109654903411865,0.8799974918365479,0.06905210018157959,0.6311468482017517,0.8881540298461914,0.07227528095245361,0.0,0.0,0.0,0.0,0.0,0.0,0.0,0.0,0.0,0.0,0.0,0.0,0.0,0.0,0.0,0.0,0.0,0.0,0.0,0.0,0.0,0.0,0.0,0.0,0.0,0.0,0.0,0.0,0.0,0.0,0.0,0.0,0.0,0.0,0.0,0.0,0.0,0.0,0.0,0.0,0.0,0.0,0.0,0.0,0.0,0.0,0.0,0.0,0.0,0.0,0.0,0.0,0.0,0.0,0.0,0.0,0.0,0.0,0.0,0.0,0.0,0.0,0.0
1784046057.8859699,0.754631757736206,0.9472662210464478,2.5312127149845765e-07,0.7247355580329895,0.7914443612098694,0.018986105918884277,0.6614775657653809,0.7497520446777344,0.034081291407346725,0.6067293882369995,0.7458571791648865,0.04924766719341278,0.5725794434547424,0.7793495655059814,0.06402759999036789,0.6055303812026978,0.7405761480331421,0.00771911209449172,0.5172164440155029,0.7262594103813171,0.02498900704085827,0.4684401750564575,0.7263329029083252,0.034260593354701996,0.4269319176673889,0.7304607033729553,0.0392572283744812,0.5889811515808105,0.8185622692108154,0.010134756565093994,0.5181761980056763,0.7699482440948486,0.03989844024181366,0.48642998933792114,0.7418354153633118,0.052723489701747894,0.4615575671195984,0.7230886220932007,0.05604983866214752,0.588874101638794,0.8891343474388123,0.016749082133173943,0.5620903372764587,0.8245202302932739,0.05243024602532387,0.5882860422134399,0.817223846912384,0.05991801992058754,0.6129269003868103,0.824487030506134,0.057109709829092026,0.5951054096221924,0.9443986415863037,0.024049844592809677,0.5847159028053284,0.8799448609352112,0.05451313778758049,0.6067516803741455,0.8769433498382568,0.06404395401477814,0.6284891963005066,0.8827446103096008,0.06649713218212128,0.0,0.0,0.0,0.0,0.0,0.0,0.0,0.0,0.0,0.0,0.0,0.0,0.0,0.0,0.0,0.0,0.0,0.0,0.0,0.0,0.0,0.0,0.0,0.0,0.0,0.0,0.0,0.0,0.0,0.0,0.0,0.0,0.0,0.0,0.0,0.0,0.0,0.0,0.0,0.0,0.0,0.0,0.0,0.0,0.0,0.0,0.0,0.0,0.0,0.0,0.0,0.0,0.0,0.0,0.0,0.0,0.0,0.0,0.0,0.0,0.0,0.0,0.0
1784046058.077471,0.7540979385375977,0.9485087990760803,3.234337384583341e-07,0.7251472473144531,0.7920256853103638,0.01300122495740652,0.6610869765281677,0.7458508610725403,0.02819041721522808,0.6066762208938599,0.7397422790527344,0.04556988179683685,0.5710898041725159,0.7720600962638855,0.06321907788515091,0.6041977405548096,0.7410634756088257,0.004580790642648935,0.5161432027816772,0.7219550013542175,0.02668157033622265,0.4691105782985687,0.7194522023200989,0.03996000066399574,0.4287985563278198,0.7232708930969238,0.04809017851948738,0.5885948538780212,0.8202293515205383,0.012717210687696934,0.5131024718284607,0.771353542804718,0.04742158576846123,0.4764842092990875,0.7424727082252502,0.06350741535425186,0.4476577043533325,0.7252650260925293,0.06947074830532074,0.5885205864906311,0.8888459801673889,0.024808397516608238,0.5614256858825684,0.8199414014816284,0.06478466093540192,0.5893881916999817,0.8078371286392212,0.07160376012325287,0.6143041253089905,0.814083456993103,0.06861007213592529,0.5936011075973511,0.9408801198005676,0.0372224859893322,0.5844641327857971,0.8699665665626526,0.07138942182064056,0.607008695602417,0.8623682856559753,0.08037374913692474,0.6299382448196411,0.8668397665023804,0.08228716254234314,0.0,0.0,0.0,0.0,0.0,0.0,0.0,0.0,0.0,0.0,0.0,0.0,0.0,0.0,0.0,0.0,0.0,0.0,0.0,0.0,0.0,0.0,0.0,0.0,0.0,0.0,0.0,0.0,0.0,0.0,0.0,0.0,0.0,0.0,0.0,0.0,0.0,0.0,0.0,0.0,0.0,0.0,0.0,0.0,0.0,0.0,0.0,0.0,0.0,0.0,0.0,0.0,0.0,0.0,0.0,0.0,0.0,0.0,0.0,0.0,0.0,0.0,0.0
1784046058.272314,0.7577831745147705,0.9492336511611938,2.9266132628436026e-07,0.7259160280227661,0.7857076525688171,0.01745491474866867,0.6597045063972473,0.7435294389724731,0.03493322804570198,0.6057486534118652,0.7397919297218323,0.054077036678791046,0.5704841017723083,0.7738204598426819,0.07342218607664108,0.6063237190246582,0.7365682125091553,0.009097116068005562,0.5195605754852295,0.7199887037277222,0.032436471432447433,0.47339898347854614,0.7173659801483154,0.045343223959207535,0.43343549966812134,0.7226643562316895,0.053063489496707916,0.5917696356773376,0.8162223696708679,0.016255870461463928,0.5123276710510254,0.7706025838851929,0.05152412876486778,0.4709552526473999,0.7437456846237183,0.06704118102788925,0.4373040199279785,0.7289745211601257,0.07239832729101181,0.5916070342063904,0.8861637711524963,0.027874398976564407,0.5590679049491882,0.8188907504081726,0.0696941465139389,0.5875853300094604,0.8041595816612244,0.07677219063043594,0.6133940815925598,0.8077641129493713,0.0735485851764679,0.5966753959655762,0.938992440700531,0.04021036624908447,0.5843356251716614,0.866801381111145,0.0761624351143837,0.6064028739929199,0.8565757870674133,0.08568695187568665,0.6296369433403015,0.857371985912323,0.08765042573213577,0.0,0.0,0.0,0.0,0.0,0.0,0.0,0.0,0.0,0.0,0.0,0.0,0.0,0.0,0.0,0.0,0.0,0.0,0.0,0.0,0.0,0.0,0.0,0.0,0.0,0.0,0.0,0.0,0.0,0.0,0.0,0.0,0.0,0.0,0.0,0.0,0.0,0.0,0.0,0.0,0.0,0.0,0.0,0.0,0.0,0.0,0.0,0.0,0.0,0.0,0.0,0.0,0.0,0.0,0.0,0.0,0.0,0.0,0.0,0.0,0.0,0.0,0.0
1784046058.478594,0.7555468678474426,0.9442157745361328,3.3314327652078646e-07,0.7237467169761658,0.7886364459991455,0.018685774877667427,0.6579720377922058,0.7448870539665222,0.03532860055565834,0.6052458882331848,0.7343425154685974,0.0537245087325573,0.5693202018737793,0.7613052725791931,0.07263074070215225,0.6088308691978455,0.7384738922119141,0.0051226625218987465,0.5208296179771423,0.7149010896682739,0.025884704664349556,0.4734225273132324,0.7056887149810791,0.03730366379022598,0.43323129415512085,0.7046759128570557,0.044326052069664,0.5934764742851257,0.8176873326301575,0.01177404448390007,0.5138206481933594,0.7674059271812439,0.04617695137858391,0.4758923053741455,0.7343544960021973,0.06354901194572449,0.4448585510253906,0.7124025225639343,0.07005364447832108,0.5912907123565674,0.8856826424598694,0.023081056773662567,0.553657054901123,0.8161752820014954,0.06660042703151703,0.5779188871383667,0.7978768348693848,0.07859103381633759,0.6027280688285828,0.8000988960266113,0.07800436019897461,0.5946688652038574,0.9368817210197449,0.03485172241926193,0.5780049562454224,0.8638771772384644,0.07349203526973724,0.5963993668556213,0.8488335609436035,0.08675824850797653,0.6183151006698608,0.848127543926239,0.09107889980077744,0.0,0.0,0.0,0.0,0.0,0.0,0.0,0.0,0.0,0.0,0.0,0.0,0.0,0.0,0.0,0.0,0.0,0.0,0.0,0.0,0.0,0.0,0.0,0.0,0.0,0.0,0.0,0.0,0.0,0.0,0.0,0.0,0.0,0.0,0.0,0.0,0.0,0.0,0.0,0.0,0.0,0.0,0.0,0.0,0.0,0.0,0.0,0.0,0.0,0.0,0.0,0.0,0.0,0.0,0.0,0.0,0.0,0.0,0.0,0.0,0.0,0.0,0.0
