ciel274/research-hand-sign/data/raw/hiragana/sign_language_ta_3.csv
timestamp,R_joint_0_x,R_joint_0_y,R_joint_0_z,R_joint_1_x,R_joint_1_y,R_joint_1_z,R_joint_2_x,R_joint_2_y,R_joint_2_z,R_joint_3_x,R_joint_3_y,R_joint_3_z,R_joint_4_x,R_joint_4_y,R_joint_4_z,R_joint_5_x,R_joint_5_y,R_joint_5_z,R_joint_6_x,R_joint_6_y,R_joint_6_z,R_joint_7_x,R_joint_7_y,R_joint_7_z,R_joint_8_x,R_joint_8_y,R_joint_8_z,R_joint_9_x,R_joint_9_y,R_joint_9_z,R_joint_10_x,R_joint_10_y,R_joint_10_z,R_joint_11_x,R_joint_11_y,R_joint_11_z,R_joint_12_x,R_joint_12_y,R_joint_12_z,R_joint_13_x,R_joint_13_y,R_joint_13_z,R_joint_14_x,R_joint_14_y,R_joint_14_z,R_joint_15_x,R_joint_15_y,R_joint_15_z,R_joint_16_x,R_joint_16_y,R_joint_16_z,R_joint_17_x,R_joint_17_y,R_joint_17_z,R_joint_18_x,R_joint_18_y,R_joint_18_z,R_joint_19_x,R_joint_19_y,R_joint_19_z,R_joint_20_x,R_joint_20_y,R_joint_20_z,L_joint_0_x,L_joint_0_y,L_joint_0_z,L_joint_1_x,L_joint_1_y,L_joint_1_z,L_joint_2_x,L_joint_2_y,L_joint_2_z,L_joint_3_x,L_joint_3_y,L_joint_3_z,L_joint_4_x,L_joint_4_y,L_joint_4_z,L_joint_5_x,L_joint_5_y,L_joint_5_z,L_joint_6_x,L_joint_6_y,L_joint_6_z,L_joint_7_x,L_joint_7_y,L_joint_7_z,L_joint_8_x,L_joint_8_y,L_joint_8_z,L_joint_9_x,L_joint_9_y,L_joint_9_z,L_joint_10_x,L_joint_10_y,L_joint_10_z,L_joint_11_x,L_joint_11_y,L_joint_11_z,L_joint_12_x,L_joint_12_y,L_joint_12_z,L_joint_13_x,L_joint_13_y,L_joint_13_z,L_joint_14_x,L_joint_14_y,L_joint_14_z,L_joint_15_x,L_joint_15_y,L_joint_15_z,L_joint_16_x,L_joint_16_y,L_joint_16_z,L_joint_17_x,L_joint_17_y,L_joint_17_z,L_joint_18_x,L_joint_18_y,L_joint_18_z,L_joint_19_x,L_joint_19_y,L_joint_19_z,L_joint_20_x,L_joint_20_y,L_joint_20_z
1783390840.745963,0.7152107954025269,0.7770593166351318,-3.970027648847463e-07,0.6977259516716003,0.6793688535690308,-0.03758217394351959,0.7047159671783447,0.5613831281661987,-0.05367664992809296,0.7137532234191895,0.4796692728996277,-0.061367977410554886,0.7245374917984009,0.4025690257549286,-0.06171506643295288,0.7739938497543335,0.5872331857681274,-0.053070563822984695,0.6857028007507324,0.6066393852233887,-0.0773816704750061,0.6870152354240417,0.6402842998504639,-0.0848926454782486,0.715379536151886,0.647162914276123,-0.08915168046951294,0.7941238880157471,0.6633610725402832,-0.04613418132066727,0.6796084046363831,0.6950305700302124,-0.06730033457279205,0.6934266686439514,0.7068872451782227,-0.06569506227970123,0.7291060090065002,0.6965707540512085,-0.06460031867027283,0.7965102195739746,0.7445414662361145,-0.042635444551706314,0.6898040771484375,0.7637373805046082,-0.06499496102333069,0.7016568779945374,0.7666057348251343,-0.051464397460222244,0.7329855561256409,0.7564970850944519,-0.039906278252601624,0.7881221175193787,0.819004237651825,-0.043729860335588455,0.706765353679657,0.8231709003448486,-0.0679333508014679,0.715143620967865,0.821171760559082,-0.06856348365545273,0.7431195974349976,0.8132935166358948,-0.06438514590263367,0.0,0.0,0.0,0.0,0.0,0.0,0.0,0.0,0.0,0.0,0.0,0.0,0.0,0.0,0.0,0.0,0.0,0.0,0.0,0.0,0.0,0.0,0.0,0.0,0.0,0.0,0.0,0.0,0.0,0.0,0.0,0.0,0.0,0.0,0.0,0.0,0.0,0.0,0.0,0.0,0.0,0.0,0.0,0.0,0.0,0.0,0.0,0.0,0.0,0.0,0.0,0.0,0.0,0.0,0.0,0.0,0.0,0.0,0.0,0.0,0.0,0.0,0.0
1783390840.946719,0.7184590697288513,0.7779008150100708,-3.922353073448903e-07,0.6991546750068665,0.6822443008422852,-0.03896070644259453,0.7062904834747314,0.5654662251472473,-0.056288350373506546,0.7160050868988037,0.48713040351867676,-0.06466306000947952,0.7250651121139526,0.4100748300552368,-0.06581892818212509,0.774470329284668,0.5907113552093506,-0.05928593873977661,0.6864546537399292,0.6103378534317017,-0.0853748694062233,0.6894461512565613,0.6431933045387268,-0.09382084757089615,0.7185015678405762,0.649078369140625,-0.09870939701795578,0.7954196929931641,0.6667711734771729,-0.05185333639383316,0.6807023882865906,0.6986598372459412,-0.07434449344873428,0.695934534072876,0.7101051807403564,-0.07233121991157532,0.7316130995750427,0.7004498243331909,-0.07098483294248581,0.7982777953147888,0.7480140328407288,-0.04767148941755295,0.6917619109153748,0.7680860757827759,-0.07080122828483582,0.7047600746154785,0.7706747055053711,-0.05591544881463051,0.7361762523651123,0.761685848236084,-0.04337886720895767,0.7902683615684509,0.8230789303779602,-0.04827234894037247,0.7097011208534241,0.8276377320289612,-0.07354019582271576,0.7190614938735962,0.8255882859230042,-0.07393914461135864,0.7478553652763367,0.8186430931091309,-0.06939872354269028,0.0,0.0,0.0,0.0,0.0,0.0,0.0,0.0,0.0,0.0,0.0,0.0,0.0,0.0,0.0,0.0,0.0,0.0,0.0,0.0,0.0,0.0,0.0,0.0,0.0,0.0,0.0,0.0,0.0,0.0,0.0,0.0,0.0,0.0,0.0,0.0,0.0,0.0,0.0,0.0,0.0,0.0,0.0,0.0,0.0,0.0,0.0,0.0,0.0,0.0,0.0,0.0,0.0,0.0,0.0,0.0,0.0,0.0,0.0,0.0,0.0,0.0,0.0
1783390841.140522,0.7188966274261475,0.7647037506103516,-3.8143838310134015e-07,0.6992939710617065,0.6680670380592346,-0.03667949512600899,0.7060849070549011,0.5513796806335449,-0.0521143414080143,0.7152009010314941,0.47390058636665344,-0.05925232172012329,0.7255085110664368,0.401714950799942,-0.05906827375292778,0.7760739922523499,0.5828078985214233,-0.052871234714984894,0.6887223124504089,0.5962854623794556,-0.07668738812208176,0.6903052926063538,0.6311795115470886,-0.0837516188621521,0.7196364402770996,0.6395063996315002,-0.08772730082273483,0.7961174249649048,0.6574018001556396,-0.04599428549408913,0.6818314790725708,0.6853157877922058,-0.06691711395978928,0.6972135305404663,0.6979172229766846,-0.06544051319360733,0.7336373329162598,0.6898418664932251,-0.06454929709434509,0.7984387278556824,0.7371336817741394,-0.04245763272047043,0.6926073431968689,0.7531042695045471,-0.06432431191205978,0.7050721645355225,0.7573809623718262,-0.051436565816402435,0.7368789315223694,0.7500989437103271,-0.04039471969008446,0.7905869483947754,0.811528205871582,-0.04343413934111595,0.710205614566803,0.8138684630393982,-0.06619689613580704,0.7195071578025818,0.8118905425071716,-0.06709251552820206,0.7485383152961731,0.8050363063812256,-0.06349276751279831,0.0,0.0,0.0,0.0,0.0,0.0,0.0,0.0,0.0,0.0,0.0,0.0,0.0,0.0,0.0,0.0,0.0,0.0,0.0,0.0,0.0,0.0,0.0,0.0,0.0,0.0,0.0,0.0,0.0,0.0,0.0,0.0,0.0,0.0,0.0,0.0,0.0,0.0,0.0,0.0,0.0,0.0,0.0,0.0,0.0,0.0,0.0,0.0,0.0,0.0,0.0,0.0,0.0,0.0,0.0,0.0,0.0,0.0,0.0,0.0,0.0,0.0,0.0
1783390841.2795,0.7207666635513306,0.7638044953346252,-4.0492537323189026e-07,0.7018893957138062,0.6703723669052124,-0.03893787041306496,0.709687352180481,0.5544007420539856,-0.055576711893081665,0.7194753289222717,0.4746248424053192,-0.0632694885134697,0.7293874621391296,0.3996220529079437,-0.06345771253108978,0.779429018497467,0.5776470303535461,-0.05676870420575142,0.6929320096969604,0.5980960726737976,-0.08082246035337448,0.6935526728630066,0.632849931716919,-0.08691657334566116,0.7213798761367798,0.6408961415290833,-0.0902315303683281,0.8011383414268494,0.6533012986183167,-0.04888949170708656,0.6874938011169434,0.6862585544586182,-0.07031028717756271,0.7002119421958923,0.6987566351890564,-0.06771470606327057,0.7354869246482849,0.6888145208358765,-0.0657571405172348,0.8044612407684326,0.7343063950538635,-0.0443345345556736,0.698928952217102,0.7538807392120361,-0.06729670614004135,0.7080169916152954,0.7578853964805603,-0.05325400084257126,0.7382799386978149,0.7489655017852783,-0.0412418469786644,0.7966492772102356,0.8082523941993713,-0.044449303299188614,0.715149998664856,0.8139116764068604,-0.0690813809633255,0.7202836871147156,0.8129909634590149,-0.06983531266450882,0.7460977435112,0.8054289221763611,-0.06574571132659912,0.0,0.0,0.0,0.0,0.0,0.0,0.0,0.0,0.0,0.0,0.0,0.0,0.0,0.0,0.0,0.0,0.0,0.0,0.0,0.0,0.0,0.0,0.0,0.0,0.0,0.0,0.0,0.0,0.0,0.0,0.0,0.0,0.0,0.0,0.0,0.0,0.0,0.0,0.0,0.0,0.0,0.0,0.0,0.0,0.0,0.0,0.0,0.0,0.0,0.0,0.0,0.0,0.0,0.0,0.0,0.0,0.0,0.0,0.0,0.0,0.0,0.0,0.0
1783390841.42942,0.7221243977546692,0.7670013904571533,-4.1615766122049536e-07,0.7033735513687134,0.6739370226860046,-0.03992725536227226,0.7121184468269348,0.5573745369911194,-0.057046450674533844,0.7227845788002014,0.4778903126716614,-0.06506622582674026,0.7326564192771912,0.4022922217845917,-0.06564590334892273,0.7838467955589294,0.579632043838501,-0.057331595569849014,0.6979280114173889,0.6004979610443115,-0.08194667100906372,0.6971691846847534,0.6351809501647949,-0.08894087374210358,0.7247328758239746,0.6417181491851807,-0.09321649372577667,0.8058494925498962,0.6560910940170288,-0.0491289347410202,0.6933090090751648,0.6877762079238892,-0.0708736777305603,0.703655481338501,0.7009227871894836,-0.06892338395118713,0.7389322519302368,0.689044713973999,-0.06766212731599808,0.8091123104095459,0.7375271320343018,-0.04436637833714485,0.7045051455497742,0.7561145424842834,-0.06766923516988754,0.7115877270698547,0.7617617249488831,-0.05424114316701889,0.7411417961120605,0.7532141208648682,-0.0429210402071476,0.801407516002655,0.8114615678787231,-0.0443156436085701,0.7208146452903748,0.8167579770088196,-0.06929857283830643,0.7240970730781555,0.8165844082832336,-0.07047007232904434,0.7488706111907959,0.8093776702880859,-0.06689339876174927,0.0,0.0,0.0,0.0,0.0,0.0,0.0,0.0,0.0,0.0,0.0,0.0,0.0,0.0,0.0,0.0,0.0,0.0,0.0,0.0,0.0,0.0,0.0,0.0,0.0,0.0,0.0,0.0,0.0,0.0,0.0,0.0,0.0,0.0,0.0,0.0,0.0,0.0,0.0,0.0,0.0,0.0,0.0,0.0,0.0,0.0,0.0,0.0,0.0,0.0,0.0,0.0,0.0,0.0,0.0,0.0,0.0,0.0,0.0,0.0,0.0,0.0,0.0
1783390841.5447848,0.7206240296363831,0.7637386322021484,-4.2162429281233926e-07,0.7003412246704102,0.668819010257721,-0.038801517337560654,0.7098407745361328,0.5503273010253906,-0.05383525416254997,0.7189666628837585,0.4707326889038086,-0.06009422615170479,0.7269219756126404,0.39704886078834534,-0.05906210467219353,0.7805907726287842,0.5768324136734009,-0.050828717648983,0.6963173151016235,0.5984477996826172,-0.07317442446947098,0.6963673233985901,0.6333206295967102,-0.08035112172365189,0.7243642210960388,0.640459418296814,-0.08518990874290466,0.8031522631645203,0.651994526386261,-0.04253535345196724,0.6912131905555725,0.6865420341491699,-0.06224636361002922,0.7045510411262512,0.697697639465332,-0.06221313029527664,0.7391694784164429,0.6874079704284668,-0.06283773481845856,0.8069283366203308,0.7331175804138184,-0.03769213706254959,0.7031583786010742,0.7531481981277466,-0.0594211108982563,0.7124804258346558,0.7573812007904053,-0.04816434532403946,0.7424938678741455,0.7476310729980469,-0.038511715829372406,0.8002955913543701,0.808403491973877,-0.037474218755960464,0.7207814455032349,0.8126183152198792,-0.06043792515993118,0.726141095161438,0.8104343414306641,-0.06190449744462967,0.7520760297775269,0.8021792769432068,-0.05891234055161476,0.0,0.0,0.0,0.0,0.0,0.0,0.0,0.0,0.0,0.0,0.0,0.0,0.0,0.0,0.0,0.0,0.0,0.0,0.0,0.0,0.0,0.0,0.0,0.0,0.0,0.0,0.0,0.0,0.0,0.0,0.0,0.0,0.0,0.0,0.0,0.0,0.0,0.0,0.0,0.0,0.0,0.0,0.0,0.0,0.0,0.0,0.0,0.0,0.0,0.0,0.0,0.0,0.0,0.0,0.0,0.0,0.0,0.0,0.0,0.0,0.0,0.0,0.0
1783390841.68297,0.717725932598114,0.7631562948226929,-4.3331249344191747e-07,0.6980781555175781,0.6655808687210083,-0.03662709519267082,0.7083566784858704,0.5452984571456909,-0.05056251958012581,0.7174035906791687,0.4656701683998108,-0.056107427924871445,0.7250288724899292,0.39402785897254944,-0.05439969524741173,0.7796171307563782,0.5721482634544373,-0.04857726767659187,0.6953747868537903,0.5904688835144043,-0.07037482410669327,0.6951597929000854,0.6252284646034241,-0.07743774354457855,0.7230856418609619,0.6334423422813416,-0.08206618577241898,0.8018993139266968,0.6465052962303162,-0.04100911319255829,0.6906523108482361,0.6785339117050171,-0.06018830090761185,0.7041647434234619,0.6886112093925476,-0.059960585087537766,0.7388153672218323,0.6785750985145569,-0.060370851308107376,0.8055946230888367,0.7273504137992859,-0.03673192486166954,0.7027702927589417,0.7449997663497925,-0.057789452373981476,0.7119174599647522,0.7482504844665527,-0.046484269201755524,0.7417248487472534,0.7388288974761963,-0.036825861781835556,0.7986241579055786,0.8019534945487976,-0.036905717104673386,0.7194300889968872,0.8047139644622803,-0.05914982780814171,0.7251045107841492,0.8029171228408813,-0.06041240692138672,0.7513274550437927,0.7954456210136414,-0.05734138935804367,0.0,0.0,0.0,0.0,0.0,0.0,0.0,0.0,0.0,0.0,0.0,0.0,0.0,0.0,0.0,0.0,0.0,0.0,0.0,0.0,0.0,0.0,0.0,0.0,0.0,0.0,0.0,0.0,0.0,0.0,0.0,0.0,0.0,0.0,0.0,0.0,0.0,0.0,0.0,0.0,0.0,0.0,0.0,0.0,0.0,0.0,0.0,0.0,0.0,0.0,0.0,0.0,0.0,0.0,0.0,0.0,0.0,0.0,0.0,0.0,0.0,0.0,0.0
1783390841.850271,0.720475435256958,0.7591965198516846,-4.072571755386889e-07,0.6990851759910583,0.6584383249282837,-0.037089549005031586,0.7059746384620667,0.5404567122459412,-0.052889660000801086,0.7140023708343506,0.46273598074913025,-0.060340531170368195,0.7216776013374329,0.3890649676322937,-0.060635969042778015,0.7771771550178528,0.5679023861885071,-0.05190959572792053,0.6907076239585876,0.5854477286338806,-0.07587697356939316,0.6924641728401184,0.6193195581436157,-0.08428218960762024,0.7214468121528625,0.6277636885643005,-0.08948063850402832,0.7988406419754028,0.6414144039154053,-0.04492003843188286,0.6868258118629456,0.6714497804641724,-0.06564904749393463,0.7015672326087952,0.6827886700630188,-0.06542186439037323,0.7364815473556519,0.6751341819763184,-0.06573473662137985,0.8025602102279663,0.720917820930481,-0.041183579713106155,0.6985716819763184,0.7375475168228149,-0.06332515925168991,0.7096531391143799,0.7422235608100891,-0.05131326615810394,0.7401208877563477,0.7351125478744507,-0.04104907810688019,0.7957026958465576,0.7953739762306213,-0.041985947638750076,0.7155326008796692,0.7981657385826111,-0.06506454944610596,0.7230318188667297,0.7973867058753967,-0.0659218281507492,0.750656008720398,0.7910822629928589,-0.06238648295402527,0.0,0.0,0.0,0.0,0.0,0.0,0.0,0.0,0.0,0.0,0.0,0.0,0.0,0.0,0.0,0.0,0.0,0.0,0.0,0.0,0.0,0.0,0.0,0.0,0.0,0.0,0.0,0.0,0.0,0.0,0.0,0.0,0.0,0.0,0.0,0.0,0.0,0.0,0.0,0.0,0.0,0.0,0.0,0.0,0.0,0.0,0.0,0.0,0.0,0.0,0.0,0.0,0.0,0.0,0.0,0.0,0.0,0.0,0.0,0.0,0.0,0.0,0.0
1783390842.011664,0.7180042862892151,0.7559287548065186,-4.1819578200374963e-07,0.6957561373710632,0.6577923893928528,-0.03714217245578766,0.7019133567810059,0.5390142202377319,-0.05206352844834328,0.7107534408569336,0.46074700355529785,-0.0586293488740921,0.7196270227432251,0.38826942443847656,-0.05790756642818451,0.7736462354660034,0.5651953816413879,-0.05125996470451355,0.686413586139679,0.5842180252075195,-0.0752691850066185,0.6874129176139832,0.6213449835777283,-0.08334895968437195,0.716205894947052,0.6299099922180176,-0.0881851390004158,0.7949237823486328,0.6373552083969116,-0.04414616525173187,0.683064877986908,0.668800413608551,-0.06535782665014267,0.6977724432945251,0.6822683811187744,-0.06490515917539597,0.7324134707450867,0.6746953129768372,-0.06490015238523483,0.798434853553772,0.7159599661827087,-0.040521346032619476,0.6948016285896301,0.7354199886322021,-0.06312007457017899,0.7062172293663025,0.7409830093383789,-0.0513412281870842,0.7365582585334778,0.7338566780090332,-0.04104624688625336,0.7917108535766602,0.7903322577476501,-0.04140636697411537,0.7130391597747803,0.7950109243392944,-0.06467588245868683,0.720808207988739,0.7943403720855713,-0.06591571867465973,0.7480215430259705,0.7879783511161804,-0.06262783706188202,0.0,0.0,0.0,0.0,0.0,0.0,0.0,0.0,0.0,0.0,0.0,0.0,0.0,0.0,0.0,0.0,0.0,0.0,0.0,0.0,0.0,0.0,0.0,0.0,0.0,0.0,0.0,0.0,0.0,0.0,0.0,0.0,0.0,0.0,0.0,0.0,0.0,0.0,0.0,0.0,0.0,0.0,0.0,0.0,0.0,0.0,0.0,0.0,0.0,0.0,0.0,0.0,0.0,0.0,0.0,0.0,0.0,0.0,0.0,0.0,0.0,0.0,0.0
1783390842.173124,0.7161308526992798,0.7454920411109924,-4.090472316420346e-07,0.6949309706687927,0.6515982151031494,-0.037439145147800446,0.7008119225502014,0.535186231136322,-0.05266369879245758,0.7097218036651611,0.4584916830062866,-0.05956143140792847,0.7185323238372803,0.386473685503006,-0.05924072489142418,0.7713795304298401,0.5628179907798767,-0.05211740732192993,0.6853787899017334,0.5808807015419006,-0.07664679735898972,0.6865707635879517,0.6173269152641296,-0.08481017500162125,0.7150371074676514,0.6261795163154602,-0.08958282321691513,0.7926640510559082,0.6351667642593384,-0.04494770988821983,0.6808637380599976,0.6678522229194641,-0.0669180154800415,0.6960271596908569,0.6807798743247986,-0.06647408753633499,0.7311163544654846,0.672747790813446,-0.06617933511734009,0.7961487770080566,0.7137746214866638,-0.04131433740258217,0.6925608515739441,0.7359691262245178,-0.0644463449716568,0.704735517501831,0.7399922013282776,-0.0524604432284832,0.7357580661773682,0.7315319180488586,-0.04179852828383446,0.789369523525238,0.7878378033638,-0.04222528636455536,0.710812509059906,0.7953927516937256,-0.06616499274969101,0.7193960547447205,0.7937859296798706,-0.06757744401693344,0.7473774552345276,0.7862251996994019,-0.06420068442821503,0.0,0.0,0.0,0.0,0.0,0.0,0.0,0.0,0.0,0.0,0.0,0.0,0.0,0.0,0.0,0.0,0.0,0.0,0.0,0.0,0.0,0.0,0.0,0.0,0.0,0.0,0.0,0.0,0.0,0.0,0.0,0.0,0.0,0.0,0.0,0.0,0.0,0.0,0.0,0.0,0.0,0.0,0.0,0.0,0.0,0.0,0.0,0.0,0.0,0.0,0.0,0.0,0.0,0.0,0.0,0.0,0.0,0.0,0.0,0.0,0.0,0.0,0.0
1783390842.3172102,0.7164846062660217,0.7421795725822449,-4.063236644924473e-07,0.6956923007965088,0.6506999135017395,-0.037395868450403214,0.7017897963523865,0.5359405875205994,-0.05295208841562271,0.7106841802597046,0.45693346858024597,-0.06002338230609894,0.7191173434257507,0.38306325674057007,-0.05996908247470856,0.7720819115638733,0.5593472719192505,-0.053155526518821716,0.6869467496871948,0.5813589692115784,-0.07571808248758316,0.6884848475456238,0.6147230863571167,-0.0819488912820816,0.716227114200592,0.6227198243141174,-0.08562833070755005,0.7938439249992371,0.6331522464752197,-0.045772287994623184,0.681365430355072,0.6684309244155884,-0.06605442613363266,0.6957837343215942,0.6789218783378601,-0.06467969715595245,0.7303195595741272,0.6697983145713806,-0.06389458477497101,0.7975913882255554,0.7128651142120361,-0.04152126610279083,0.6932035684585571,0.7353413105010986,-0.06345753371715546,0.7042821645736694,0.7381266951560974,-0.050601400434970856,0.734620988368988,0.7285059690475464,-0.039520490914583206,0.7905954122543335,0.7872363924980164,-0.04180227220058441,0.7111150026321411,0.7939313054084778,-0.06541358679533005,0.7183924317359924,0.79165118932724,-0.06616588681936264,0.7450745701789856,0.7835347652435303,-0.06222110241651535,0.0,0.0,0.0,0.0,0.0,0.0,0.0,0.0,0.0,0.0,0.0,0.0,0.0,0.0,0.0,0.0,0.0,0.0,0.0,0.0,0.0,0.0,0.0,0.0,0.0,0.0,0.0,0.0,0.0,0.0,0.0,0.0,0.0,0.0,0.0,0.0,0.0,0.0,0.0,0.0,0.0,0.0,0.0,0.0,0.0,0.0,0.0,0.0,0.0,0.0,0.0,0.0,0.0,0.0,0.0,0.0,0.0,0.0,0.0,0.0,0.0,0.0,0.0
1783390842.473547,0.7168480753898621,0.7442694902420044,-4.0649459265296173e-07,0.6962825655937195,0.6514776945114136,-0.03648805618286133,0.7026136517524719,0.5348941087722778,-0.051503051072359085,0.7109708786010742,0.454952597618103,-0.058224014937877655,0.7191503047943115,0.38143667578697205,-0.057777442038059235,0.7729339003562927,0.5568547248840332,-0.051346953958272934,0.6880362629890442,0.5761201977729797,-0.0736125186085701,0.6895673274993896,0.6092579960823059,-0.07986927777528763,0.7169742584228516,0.617700457572937,-0.0835634395480156,0.7945425510406494,0.6301707029342651,-0.044312506914138794,0.6814781427383423,0.6637383699417114,-0.06458040326833725,0.6964483857154846,0.6746392846107483,-0.06355185061693192,0.7312904596328735,0.6662033796310425,-0.06285984814167023,0.7980067729949951,0.7102361917495728,-0.040367815643548965,0.6934694051742554,0.730951189994812,-0.06238606944680214,0.704903244972229,0.734828770160675,-0.04991431534290314,0.7357681393623352,0.7258535623550415,-0.03891630470752716,0.7904465794563293,0.7850828766822815,-0.04086335748434067,0.7106987833976746,0.791165292263031,-0.06438948214054108,0.718665599822998,0.7899461388587952,-0.06531096994876862,0.7464684844017029,0.7825143337249756,-0.06139463186264038,0.0,0.0,0.0,0.0,0.0,0.0,0.0,0.0,0.0,0.0,0.0,0.0,0.0,0.0,0.0,0.0,0.0,0.0,0.0,0.0,0.0,0.0,0.0,0.0,0.0,0.0,0.0,0.0,0.0,0.0,0.0,0.0,0.0,0.0,0.0,0.0,0.0,0.0,0.0,0.0,0.0,0.0,0.0,0.0,0.0,0.0,0.0,0.0,0.0,0.0,0.0,0.0,0.0,0.0,0.0,0.0,0.0,0.0,0.0,0.0,0.0,0.0,0.0
1783390842.616556,0.7176070213317871,0.739959180355072,-3.9879924429442326e-07,0.697178304195404,0.6483721137046814,-0.03597407042980194,0.7028611898422241,0.533362627029419,-0.05097202956676483,0.7116591334342957,0.45476818084716797,-0.05780884996056557,0.7192195057868958,0.3814524710178375,-0.05771002545952797,0.7726544141769409,0.5570690035820007,-0.051684003323316574,0.6884077191352844,0.5760520696640015,-0.07412392646074295,0.6916303038597107,0.6077341437339783,-0.08096052706241608,0.7193443775177002,0.6155450344085693,-0.08502338826656342,0.7943002581596375,0.6306818723678589,-0.04482068121433258,0.680601179599762,0.6647774577140808,-0.06484205275774002,0.6975659728050232,0.6744242310523987,-0.06375999748706818,0.7329472303390503,0.6660899519920349,-0.06313347816467285,0.7975351810455322,0.7106859683990479,-0.04097979515790939,0.6921592354774475,0.7319251894950867,-0.06255397200584412,0.7056935429573059,0.733748197555542,-0.04989313334226608,0.7370774745941162,0.7249625325202942,-0.038798779249191284,0.7895137071609497,0.7851868271827698,-0.04159616306424141,0.709765613079071,0.7915462255477905,-0.06544962525367737,0.7198726534843445,0.78925621509552,-0.06666828691959381,0.7487103343009949,0.7823152542114258,-0.0628574937582016,0.0,0.0,0.0,0.0,0.0,0.0,0.0,0.0,0.0,0.0,0.0,0.0,0.0,0.0,0.0,0.0,0.0,0.0,0.0,0.0,0.0,0.0,0.0,0.0,0.0,0.0,0.0,0.0,0.0,0.0,0.0,0.0,0.0,0.0,0.0,0.0,0.0,0.0,0.0,0.0,0.0,0.0,0.0,0.0,0.0,0.0,0.0,0.0,0.0,0.0,0.0,0.0,0.0,0.0,0.0,0.0,0.0,0.0,0.0,0.0,0.0,0.0,0.0
1783390842.749158,0.7172722220420837,0.7371534109115601,-3.9339590784948086e-07,0.6962350010871887,0.645159125328064,-0.036496516317129135,0.7008142471313477,0.5313354730606079,-0.05214487761259079,0.7083577513694763,0.45318400859832764,-0.059521257877349854,0.7154164910316467,0.37978899478912354,-0.05993276461958885,0.7713432908058167,0.5565997362136841,-0.05249706283211708,0.6862634420394897,0.575943112373352,-0.0752015933394432,0.6892929077148438,0.6092821955680847,-0.08230619132518768,0.7172258496284485,0.6183237433433533,-0.08663105964660645,0.7929469347000122,0.6293994188308716,-0.04554660618305206,0.6800642609596252,0.662046492099762,-0.06553458422422409,0.6959386467933655,0.673443615436554,-0.06445256620645523,0.7307192087173462,0.6662008166313171,-0.0639842301607132,0.7964215278625488,0.7083800435066223,-0.041634026914834976,0.6918541789054871,0.7286878228187561,-0.06321809440851212,0.7045177817344666,0.7320898175239563,-0.05048741400241852,0.7353532910346985,0.7241429090499878,-0.039518579840660095,0.7890293598175049,0.7825785279273987,-0.042223017662763596,0.7096454501152039,0.7882313132286072,-0.0658070370554924,0.7184149622917175,0.7868252992630005,-0.06663485616445541,0.7460709810256958,0.7803536057472229,-0.06272099167108536,0.0,0.0,0.0,0.0,0.0,0.0,0.0,0.0,0.0,0.0,0.0,0.0,0.0,0.0,0.0,0.0,0.0,0.0,0.0,0.0,0.0,0.0,0.0,0.0,0.0,0.0,0.0,0.0,0.0,0.0,0.0,0.0,0.0,0.0,0.0,0.0,0.0,0.0,0.0,0.0,0.0,0.0,0.0,0.0,0.0,0.0,0.0,0.0,0.0,0.0,0.0,0.0,0.0,0.0,0.0,0.0,0.0,0.0,0.0,0.0,0.0,0.0,0.0
1783390842.875929,0.7196033596992493,0.738231360912323,-3.9747882851770555e-07,0.6972731947898865,0.6490636467933655,-0.03592847287654877,0.702305257320404,0.5338449478149414,-0.050364501774311066,0.711121678352356,0.45441457629203796,-0.056462544947862625,0.717350959777832,0.3808284401893616,-0.05565568432211876,0.7689006924629211,0.5561076402664185,-0.05174045264720917,0.6846082210540771,0.5779057741165161,-0.07335881143808365,0.6894581913948059,0.6085920333862305,-0.07996314764022827,0.7179586887359619,0.615493893623352,-0.0840160995721817,0.7919491529464722,0.6292200088500977,-0.04447473958134651,0.6771732568740845,0.6669570207595825,-0.06293980032205582,0.6958972215652466,0.6752553582191467,-0.06118014082312584,0.7316286563873291,0.6660208106040955,-0.06031559780240059,0.796231210231781,0.709008514881134,-0.04010460898280144,0.6900208592414856,0.7337621450424194,-0.06037848815321922,0.7046364545822144,0.7345983982086182,-0.04672865942120552,0.7364581823348999,0.7247965931892395,-0.03504836931824684,0.7890471816062927,0.7837542295455933,-0.040289491415023804,0.7084095478057861,0.791549026966095,-0.06360149383544922,0.7189069390296936,0.788606584072113,-0.06422476470470428,0.7477796077728271,0.7813345193862915,-0.05989132449030876,0.0,0.0,0.0,0.0,0.0,0.0,0.0,0.0,0.0,0.0,0.0,0.0,0.0,0.0,0.0,0.0,0.0,0.0,0.0,0.0,0.0,0.0,0.0,0.0,0.0,0.0,0.0,0.0,0.0,0.0,0.0,0.0,0.0,0.0,0.0,0.0,0.0,0.0,0.0,0.0,0.0,0.0,0.0,0.0,0.0,0.0,0.0,0.0,0.0,0.0,0.0,0.0,0.0,0.0,0.0,0.0,0.0,0.0,0.0,0.0,0.0,0.0,0.0
1783390843.025267,0.719126284122467,0.7343907356262207,-3.6761508681593114e-07,0.6971486210823059,0.6471337080001831,-0.037803519517183304,0.7016887664794922,0.5341800451278687,-0.05380244925618172,0.7099912166595459,0.45651373267173767,-0.061066634953022,0.7170606851577759,0.38272225856781006,-0.0614682137966156,0.7673316597938538,0.5606655478477478,-0.05689022317528725,0.6821750402450562,0.5838358998298645,-0.08029408007860184,0.6871585845947266,0.6140087842941284,-0.08731027692556381,0.7161134481430054,0.619560182094574,-0.09145954251289368,0.7897698283195496,0.6341352462768555,-0.04929386079311371,0.6762540340423584,0.6723048090934753,-0.06931297481060028,0.6949132084846497,0.6790404915809631,-0.06716165691614151,0.7305507063865662,0.6690118312835693,-0.06612975895404816,0.7937074303627014,0.7132717370986938,-0.04475864768028259,0.6887570023536682,0.7395401000976562,-0.06595151126384735,0.7035608887672424,0.7371283769607544,-0.05171004310250282,0.7351890206336975,0.7261022329330444,-0.039771776646375656,0.7864164710044861,0.7872428297996521,-0.04491936415433884,0.7080861926078796,0.7965759634971619,-0.06863566488027573,0.7187663912773132,0.7910211086273193,-0.06922748684883118,0.7472426891326904,0.7819139361381531,-0.06512342393398285,0.0,0.0,0.0,0.0,0.0,0.0,0.0,0.0,0.0,0.0,0.0,0.0,0.0,0.0,0.0,0.0,0.0,0.0,0.0,0.0,0.0,0.0,0.0,0.0,0.0,0.0,0.0,0.0,0.0,0.0,0.0,0.0,0.0,0.0,0.0,0.0,0.0,0.0,0.0,0.0,0.0,0.0,0.0,0.0,0.0,0.0,0.0,0.0,0.0,0.0,0.0,0.0,0.0,0.0,0.0,0.0,0.0,0.0,0.0,0.0,0.0,0.0,0.0
1783390843.285119,0.7163398265838623,0.7481899261474609,-3.915027093626122e-07,0.6924886703491211,0.6592600345611572,-0.03813731297850609,0.698083221912384,0.5442938804626465,-0.053129080682992935,0.7075081467628479,0.46598613262176514,-0.05917586013674736,0.7139792442321777,0.39209532737731934,-0.05840936675667763,0.7625453472137451,0.5691890716552734,-0.0556945726275444,0.6778737902641296,0.5955004692077637,-0.07797614485025406,0.6823429465293884,0.6248440146446228,-0.08491284400224686,0.7104873061180115,0.6287636160850525,-0.08943803608417511,0.7859419584274292,0.642291784286499,-0.047579675912857056,0.6732631921768188,0.6817684173583984,-0.06615910679101944,0.6907578706741333,0.6881661415100098,-0.06395908445119858,0.7252381443977356,0.6770198941230774,-0.06319114565849304,0.7905794382095337,0.721272349357605,-0.04245847836136818,0.6870055794715881,0.7478660941123962,-0.06266431510448456,0.7005959749221802,0.7456352114677429,-0.04803275689482689,0.7314411997795105,0.7331660389900208,-0.03603328764438629,0.7838916778564453,0.7953338027000427,-0.042115967720746994,0.706459105014801,0.803840160369873,-0.06527801603078842,0.7157647013664246,0.7982991933822632,-0.06518840044736862,0.7430809140205383,0.7888090014457703,-0.06065533682703972,0.0,0.0,0.0,0.0,0.0,0.0,0.0,0.0,0.0,0.0,0.0,0.0,0.0,0.0,0.0,0.0,0.0,0.0,0.0,0.0,0.0,0.0,0.0,0.0,0.0,0.0,0.0,0.0,0.0,0.0,0.0,0.0,0.0,0.0,0.0,0.0,0.0,0.0,0.0,0.0,0.0,0.0,0.0,0.0,0.0,0.0,0.0,0.0,0.0,0.0,0.0,0.0,0.0,0.0,0.0,0.0,0.0,0.0,0.0,0.0,0.0,0.0,0.0
1783390843.3867881,0.7177752256393433,0.7596435546875,-3.510216686208878e-07,0.6951844096183777,0.6684449911117554,-0.04138330742716789,0.6979009509086609,0.5537856221199036,-0.06133182719349861,0.7053064107894897,0.4743872880935669,-0.07138901203870773,0.7120230793952942,0.39579054713249207,-0.07411914318799973,0.7637778520584106,0.5756038427352905,-0.06919145584106445,0.6753147840499878,0.5988708138465881,-0.09672746062278748,0.6811680197715759,0.6334200501441956,-0.10401181131601334,0.7114155292510986,0.6383088827133179,-0.10796128213405609,0.7851265072822571,0.6489515900611877,-0.06107039377093315,0.6731132864952087,0.685477614402771,-0.08484737575054169,0.6899259686470032,0.697429895401001,-0.08122924715280533,0.7253093123435974,0.6866320967674255,-0.07911673933267593,0.789198637008667,0.7281780242919922,-0.05599316954612732,0.6857090592384338,0.7548800706863403,-0.07975929230451584,0.6996775269508362,0.7567377686500549,-0.06377197057008743,0.730911910533905,0.7473140358924866,-0.050971806049346924,0.7831416726112366,0.8030427694320679,-0.05578961595892906,0.7057012319564819,0.8116311430931091,-0.08138658851385117,0.7150484919548035,0.8077009320259094,-0.08170083910226822,0.742853045463562,0.7990996241569519,-0.07756339013576508,0.0,0.0,0.0,0.0,0.0,0.0,0.0,0.0,0.0,0.0,0.0,0.0,0.0,0.0,0.0,0.0,0.0,0.0,0.0,0.0,0.0,0.0,0.0,0.0,0.0,0.0,0.0,0.0,0.0,0.0,0.0,0.0,0.0,0.0,0.0,0.0,0.0,0.0,0.0,0.0,0.0,0.0,0.0,0.0,0.0,0.0,0.0,0.0,0.0,0.0,0.0,0.0,0.0,0.0,0.0,0.0,0.0,0.0,0.0,0.0,0.0,0.0,0.0
1783390843.712003,0.7201876640319824,0.7558478116989136,-3.560590471352043e-07,0.6992505192756653,0.6627833247184753,-0.03850647807121277,0.6997585296630859,0.5514199137687683,-0.058539845049381256,0.7058347463607788,0.4715389013290405,-0.06973452866077423,0.7132864594459534,0.390290766954422,-0.07378730177879333,0.7680076956748962,0.5756862759590149,-0.06607997417449951,0.6773620843887329,0.5977497100830078,-0.093617282807827,0.6827494502067566,0.6296029090881348,-0.10082908719778061,0.7127596139907837,0.6344112157821655,-0.10443203151226044,0.7872437238693237,0.6478836536407471,-0.059942614287137985,0.6744534969329834,0.6829853057861328,-0.0839192196726799,0.6904264092445374,0.6945198178291321,-0.08035846054553986,0.7251529693603516,0.6851860880851746,-0.0782565176486969,0.790579080581665,0.7262086868286133,-0.05674207955598831,0.6859482526779175,0.7510955929756165,-0.08065858483314514,0.700844943523407,0.7531366348266602,-0.06504201889038086,0.7323075532913208,0.7436486482620239,-0.05265534669160843,0.7846125364303589,0.801108717918396,-0.05813045799732208,0.7059560418128967,0.8101087212562561,-0.08331382274627686,0.7168436646461487,0.8065491914749146,-0.08336319029331207,0.7460685968399048,0.7979342937469482,-0.07922618836164474,0.0,0.0,0.0,0.0,0.0,0.0,0.0,0.0,0.0,0.0,0.0,0.0,0.0,0.0,0.0,0.0,0.0,0.0,0.0,0.0,0.0,0.0,0.0,0.0,0.0,0.0,0.0,0.0,0.0,0.0,0.0,0.0,0.0,0.0,0.0,0.0,0.0,0.0,0.0,0.0,0.0,0.0,0.0,0.0,0.0,0.0,0.0,0.0,0.0,0.0,0.0,0.0,0.0,0.0,0.0,0.0,0.0,0.0,0.0,0.0,0.0,0.0,0.0
1783390844.06124,0.7186153531074524,0.7647883892059326,-3.946464062209998e-07,0.7003133893013,0.6689528822898865,-0.03821786865592003,0.7049723267555237,0.5537920594215393,-0.055826373398303986,0.7127237319946289,0.4717112183570862,-0.0651250034570694,0.7210559844970703,0.39163997769355774,-0.06719468533992767,0.7766636610031128,0.5793644189834595,-0.054926492273807526,0.6867379546165466,0.6034992933273315,-0.08059672266244888,0.6878917813301086,0.6366740465164185,-0.08925596624612808,0.7164294719696045,0.6419875621795654,-0.09429923444986343,0.7957855463027954,0.6534779071807861,-0.04846586659550667,0.6836791038513184,0.6884894967079163,-0.07099853456020355,0.6963328719139099,0.7003614902496338,-0.06990746408700943,0.7309428453445435,0.689123272895813,-0.06931561231613159,0.7984470725059509,0.7329226136207581,-0.045506708323955536,0.6942436099052429,0.7555822730064392,-0.06884581595659256,0.7062081694602966,0.759493887424469,-0.05539597570896149,0.7367036938667297,0.7501851916313171,-0.04406454786658287,0.7910157442092896,0.8070143461227417,-0.04716216400265694,0.7120856046676636,0.8141857385635376,-0.07129304856061935,0.7199109792709351,0.8115558624267578,-0.07137027382850647,0.7465991973876953,0.8035063743591309,-0.06709232926368713,0.0,0.0,0.0,0.0,0.0,0.0,0.0,0.0,0.0,0.0,0.0,0.0,0.0,0.0,0.0,0.0,0.0,0.0,0.0,0.0,0.0,0.0,0.0,0.0,0.0,0.0,0.0,0.0,0.0,0.0,0.0,0.0,0.0,0.0,0.0,0.0,0.0,0.0,0.0,0.0,0.0,0.0,0.0,0.0,0.0,0.0,0.0,0.0,0.0,0.0,0.0,0.0,0.0,0.0,0.0,0.0,0.0,0.0,0.0,0.0,0.0,0.0,0.0
1783390844.2405791,0.7197590470314026,0.7689730525016785,-4.1145756313198945e-07,0.6987447142601013,0.6818721890449524,-0.0384087972342968,0.7072092890739441,0.5607613921165466,-0.0522306002676487,0.7174662947654724,0.47966092824935913,-0.05710164085030556,0.7238029837608337,0.4049827456474304,-0.055072229355573654,0.7733421325683594,0.5859010219573975,-0.05223587527871132,0.6897857785224915,0.6122249364852905,-0.07363663613796234,0.6933309435844421,0.6433793306350708,-0.08078698068857193,0.7211672067642212,0.6469804644584656,-0.08562576770782471,0.7982602715492249,0.6611745357513428,-0.04331433027982712,0.6839377880096436,0.7000868320465088,-0.060882799327373505,0.7020485401153564,0.7075574398040771,-0.0588957741856575,0.7379978895187378,0.6944217085838318,-0.05811132863163948,0.803034782409668,0.7419406771659851,-0.03765072301030159,0.6968518495559692,0.7669598460197449,-0.05718212574720383,0.7104576826095581,0.7665452361106873,-0.043067567050457,0.7418347001075745,0.754101574420929,-0.03129299357533455,0.7957264184951782,0.8162357807159424,-0.036779310554265976,0.7147369384765625,0.8233674764633179,-0.05994647368788719,0.7235985398292542,0.8187586665153503,-0.06055678427219391,0.7506189346313477,0.8095255494117737,-0.05634972080588341,0.0,0.0,0.0,0.0,0.0,0.0,0.0,0.0,0.0,0.0,0.0,0.0,0.0,0.0,0.0,0.0,0.0,0.0,0.0,0.0,0.0,0.0,0.0,0.0,0.0,0.0,0.0,0.0,0.0,0.0,0.0,0.0,0.0,0.0,0.0,0.0,0.0,0.0,0.0,0.0,0.0,0.0,0.0,0.0,0.0,0.0,0.0,0.0,0.0,0.0,0.0,0.0,0.0,0.0,0.0,0.0,0.0,0.0,0.0,0.0,0.0,0.0,0.0
