ciel274/research-hand-sign/data/raw/hiragana/sign_language_ko_3.csv
timestamp,R_joint_0_x,R_joint_0_y,R_joint_0_z,R_joint_1_x,R_joint_1_y,R_joint_1_z,R_joint_2_x,R_joint_2_y,R_joint_2_z,R_joint_3_x,R_joint_3_y,R_joint_3_z,R_joint_4_x,R_joint_4_y,R_joint_4_z,R_joint_5_x,R_joint_5_y,R_joint_5_z,R_joint_6_x,R_joint_6_y,R_joint_6_z,R_joint_7_x,R_joint_7_y,R_joint_7_z,R_joint_8_x,R_joint_8_y,R_joint_8_z,R_joint_9_x,R_joint_9_y,R_joint_9_z,R_joint_10_x,R_joint_10_y,R_joint_10_z,R_joint_11_x,R_joint_11_y,R_joint_11_z,R_joint_12_x,R_joint_12_y,R_joint_12_z,R_joint_13_x,R_joint_13_y,R_joint_13_z,R_joint_14_x,R_joint_14_y,R_joint_14_z,R_joint_15_x,R_joint_15_y,R_joint_15_z,R_joint_16_x,R_joint_16_y,R_joint_16_z,R_joint_17_x,R_joint_17_y,R_joint_17_z,R_joint_18_x,R_joint_18_y,R_joint_18_z,R_joint_19_x,R_joint_19_y,R_joint_19_z,R_joint_20_x,R_joint_20_y,R_joint_20_z,L_joint_0_x,L_joint_0_y,L_joint_0_z,L_joint_1_x,L_joint_1_y,L_joint_1_z,L_joint_2_x,L_joint_2_y,L_joint_2_z,L_joint_3_x,L_joint_3_y,L_joint_3_z,L_joint_4_x,L_joint_4_y,L_joint_4_z,L_joint_5_x,L_joint_5_y,L_joint_5_z,L_joint_6_x,L_joint_6_y,L_joint_6_z,L_joint_7_x,L_joint_7_y,L_joint_7_z,L_joint_8_x,L_joint_8_y,L_joint_8_z,L_joint_9_x,L_joint_9_y,L_joint_9_z,L_joint_10_x,L_joint_10_y,L_joint_10_z,L_joint_11_x,L_joint_11_y,L_joint_11_z,L_joint_12_x,L_joint_12_y,L_joint_12_z,L_joint_13_x,L_joint_13_y,L_joint_13_z,L_joint_14_x,L_joint_14_y,L_joint_14_z,L_joint_15_x,L_joint_15_y,L_joint_15_z,L_joint_16_x,L_joint_16_y,L_joint_16_z,L_joint_17_x,L_joint_17_y,L_joint_17_z,L_joint_18_x,L_joint_18_y,L_joint_18_z,L_joint_19_x,L_joint_19_y,L_joint_19_z,L_joint_20_x,L_joint_20_y,L_joint_20_z
1783390626.1131048,0.6723678112030029,0.7597243189811707,-4.4215326511221065e-07,0.631424605846405,0.6880247592926025,0.017850462347269058,0.6210192441940308,0.6159820556640625,0.024390332400798798,0.6101667881011963,0.5692915916442871,0.023491820320487022,0.6042091250419617,0.5299124121665955,0.021926799789071083,0.661819338798523,0.5577563643455505,0.03534108027815819,0.6160420179367065,0.5329757928848267,0.026581615209579468,0.583703875541687,0.5365861058235168,0.014014862477779388,0.555938720703125,0.538964033126831,0.005984041374176741,0.67083340883255,0.5564625263214111,0.018745148554444313,0.6123353242874146,0.528283417224884,0.011608432978391647,0.5773932337760925,0.5366873741149902,-0.001132095931097865,0.54925537109375,0.5441593527793884,-0.009442673064768314,0.6745565533638,0.5654657483100891,0.0008370933355763555,0.6126918792724609,0.5342680811882019,-0.006500664632767439,0.5759673714637756,0.5426027178764343,-0.013121181167662144,0.5491636395454407,0.5477692484855652,-0.016634434461593628,0.6706647872924805,0.5823795795440674,-0.0164552740752697,0.618351399898529,0.5558298826217651,-0.02100072056055069,0.5909175872802734,0.5527457594871521,-0.02264266461133957,0.5703709125518799,0.5493009686470032,-0.022857746109366417,0.0,0.0,0.0,0.0,0.0,0.0,0.0,0.0,0.0,0.0,0.0,0.0,0.0,0.0,0.0,0.0,0.0,0.0,0.0,0.0,0.0,0.0,0.0,0.0,0.0,0.0,0.0,0.0,0.0,0.0,0.0,0.0,0.0,0.0,0.0,0.0,0.0,0.0,0.0,0.0,0.0,0.0,0.0,0.0,0.0,0.0,0.0,0.0,0.0,0.0,0.0,0.0,0.0,0.0,0.0,0.0,0.0,0.0,0.0,0.0,0.0,0.0,0.0
1783390626.2991738,0.6754837036132812,0.7574195861816406,-4.1821084550974774e-07,0.6342965364456177,0.6883918642997742,0.01471212413161993,0.622521698474884,0.6157596111297607,0.01983517035841942,0.611107349395752,0.5694833993911743,0.018402593210339546,0.6056711673736572,0.5319967865943909,0.016470812261104584,0.6635840535163879,0.5532751679420471,0.030224917456507683,0.6184388995170593,0.5314032435417175,0.020384108647704124,0.5859428644180298,0.5330380797386169,0.007416364271193743,0.5575320720672607,0.5337265133857727,-0.0007888237596489489,0.6727074980735779,0.5528770089149475,0.015530208125710487,0.6158314347267151,0.5249873995780945,0.00735876290127635,0.5811740159988403,0.5318207740783691,-0.005304938647896051,0.5524308681488037,0.5372336506843567,-0.013520683161914349,0.6768971681594849,0.5620742440223694,-0.0004569392476696521,0.6162893176078796,0.5357667803764343,-0.008589600212872028,0.5807874798774719,0.5431442856788635,-0.015442156232893467,0.5536264777183533,0.5464063286781311,-0.019077181816101074,0.6735162138938904,0.5794088840484619,-0.016003668308258057,0.6237343549728394,0.5560443997383118,-0.020466754212975502,0.5979921221733093,0.5530110597610474,-0.021985772997140884,0.5776945352554321,0.5485180616378784,-0.022262709215283394,0.0,0.0,0.0,0.0,0.0,0.0,0.0,0.0,0.0,0.0,0.0,0.0,0.0,0.0,0.0,0.0,0.0,0.0,0.0,0.0,0.0,0.0,0.0,0.0,0.0,0.0,0.0,0.0,0.0,0.0,0.0,0.0,0.0,0.0,0.0,0.0,0.0,0.0,0.0,0.0,0.0,0.0,0.0,0.0,0.0,0.0,0.0,0.0,0.0,0.0,0.0,0.0,0.0,0.0,0.0,0.0,0.0,0.0,0.0,0.0,0.0,0.0,0.0
1783390626.4391522,0.6748557686805725,0.7574656009674072,-4.233938284414762e-07,0.6330567598342896,0.6862313151359558,0.017104586586356163,0.6225572824478149,0.6140912175178528,0.023806776851415634,0.6122289896011353,0.5669128894805908,0.02331528812646866,0.6065966486930847,0.5262152552604675,0.022211233153939247,0.6607159376144409,0.556048572063446,0.03546680510044098,0.6176562905311584,0.5352554321289062,0.0275032389909029,0.58576500415802,0.5383222699165344,0.01540497038513422,0.5574871897697449,0.5386999249458313,0.007356505375355482,0.6707605719566345,0.5544230937957764,0.019594615325331688,0.6146504878997803,0.5306020975112915,0.012572621926665306,0.5806249976158142,0.537932813167572,-0.00013381628377828747,0.5522724390029907,0.5428231358528137,-0.008533480577170849,0.6763756275177002,0.563291072845459,0.0024298715870827436,0.6155977249145508,0.5371060967445374,-0.005264999810606241,0.5796998739242554,0.5440092086791992,-0.011782622896134853,0.5522957444190979,0.5465541481971741,-0.015244746580719948,0.6747543215751648,0.5795714855194092,-0.01414461899548769,0.6247175335884094,0.555881917476654,-0.01894666627049446,0.5992252826690674,0.5528051257133484,-0.020272651687264442,0.5795161724090576,0.548005223274231,-0.020308678969740868,0.0,0.0,0.0,0.0,0.0,0.0,0.0,0.0,0.0,0.0,0.0,0.0,0.0,0.0,0.0,0.0,0.0,0.0,0.0,0.0,0.0,0.0,0.0,0.0,0.0,0.0,0.0,0.0,0.0,0.0,0.0,0.0,0.0,0.0,0.0,0.0,0.0,0.0,0.0,0.0,0.0,0.0,0.0,0.0,0.0,0.0,0.0,0.0,0.0,0.0,0.0,0.0,0.0,0.0,0.0,0.0,0.0,0.0,0.0,0.0,0.0,0.0,0.0
1783390626.6022909,0.6746737360954285,0.7540024518966675,-4.0679077528693597e-07,0.6337372660636902,0.6870463490486145,0.013904023915529251,0.6228151917457581,0.6138662695884705,0.018953396007418633,0.6126164197921753,0.5676473379135132,0.017756525427103043,0.6069565415382385,0.5289587378501892,0.01616806350648403,0.6621145009994507,0.5520214438438416,0.02876949869096279,0.6176263689994812,0.5296450853347778,0.018598753958940506,0.5850253701210022,0.5317049622535706,0.005993114784359932,0.5567428469657898,0.5332673192024231,-0.001722264220006764,0.6720936894416809,0.5508856773376465,0.014536389149725437,0.6155224442481995,0.5239517092704773,0.0062902867794036865,0.5800279974937439,0.530303418636322,-0.005568141583353281,0.5507084727287292,0.5369160175323486,-0.012964571826159954,0.6771331429481506,0.5603401064872742,-0.0011048931628465652,0.6159706711769104,0.5354510545730591,-0.009323549456894398,0.5794265866279602,0.5418135523796082,-0.01537390984594822,0.5517716407775879,0.5453266501426697,-0.018256332725286484,0.674651563167572,0.5786853432655334,-0.016413437202572823,0.6242789030075073,0.5563679337501526,-0.02119995467364788,0.5979591012001038,0.5532447695732117,-0.022553766146302223,0.577524721622467,0.5491392612457275,-0.022512195631861687,0.0,0.0,0.0,0.0,0.0,0.0,0.0,0.0,0.0,0.0,0.0,0.0,0.0,0.0,0.0,0.0,0.0,0.0,0.0,0.0,0.0,0.0,0.0,0.0,0.0,0.0,0.0,0.0,0.0,0.0,0.0,0.0,0.0,0.0,0.0,0.0,0.0,0.0,0.0,0.0,0.0,0.0,0.0,0.0,0.0,0.0,0.0,0.0,0.0,0.0,0.0,0.0,0.0,0.0,0.0,0.0,0.0,0.0,0.0,0.0,0.0,0.0,0.0
1783390626.7627761,0.6696269512176514,0.7515637874603271,-3.9204417134897085e-07,0.629237949848175,0.6981859803199768,0.00948411412537098,0.6119080781936646,0.6242086291313171,0.015885407105088234,0.6030526757240295,0.5742706060409546,0.01661025732755661,0.598047137260437,0.5398448705673218,0.016891447827219963,0.6401092410087585,0.572772741317749,0.029778948053717613,0.6143568754196167,0.5428680777549744,0.021226001903414726,0.5864672660827637,0.5370196104049683,0.00985929649323225,0.5595169067382812,0.5345746278762817,0.0022463733330368996,0.6523114442825317,0.5641366243362427,0.018487414345145226,0.6166287064552307,0.5295950174331665,0.009535882622003555,0.5852553248405457,0.5300306677818298,-0.0029364186339080334,0.5561504364013672,0.5334517359733582,-0.010363597422838211,0.665290892124176,0.5630384087562561,0.005136664491146803,0.6222020983695984,0.5318430066108704,-0.005297207739204168,0.5901490449905396,0.5365409255027771,-0.014271355234086514,0.5623945593833923,0.5430814623832703,-0.018573295325040817,0.6762449741363525,0.5694698095321655,-0.008099944330751896,0.6324841380119324,0.5506651997566223,-0.015419752337038517,0.6072536110877991,0.5503606796264648,-0.019448978826403618,0.5862405896186829,0.5511602759361267,-0.02125471644103527,0.0,0.0,0.0,0.0,0.0,0.0,0.0,0.0,0.0,0.0,0.0,0.0,0.0,0.0,0.0,0.0,0.0,0.0,0.0,0.0,0.0,0.0,0.0,0.0,0.0,0.0,0.0,0.0,0.0,0.0,0.0,0.0,0.0,0.0,0.0,0.0,0.0,0.0,0.0,0.0,0.0,0.0,0.0,0.0,0.0,0.0,0.0,0.0,0.0,0.0,0.0,0.0,0.0,0.0,0.0,0.0,0.0,0.0,0.0,0.0,0.0,0.0,0.0
1783390626.929698,0.6679244637489319,0.7520594000816345,-3.287698575604736e-07,0.6247308254241943,0.7089816331863403,0.005818138364702463,0.5996580123901367,0.6337814331054688,0.011578600853681564,0.5894895792007446,0.57876056432724,0.012576970271766186,0.5862656831741333,0.544890820980072,0.01307936105877161,0.624058187007904,0.5901898741722107,0.028334597125649452,0.6045631170272827,0.557700514793396,0.022605983540415764,0.5819668769836426,0.5503699779510498,0.01278568897396326,0.5583532452583313,0.5455388426780701,0.004934644792228937,0.6378430724143982,0.5771802067756653,0.019297093152999878,0.6093317270278931,0.5415813326835632,0.010434353724122047,0.5832639336585999,0.5390810966491699,-0.00247007142752409,0.5557244420051575,0.539047122001648,-0.010378659702837467,0.6541078090667725,0.5716648697853088,0.008118449710309505,0.6201184988021851,0.534248948097229,-0.003015353810042143,0.5941147804260254,0.5366294980049133,-0.012930049560964108,0.5675210952758789,0.542643129825592,-0.01779887266457081,0.671263575553894,0.5733273029327393,-0.0030237080063670874,0.6344450116157532,0.5519875288009644,-0.011971586383879185,0.6114760041236877,0.5505010485649109,-0.01724783144891262,0.5903754234313965,0.5512402057647705,-0.01992218568921089,0.0,0.0,0.0,0.0,0.0,0.0,0.0,0.0,0.0,0.0,0.0,0.0,0.0,0.0,0.0,0.0,0.0,0.0,0.0,0.0,0.0,0.0,0.0,0.0,0.0,0.0,0.0,0.0,0.0,0.0,0.0,0.0,0.0,0.0,0.0,0.0,0.0,0.0,0.0,0.0,0.0,0.0,0.0,0.0,0.0,0.0,0.0,0.0,0.0,0.0,0.0,0.0,0.0,0.0,0.0,0.0,0.0,0.0,0.0,0.0,0.0,0.0,0.0
1783390627.0629451,0.6678308248519897,0.7536611557006836,-3.0127515060485166e-07,0.625852644443512,0.7172823548316956,0.004603221081197262,0.5986207127571106,0.6427409648895264,0.009435135871171951,0.5879085659980774,0.5883380770683289,0.0096212113276124,0.581262469291687,0.5549389123916626,0.009243528358638287,0.6194066405296326,0.5933083891868591,0.027543844655156136,0.5988123416900635,0.5596462488174438,0.020364243537187576,0.5756443738937378,0.5510609149932861,0.008996246382594109,0.5520067811012268,0.5475708246231079,-0.00016253658395726234,0.633842408657074,0.5798420310020447,0.017955578863620758,0.6061994433403015,0.5456131100654602,0.007123746909201145,0.580246090888977,0.5407921075820923,-0.007799506187438965,0.5524268746376038,0.5405846238136292,-0.017251523211598396,0.6510242223739624,0.5745205283164978,0.006021297071129084,0.6208773255348206,0.5348960161209106,-0.007307819556444883,0.5960848331451416,0.5349736213684082,-0.018352342769503593,0.5700271129608154,0.541627049446106,-0.023844236508011818,0.6701034903526306,0.5762737393379211,-0.0059709432534873486,0.6353164911270142,0.5526634454727173,-0.017931757494807243,0.6122978329658508,0.5487452745437622,-0.02466755174100399,0.5909267067909241,0.5481501817703247,-0.0280645489692688,0.0,0.0,0.0,0.0,0.0,0.0,0.0,0.0,0.0,0.0,0.0,0.0,0.0,0.0,0.0,0.0,0.0,0.0,0.0,0.0,0.0,0.0,0.0,0.0,0.0,0.0,0.0,0.0,0.0,0.0,0.0,0.0,0.0,0.0,0.0,0.0,0.0,0.0,0.0,0.0,0.0,0.0,0.0,0.0,0.0,0.0,0.0,0.0,0.0,0.0,0.0,0.0,0.0,0.0,0.0,0.0,0.0,0.0,0.0,0.0,0.0,0.0,0.0
1783390627.1925209,0.6702890396118164,0.7577639818191528,-2.2965647872297268e-07,0.6259663105010986,0.7215597629547119,0.0013412459520623088,0.5945242643356323,0.6486958265304565,0.005668852478265762,0.5809992551803589,0.5927056670188904,0.006496742833405733,0.5684218406677246,0.5588082075119019,0.007250291761010885,0.6105257272720337,0.6077095866203308,0.02434500865638256,0.5915647745132446,0.5723245143890381,0.01898759976029396,0.5729770660400391,0.5587236285209656,0.009586373344063759,0.553117036819458,0.5460436940193176,0.001142197521403432,0.6269531846046448,0.5923207998275757,0.017030833289027214,0.6051595211029053,0.5614180564880371,0.00873804185539484,0.5854482650756836,0.5484911799430847,-0.003508799709379673,0.5629131197929382,0.5351317524909973,-0.012197557836771011,0.6465322971343994,0.5850561261177063,0.007098931819200516,0.6237419247627258,0.5492978096008301,-0.004352306015789509,0.605455756187439,0.5410957336425781,-0.013324310071766376,0.583969235420227,0.5360233187675476,-0.01834658347070217,0.6701121926307678,0.5827105641365051,-0.0032744386699050665,0.6422420144081116,0.5561954379081726,-0.014110276475548744,0.6223435997962952,0.5485794544219971,-0.019533796235919,0.6027088165283203,0.5431497097015381,-0.02249709889292717,0.0,0.0,0.0,0.0,0.0,0.0,0.0,0.0,0.0,0.0,0.0,0.0,0.0,0.0,0.0,0.0,0.0,0.0,0.0,0.0,0.0,0.0,0.0,0.0,0.0,0.0,0.0,0.0,0.0,0.0,0.0,0.0,0.0,0.0,0.0,0.0,0.0,0.0,0.0,0.0,0.0,0.0,0.0,0.0,0.0,0.0,0.0,0.0,0.0,0.0,0.0,0.0,0.0,0.0,0.0,0.0,0.0,0.0,0.0,0.0,0.0,0.0,0.0
1783390627.327138,0.669818639755249,0.7544881701469421,-2.1366052749272058e-07,0.6263859868049622,0.7193223834037781,0.00328125455416739,0.5965145826339722,0.6436343193054199,0.008674903772771358,0.5893752574920654,0.5888041257858276,0.010217090137302876,0.5868421792984009,0.5563820004463196,0.01115015521645546,0.6165184378623962,0.599507749080658,0.02604871802031994,0.5956651568412781,0.5673328042030334,0.020887810736894608,0.5744661688804626,0.5569887161254883,0.011095276102423668,0.5531743764877319,0.5492925643920898,0.0022000642493367195,0.6322628855705261,0.585183322429657,0.01784813590347767,0.6084010004997253,0.5551379919052124,0.009080781601369381,0.5871256589889526,0.5448586344718933,-0.004588129464536905,0.563605546951294,0.5380954742431641,-0.014069781638681889,0.6512345671653748,0.5803272128105164,0.0073189688846468925,0.6250777840614319,0.5419015288352966,-0.004341663792729378,0.6037467122077942,0.535500705242157,-0.014625290408730507,0.5802165865898132,0.5350882411003113,-0.020630717277526855,0.6730695962905884,0.5808783769607544,-0.0034041255712509155,0.6421615481376648,0.5551618933677673,-0.01568884402513504,0.6202786564826965,0.5502194762229919,-0.022837229073047638,0.5994386672973633,0.5472405552864075,-0.026952380314469337,0.0,0.0,0.0,0.0,0.0,0.0,0.0,0.0,0.0,0.0,0.0,0.0,0.0,0.0,0.0,0.0,0.0,0.0,0.0,0.0,0.0,0.0,0.0,0.0,0.0,0.0,0.0,0.0,0.0,0.0,0.0,0.0,0.0,0.0,0.0,0.0,0.0,0.0,0.0,0.0,0.0,0.0,0.0,0.0,0.0,0.0,0.0,0.0,0.0,0.0,0.0,0.0,0.0,0.0,0.0,0.0,0.0,0.0,0.0,0.0,0.0,0.0,0.0
1783390627.4668841,0.6716205477714539,0.7614430785179138,-2.7679064373842266e-07,0.6315286159515381,0.7185272574424744,0.005390204954892397,0.6062873005867004,0.64082270860672,0.010470414534211159,0.5996151566505432,0.5869067311286926,0.01104776095598936,0.6005111932754517,0.548747718334198,0.01108941063284874,0.6283279061317444,0.5986906886100769,0.026979850605130196,0.6074782609939575,0.5633841156959534,0.020236244425177574,0.5833429098129272,0.5534130930900574,0.0093104662373662,0.558921217918396,0.5489471554756165,9.034076356329024e-06,0.6427932977676392,0.5847007036209106,0.01705736108124256,0.6149042248725891,0.548990786075592,0.006701091770082712,0.5888331532478333,0.5423493981361389,-0.008098074235022068,0.561322808265686,0.5421002507209778,-0.01777268387377262,0.6598526835441589,0.5802274346351624,0.005028087180107832,0.6274548768997192,0.5360609292984009,-0.007509065326303244,0.6009975075721741,0.5334331393241882,-0.01828898675739765,0.5741800665855408,0.5382600426673889,-0.024130403995513916,0.6787419319152832,0.5833051204681396,-0.0070292470045387745,0.6431651711463928,0.5570442080497742,-0.019402075558900833,0.6182422637939453,0.5525527596473694,-0.02670593559741974,0.5957090854644775,0.551249086856842,-0.030743619427084923,0.0,0.0,0.0,0.0,0.0,0.0,0.0,0.0,0.0,0.0,0.0,0.0,0.0,0.0,0.0,0.0,0.0,0.0,0.0,0.0,0.0,0.0,0.0,0.0,0.0,0.0,0.0,0.0,0.0,0.0,0.0,0.0,0.0,0.0,0.0,0.0,0.0,0.0,0.0,0.0,0.0,0.0,0.0,0.0,0.0,0.0,0.0,0.0,0.0,0.0,0.0,0.0,0.0,0.0,0.0,0.0,0.0,0.0,0.0,0.0,0.0,0.0,0.0
1783390627.5992131,0.6731867790222168,0.7646888494491577,-3.315147125704243e-07,0.6350468397140503,0.7067834138870239,0.00915140938013792,0.6188784837722778,0.6329551339149475,0.013682026416063309,0.6140341758728027,0.5839659571647644,0.012486298568546772,0.6146963834762573,0.5467561483383179,0.010888668708503246,0.6415572762489319,0.5877154469490051,0.030408570542931557,0.6183002591133118,0.5520079731941223,0.020547442138195038,0.5903046131134033,0.5450713038444519,0.007231642492115498,0.5621178150177002,0.5463219881057739,-0.0022236548829823732,0.6534962058067322,0.5777515172958374,0.018431587144732475,0.6220999956130981,0.5369846224784851,0.005084479693323374,0.5926026701927185,0.5375454425811768,-0.01104671135544777,0.5630102753639221,0.5472942590713501,-0.019987521693110466,0.6685025095939636,0.5755746364593506,0.004539837129414082,0.6317127346992493,0.5328353047370911,-0.008776369504630566,0.6024552583694458,0.534732460975647,-0.01899063214659691,0.5745036602020264,0.544826328754425,-0.023189011961221695,0.6847876906394958,0.5818208456039429,-0.009194153361022472,0.6482176780700684,0.5559547543525696,-0.019263025373220444,0.6240038871765137,0.5506705641746521,-0.024543611332774162,0.6020639538764954,0.5500396490097046,-0.026660999283194542,0.0,0.0,0.0,0.0,0.0,0.0,0.0,0.0,0.0,0.0,0.0,0.0,0.0,0.0,0.0,0.0,0.0,0.0,0.0,0.0,0.0,0.0,0.0,0.0,0.0,0.0,0.0,0.0,0.0,0.0,0.0,0.0,0.0,0.0,0.0,0.0,0.0,0.0,0.0,0.0,0.0,0.0,0.0,0.0,0.0,0.0,0.0,0.0,0.0,0.0,0.0,0.0,0.0,0.0,0.0,0.0,0.0,0.0,0.0,0.0,0.0,0.0,0.0
1783390627.764797,0.6773912310600281,0.7621663212776184,-3.6465749531089386e-07,0.6390333771705627,0.6931359171867371,0.009789964184165001,0.6300376057624817,0.6150569915771484,0.013982200063765049,0.6232297420501709,0.5616294145584106,0.01303095556795597,0.6228174567222595,0.5178098082542419,0.012256030924618244,0.6672398447990417,0.561369001865387,0.027011027559638023,0.6296754479408264,0.5339981913566589,0.017848864197731018,0.5981976389884949,0.534919261932373,0.006387189030647278,0.5701579451560974,0.5365877747535706,-0.001056387322023511,0.6780515313148499,0.557955265045166,0.015410928055644035,0.6262636780738831,0.5289073586463928,0.00734672648832202,0.5895828604698181,0.529636025428772,-0.004717185162007809,0.5585346817970276,0.5327101945877075,-0.01286216452717781,0.6857307553291321,0.5645377039909363,0.00197928911074996,0.6287970542907715,0.5362837314605713,-0.007120091002434492,0.5912964940071106,0.5386701226234436,-0.014376203529536724,0.561962902545929,0.5419337749481201,-0.018322346732020378,0.6877606511116028,0.5806750655174255,-0.011331497691571712,0.63960200548172,0.558998703956604,-0.016843922436237335,0.6118680238723755,0.5560247898101807,-0.019220666959881783,0.5900581479072571,0.5536131262779236,-0.020322080701589584,0.0,0.0,0.0,0.0,0.0,0.0,0.0,0.0,0.0,0.0,0.0,0.0,0.0,0.0,0.0,0.0,0.0,0.0,0.0,0.0,0.0,0.0,0.0,0.0,0.0,0.0,0.0,0.0,0.0,0.0,0.0,0.0,0.0,0.0,0.0,0.0,0.0,0.0,0.0,0.0,0.0,0.0,0.0,0.0,0.0,0.0,0.0,0.0,0.0,0.0,0.0,0.0,0.0,0.0,0.0,0.0,0.0,0.0,0.0,0.0,0.0,0.0,0.0
1783390627.931906,0.6827563047409058,0.7583879828453064,-4.246176672495494e-07,0.6446720361709595,0.6738105416297913,0.014691676944494247,0.6418206691741943,0.5986921787261963,0.01764495112001896,0.6366301774978638,0.5454646348953247,0.01470524538308382,0.6347630023956299,0.5018226504325867,0.01084168441593647,0.6882414221763611,0.5458918213844299,0.024757666513323784,0.6339665651321411,0.5228453874588013,0.01411703322082758,0.598106324672699,0.525738000869751,0.00046152269351296127,0.5680685639381409,0.5252133011817932,-0.007841356098651886,0.6946446895599365,0.549435019493103,0.01081167347729206,0.6308805346488953,0.5210767388343811,0.004022975917905569,0.5919927954673767,0.5261820554733276,-0.008138651959598064,0.5608565211296082,0.5298599600791931,-0.01714739389717579,0.6928349137306213,0.5618048906326294,-0.0038848945405334234,0.6290758848190308,0.5337631702423096,-0.009363758377730846,0.5911023020744324,0.5365179777145386,-0.015424596145749092,0.563078761100769,0.5367633700370789,-0.019869109615683556,0.6828024983406067,0.5791220664978027,-0.018022824078798294,0.6315502524375916,0.554267406463623,-0.01876656338572502,0.6051086783409119,0.5522881150245667,-0.01853765919804573,0.5843959450721741,0.5482128858566284,-0.018621280789375305,0.0,0.0,0.0,0.0,0.0,0.0,0.0,0.0,0.0,0.0,0.0,0.0,0.0,0.0,0.0,0.0,0.0,0.0,0.0,0.0,0.0,0.0,0.0,0.0,0.0,0.0,0.0,0.0,0.0,0.0,0.0,0.0,0.0,0.0,0.0,0.0,0.0,0.0,0.0,0.0,0.0,0.0,0.0,0.0,0.0,0.0,0.0,0.0,0.0,0.0,0.0,0.0,0.0,0.0,0.0,0.0,0.0,0.0,0.0,0.0,0.0,0.0,0.0
1783390628.124511,0.6845897436141968,0.7510114312171936,-4.5227193368191365e-07,0.6486431360244751,0.6679732799530029,0.017945412546396255,0.6476144790649414,0.5938411355018616,0.02283177711069584,0.6434139609336853,0.5427294373512268,0.021545538678765297,0.6393201351165771,0.49879634380340576,0.019068164750933647,0.6888533234596252,0.5415874719619751,0.025601603090763092,0.6347569227218628,0.5177854895591736,0.017985152080655098,0.6000580191612244,0.5241109728813171,0.006451788824051619,0.5718488693237305,0.5256516933441162,-0.0005922052660025656,0.6953787207603455,0.5447800159454346,0.011185379698872566,0.6306549310684204,0.5235841870307922,0.00824959296733141,0.5940839648246765,0.5277336239814758,-0.0016737986588850617,0.5653163194656372,0.528525710105896,-0.010087616741657257,0.6921472549438477,0.5573846101760864,-0.003406879957765341,0.6283431053161621,0.5333338379859924,-0.005171008873730898,0.5932236909866333,0.5341981649398804,-0.009923155419528484,0.5674130916595459,0.5327625870704651,-0.014689103700220585,0.6803349852561951,0.5738056898117065,-0.01718933694064617,0.6286709308624268,0.5523642897605896,-0.015812160447239876,0.6029931306838989,0.5502710342407227,-0.014950412325561047,0.58244389295578,0.5449411869049072,-0.015092131681740284,0.0,0.0,0.0,0.0,0.0,0.0,0.0,0.0,0.0,0.0,0.0,0.0,0.0,0.0,0.0,0.0,0.0,0.0,0.0,0.0,0.0,0.0,0.0,0.0,0.0,0.0,0.0,0.0,0.0,0.0,0.0,0.0,0.0,0.0,0.0,0.0,0.0,0.0,0.0,0.0,0.0,0.0,0.0,0.0,0.0,0.0,0.0,0.0,0.0,0.0,0.0,0.0,0.0,0.0,0.0,0.0,0.0,0.0,0.0,0.0,0.0,0.0,0.0
1783390628.2689788,0.6855814456939697,0.7454842329025269,-4.629417844626005e-07,0.6565537452697754,0.6667665839195251,0.015692004933953285,0.6543907523155212,0.5911989808082581,0.01913447491824627,0.6499220132827759,0.5374959707260132,0.01791338063776493,0.6454694271087646,0.4925957918167114,0.015232362784445286,0.6935566663742065,0.5414038300514221,0.017730772495269775,0.6372950673103333,0.5193145275115967,0.010726668871939182,0.602573037147522,0.5261827111244202,8.690017421031371e-05,0.5746971368789673,0.5292670726776123,-0.006281350739300251,0.6952084302902222,0.5441600680351257,0.0062101916410028934,0.630328357219696,0.5243757367134094,0.004460242111235857,0.5936473608016968,0.530921459197998,-0.004114397801458836,0.5643972158432007,0.5357909798622131,-0.012047004885971546,0.6876301765441895,0.5550687909126282,-0.004796871915459633,0.625375509262085,0.53591388463974,-0.0036892862990498543,0.5930017232894897,0.5430447459220886,-0.007327529136091471,0.5689808130264282,0.5466553568840027,-0.0123457545414567,0.6728468537330627,0.5712130069732666,-0.015016982331871986,0.6241461038589478,0.5576541423797607,-0.010893050581216812,0.6010205745697021,0.5599703192710876,-0.009194569662213326,0.5818349123001099,0.5574598908424377,-0.009417690336704254,0.0,0.0,0.0,0.0,0.0,0.0,0.0,0.0,0.0,0.0,0.0,0.0,0.0,0.0,0.0,0.0,0.0,0.0,0.0,0.0,0.0,0.0,0.0,0.0,0.0,0.0,0.0,0.0,0.0,0.0,0.0,0.0,0.0,0.0,0.0,0.0,0.0,0.0,0.0,0.0,0.0,0.0,0.0,0.0,0.0,0.0,0.0,0.0,0.0,0.0,0.0,0.0,0.0,0.0,0.0,0.0,0.0,0.0,0.0,0.0,0.0,0.0,0.0
1783390628.394905,0.6899394989013672,0.7405154705047607,-4.5596112840939895e-07,0.666568398475647,0.6689341068267822,0.017329055815935135,0.6616459488868713,0.5938518047332764,0.02175338752567768,0.6547685861587524,0.5392798185348511,0.021576063707470894,0.6480665802955627,0.49293404817581177,0.019731946289539337,0.6948228478431702,0.5398659706115723,0.017800305038690567,0.6376378536224365,0.5165717601776123,0.01211111806333065,0.6032348275184631,0.5249207615852356,0.00278559816069901,0.5761001110076904,0.5308348536491394,-0.0024995042476803064,0.6955410838127136,0.5430808067321777,0.006401457358151674,0.6290987730026245,0.5238249897956848,0.0064388164319098,0.5929560661315918,0.5328885316848755,-0.00048677893937565386,0.5646533370018005,0.5408718585968018,-0.007344615180045366,0.686512291431427,0.554214358329773,-0.004238459747284651,0.6241075396537781,0.5362109541893005,-0.0008466326980851591,0.5914788246154785,0.5439846515655518,-0.00361706898547709,0.5673971772193909,0.5480706691741943,-0.008501770906150341,0.6702508926391602,0.5708455443382263,-0.013913310132920742,0.6224353909492493,0.5585808753967285,-0.008176999166607857,0.5992428660392761,0.5616890788078308,-0.006094350945204496,0.58000648021698,0.5594198107719421,-0.006283631082624197,0.0,0.0,0.0,0.0,0.0,0.0,0.0,0.0,0.0,0.0,0.0,0.0,0.0,0.0,0.0,0.0,0.0,0.0,0.0,0.0,0.0,0.0,0.0,0.0,0.0,0.0,0.0,0.0,0.0,0.0,0.0,0.0,0.0,0.0,0.0,0.0,0.0,0.0,0.0,0.0,0.0,0.0,0.0,0.0,0.0,0.0,0.0,0.0,0.0,0.0,0.0,0.0,0.0,0.0,0.0,0.0,0.0,0.0,0.0,0.0,0.0,0.0,0.0
1783390628.5279832,0.6925215721130371,0.7351192831993103,-4.436465701473935e-07,0.6805201768875122,0.6677546501159668,0.01659516803920269,0.673628032207489,0.5917352437973022,0.02088097296655178,0.6620115637779236,0.5355915427207947,0.021287601441144943,0.6521074175834656,0.4924854636192322,0.020046863704919815,0.7003932595252991,0.5359361171722412,0.012168523855507374,0.6428331136703491,0.5137853622436523,0.006732969079166651,0.6097714304924011,0.5219994187355042,-0.0005518811522051692,0.5851579308509827,0.5271887183189392,-0.004736296832561493,0.6969382762908936,0.5393994450569153,0.0014503765851259232,0.6321757435798645,0.5176079273223877,2.5772795197553933e-05,0.5974934697151184,0.5279711484909058,-0.005482932087033987,0.5703762173652649,0.5368102192878723,-0.011054720729589462,0.6851131319999695,0.5507177710533142,-0.008097129873931408,0.6244001984596252,0.5322949886322021,-0.007114716339856386,0.5926268696784973,0.5438992977142334,-0.009894469752907753,0.5691706538200378,0.5490970611572266,-0.014314142055809498,0.6669079065322876,0.5688035488128662,-0.016371669247746468,0.6202909350395203,0.5563140511512756,-0.01388946920633316,0.5975974798202515,0.5612005591392517,-0.013441592454910278,0.5783899426460266,0.5587494373321533,-0.014445671811699867,0.0,0.0,0.0,0.0,0.0,0.0,0.0,0.0,0.0,0.0,0.0,0.0,0.0,0.0,0.0,0.0,0.0,0.0,0.0,0.0,0.0,0.0,0.0,0.0,0.0,0.0,0.0,0.0,0.0,0.0,0.0,0.0,0.0,0.0,0.0,0.0,0.0,0.0,0.0,0.0,0.0,0.0,0.0,0.0,0.0,0.0,0.0,0.0,0.0,0.0,0.0,0.0,0.0,0.0,0.0,0.0,0.0,0.0,0.0,0.0,0.0,0.0,0.0
1783390628.6692202,0.6954131126403809,0.7316566705703735,-4.196967609004787e-07,0.6933780312538147,0.6603893637657166,0.017822006717324257,0.6834820508956909,0.5846040844917297,0.022321607917547226,0.6658584475517273,0.5307457447052002,0.02279559336602688,0.652030885219574,0.4910188317298889,0.021825667470693588,0.705556333065033,0.5351955890655518,0.011318189091980457,0.6491215229034424,0.5110953450202942,0.007545367814600468,0.6189218163490295,0.5223363041877747,0.0027862589340656996,0.5982586741447449,0.5279873609542847,-0.00022067934332881123,0.6980797052383423,0.5392262935638428,-0.00019444021745584905,0.6345210671424866,0.5151478052139282,-0.0008552323561161757,0.6015822291374207,0.5258734822273254,-0.004507346544414759,0.5765752196311951,0.5340097546577454,-0.009158832021057606,0.6837111711502075,0.5511813759803772,-0.010312419384717941,0.6239110231399536,0.5308303833007812,-0.009240075945854187,0.5930140614509583,0.5437583923339844,-0.011196110397577286,0.5709271430969238,0.5480325222015381,-0.015405481681227684,0.6647887825965881,0.5696795582771301,-0.018953373655676842,0.6197353601455688,0.5551146268844604,-0.0182030089199543,0.5961101055145264,0.5601573586463928,-0.018752973526716232,0.5762196183204651,0.5562787652015686,-0.02047213725745678,0.0,0.0,0.0,0.0,0.0,0.0,0.0,0.0,0.0,0.0,0.0,0.0,0.0,0.0,0.0,0.0,0.0,0.0,0.0,0.0,0.0,0.0,0.0,0.0,0.0,0.0,0.0,0.0,0.0,0.0,0.0,0.0,0.0,0.0,0.0,0.0,0.0,0.0,0.0,0.0,0.0,0.0,0.0,0.0,0.0,0.0,0.0,0.0,0.0,0.0,0.0,0.0,0.0,0.0,0.0,0.0,0.0,0.0,0.0,0.0,0.0,0.0,0.0
1783390628.794528,0.6932417154312134,0.7310970425605774,-4.132803042011801e-07,0.6914990544319153,0.6602023243904114,0.014503765851259232,0.6848254203796387,0.5812397599220276,0.01799028553068638,0.6721301674842834,0.5238499045372009,0.018015529960393906,0.6628417372703552,0.47959789633750916,0.01651306077837944,0.70170658826828,0.5325192809104919,0.009509043768048286,0.6464585065841675,0.5089850425720215,0.004936233162879944,0.6149844527244568,0.5201223492622375,-0.0006971801049076021,0.592509925365448,0.5268875360488892,-0.003906348254531622,0.6937215924263,0.538479208946228,-0.00042532876250334084,0.6305071115493774,0.5226427912712097,-0.0014057314256206155,0.5978043675422668,0.5325559377670288,-0.006249306723475456,0.5736305117607117,0.5389223694801331,-0.011628149077296257,0.6793442368507385,0.5529236793518066,-0.009320712648332119,0.6212326884269714,0.5391883850097656,-0.008857051841914654,0.5914798378944397,0.5517926812171936,-0.012200364843010902,0.5708102583885193,0.5562958121299744,-0.01692475751042366,0.6611155271530151,0.573318362236023,-0.016982385888695717,0.618308424949646,0.5588838458061218,-0.016501465812325478,0.5954656004905701,0.5627298355102539,-0.017261063680052757,0.576331377029419,0.5586537718772888,-0.018727336078882217,0.0,0.0,0.0,0.0,0.0,0.0,0.0,0.0,0.0,0.0,0.0,0.0,0.0,0.0,0.0,0.0,0.0,0.0,0.0,0.0,0.0,0.0,0.0,0.0,0.0,0.0,0.0,0.0,0.0,0.0,0.0,0.0,0.0,0.0,0.0,0.0,0.0,0.0,0.0,0.0,0.0,0.0,0.0,0.0,0.0,0.0,0.0,0.0,0.0,0.0,0.0,0.0,0.0,0.0,0.0,0.0,0.0,0.0,0.0,0.0,0.0,0.0,0.0
1783390628.92124,0.6929192543029785,0.733642041683197,-4.4273042476561386e-07,0.6938337087631226,0.6619638204574585,0.022371672093868256,0.6906331777572632,0.5851955413818359,0.02896948903799057,0.684397280216217,0.5260061025619507,0.030487969517707825,0.6813347339630127,0.48187392950057983,0.030139025300741196,0.6991339325904846,0.5328651070594788,0.017172306776046753,0.6441537141799927,0.5117567777633667,0.01778576895594597,0.6120610237121582,0.5291669368743896,0.015849389135837555,0.5893120169639587,0.5411193370819092,0.014688253402709961,0.6926289200782776,0.5386431217193604,0.004035109654068947,0.6283185482025146,0.5216986536979675,0.008217663504183292,0.5964918732643127,0.5330362319946289,0.005798046942800283,0.5720294713973999,0.5421701073646545,0.0014571498613804579,0.6790111064910889,0.5541287064552307,-0.007191687822341919,0.6196721792221069,0.5396007895469666,-0.0009322710102424026,0.5899561643600464,0.5520572066307068,-0.0014865683624520898,0.568411648273468,0.5573879480361938,-0.0055578057654201984,0.6612708568572998,0.5760799646377563,-0.016700807958841324,0.6159268617630005,0.5610575079917908,-0.011518853716552258,0.5930633544921875,0.5648738145828247,-0.009643521159887314,0.5739704370498657,0.5621160268783569,-0.009938495233654976,0.0,0.0,0.0,0.0,0.0,0.0,0.0,0.0,0.0,0.0,0.0,0.0,0.0,0.0,0.0,0.0,0.0,0.0,0.0,0.0,0.0,0.0,0.0,0.0,0.0,0.0,0.0,0.0,0.0,0.0,0.0,0.0,0.0,0.0,0.0,0.0,0.0,0.0,0.0,0.0,0.0,0.0,0.0,0.0,0.0,0.0,0.0,0.0,0.0,0.0,0.0,0.0,0.0,0.0,0.0,0.0,0.0,0.0,0.0,0.0,0.0,0.0,0.0
1783390629.058231,0.6928707957267761,0.7346464395523071,-4.453278279470396e-07,0.6918966770172119,0.6638306975364685,0.020717352628707886,0.6889453530311584,0.5859212875366211,0.025941994041204453,0.6847273707389832,0.5276016592979431,0.026563482359051704,0.6855744123458862,0.48537272214889526,0.025395238772034645,0.6995687484741211,0.5318352580070496,0.012619631364941597,0.6431397199630737,0.5146007537841797,0.01214456558227539,0.61048823595047,0.5323588252067566,0.009718731977045536,0.5868596434593201,0.5443731546401978,0.008020278066396713,0.69267338514328,0.5373780131340027,-0.00011120442650280893,0.6278481483459473,0.521632730960846,0.002555954037234187,0.5953922271728516,0.533650279045105,1.604663339094259e-05,0.5699480175971985,0.5433416962623596,-0.004549717530608177,0.6788109540939331,0.5526937246322632,-0.010762408375740051,0.6196108460426331,0.5377972722053528,-0.005515411961823702,0.5897616147994995,0.5516571402549744,-0.005193411838263273,0.5675777792930603,0.5583916902542114,-0.008814768865704536,0.6603886485099792,0.5756494998931885,-0.019885096698999405,0.6151449084281921,0.56290602684021,-0.015537441708147526,0.5923803448677063,0.5681583881378174,-0.01344167347997427,0.572871208190918,0.5661186575889587,-0.013699604198336601,0.0,0.0,0.0,0.0,0.0,0.0,0.0,0.0,0.0,0.0,0.0,0.0,0.0,0.0,0.0,0.0,0.0,0.0,0.0,0.0,0.0,0.0,0.0,0.0,0.0,0.0,0.0,0.0,0.0,0.0,0.0,0.0,0.0,0.0,0.0,0.0,0.0,0.0,0.0,0.0,0.0,0.0,0.0,0.0,0.0,0.0,0.0,0.0,0.0,0.0,0.0,0.0,0.0,0.0,0.0,0.0,0.0,0.0,0.0,0.0,0.0,0.0,0.0
1783390629.192468,0.694740891456604,0.7324267029762268,-4.2881671902250673e-07,0.693785548210144,0.6617583632469177,0.02017364278435707,0.690308153629303,0.5854145288467407,0.025196654722094536,0.6854193210601807,0.5270736217498779,0.02559502236545086,0.6861212253570557,0.48434123396873474,0.024166731163859367,0.7002670764923096,0.5314332246780396,0.013519789092242718,0.6428724527359009,0.5180992484092712,0.012903660535812378,0.6104790568351746,0.5345166921615601,0.010189754888415337,0.5868079662322998,0.5435488224029541,0.008254095911979675,0.6938331723213196,0.5374960899353027,0.0008541290881112218,0.6285755038261414,0.5238226056098938,0.003320207353681326,0.5957267880439758,0.5332829356193542,0.0006213871529325843,0.5696969032287598,0.5408585667610168,-0.003950431011617184,0.6801459789276123,0.5531322956085205,-0.009915038011968136,0.6205474734306335,0.5390672087669373,-0.005338742397725582,0.5902275443077087,0.5503771901130676,-0.004928295966237783,0.5671366453170776,0.5551699995994568,-0.008181559853255749,0.6617977619171143,0.5759351253509521,-0.01921095699071884,0.616857647895813,0.5627918243408203,-0.01529802568256855,0.5942698121070862,0.5663092136383057,-0.01298866979777813,0.5744959712028503,0.5623648166656494,-0.012857714667916298,0.0,0.0,0.0,0.0,0.0,0.0,0.0,0.0,0.0,0.0,0.0,0.0,0.0,0.0,0.0,0.0,0.0,0.0,0.0,0.0,0.0,0.0,0.0,0.0,0.0,0.0,0.0,0.0,0.0,0.0,0.0,0.0,0.0,0.0,0.0,0.0,0.0,0.0,0.0,0.0,0.0,0.0,0.0,0.0,0.0,0.0,0.0,0.0,0.0,0.0,0.0,0.0,0.0,0.0,0.0,0.0,0.0,0.0,0.0,0.0,0.0,0.0,0.0
1783390629.382925,0.6956873536109924,0.7306872606277466,-4.178264987331204e-07,0.6905844211578369,0.6630142331123352,0.018623778596520424,0.687283456325531,0.5862540602684021,0.02331886999309063,0.6830902099609375,0.5269255042076111,0.023719877004623413,0.6823967695236206,0.4834330677986145,0.02210860140621662,0.6984543204307556,0.529933750629425,0.012861954048275948,0.6408347487449646,0.5158293843269348,0.010257979854941368,0.6078747510910034,0.5275242924690247,0.005392733030021191,0.5824003219604492,0.5319812893867493,0.002186877653002739,0.6949225664138794,0.5355923771858215,0.0010456218151375651,0.6287056803703308,0.5228341221809387,0.0015213100705295801,0.5958360433578491,0.5331369638442993,-0.002230576239526272,0.5694945454597473,0.5414971709251404,-0.006848049815744162,0.6825938820838928,0.5508770942687988,-0.009183012880384922,0.6216999888420105,0.5390030145645142,-0.006228828802704811,0.5904840230941772,0.5485313534736633,-0.006412268150597811,0.5661929845809937,0.5524622201919556,-0.009263666346669197,0.6645172834396362,0.5728639960289001,-0.018091542646288872,0.6184825301170349,0.563538670539856,-0.014561710879206657,0.5958499908447266,0.5678481459617615,-0.012406887486577034,0.576117992401123,0.5644634366035461,-0.01200337614864111,0.0,0.0,0.0,0.0,0.0,0.0,0.0,0.0,0.0,0.0,0.0,0.0,0.0,0.0,0.0,0.0,0.0,0.0,0.0,0.0,0.0,0.0,0.0,0.0,0.0,0.0,0.0,0.0,0.0,0.0,0.0,0.0,0.0,0.0,0.0,0.0,0.0,0.0,0.0,0.0,0.0,0.0,0.0,0.0,0.0,0.0,0.0,0.0,0.0,0.0,0.0,0.0,0.0,0.0,0.0,0.0,0.0,0.0,0.0,0.0,0.0,0.0,0.0
1783390629.549761,0.6945081353187561,0.7300587892532349,-4.575833543185581e-07,0.6809485554695129,0.6634463667869568,0.0240307729691267,0.6797530651092529,0.5870007276535034,0.03140711411833763,0.6762845516204834,0.5290833115577698,0.03326179087162018,0.6744102239608765,0.4864383339881897,0.033234044909477234,0.6964095234870911,0.5313478112220764,0.020825698971748352,0.6441803574562073,0.509366512298584,0.020764820277690887,0.6129890084266663,0.5281694531440735,0.01748046465218067,0.5898194909095764,0.5412038564682007,0.01578586734831333,0.6954981088638306,0.535760760307312,0.007548854686319828,0.6295163631439209,0.5182176828384399,0.011504553258419037,0.5948876738548279,0.5297777652740479,0.00781520176678896,0.5678879618644714,0.5398118495941162,0.002864039270207286,0.6860074996948242,0.5499295592308044,-0.0038779061287641525,0.6241101622581482,0.535611629486084,0.002790178870782256,0.591303825378418,0.5451021194458008,0.001993264304473996,0.5669227242469788,0.5508257150650024,-0.002020898275077343,0.6699216961860657,0.5692996382713318,-0.013566558249294758,0.623209536075592,0.5609405636787415,-0.005632772576063871,0.5997526049613953,0.5649018287658691,-0.0027290000580251217,0.5802595615386963,0.5617793798446655,-0.0026388466358184814,0.0,0.0,0.0,0.0,0.0,0.0,0.0,0.0,0.0,0.0,0.0,0.0,0.0,0.0,0.0,0.0,0.0,0.0,0.0,0.0,0.0,0.0,0.0,0.0,0.0,0.0,0.0,0.0,0.0,0.0,0.0,0.0,0.0,0.0,0.0,0.0,0.0,0.0,0.0,0.0,0.0,0.0,0.0,0.0,0.0,0.0,0.0,0.0,0.0,0.0,0.0,0.0,0.0,0.0,0.0,0.0,0.0,0.0,0.0,0.0,0.0,0.0,0.0
1783390629.69503,0.6940520405769348,0.7321231961250305,-4.519588969742472e-07,0.6598914861679077,0.6603450179100037,0.016221098601818085,0.6610059142112732,0.5825859904289246,0.01996978372335434,0.6620860695838928,0.5271458029747009,0.018982551991939545,0.661032497882843,0.48249906301498413,0.015992064028978348,0.6917881369590759,0.5273908376693726,0.017312178388237953,0.6362946629524231,0.5157123804092407,0.011447458527982235,0.6027023792266846,0.5262683629989624,0.0016856866423040628,0.5754032731056213,0.5315012335777283,-0.00428027706220746,0.6946063041687012,0.5318765044212341,0.005556371062994003,0.6286413669586182,0.5209285616874695,0.004081697668880224,0.5922042727470398,0.5322596430778503,-0.00499364547431469,0.5631086826324463,0.5401008129119873,-0.013462529517710209,0.6890110969543457,0.5464053153991699,-0.0055180699564516544,0.6255934238433838,0.5356909036636353,-0.004694167524576187,0.5934836268424988,0.5465326309204102,-0.009204169735312462,0.5699126124382019,0.552939236164093,-0.014870393089950085,0.6766411662101746,0.5652417540550232,-0.015628714114427567,0.6284729242324829,0.5553393363952637,-0.011572202667593956,0.6045951843261719,0.5602395534515381,-0.010226288810372353,0.5850997567176819,0.5593057870864868,-0.010933409444987774,0.0,0.0,0.0,0.0,0.0,0.0,0.0,0.0,0.0,0.0,0.0,0.0,0.0,0.0,0.0,0.0,0.0,0.0,0.0,0.0,0.0,0.0,0.0,0.0,0.0,0.0,0.0,0.0,0.0,0.0,0.0,0.0,0.0,0.0,0.0,0.0,0.0,0.0,0.0,0.0,0.0,0.0,0.0,0.0,0.0,0.0,0.0,0.0,0.0,0.0,0.0,0.0,0.0,0.0,0.0,0.0,0.0,0.0,0.0,0.0,0.0,0.0,0.0
1783390629.8272681,0.6898902654647827,0.7339652180671692,-4.976757281838218e-07,0.652034342288971,0.6591225862503052,0.024796541780233383,0.6498523354530334,0.5885432362556458,0.03260689601302147,0.6485257744789124,0.5364701151847839,0.03306873142719269,0.645087718963623,0.489319384098053,0.031416155397892,0.6814691424369812,0.5302777886390686,0.034577712416648865,0.6290122270584106,0.5180540084838867,0.028179163113236427,0.5948668718338013,0.5276102423667908,0.015632659196853638,0.5658541321754456,0.5320015549659729,0.0073851607739925385,0.6875320672988892,0.5334562659263611,0.016528870910406113,0.6241852045059204,0.5210050344467163,0.014932332560420036,0.586368978023529,0.5327364802360535,0.002909344621002674,0.5571658611297607,0.5392972826957703,-0.007784087210893631,0.6851213574409485,0.5454463362693787,-0.0014183901948854327,0.6225610971450806,0.5306944251060486,-0.0018970967503264546,0.5880357027053833,0.5420517921447754,-0.00818784162402153,0.5636617541313171,0.5469961762428284,-0.014957476407289505,0.6774010062217712,0.56047123670578,-0.017990821972489357,0.6264740824699402,0.5485770106315613,-0.016248002648353577,0.6019452214241028,0.5557522773742676,-0.01563544198870659,0.5832382440567017,0.553573727607727,-0.016576476395130157,0.0,0.0,0.0,0.0,0.0,0.0,0.0,0.0,0.0,0.0,0.0,0.0,0.0,0.0,0.0,0.0,0.0,0.0,0.0,0.0,0.0,0.0,0.0,0.0,0.0,0.0,0.0,0.0,0.0,0.0,0.0,0.0,0.0,0.0,0.0,0.0,0.0,0.0,0.0,0.0,0.0,0.0,0.0,0.0,0.0,0.0,0.0,0.0,0.0,0.0,0.0,0.0,0.0,0.0,0.0,0.0,0.0,0.0,0.0,0.0,0.0,0.0,0.0
1783390629.966269,0.6840268969535828,0.7357986569404602,-4.646302613764419e-07,0.6440038084983826,0.6638199090957642,0.01608305051922798,0.6381866335868835,0.5928677320480347,0.020054161548614502,0.6346068978309631,0.5406435132026672,0.017935659736394882,0.6300885677337646,0.4941873848438263,0.014622698538005352,0.6732795238494873,0.5316351652145386,0.026356995105743408,0.6230580806732178,0.5192379951477051,0.016109874472022057,0.5900915265083313,0.5300309658050537,0.0023981148842722178,0.5621388554573059,0.5366575121879578,-0.006077863741666079,0.6823718547821045,0.5322007536888123,0.01116681843996048,0.6202526092529297,0.5200940370559692,0.005150428507477045,0.5841495990753174,0.5313868522644043,-0.0066418335773050785,0.5555779933929443,0.5407397747039795,-0.015618646517395973,0.6837196946144104,0.5445687174797058,-0.004938557744026184,0.6213875412940979,0.5293349027633667,-0.009612346068024635,0.5861010551452637,0.538866400718689,-0.01535770669579506,0.5600823163986206,0.5448462963104248,-0.019960591569542885,0.6783442497253418,0.5640060901641846,-0.020537273958325386,0.6265567541122437,0.552256166934967,-0.022310450673103333,0.6003897190093994,0.5560362339019775,-0.022870639339089394,0.5794949531555176,0.5549276471138,-0.02337862364947796,0.0,0.0,0.0,0.0,0.0,0.0,0.0,0.0,0.0,0.0,0.0,0.0,0.0,0.0,0.0,0.0,0.0,0.0,0.0,0.0,0.0,0.0,0.0,0.0,0.0,0.0,0.0,0.0,0.0,0.0,0.0,0.0,0.0,0.0,0.0,0.0,0.0,0.0,0.0,0.0,0.0,0.0,0.0,0.0,0.0,0.0,0.0,0.0,0.0,0.0,0.0,0.0,0.0,0.0,0.0,0.0,0.0,0.0,0.0,0.0,0.0,0.0,0.0
1783390630.0890481,0.6816650032997131,0.7366944551467896,-4.358396665793407e-07,0.6408411264419556,0.6651071310043335,0.014270971529185772,0.6333938837051392,0.5929682850837708,0.018738266080617905,0.6282869577407837,0.5407031178474426,0.01711314357817173,0.6237195134162903,0.495521605014801,0.014631197787821293,0.6679593324661255,0.5356446504592896,0.027384398505091667,0.6215502023696899,0.5206666588783264,0.01805192232131958,0.5894842743873596,0.5294090509414673,0.0055711157619953156,0.5621501803398132,0.5333366990089417,-0.002207425655797124,0.6786338090896606,0.5348924398422241,0.013157288543879986,0.619888961315155,0.5212720036506653,0.007220163010060787,0.5839677453041077,0.5308119654655457,-0.003577830269932747,0.5558140277862549,0.5393015146255493,-0.01136829424649477,0.6824676990509033,0.5467470288276672,-0.002350166905671358,0.6229276061058044,0.5304544568061829,-0.007644094061106443,0.587775707244873,0.5383853912353516,-0.012483982369303703,0.5620686411857605,0.5437955260276794,-0.01583300344645977,0.6791431307792664,0.566663920879364,-0.017612434923648834,0.6315469145774841,0.5519588589668274,-0.02009480446577072,0.6069079637527466,0.552510142326355,-0.02043021470308304,0.5875170230865479,0.5511947870254517,-0.020337047055363655,0.0,0.0,0.0,0.0,0.0,0.0,0.0,0.0,0.0,0.0,0.0,0.0,0.0,0.0,0.0,0.0,0.0,0.0,0.0,0.0,0.0,0.0,0.0,0.0,0.0,0.0,0.0,0.0,0.0,0.0,0.0,0.0,0.0,0.0,0.0,0.0,0.0,0.0,0.0,0.0,0.0,0.0,0.0,0.0,0.0,0.0,0.0,0.0,0.0,0.0,0.0,0.0,0.0,0.0,0.0,0.0,0.0,0.0,0.0,0.0,0.0,0.0,0.0
1783390630.228276,0.681449294090271,0.7353112697601318,-4.0772707166070177e-07,0.6422812342643738,0.6666903495788574,0.010491512715816498,0.6337375044822693,0.5919891595840454,0.014198992401361465,0.6287357807159424,0.5381389260292053,0.012701872736215591,0.6260060667991638,0.49374204874038696,0.010660235770046711,0.6661790013313293,0.5360526442527771,0.024637680500745773,0.622372031211853,0.5205651521682739,0.015064012259244919,0.5910289883613586,0.5278317332267761,0.002942320192232728,0.5634995102882385,0.5309205055236816,-0.004409290850162506,0.6774065494537354,0.534694254398346,0.012915462255477905,0.620793342590332,0.5204584002494812,0.006027949508279562,0.5859381556510925,0.5305877327919006,-0.005075143184512854,0.557733416557312,0.5394381284713745,-0.012412991374731064,0.6827012300491333,0.5455502271652222,-0.00025294290389865637,0.6246023178100586,0.5311351418495178,-0.006706828251481056,0.5899814963340759,0.5393068790435791,-0.012089541181921959,0.5634319186210632,0.545138955116272,-0.014952806755900383,0.6808954477310181,0.5649170875549316,-0.013341166079044342,0.6353433728218079,0.5501833558082581,-0.015887180343270302,0.6120458245277405,0.5483793616294861,-0.01626577414572239,0.5929718017578125,0.5443834066390991,-0.015866627916693687,0.0,0.0,0.0,0.0,0.0,0.0,0.0,0.0,0.0,0.0,0.0,0.0,0.0,0.0,0.0,0.0,0.0,0.0,0.0,0.0,0.0,0.0,0.0,0.0,0.0,0.0,0.0,0.0,0.0,0.0,0.0,0.0,0.0,0.0,0.0,0.0,0.0,0.0,0.0,0.0,0.0,0.0,0.0,0.0,0.0,0.0,0.0,0.0,0.0,0.0,0.0,0.0,0.0,0.0,0.0,0.0,0.0,0.0,0.0,0.0,0.0,0.0,0.0
1783390630.371728,0.6827265024185181,0.7351266145706177,-4.114291982659779e-07,0.642766535282135,0.6659847497940063,0.011386317200958729,0.6354292631149292,0.5923902988433838,0.014477500692009926,0.6311929225921631,0.5378710031509399,0.01217169314622879,0.6281741857528687,0.4920405149459839,0.009216014295816422,0.6693170666694641,0.535957396030426,0.02479502558708191,0.6243595480918884,0.5199853777885437,0.014769980683922768,0.5926319360733032,0.5275769829750061,0.0021281875669956207,0.5648090243339539,0.5303713083267212,-0.005602207500487566,0.6801352500915527,0.5347926020622253,0.012244869023561478,0.6227111220359802,0.5191931128501892,0.0052388799376785755,0.5869039297103882,0.5295236706733704,-0.006116962060332298,0.5581854581832886,0.5387030243873596,-0.013959036208689213,0.6843866109848022,0.5458553433418274,-0.001698120147921145,0.6255428194999695,0.5299413204193115,-0.007861357182264328,0.5903491973876953,0.5381701588630676,-0.01305942703038454,0.5640108585357666,0.5436996817588806,-0.016249168664216995,0.6814903020858765,0.5652663707733154,-0.015504168346524239,0.6353380680084229,0.549189567565918,-0.017627889290452003,0.6120839715003967,0.5478834509849548,-0.01769060268998146,0.5934867858886719,0.5441160798072815,-0.017413444817066193,0.0,0.0,0.0,0.0,0.0,0.0,0.0,0.0,0.0,0.0,0.0,0.0,0.0,0.0,0.0,0.0,0.0,0.0,0.0,0.0,0.0,0.0,0.0,0.0,0.0,0.0,0.0,0.0,0.0,0.0,0.0,0.0,0.0,0.0,0.0,0.0,0.0,0.0,0.0,0.0,0.0,0.0,0.0,0.0,0.0,0.0,0.0,0.0,0.0,0.0,0.0,0.0,0.0,0.0,0.0,0.0,0.0,0.0,0.0,0.0,0.0,0.0,0.0
1783390630.5311968,0.6821451187133789,0.7360889315605164,-4.2323026150370424e-07,0.6431657671928406,0.6661694049835205,0.012397351674735546,0.6361297369003296,0.5917089581489563,0.015962880104780197,0.6317164301872253,0.5382624864578247,0.014019744470715523,0.629184901714325,0.4935570955276489,0.011330433189868927,0.6702863574028015,0.5373425483703613,0.02488349750638008,0.6246738433837891,0.5197085738182068,0.01516084372997284,0.592947244644165,0.5272863507270813,0.0027712166775017977,0.5657166838645935,0.5303618311882019,-0.004873193334788084,0.6808527708053589,0.5366038084030151,0.011865932494401932,0.6229286789894104,0.5205482840538025,0.0051429495215415955,0.5880259871482849,0.5304197072982788,-0.0059383031912148,0.560267984867096,0.5385416746139526,-0.01366446353495121,0.6848543286323547,0.5475379228591919,-0.0023978925310075283,0.6250174045562744,0.5302253365516663,-0.008196583017706871,0.5896382927894592,0.5370878577232361,-0.013313193805515766,0.5631555914878845,0.5408710241317749,-0.01664256677031517,0.6814590692520142,0.5667836666107178,-0.01642596162855625,0.6332764625549316,0.550971508026123,-0.018574656918644905,0.6086490154266357,0.5510610938072205,-0.018681254237890244,0.5890481472015381,0.5485008955001831,-0.018455181270837784,0.0,0.0,0.0,0.0,0.0,0.0,0.0,0.0,0.0,0.0,0.0,0.0,0.0,0.0,0.0,0.0,0.0,0.0,0.0,0.0,0.0,0.0,0.0,0.0,0.0,0.0,0.0,0.0,0.0,0.0,0.0,0.0,0.0,0.0,0.0,0.0,0.0,0.0,0.0,0.0,0.0,0.0,0.0,0.0,0.0,0.0,0.0,0.0,0.0,0.0,0.0,0.0,0.0,0.0,0.0,0.0,0.0,0.0,0.0,0.0,0.0,0.0,0.0
1783390630.6622589,0.6831903457641602,0.73732990026474,-4.2547199541331793e-07,0.6431271433830261,0.6672530770301819,0.01160410325974226,0.6365573406219482,0.5935376882553101,0.014743072912096977,0.6323661804199219,0.5395804643630981,0.012445172294974327,0.6299142837524414,0.49421629309654236,0.00946098007261753,0.6712049245834351,0.5388238430023193,0.024347050115466118,0.6258024573326111,0.5203731060028076,0.01421545259654522,0.594214677810669,0.5275320410728455,0.001537646516226232,0.5670879483222961,0.5302280187606812,-0.006225480232387781,0.6821200847625732,0.5381129384040833,0.011659299954771996,0.6243036389350891,0.5215443968772888,0.004712671972811222,0.588721752166748,0.5312373042106628,-0.006608865689486265,0.5604950785636902,0.5391399264335632,-0.014591651037335396,0.6863301992416382,0.5490363240242004,-0.0023844996467232704,0.6266377568244934,0.5315821170806885,-0.008354478515684605,0.591200590133667,0.5388981699943542,-0.013761665672063828,0.5650582313537598,0.5433651804924011,-0.017346207052469254,0.6830260157585144,0.5680133104324341,-0.016276532784104347,0.6350212693214417,0.5518566966056824,-0.018481459468603134,0.6106224060058594,0.5520399212837219,-0.018816262483596802,0.5914972424507141,0.5503019690513611,-0.018816841766238213,0.0,0.0,0.0,0.0,0.0,0.0,0.0,0.0,0.0,0.0,0.0,0.0,0.0,0.0,0.0,0.0,0.0,0.0,0.0,0.0,0.0,0.0,0.0,0.0,0.0,0.0,0.0,0.0,0.0,0.0,0.0,0.0,0.0,0.0,0.0,0.0,0.0,0.0,0.0,0.0,0.0,0.0,0.0,0.0,0.0,0.0,0.0,0.0,0.0,0.0,0.0,0.0,0.0,0.0,0.0,0.0,0.0,0.0,0.0,0.0,0.0,0.0,0.0
1783390630.88357,0.6838095784187317,0.7368394136428833,-4.255877854575374e-07,0.6451930999755859,0.6678566932678223,0.013579223304986954,0.6385341882705688,0.5937395691871643,0.017824571579694748,0.6341217160224915,0.5398404002189636,0.016229813918471336,0.6303553581237793,0.49383559823036194,0.01384951826184988,0.6714362502098083,0.5372262001037598,0.02688964270055294,0.6267132759094238,0.5199347734451294,0.01770816370844841,0.5949413776397705,0.5275402069091797,0.005562005564570427,0.5676582455635071,0.5301492810249329,-0.001909026876091957,0.6823796033859253,0.5365924835205078,0.01331802736967802,0.6254398226737976,0.5207297205924988,0.007534250617027283,0.589545726776123,0.5295445919036865,-0.0029555605724453926,0.5611635446548462,0.5377098321914673,-0.010371769778430462,0.686414897441864,0.5481261014938354,-0.0015536316204816103,0.6273478865623474,0.5303325057029724,-0.006759342271834612,0.5916352868080139,0.5371766686439514,-0.011349854990839958,0.5653963088989258,0.5414766073226929,-0.014398502185940742,0.6832325458526611,0.5675750970840454,-0.01616046205163002,0.6353128552436829,0.5517692565917969,-0.018109697848558426,0.6109020113945007,0.5514466166496277,-0.017995135858654976,0.5920571088790894,0.548386812210083,-0.017587343230843544,0.0,0.0,0.0,0.0,0.0,0.0,0.0,0.0,0.0,0.0,0.0,0.0,0.0,0.0,0.0,0.0,0.0,0.0,0.0,0.0,0.0,0.0,0.0,0.0,0.0,0.0,0.0,0.0,0.0,0.0,0.0,0.0,0.0,0.0,0.0,0.0,0.0,0.0,0.0,0.0,0.0,0.0,0.0,0.0,0.0,0.0,0.0,0.0,0.0,0.0,0.0,0.0,0.0,0.0,0.0,0.0,0.0,0.0,0.0,0.0,0.0,0.0,0.0
1783390631.1386292,0.6846129894256592,0.7370966076850891,-4.149173093992431e-07,0.6456570029258728,0.6677894592285156,0.012995944358408451,0.6390619277954102,0.5928182601928711,0.017169218510389328,0.6348096132278442,0.5384331941604614,0.015667801722884178,0.6316050291061401,0.4928736984729767,0.013398817740380764,0.672264814376831,0.5361719131469727,0.026537291705608368,0.6276575326919556,0.5190783143043518,0.01802937313914299,0.5959634780883789,0.5263907313346863,0.006374102085828781,0.5687353610992432,0.5281901955604553,-0.0009103814954869449,0.6830082535743713,0.5352599024772644,0.013355919159948826,0.6261659860610962,0.5192916989326477,0.008063342422246933,0.5901601910591125,0.528071939945221,-0.0024908799678087234,0.5615660548210144,0.5354604721069336,-0.010077049024403095,0.6868971586227417,0.5472594499588013,-0.0010904817609116435,0.6281465888023376,0.5302802324295044,-0.0061719645746052265,0.5922918319702148,0.5365819334983826,-0.011317872442305088,0.5655683279037476,0.5398735404014587,-0.014783897437155247,0.683364748954773,0.5674114227294922,-0.015249175950884819,0.6365020871162415,0.5500548481941223,-0.016803065314888954,0.6126813292503357,0.5485490560531616,-0.016746103763580322,0.5939231514930725,0.544557511806488,-0.016543574631214142,0.0,0.0,0.0,0.0,0.0,0.0,0.0,0.0,0.0,0.0,0.0,0.0,0.0,0.0,0.0,0.0,0.0,0.0,0.0,0.0,0.0,0.0,0.0,0.0,0.0,0.0,0.0,0.0,0.0,0.0,0.0,0.0,0.0,0.0,0.0,0.0,0.0,0.0,0.0,0.0,0.0,0.0,0.0,0.0,0.0,0.0,0.0,0.0,0.0,0.0,0.0,0.0,0.0,0.0,0.0,0.0,0.0,0.0,0.0,0.0,0.0,0.0,0.0
1783390631.397527,0.6858370900154114,0.735801637172699,-4.2534480826361687e-07,0.6470057368278503,0.6653289794921875,0.01461220346391201,0.6404721140861511,0.5914779901504517,0.019070008769631386,0.6360936164855957,0.5378009080886841,0.017430143430829048,0.6328514814376831,0.4917025864124298,0.014999250881373882,0.6735403537750244,0.5348659157752991,0.028687600046396255,0.6284711956977844,0.5171736478805542,0.019932689145207405,0.5965390205383301,0.5253029465675354,0.0077913738787174225,0.5690909624099731,0.5283311605453491,0.00028307794127613306,0.6841175556182861,0.5336904525756836,0.014529820531606674,0.6270159482955933,0.5182325839996338,0.00911407545208931,0.591022789478302,0.5276103615760803,-0.0019936352036893368,0.5624461770057678,0.5353202223777771,-0.009967404417693615,0.6876605749130249,0.544914186000824,-0.0008618011488579214,0.6284160017967224,0.5290380716323853,-0.005655321758240461,0.5924912691116333,0.5362697243690491,-0.011006971821188927,0.5658699870109558,0.5398339629173279,-0.014740483835339546,0.6841710209846497,0.5639476776123047,-0.015858327969908714,0.6362724304199219,0.547661304473877,-0.01696581393480301,0.6120949387550354,0.5473631620407104,-0.01673300378024578,0.5932338237762451,0.5436995625495911,-0.016508299857378006,0.0,0.0,0.0,0.0,0.0,0.0,0.0,0.0,0.0,0.0,0.0,0.0,0.0,0.0,0.0,0.0,0.0,0.0,0.0,0.0,0.0,0.0,0.0,0.0,0.0,0.0,0.0,0.0,0.0,0.0,0.0,0.0,0.0,0.0,0.0,0.0,0.0,0.0,0.0,0.0,0.0,0.0,0.0,0.0,0.0,0.0,0.0,0.0,0.0,0.0,0.0,0.0,0.0,0.0,0.0,0.0,0.0,0.0,0.0,0.0,0.0,0.0,0.0
1783390631.6658719,0.6865327954292297,0.7366941571235657,-4.414860370616225e-07,0.6469364166259766,0.6659752726554871,0.014246606267988682,0.6409289240837097,0.5925734639167786,0.017962299287319183,0.6365967392921448,0.539698600769043,0.015667911618947983,0.6329051852226257,0.49393799901008606,0.012482753954827785,0.6756377220153809,0.5366045832633972,0.026791628450155258,0.6293085217475891,0.517766535282135,0.016790686175227165,0.5969371199607849,0.5259394645690918,0.003720591077581048,0.5690181255340576,0.530151903629303,-0.004310190677642822,0.6858243346214294,0.5361829996109009,0.012608787044882774,0.6269702315330505,0.518923282623291,0.006384203676134348,0.5905762910842896,0.5287325978279114,-0.005176670383661985,0.5617940425872803,0.5368121862411499,-0.01369911152869463,0.6889283061027527,0.5468949675559998,-0.002788274548947811,0.6281548738479614,0.528419017791748,-0.007750046439468861,0.5920828580856323,0.5363173484802246,-0.013290000148117542,0.5654588937759399,0.5411341190338135,-0.017479918897151947,0.6848819255828857,0.5654685497283936,-0.01786084473133087,0.6356526613235474,0.5496270656585693,-0.019192051142454147,0.6106263399124146,0.55051589012146,-0.019301149994134903,0.5909254550933838,0.5483090877532959,-0.01951151341199875,0.0,0.0,0.0,0.0,0.0,0.0,0.0,0.0,0.0,0.0,0.0,0.0,0.0,0.0,0.0,0.0,0.0,0.0,0.0,0.0,0.0,0.0,0.0,0.0,0.0,0.0,0.0,0.0,0.0,0.0,0.0,0.0,0.0,0.0,0.0,0.0,0.0,0.0,0.0,0.0,0.0,0.0,0.0,0.0,0.0,0.0,0.0,0.0,0.0,0.0,0.0,0.0,0.0,0.0,0.0,0.0,0.0,0.0,0.0,0.0,0.0,0.0,0.0
1783390631.918407,0.6879623532295227,0.738470733165741,-4.297891393889586e-07,0.6483257412910461,0.6671419143676758,0.013570511713624,0.6428874135017395,0.5932865142822266,0.017612842842936516,0.6386820077896118,0.5397234559059143,0.01578899845480919,0.635968029499054,0.49503421783447266,0.013138712383806705,0.6759161949157715,0.5386597514152527,0.02679474838078022,0.6318373680114746,0.5182628631591797,0.01767694391310215,0.6004682779312134,0.5261760950088501,0.005416428204625845,0.5731611847877502,0.529468297958374,-0.0021450696513056755,0.6863738298416138,0.5377408862113953,0.013383597135543823,0.6293595433235168,0.519673228263855,0.007807633373886347,0.5934886932373047,0.5279606580734253,-0.0035268666688352823,0.5647109746932983,0.5347748398780823,-0.011954945512115955,0.6903366446495056,0.5479421615600586,-0.0012850533239543438,0.6313226222991943,0.5301187634468079,-0.0060132816433906555,0.5956330895423889,0.5368638038635254,-0.012074429541826248,0.568908154964447,0.541343092918396,-0.016610313206911087,0.6869905591011047,0.5660024285316467,-0.015621376223862171,0.6388155221939087,0.5495961308479309,-0.01654372364282608,0.6137089729309082,0.5500152707099915,-0.016833752393722534,0.5935530662536621,0.5483247637748718,-0.017276393249630928,0.0,0.0,0.0,0.0,0.0,0.0,0.0,0.0,0.0,0.0,0.0,0.0,0.0,0.0,0.0,0.0,0.0,0.0,0.0,0.0,0.0,0.0,0.0,0.0,0.0,0.0,0.0,0.0,0.0,0.0,0.0,0.0,0.0,0.0,0.0,0.0,0.0,0.0,0.0,0.0,0.0,0.0,0.0,0.0,0.0,0.0,0.0,0.0,0.0,0.0,0.0,0.0,0.0,0.0,0.0,0.0,0.0,0.0,0.0,0.0,0.0,0.0,0.0
1783390632.105061,0.6888592839241028,0.7381436824798584,-4.2760777319017507e-07,0.6499630212783813,0.6659215092658997,0.013886386528611183,0.6440656781196594,0.5919474363327026,0.01787148229777813,0.6398119926452637,0.5381501913070679,0.015916023403406143,0.6367497444152832,0.4923458993434906,0.013140731491148472,0.6771712303161621,0.536727786064148,0.027354447171092033,0.6323965787887573,0.5175625085830688,0.01797182485461235,0.6004921793937683,0.5252588987350464,0.005434170365333557,0.5726544260978699,0.5287959575653076,-0.0022896379232406616,0.6875994801521301,0.535813570022583,0.013609097339212894,0.6300713419914246,0.5188784003257751,0.007007368374615908,0.5941445231437683,0.5284709930419922,-0.0047462633810937405,0.5654826164245605,0.5362976789474487,-0.01297774724662304,0.6915382742881775,0.5470944046974182,-0.0013080502394586802,0.6318462491035461,0.529345691204071,-0.00691739097237587,0.5966062545776367,0.5368415117263794,-0.012484479695558548,0.5704399347305298,0.5409886240959167,-0.016158074140548706,0.6885719299316406,0.5665518641471863,-0.015850454568862915,0.6414750218391418,0.5483011603355408,-0.017454151064157486,0.6181970834732056,0.5471232533454895,-0.017336292192339897,0.5999730825424194,0.543081521987915,-0.01709170825779438,0.0,0.0,0.0,0.0,0.0,0.0,0.0,0.0,0.0,0.0,0.0,0.0,0.0,0.0,0.0,0.0,0.0,0.0,0.0,0.0,0.0,0.0,0.0,0.0,0.0,0.0,0.0,0.0,0.0,0.0,0.0,0.0,0.0,0.0,0.0,0.0,0.0,0.0,0.0,0.0,0.0,0.0,0.0,0.0,0.0,0.0,0.0,0.0,0.0,0.0,0.0,0.0,0.0,0.0,0.0,0.0,0.0,0.0,0.0,0.0,0.0,0.0,0.0
1783390632.3070679,0.6885080337524414,0.7381658554077148,-4.2610525952113676e-07,0.6495334506034851,0.6663516759872437,0.013271537609398365,0.6436224579811096,0.5927914977073669,0.017099542543292046,0.6391711831092834,0.5389153957366943,0.01520973164588213,0.6357583403587341,0.4934428036212921,0.012507894076406956,0.6780600547790527,0.5381553769111633,0.02615037001669407,0.6334592700004578,0.5196561217308044,0.01700180023908615,0.6016064882278442,0.5267342925071716,0.004782631993293762,0.5740538835525513,0.5291979908943176,-0.0028412723913788795,0.6882244944572449,0.537549614906311,0.01289506908506155,0.6308417320251465,0.5204066634178162,0.006777292117476463,0.5951741337776184,0.5292001962661743,-0.004507947713136673,0.5667208433151245,0.5358392596244812,-0.012696261517703533,0.6920081973075867,0.5487232208251953,-0.0015214885352179408,0.6327573657035828,0.5303435921669006,-0.006842064671218395,0.597669243812561,0.5372791290283203,-0.012378714978694916,0.5713916420936584,0.5410784482955933,-0.01627734676003456,0.6887603402137756,0.5676725506782532,-0.01561175100505352,0.6419855356216431,0.5500816106796265,-0.017365414649248123,0.6180530190467834,0.5494577288627625,-0.017612313851714134,0.5987938046455383,0.546379029750824,-0.017715945839881897,0.0,0.0,0.0,0.0,0.0,0.0,0.0,0.0,0.0,0.0,0.0,0.0,0.0,0.0,0.0,0.0,0.0,0.0,0.0,0.0,0.0,0.0,0.0,0.0,0.0,0.0,0.0,0.0,0.0,0.0,0.0,0.0,0.0,0.0,0.0,0.0,0.0,0.0,0.0,0.0,0.0,0.0,0.0,0.0,0.0,0.0,0.0,0.0,0.0,0.0,0.0,0.0,0.0,0.0,0.0,0.0,0.0,0.0,0.0,0.0,0.0,0.0,0.0
1783390632.464534,0.689191997051239,0.7378829717636108,-4.1499998815197614e-07,0.6505853533744812,0.6685110926628113,0.013418450951576233,0.644426167011261,0.5940622687339783,0.017501598224043846,0.6402493715286255,0.5396660566329956,0.01583855412900448,0.6366444230079651,0.49351975321769714,0.01348445750772953,0.6780533194541931,0.5370859503746033,0.026399478316307068,0.6334535479545593,0.5185403823852539,0.01741485297679901,0.6013216376304626,0.5253843069076538,0.005424083210527897,0.5738669633865356,0.527470588684082,-0.0020139990374445915,0.6883777379989624,0.5366877913475037,0.01285792887210846,0.6317797899246216,0.5184780359268188,0.0069788065738976,0.5960002541542053,0.5271116495132446,-0.0036672158166766167,0.5678106546401978,0.5343873500823975,-0.01123119331896305,0.6918133497238159,0.5488131642341614,-0.0019284317968413234,0.6329094767570496,0.5291277766227722,-0.007456133142113686,0.5972433090209961,0.5353763699531555,-0.012577912770211697,0.5711097121238708,0.5384582281112671,-0.01597893238067627,0.688261091709137,0.5686982870101929,-0.016371048986911774,0.6419258117675781,0.547595202922821,-0.01831229403614998,0.6186180114746094,0.5454362034797668,-0.01825404167175293,0.6007274389266968,0.5410106778144836,-0.01803944818675518,0.0,0.0,0.0,0.0,0.0,0.0,0.0,0.0,0.0,0.0,0.0,0.0,0.0,0.0,0.0,0.0,0.0,0.0,0.0,0.0,0.0,0.0,0.0,0.0,0.0,0.0,0.0,0.0,0.0,0.0,0.0,0.0,0.0,0.0,0.0,0.0,0.0,0.0,0.0,0.0,0.0,0.0,0.0,0.0,0.0,0.0,0.0,0.0,0.0,0.0,0.0,0.0,0.0,0.0,0.0,0.0,0.0,0.0,0.0,0.0,0.0,0.0,0.0
1783390632.629326,0.6869052052497864,0.7337728142738342,-4.1760603153306874e-07,0.6493596434593201,0.6619230508804321,0.012070062570273876,0.6442441344261169,0.5863600969314575,0.015844812616705894,0.6409475207328796,0.5330184698104858,0.01395874097943306,0.639514148235321,0.48838236927986145,0.011306585744023323,0.6788403391838074,0.5332507491111755,0.02610738016664982,0.6339826583862305,0.5139585733413696,0.01622804068028927,0.6011548638343811,0.5197110772132874,0.003483882173895836,0.5726298093795776,0.522027850151062,-0.004298137500882149,0.6883811354637146,0.5331113338470459,0.013043218292295933,0.6309897899627686,0.5120730400085449,0.006765688303858042,0.5941802263259888,0.5199912190437317,-0.004853890277445316,0.5646301507949829,0.5275854468345642,-0.013158183544874191,0.6913372874259949,0.5444511771202087,-0.0015219594351947308,0.6323438286781311,0.5243117809295654,-0.007482779212296009,0.5952721238136292,0.5291159152984619,-0.014035411179065704,0.5671789646148682,0.5320765376091003,-0.01835237815976143,0.6872092485427856,0.5636383891105652,-0.015856776386499405,0.6394444108009338,0.5437239408493042,-0.017647406086325645,0.614181637763977,0.5412113070487976,-0.018302462995052338,0.5938916802406311,0.5372163653373718,-0.018802722916007042,0.0,0.0,0.0,0.0,0.0,0.0,0.0,0.0,0.0,0.0,0.0,0.0,0.0,0.0,0.0,0.0,0.0,0.0,0.0,0.0,0.0,0.0,0.0,0.0,0.0,0.0,0.0,0.0,0.0,0.0,0.0,0.0,0.0,0.0,0.0,0.0,0.0,0.0,0.0,0.0,0.0,0.0,0.0,0.0,0.0,0.0,0.0,0.0,0.0,0.0,0.0,0.0,0.0,0.0,0.0,0.0,0.0,0.0,0.0,0.0,0.0,0.0,0.0
1783390632.7668009,0.6880878806114197,0.7314538955688477,-4.3876144673049566e-07,0.6490324139595032,0.6585590839385986,0.015286821871995926,0.6463239789009094,0.583173930644989,0.01953047141432762,0.6440681219100952,0.5297581553459167,0.018065204843878746,0.6433794498443604,0.48549193143844604,0.01557517796754837,0.6817969083786011,0.5283297896385193,0.02493666484951973,0.6335015892982483,0.5087270736694336,0.016706224530935287,0.6008363366127014,0.5198730826377869,0.005013282410800457,0.5735344290733337,0.5249384641647339,-0.002157151000574231,0.6900501847267151,0.529253363609314,0.011523442342877388,0.6295996308326721,0.5132283568382263,0.007508536335080862,0.5935276746749878,0.5223758220672607,-0.002928005298599601,0.5652056336402893,0.5277872681617737,-0.01129220798611641,0.6905626058578491,0.5416892170906067,-0.0025710510089993477,0.6290990710258484,0.5239353179931641,-0.005445166956633329,0.5933393239974976,0.5289350748062134,-0.010879719629883766,0.5671272873878479,0.531151294708252,-0.015659984201192856,0.6839461326599121,0.5597425103187561,-0.016106994822621346,0.6348264813423157,0.542649507522583,-0.015252459794282913,0.6099439263343811,0.5419380068778992,-0.014972241595387459,0.5902271866798401,0.5380377769470215,-0.015471372753381729,0.0,0.0,0.0,0.0,0.0,0.0,0.0,0.0,0.0,0.0,0.0,0.0,0.0,0.0,0.0,0.0,0.0,0.0,0.0,0.0,0.0,0.0,0.0,0.0,0.0,0.0,0.0,0.0,0.0,0.0,0.0,0.0,0.0,0.0,0.0,0.0,0.0,0.0,0.0,0.0,0.0,0.0,0.0,0.0,0.0,0.0,0.0,0.0,0.0,0.0,0.0,0.0,0.0,0.0,0.0,0.0,0.0,0.0,0.0,0.0,0.0,0.0,0.0
1783390632.9298282,0.6872846484184265,0.7293028235435486,-4.823746735382883e-07,0.6504883170127869,0.6557772159576416,0.017765222117304802,0.6503486037254333,0.5804402232170105,0.022976594045758247,0.6505075097084045,0.5273035168647766,0.022557124495506287,0.6505845189094543,0.4833562970161438,0.02024231106042862,0.6855865716934204,0.5246999859809875,0.02425985038280487,0.6313177943229675,0.5102994441986084,0.016965024173259735,0.5966861844062805,0.5224578380584717,0.005454946309328079,0.5672268867492676,0.5283728241920471,-0.0016012121923267841,0.6916415095329285,0.5274485349655151,0.010558187030255795,0.6251261234283447,0.5147078037261963,0.006886343006044626,0.5872893333435059,0.5260618925094604,-0.004475146532058716,0.5569604635238647,0.5325931906700134,-0.013778620399534702,0.6890021562576294,0.5400829911231995,-0.003044768236577511,0.6236248016357422,0.5262750387191772,-0.005406814627349377,0.5885056853294373,0.5333831310272217,-0.012194485403597355,0.5620607733726501,0.5366535186767578,-0.018344691023230553,0.6800376176834106,0.55608731508255,-0.015578184276819229,0.6285586357116699,0.5428084135055542,-0.0144526157528162,0.6045042872428894,0.5473076701164246,-0.01434323750436306,0.5851713418960571,0.544988214969635,-0.015153750777244568,0.0,0.0,0.0,0.0,0.0,0.0,0.0,0.0,0.0,0.0,0.0,0.0,0.0,0.0,0.0,0.0,0.0,0.0,0.0,0.0,0.0,0.0,0.0,0.0,0.0,0.0,0.0,0.0,0.0,0.0,0.0,0.0,0.0,0.0,0.0,0.0,0.0,0.0,0.0,0.0,0.0,0.0,0.0,0.0,0.0,0.0,0.0,0.0,0.0,0.0,0.0,0.0,0.0,0.0,0.0,0.0,0.0,0.0,0.0,0.0,0.0,0.0,0.0
1783390633.098971,0.6890445947647095,0.7259507179260254,-4.5175406171438226e-07,0.6541657447814941,0.6575891375541687,0.010943827219307423,0.6549944281578064,0.5793277025222778,0.013259897008538246,0.6570178270339966,0.522575318813324,0.01174289919435978,0.656755805015564,0.4778202474117279,0.008636623620986938,0.689055323600769,0.5241079330444336,0.013946938328444958,0.6346334218978882,0.5097140669822693,0.005386922508478165,0.6002578735351562,0.5230845212936401,-0.005419774446636438,0.572306752204895,0.5308637022972107,-0.011537795886397362,0.6928958296775818,0.5284077525138855,0.00421869894489646,0.6275644898414612,0.5140622854232788,-0.0007271860959008336,0.5904453992843628,0.5256401896476746,-0.010472147725522518,0.5605127215385437,0.5330015420913696,-0.018198790028691292,0.6875672936439514,0.5422943234443665,-0.005541606340557337,0.6232136487960815,0.5264772176742554,-0.009241106919944286,0.5895545482635498,0.5332713723182678,-0.014656441286206245,0.5640051364898682,0.535834550857544,-0.019274918362498283,0.6754140853881836,0.5607025623321533,-0.014613356441259384,0.625247597694397,0.5442191362380981,-0.013838939368724823,0.6009560823440552,0.5460224151611328,-0.013147334568202496,0.5811430215835571,0.5416540503501892,-0.013321023434400558,0.0,0.0,0.0,0.0,0.0,0.0,0.0,0.0,0.0,0.0,0.0,0.0,0.0,0.0,0.0,0.0,0.0,0.0,0.0,0.0,0.0,0.0,0.0,0.0,0.0,0.0,0.0,0.0,0.0,0.0,0.0,0.0,0.0,0.0,0.0,0.0,0.0,0.0,0.0,0.0,0.0,0.0,0.0,0.0,0.0,0.0,0.0,0.0,0.0,0.0,0.0,0.0,0.0,0.0,0.0,0.0,0.0,0.0,0.0,0.0,0.0,0.0,0.0
1783390633.273501,0.6893448233604431,0.7255993485450745,-4.7544423864565033e-07,0.6534022092819214,0.6566178202629089,0.015114647336304188,0.6548665165901184,0.580837070941925,0.018748588860034943,0.6569764614105225,0.5252828001976013,0.017518112435936928,0.6566957831382751,0.4813683331012726,0.014491255395114422,0.6904358267784119,0.5233179330825806,0.017469322308897972,0.6358558535575867,0.5096068382263184,0.009249269030988216,0.6015087962150574,0.5222529768943787,-0.0016614202177152038,0.5730654001235962,0.5285286903381348,-0.008042982779443264,0.6950628757476807,0.526828944683075,0.005254492163658142,0.6293677687644958,0.5123019218444824,0.001117516658268869,0.5917112231254578,0.5233572125434875,-0.008051822893321514,0.5615015029907227,0.5309079885482788,-0.01563267968595028,0.6902903914451599,0.5404298901557922,-0.006824736949056387,0.6258174777030945,0.5231409072875977,-0.009855124168097973,0.5917836427688599,0.5308713316917419,-0.014530984684824944,0.5663500428199768,0.5345485806465149,-0.01890747807919979,0.6784585118293762,0.5592097640037537,-0.017998382449150085,0.6282709836959839,0.5426895022392273,-0.017245415598154068,0.6042495369911194,0.5451862812042236,-0.016380447894334793,0.5849658846855164,0.5420343279838562,-0.016465282067656517,0.0,0.0,0.0,0.0,0.0,0.0,0.0,0.0,0.0,0.0,0.0,0.0,0.0,0.0,0.0,0.0,0.0,0.0,0.0,0.0,0.0,0.0,0.0,0.0,0.0,0.0,0.0,0.0,0.0,0.0,0.0,0.0,0.0,0.0,0.0,0.0,0.0,0.0,0.0,0.0,0.0,0.0,0.0,0.0,0.0,0.0,0.0,0.0,0.0,0.0,0.0,0.0,0.0,0.0,0.0,0.0,0.0,0.0,0.0,0.0,0.0,0.0,0.0
1783390633.444156,0.6817364692687988,0.7292934060096741,-4.620804929800215e-07,0.6434934139251709,0.6566080451011658,0.019403409212827682,0.6383496522903442,0.5885680317878723,0.02633230946958065,0.6343533992767334,0.538735568523407,0.025971414521336555,0.6306835412979126,0.49447694420814514,0.02425696887075901,0.67062908411026,0.5349218249320984,0.03543926402926445,0.6250429153442383,0.5173312425613403,0.02808661200106144,0.5931777358055115,0.5244264006614685,0.01615321636199951,0.5651806592941284,0.5265123844146729,0.008548969402909279,0.6809015274047852,0.5328517556190491,0.018789704889059067,0.6209894418716431,0.5154995918273926,0.01483006402850151,0.5855281949043274,0.523725688457489,0.003308812389150262,0.557302713394165,0.5296406745910645,-0.005278943106532097,0.6835460066795349,0.5415797829627991,0.0010413755662739277,0.6227918267250061,0.5210738778114319,-0.0025447914376854897,0.5862912535667419,0.5272796750068665,-0.008702515624463558,0.5593847632408142,0.5318448543548584,-0.013356988318264484,0.6795395612716675,0.5559934973716736,-0.01609097048640251,0.6295996904373169,0.5409795641899109,-0.017138956114649773,0.6035772562026978,0.5408226847648621,-0.01791013777256012,0.583118736743927,0.5378520488739014,-0.018550163134932518,0.0,0.0,0.0,0.0,0.0,0.0,0.0,0.0,0.0,0.0,0.0,0.0,0.0,0.0,0.0,0.0,0.0,0.0,0.0,0.0,0.0,0.0,0.0,0.0,0.0,0.0,0.0,0.0,0.0,0.0,0.0,0.0,0.0,0.0,0.0,0.0,0.0,0.0,0.0,0.0,0.0,0.0,0.0,0.0,0.0,0.0,0.0,0.0,0.0,0.0,0.0,0.0,0.0,0.0,0.0,0.0,0.0,0.0,0.0,0.0,0.0,0.0,0.0
1783390633.602327,0.6729540824890137,0.7309431433677673,-4.0596466988063185e-07,0.6335540413856506,0.6725554466247559,0.011146158911287785,0.6203445196151733,0.6018813848495483,0.018126903101801872,0.6138207912445068,0.5551973581314087,0.019325515255331993,0.61101895570755,0.5209848880767822,0.019636329263448715,0.6440953612327576,0.5531291365623474,0.02983418107032776,0.6159289479255676,0.5311897993087769,0.021150333806872368,0.589106023311615,0.5307822823524475,0.009635819122195244,0.5619408488273621,0.5307319164276123,0.002075141528621316,0.6564434170722961,0.5450834035873413,0.017903508618474007,0.6168859004974365,0.5209559798240662,0.008733302354812622,0.5856426358222961,0.5269869565963745,-0.004181867931038141,0.5566868185997009,0.5313565731048584,-0.011728527955710888,0.6690114736557007,0.546872079372406,0.004216551780700684,0.6235949993133545,0.5238175988197327,-0.006960384547710419,0.59203040599823,0.5309243202209473,-0.01655271276831627,0.5640616416931152,0.5360625982284546,-0.02090594917535782,0.6792752146720886,0.5576834678649902,-0.009086758829653263,0.6386212110519409,0.5420017242431641,-0.016947263851761818,0.6156900525093079,0.5406816601753235,-0.02114195004105568,0.5953587293624878,0.5380994081497192,-0.022816065698862076,0.0,0.0,0.0,0.0,0.0,0.0,0.0,0.0,0.0,0.0,0.0,0.0,0.0,0.0,0.0,0.0,0.0,0.0,0.0,0.0,0.0,0.0,0.0,0.0,0.0,0.0,0.0,0.0,0.0,0.0,0.0,0.0,0.0,0.0,0.0,0.0,0.0,0.0,0.0,0.0,0.0,0.0,0.0,0.0,0.0,0.0,0.0,0.0,0.0,0.0,0.0,0.0,0.0,0.0,0.0,0.0,0.0,0.0,0.0,0.0,0.0,0.0,0.0
1783390633.769257,0.6699690222740173,0.7336026430130005,-2.8533116847029305e-07,0.6260561347007751,0.6915926337242126,0.0014190536458045244,0.602525532245636,0.619836688041687,0.005119264591485262,0.5954138040542603,0.5670017004013062,0.005116636864840984,0.5933963060379028,0.5374083518981934,0.004679991863667965,0.6172698736190796,0.5824374556541443,0.024084383621811867,0.5978460907936096,0.5537814497947693,0.016844315454363823,0.5763999819755554,0.5475698113441467,0.006100512109696865,0.5536997318267822,0.5417342782020569,-0.0021742084063589573,0.6325267553329468,0.5669146776199341,0.017479851841926575,0.607292890548706,0.5377374887466431,0.008576796390116215,0.5843132734298706,0.5356098413467407,-0.0033000854309648275,0.5600681304931641,0.5323930978775024,-0.010810206644237041,0.6504921913146973,0.5604363679885864,0.008258257992565632,0.6234217286109924,0.525855541229248,-0.00280390540137887,0.6013407111167908,0.5275669693946838,-0.011709554120898247,0.5782420635223389,0.530816376209259,-0.016191568225622177,0.670434832572937,0.5605298280715942,-0.0014320982154458761,0.6396422982215881,0.5435699820518494,-0.010692054405808449,0.6193311214447021,0.5441089272499084,-0.015626372769474983,0.5996581315994263,0.544786274433136,-0.018099375069141388,0.0,0.0,0.0,0.0,0.0,0.0,0.0,0.0,0.0,0.0,0.0,0.0,0.0,0.0,0.0,0.0,0.0,0.0,0.0,0.0,0.0,0.0,0.0,0.0,0.0,0.0,0.0,0.0,0.0,0.0,0.0,0.0,0.0,0.0,0.0,0.0,0.0,0.0,0.0,0.0,0.0,0.0,0.0,0.0,0.0,0.0,0.0,0.0,0.0,0.0,0.0,0.0,0.0,0.0,0.0,0.0,0.0,0.0,0.0,0.0,0.0,0.0,0.0
1783390633.905792,0.668412446975708,0.7321340441703796,-2.504087888155482e-07,0.6263808608055115,0.6971456408500671,0.0037910512182861567,0.5998339056968689,0.6252866387367249,0.008972316049039364,0.5920723676681519,0.575766921043396,0.010489077307283878,0.5892067551612854,0.5513765811920166,0.011376758106052876,0.6116036176681519,0.5928645730018616,0.022217443212866783,0.5919225811958313,0.5603022575378418,0.01486425381153822,0.5716347694396973,0.552496612071991,0.004820625763386488,0.5508131384849548,0.5498443841934204,-0.0027794367633759975,0.6260568499565125,0.577110767364502,0.014605765230953693,0.6037731170654297,0.5478944778442383,0.004975518211722374,0.5824127793312073,0.5389139652252197,-0.0074227238073945045,0.559321939945221,0.5335189700126648,-0.015289409086108208,0.6442199945449829,0.5685205459594727,0.004859132692217827,0.6210893392562866,0.5361629128456116,-0.00664373766630888,0.6015443801879883,0.5316293239593506,-0.016441451385617256,0.5801810026168823,0.5318610668182373,-0.02158377505838871,0.6653706431388855,0.564107358455658,-0.004991909954696894,0.6372529864311218,0.5431392788887024,-0.015466736629605293,0.6175038814544678,0.5379831194877625,-0.02173055149614811,0.5985112190246582,0.5349248647689819,-0.025173474103212357,0.0,0.0,0.0,0.0,0.0,0.0,0.0,0.0,0.0,0.0,0.0,0.0,0.0,0.0,0.0,0.0,0.0,0.0,0.0,0.0,0.0,0.0,0.0,0.0,0.0,0.0,0.0,0.0,0.0,0.0,0.0,0.0,0.0,0.0,0.0,0.0,0.0,0.0,0.0,0.0,0.0,0.0,0.0,0.0,0.0,0.0,0.0,0.0,0.0,0.0,0.0,0.0,0.0,0.0,0.0,0.0,0.0,0.0,0.0,0.0,0.0,0.0,0.0
1783390634.0591848,0.6679397821426392,0.729900598526001,-2.1467698729793483e-07,0.6272802352905273,0.6977623701095581,0.0033774508628994226,0.5996877551078796,0.6277591586112976,0.008717809803783894,0.5943911075592041,0.5788173675537109,0.01078061480075121,0.5954235196113586,0.5512080788612366,0.012232327833771706,0.6114058494567871,0.5913764834403992,0.020679326727986336,0.5917519927024841,0.563318133354187,0.015379715710878372,0.5720973610877991,0.5537158250808716,0.007021785248070955,0.5522345900535583,0.5455977916717529,-0.0005505295703187585,0.6262907981872559,0.5741792917251587,0.01327313669025898,0.6036573052406311,0.5485706329345703,0.005498092155903578,0.5840938687324524,0.5402374863624573,-0.0051657091826200485,0.5625960230827332,0.5323343276977539,-0.012607977725565434,0.6447933316230774,0.5662723779678345,0.00391642889007926,0.6200511455535889,0.5336481928825378,-0.006270687095820904,0.6003119945526123,0.5289095640182495,-0.01437188871204853,0.5787891745567322,0.5267617702484131,-0.019192324951291084,0.6661249399185181,0.5644857287406921,-0.005654120817780495,0.6390451192855835,0.5445713996887207,-0.01663232035934925,0.6193712949752808,0.5396547913551331,-0.02293436974287033,0.600272536277771,0.5356416702270508,-0.026714755222201347,0.0,0.0,0.0,0.0,0.0,0.0,0.0,0.0,0.0,0.0,0.0,0.0,0.0,0.0,0.0,0.0,0.0,0.0,0.0,0.0,0.0,0.0,0.0,0.0,0.0,0.0,0.0,0.0,0.0,0.0,0.0,0.0,0.0,0.0,0.0,0.0,0.0,0.0,0.0,0.0,0.0,0.0,0.0,0.0,0.0,0.0,0.0,0.0,0.0,0.0,0.0,0.0,0.0,0.0,0.0,0.0,0.0,0.0,0.0,0.0,0.0,0.0,0.0
1783390634.197939,0.6687321066856384,0.7285871505737305,-2.1876422806599294e-07,0.627528190612793,0.6974487900733948,0.003504520747810602,0.5997538566589355,0.627074658870697,0.009020580910146236,0.5939443111419678,0.5781888961791992,0.01127244159579277,0.5948679447174072,0.550562858581543,0.01293095014989376,0.6112097501754761,0.5914150476455688,0.020973391830921173,0.5915572047233582,0.5634682774543762,0.015970002859830856,0.5719711184501648,0.5537877678871155,0.00782175362110138,0.5522674918174744,0.5455436110496521,0.0003343626158311963,0.6264436841011047,0.5739984512329102,0.013494553044438362,0.6036198735237122,0.5490885376930237,0.0059682331047952175,0.5838930010795593,0.5405177474021912,-0.004608151502907276,0.562262237071991,0.5320643782615662,-0.012056900188326836,0.6451987028121948,0.5660222172737122,0.004071323666721582,0.6200449466705322,0.533846914768219,-0.006077089346945286,0.6002412438392639,0.5285648107528687,-0.01420844066888094,0.5786625146865845,0.5256685614585876,-0.019076775759458542,0.6665923595428467,0.5641487836837769,-0.005533852148801088,0.6384631991386414,0.5444205403327942,-0.016674229875206947,0.6181765198707581,0.5397244691848755,-0.023028824478387833,0.5986596941947937,0.5356138944625854,-0.02683359570801258,0.0,0.0,0.0,0.0,0.0,0.0,0.0,0.0,0.0,0.0,0.0,0.0,0.0,0.0,0.0,0.0,0.0,0.0,0.0,0.0,0.0,0.0,0.0,0.0,0.0,0.0,0.0,0.0,0.0,0.0,0.0,0.0,0.0,0.0,0.0,0.0,0.0,0.0,0.0,0.0,0.0,0.0,0.0,0.0,0.0,0.0,0.0,0.0,0.0,0.0,0.0,0.0,0.0,0.0,0.0,0.0,0.0,0.0,0.0,0.0,0.0,0.0,0.0
1783390634.3958862,0.6702316999435425,0.7296808958053589,-2.0271750145184342e-07,0.6286860108375549,0.6966942548751831,0.0032952027395367622,0.6014765501022339,0.625576913356781,0.008790610358119011,0.5962818264961243,0.5761638879776001,0.011009461246430874,0.5971895456314087,0.5478731393814087,0.012661107815802097,0.6127474308013916,0.5926423668861389,0.02130572311580181,0.592593789100647,0.563485324382782,0.01642741821706295,0.5731151103973389,0.5530758500099182,0.008441172540187836,0.5535452961921692,0.5438637733459473,0.001109196455217898,0.628097414970398,0.5748633742332458,0.014024894684553146,0.6051503419876099,0.5486468076705933,0.006390331778675318,0.5858697891235352,0.5388303995132446,-0.004517694469541311,0.5648754239082336,0.5303060412406921,-0.012146675027906895,0.6467929482460022,0.566343367099762,0.004779272247105837,0.622981071472168,0.5329819321632385,-0.005678542889654636,0.6040884256362915,0.5283524990081787,-0.014314929023385048,0.5834208726882935,0.5272914171218872,-0.019298460334539413,0.6680402755737305,0.563681423664093,-0.0046075694262981415,0.6399229764938354,0.5437736511230469,-0.01583164744079113,0.6200383901596069,0.539106547832489,-0.022410372272133827,0.6010606288909912,0.535702109336853,-0.02627030573785305,0.0,0.0,0.0,0.0,0.0,0.0,0.0,0.0,0.0,0.0,0.0,0.0,0.0,0.0,0.0,0.0,0.0,0.0,0.0,0.0,0.0,0.0,0.0,0.0,0.0,0.0,0.0,0.0,0.0,0.0,0.0,0.0,0.0,0.0,0.0,0.0,0.0,0.0,0.0,0.0,0.0,0.0,0.0,0.0,0.0,0.0,0.0,0.0,0.0,0.0,0.0,0.0,0.0,0.0,0.0,0.0,0.0,0.0,0.0,0.0,0.0,0.0,0.0
1783390634.604046,0.6708562970161438,0.7302108407020569,-2.1384521176059934e-07,0.6299434900283813,0.6964351534843445,0.0033468897454440594,0.6039811372756958,0.6247082948684692,0.008354279212653637,0.5990784764289856,0.5741822719573975,0.00989292748272419,0.6000333428382874,0.5433844923973083,0.010860373266041279,0.6166394948959351,0.5914317965507507,0.02170107699930668,0.5952601432800293,0.5619866251945496,0.01605476811528206,0.5738607048988342,0.5530794262886047,0.007278699893504381,0.5526307225227356,0.5461324453353882,-0.0005059974500909448,0.631203293800354,0.57395339012146,0.014043447561562061,0.6069291830062866,0.545901358127594,0.00556238554418087,0.5860405564308167,0.5374358892440796,-0.006416392512619495,0.5641122460365295,0.5316920280456543,-0.014699874445796013,0.649125337600708,0.5655816197395325,0.004374958574771881,0.6238822340965271,0.5305946469306946,-0.006794211454689503,0.6029377579689026,0.5287097096443176,-0.016516949981451035,0.5811794400215149,0.53153395652771,-0.022120000794529915,0.6695634126663208,0.5629964470863342,-0.0054013398475945,0.6405457854270935,0.5447697639465332,-0.016960205510258675,0.6194239258766174,0.5426468849182129,-0.02417641691863537,0.5997358560562134,0.5418763160705566,-0.02848811447620392,0.0,0.0,0.0,0.0,0.0,0.0,0.0,0.0,0.0,0.0,0.0,0.0,0.0,0.0,0.0,0.0,0.0,0.0,0.0,0.0,0.0,0.0,0.0,0.0,0.0,0.0,0.0,0.0,0.0,0.0,0.0,0.0,0.0,0.0,0.0,0.0,0.0,0.0,0.0,0.0,0.0,0.0,0.0,0.0,0.0,0.0,0.0,0.0,0.0,0.0,0.0,0.0,0.0,0.0,0.0,0.0,0.0,0.0,0.0,0.0,0.0,0.0,0.0
