ciel274/research-hand-sign/data/raw/hiragana/sign_language_e_2.csv
timestamp,R_joint_0_x,R_joint_0_y,R_joint_0_z,R_joint_1_x,R_joint_1_y,R_joint_1_z,R_joint_2_x,R_joint_2_y,R_joint_2_z,R_joint_3_x,R_joint_3_y,R_joint_3_z,R_joint_4_x,R_joint_4_y,R_joint_4_z,R_joint_5_x,R_joint_5_y,R_joint_5_z,R_joint_6_x,R_joint_6_y,R_joint_6_z,R_joint_7_x,R_joint_7_y,R_joint_7_z,R_joint_8_x,R_joint_8_y,R_joint_8_z,R_joint_9_x,R_joint_9_y,R_joint_9_z,R_joint_10_x,R_joint_10_y,R_joint_10_z,R_joint_11_x,R_joint_11_y,R_joint_11_z,R_joint_12_x,R_joint_12_y,R_joint_12_z,R_joint_13_x,R_joint_13_y,R_joint_13_z,R_joint_14_x,R_joint_14_y,R_joint_14_z,R_joint_15_x,R_joint_15_y,R_joint_15_z,R_joint_16_x,R_joint_16_y,R_joint_16_z,R_joint_17_x,R_joint_17_y,R_joint_17_z,R_joint_18_x,R_joint_18_y,R_joint_18_z,R_joint_19_x,R_joint_19_y,R_joint_19_z,R_joint_20_x,R_joint_20_y,R_joint_20_z,L_joint_0_x,L_joint_0_y,L_joint_0_z,L_joint_1_x,L_joint_1_y,L_joint_1_z,L_joint_2_x,L_joint_2_y,L_joint_2_z,L_joint_3_x,L_joint_3_y,L_joint_3_z,L_joint_4_x,L_joint_4_y,L_joint_4_z,L_joint_5_x,L_joint_5_y,L_joint_5_z,L_joint_6_x,L_joint_6_y,L_joint_6_z,L_joint_7_x,L_joint_7_y,L_joint_7_z,L_joint_8_x,L_joint_8_y,L_joint_8_z,L_joint_9_x,L_joint_9_y,L_joint_9_z,L_joint_10_x,L_joint_10_y,L_joint_10_z,L_joint_11_x,L_joint_11_y,L_joint_11_z,L_joint_12_x,L_joint_12_y,L_joint_12_z,L_joint_13_x,L_joint_13_y,L_joint_13_z,L_joint_14_x,L_joint_14_y,L_joint_14_z,L_joint_15_x,L_joint_15_y,L_joint_15_z,L_joint_16_x,L_joint_16_y,L_joint_16_z,L_joint_17_x,L_joint_17_y,L_joint_17_z,L_joint_18_x,L_joint_18_y,L_joint_18_z,L_joint_19_x,L_joint_19_y,L_joint_19_z,L_joint_20_x,L_joint_20_y,L_joint_20_z
1783345133.230891,0.7084668874740601,0.7589386701583862,-1.0784042103750835e-07,0.6603323817253113,0.7384644746780396,-0.01289659645408392,0.6265193223953247,0.6605057120323181,-0.017816361039876938,0.6348267197608948,0.5945823788642883,-0.024472439661622047,0.6684831380844116,0.6011530160903931,-0.029569128528237343,0.6520655751228333,0.5510716438293457,0.0037671758327633142,0.6483782529830933,0.47347205877304077,-0.010703695006668568,0.6405841708183289,0.4722815155982971,-0.024164382368326187,0.6391108632087708,0.5045803189277649,-0.03205251693725586,0.6768928170204163,0.542008101940155,0.0008131994400173426,0.6751633286476135,0.45477554202079773,-0.015059600584208965,0.666020393371582,0.4629783630371094,-0.02671816013753414,0.6658133864402771,0.5080609321594238,-0.03092709556221962,0.7007688283920288,0.5470576882362366,-0.005727563053369522,0.7011055946350098,0.4678896963596344,-0.016976775601506233,0.6910651326179504,0.4731816053390503,-0.02420504204928875,0.6916571259498596,0.5145576000213623,-0.025861304253339767,0.7270243167877197,0.5615958571434021,-0.01469092071056366,0.7242605686187744,0.49202945828437805,-0.02210068143904209,0.7148622274398804,0.48665857315063477,-0.026184722781181335,0.7129353880882263,0.515526294708252,-0.027218855917453766,0.0,0.0,0.0,0.0,0.0,0.0,0.0,0.0,0.0,0.0,0.0,0.0,0.0,0.0,0.0,0.0,0.0,0.0,0.0,0.0,0.0,0.0,0.0,0.0,0.0,0.0,0.0,0.0,0.0,0.0,0.0,0.0,0.0,0.0,0.0,0.0,0.0,0.0,0.0,0.0,0.0,0.0,0.0,0.0,0.0,0.0,0.0,0.0,0.0,0.0,0.0,0.0,0.0,0.0,0.0,0.0,0.0,0.0,0.0,0.0,0.0,0.0,0.0
1783345133.531116,0.7084067463874817,0.7571519613265991,-1.0717494802747751e-07,0.6601737141609192,0.7367061972618103,-0.013250877149403095,0.6261705756187439,0.6609277129173279,-0.018548795953392982,0.634316086769104,0.5955177545547485,-0.025588683784008026,0.6679224967956543,0.6016557812690735,-0.03135181590914726,0.6519307494163513,0.5519418716430664,0.00367006566375494,0.6481116414070129,0.476138710975647,-0.010847319848835468,0.6402880549430847,0.47391247749328613,-0.02494887076318264,0.6390021443367004,0.5052947402000427,-0.03345995023846626,0.6766414046287537,0.5418408513069153,0.0006863768212497234,0.6744752526283264,0.4542589485645294,-0.015400945208966732,0.665626049041748,0.4620673358440399,-0.02818142995238304,0.6653410792350769,0.507012128829956,-0.0334307961165905,0.700386643409729,0.5461738109588623,-0.005841614678502083,0.7002164721488953,0.467684268951416,-0.01731601543724537,0.6908775568008423,0.47343623638153076,-0.025961479172110558,0.69173264503479,0.5150642991065979,-0.028849205002188683,0.7264840602874756,0.5609464645385742,-0.01475005317479372,0.7231649160385132,0.49119922518730164,-0.02196165733039379,0.7143728733062744,0.48803889751434326,-0.02642814815044403,0.7130281925201416,0.5188682675361633,-0.028154458850622177,0.0,0.0,0.0,0.0,0.0,0.0,0.0,0.0,0.0,0.0,0.0,0.0,0.0,0.0,0.0,0.0,0.0,0.0,0.0,0.0,0.0,0.0,0.0,0.0,0.0,0.0,0.0,0.0,0.0,0.0,0.0,0.0,0.0,0.0,0.0,0.0,0.0,0.0,0.0,0.0,0.0,0.0,0.0,0.0,0.0,0.0,0.0,0.0,0.0,0.0,0.0,0.0,0.0,0.0,0.0,0.0,0.0,0.0,0.0,0.0,0.0,0.0,0.0
1783345133.731435,0.7074776887893677,0.7563956379890442,-1.106956375451773e-07,0.6598880290985107,0.7366066575050354,-0.013283533044159412,0.6261104941368103,0.6600617170333862,-0.018739799037575722,0.6338955163955688,0.5945004224777222,-0.025959402322769165,0.6669624447822571,0.5994361639022827,-0.03184661641716957,0.6515670418739319,0.5503844022750854,0.0027697484474629164,0.6477141380310059,0.47305819392204285,-0.012659703381359577,0.6401294469833374,0.4716174900531769,-0.027103612199425697,0.6390181183815002,0.5041911005973816,-0.03562387824058533,0.6767523288726807,0.5415357947349548,-0.0004205844015814364,0.6754195690155029,0.45278260111808777,-0.01758238859474659,0.6663172841072083,0.461833119392395,-0.03044181689620018,0.6661139726638794,0.5079524517059326,-0.035362232476472855,0.7008436918258667,0.5467272996902466,-0.007164171431213617,0.7016957998275757,0.46661004424095154,-0.019472243264317513,0.6917920708656311,0.47382330894470215,-0.027522336691617966,0.6924636960029602,0.5163025259971619,-0.02960395999252796,0.7272000312805176,0.5616553425788879,-0.016279524192214012,0.724320650100708,0.49207809567451477,-0.024191735312342644,0.7153483033180237,0.4883292019367218,-0.028498450294137,0.714046061038971,0.5180115103721619,-0.02972736954689026,0.0,0.0,0.0,0.0,0.0,0.0,0.0,0.0,0.0,0.0,0.0,0.0,0.0,0.0,0.0,0.0,0.0,0.0,0.0,0.0,0.0,0.0,0.0,0.0,0.0,0.0,0.0,0.0,0.0,0.0,0.0,0.0,0.0,0.0,0.0,0.0,0.0,0.0,0.0,0.0,0.0,0.0,0.0,0.0,0.0,0.0,0.0,0.0,0.0,0.0,0.0,0.0,0.0,0.0,0.0,0.0,0.0,0.0,0.0,0.0,0.0,0.0,0.0
1783345133.866297,0.707868218421936,0.7549859881401062,-1.1455139770077949e-07,0.6603574752807617,0.7356341481208801,-0.013533308170735836,0.6264209151268005,0.6592811942100525,-0.01903705671429634,0.6341942548751831,0.5940667390823364,-0.026250051334500313,0.6673927307128906,0.599479079246521,-0.032100528478622437,0.6521922945976257,0.5496934652328491,0.002972951391711831,0.6484096646308899,0.47296953201293945,-0.012105323374271393,0.6406711339950562,0.4727248251438141,-0.026275277137756348,0.6396035552024841,0.5056424140930176,-0.03468207269906998,0.6771975755691528,0.5402458310127258,-1.4523307072522584e-05,0.6756659746170044,0.45184895396232605,-0.016719959676265717,0.6664933562278748,0.46122777462005615,-0.02922935225069523,0.6661509871482849,0.5071370601654053,-0.03400050103664398,0.7011343240737915,0.5451728701591492,-0.006614943500608206,0.7013991475105286,0.4662882089614868,-0.018581794574856758,0.6918693780899048,0.4736016094684601,-0.026569964364171028,0.6928766965866089,0.5157496333122253,-0.028744075447320938,0.7272546887397766,0.5600587129592896,-0.015627246350049973,0.7238362431526184,0.49131789803504944,-0.023162106052041054,0.7150169610977173,0.48875313997268677,-0.027324771508574486,0.7140507102012634,0.5190584659576416,-0.02861354500055313,0.0,0.0,0.0,0.0,0.0,0.0,0.0,0.0,0.0,0.0,0.0,0.0,0.0,0.0,0.0,0.0,0.0,0.0,0.0,0.0,0.0,0.0,0.0,0.0,0.0,0.0,0.0,0.0,0.0,0.0,0.0,0.0,0.0,0.0,0.0,0.0,0.0,0.0,0.0,0.0,0.0,0.0,0.0,0.0,0.0,0.0,0.0,0.0,0.0,0.0,0.0,0.0,0.0,0.0,0.0,0.0,0.0,0.0,0.0,0.0,0.0,0.0,0.0
1783345134.0394711,0.7074350714683533,0.7542710304260254,-1.1232432228780453e-07,0.6600262522697449,0.7351220846176147,-0.013723990879952908,0.6266574859619141,0.6595492959022522,-0.01944056898355484,0.6352370381355286,0.5951281785964966,-0.026841066777706146,0.668158769607544,0.5995493531227112,-0.03298422321677208,0.6520819664001465,0.549487292766571,0.0026221603620797396,0.6482097506523132,0.4735800623893738,-0.0127336997538805,0.6404169797897339,0.47251662611961365,-0.027222344651818275,0.6393446922302246,0.5047616362571716,-0.03580331429839134,0.6769830584526062,0.5399593114852905,-0.00036349918809719384,0.6753201484680176,0.45216408371925354,-0.017219502478837967,0.6663195490837097,0.4609983265399933,-0.030003951862454414,0.6660971641540527,0.5065346956253052,-0.035013485699892044,0.7009094953536987,0.5448305606842041,-0.006981183309108019,0.7011972665786743,0.4665362536907196,-0.019314322620630264,0.6916931867599487,0.4730682075023651,-0.027965543791651726,0.6928325891494751,0.5151344537734985,-0.03058135323226452,0.7268900275230408,0.5599420666694641,-0.015981649979948997,0.7236499190330505,0.49154138565063477,-0.023908527567982674,0.7148103713989258,0.48836657404899597,-0.028537185862660408,0.7138895392417908,0.5185608267784119,-0.03015470877289772,0.0,0.0,0.0,0.0,0.0,0.0,0.0,0.0,0.0,0.0,0.0,0.0,0.0,0.0,0.0,0.0,0.0,0.0,0.0,0.0,0.0,0.0,0.0,0.0,0.0,0.0,0.0,0.0,0.0,0.0,0.0,0.0,0.0,0.0,0.0,0.0,0.0,0.0,0.0,0.0,0.0,0.0,0.0,0.0,0.0,0.0,0.0,0.0,0.0,0.0,0.0,0.0,0.0,0.0,0.0,0.0,0.0,0.0,0.0,0.0,0.0,0.0,0.0
1783345134.237691,0.7073982357978821,0.7533109188079834,-1.1006598299445614e-07,0.6601054072380066,0.7341341972351074,-0.013757453300058842,0.6266279220581055,0.6576464176177979,-0.01955259032547474,0.6349380016326904,0.5931162238121033,-0.027060357853770256,0.6682028770446777,0.5997802019119263,-0.033260174095630646,0.6522194743156433,0.5481587648391724,0.002676901873201132,0.6485162973403931,0.47180914878845215,-0.012735502794384956,0.6406792402267456,0.4713102877140045,-0.027255456894636154,0.6396635174751282,0.5040537714958191,-0.03587083891034126,0.6771106123924255,0.5392100811004639,-0.0003303329285699874,0.6759474873542786,0.45091697573661804,-0.017427196726202965,0.6666074991226196,0.46064332127571106,-0.03020237572491169,0.6662613153457642,0.5067095160484314,-0.035051409155130386,0.7008152604103088,0.5444942116737366,-0.006970532704144716,0.7014221549034119,0.46547868847846985,-0.01909755915403366,0.6915997266769409,0.4724656641483307,-0.02725088968873024,0.6925650238990784,0.514484703540802,-0.0294589102268219,0.7266815304756165,0.5595072507858276,-0.01605074480175972,0.7235456705093384,0.4908215403556824,-0.02354859933257103,0.7146565914154053,0.4872279167175293,-0.027778077870607376,0.7136781811714172,0.5166555047035217,-0.02909417822957039,0.0,0.0,0.0,0.0,0.0,0.0,0.0,0.0,0.0,0.0,0.0,0.0,0.0,0.0,0.0,0.0,0.0,0.0,0.0,0.0,0.0,0.0,0.0,0.0,0.0,0.0,0.0,0.0,0.0,0.0,0.0,0.0,0.0,0.0,0.0,0.0,0.0,0.0,0.0,0.0,0.0,0.0,0.0,0.0,0.0,0.0,0.0,0.0,0.0,0.0,0.0,0.0,0.0,0.0,0.0,0.0,0.0,0.0,0.0,0.0,0.0,0.0,0.0
1783345134.45237,0.7071614861488342,0.7518212795257568,-1.165174836614824e-07,0.660002589225769,0.7323296070098877,-0.01369151659309864,0.6265774369239807,0.6568750143051147,-0.019616561010479927,0.6344359517097473,0.5923080444335938,-0.02724197879433632,0.6672224998474121,0.5969172120094299,-0.03348963335156441,0.6524516344070435,0.547539472579956,0.0024312378372997046,0.6491349935531616,0.47051557898521423,-0.01311490498483181,0.6407154202461243,0.4708363115787506,-0.02757764793932438,0.6392883658409119,0.5038663744926453,-0.03609940782189369,0.6772236227989197,0.538765549659729,-0.0005675186403095722,0.6761385202407837,0.45037001371383667,-0.01754208281636238,0.6662861704826355,0.4603542983531952,-0.02995087392628193,0.6658321022987366,0.5062071681022644,-0.03460139408707619,0.7009663581848145,0.5438371300697327,-0.007204665802419186,0.7015801668167114,0.4643535912036896,-0.01937459222972393,0.6913099884986877,0.4713033139705658,-0.027238210663199425,0.6921899914741516,0.513422429561615,-0.029253480955958366,0.7268006801605225,0.5585051774978638,-0.016266800463199615,0.723599910736084,0.4894063472747803,-0.023938022553920746,0.714293360710144,0.4856839179992676,-0.028064021840691566,0.713110089302063,0.5153650641441345,-0.02924911491572857,0.0,0.0,0.0,0.0,0.0,0.0,0.0,0.0,0.0,0.0,0.0,0.0,0.0,0.0,0.0,0.0,0.0,0.0,0.0,0.0,0.0,0.0,0.0,0.0,0.0,0.0,0.0,0.0,0.0,0.0,0.0,0.0,0.0,0.0,0.0,0.0,0.0,0.0,0.0,0.0,0.0,0.0,0.0,0.0,0.0,0.0,0.0,0.0,0.0,0.0,0.0,0.0,0.0,0.0,0.0,0.0,0.0,0.0,0.0,0.0,0.0,0.0,0.0
1783345134.703671,0.7076998949050903,0.7523485422134399,-1.1384446452211705e-07,0.6604124307632446,0.7330016493797302,-0.013381017372012138,0.6270589232444763,0.6558841466903687,-0.018870681524276733,0.63499516248703,0.5907077193260193,-0.026140622794628143,0.667921781539917,0.5952714681625366,-0.032055195420980453,0.6530700922012329,0.5467121601104736,0.0032318970188498497,0.6500688195228577,0.46984410285949707,-0.012479330413043499,0.6418375372886658,0.46807366609573364,-0.02710334211587906,0.6399825215339661,0.5004415512084961,-0.03562281280755997,0.6780346632003784,0.5382108092308044,0.00014314966392703354,0.6774477958679199,0.45031458139419556,-0.01736246980726719,0.6678245067596436,0.45927855372428894,-0.030170168727636337,0.6671148538589478,0.5057287812232971,-0.034825365990400314,0.7017787098884583,0.5434216856956482,-0.006614306475967169,0.703002393245697,0.4636845588684082,-0.019159890711307526,0.6926062703132629,0.4701825976371765,-0.027176538482308388,0.6928276419639587,0.5127172470092773,-0.0290449857711792,0.7277089357376099,0.5579304695129395,-0.015762507915496826,0.7248097062110901,0.48915788531303406,-0.02390816994011402,0.7156303524971008,0.4846740961074829,-0.0283319354057312,0.7141105532646179,0.5137749314308167,-0.02947908267378807,0.0,0.0,0.0,0.0,0.0,0.0,0.0,0.0,0.0,0.0,0.0,0.0,0.0,0.0,0.0,0.0,0.0,0.0,0.0,0.0,0.0,0.0,0.0,0.0,0.0,0.0,0.0,0.0,0.0,0.0,0.0,0.0,0.0,0.0,0.0,0.0,0.0,0.0,0.0,0.0,0.0,0.0,0.0,0.0,0.0,0.0,0.0,0.0,0.0,0.0,0.0,0.0,0.0,0.0,0.0,0.0,0.0,0.0,0.0,0.0,0.0,0.0,0.0
1783345134.87032,0.7074123620986938,0.7520279288291931,-1.1203013627891778e-07,0.6600409150123596,0.7319465279579163,-0.01355183869600296,0.6270899772644043,0.6554906964302063,-0.01933649182319641,0.6353899836540222,0.5906340479850769,-0.026864508166909218,0.6687305569648743,0.5965737104415894,-0.033013056963682175,0.6535418629646301,0.5457885265350342,0.002940311562269926,0.6502718329429626,0.468866229057312,-0.012724416330456734,0.6420060992240906,0.468559592962265,-0.027351466938853264,0.6403436660766602,0.5017045736312866,-0.03596283495426178,0.6784758567810059,0.537542998790741,-0.00017614277021493763,0.6778010129928589,0.44889119267463684,-0.017582815140485764,0.6679028868675232,0.45835816860198975,-0.03036426566541195,0.6670932769775391,0.5048409700393677,-0.0351235494017601,0.7022086977958679,0.5433024764060974,-0.006964526139199734,0.7036076784133911,0.4639712870121002,-0.01949787698686123,0.6930835247039795,0.4707304835319519,-0.02769211307168007,0.6933385729789734,0.5131502747535706,-0.029769759625196457,0.7281973958015442,0.5586139559745789,-0.01616688072681427,0.725858211517334,0.4895165264606476,-0.02412509173154831,0.7165437936782837,0.48509320616722107,-0.02858824096620083,0.714785099029541,0.5142297744750977,-0.02991955354809761,0.0,0.0,0.0,0.0,0.0,0.0,0.0,0.0,0.0,0.0,0.0,0.0,0.0,0.0,0.0,0.0,0.0,0.0,0.0,0.0,0.0,0.0,0.0,0.0,0.0,0.0,0.0,0.0,0.0,0.0,0.0,0.0,0.0,0.0,0.0,0.0,0.0,0.0,0.0,0.0,0.0,0.0,0.0,0.0,0.0,0.0,0.0,0.0,0.0,0.0,0.0,0.0,0.0,0.0,0.0,0.0,0.0,0.0,0.0,0.0,0.0,0.0,0.0
1783345135.0719712,0.7072837948799133,0.7505438923835754,-1.2000303684089886e-07,0.6602540016174316,0.730785071849823,-0.013752533122897148,0.6274703741073608,0.6557855606079102,-0.019791780039668083,0.6361823081970215,0.5917985439300537,-0.027609746903181076,0.6692997813224792,0.596255362033844,-0.034122977405786514,0.654129147529602,0.5455072522163391,0.0027121296152472496,0.6501515507698059,0.4688795208930969,-0.013184968382120132,0.6413508057594299,0.46955791115760803,-0.02801014669239521,0.6399562954902649,0.5029711723327637,-0.03671525418758392,0.6786470413208008,0.5367093086242676,-0.0004257579566910863,0.6772204041481018,0.4480994939804077,-0.017851637676358223,0.6669886112213135,0.45835044980049133,-0.03065139800310135,0.6662371158599854,0.5047084093093872,-0.03548115864396095,0.7021463513374329,0.5419426560401917,-0.007278334815055132,0.702654242515564,0.46331989765167236,-0.01977703347802162,0.6920264363288879,0.4704740047454834,-0.028198599815368652,0.6925330758094788,0.5125973224639893,-0.030604496598243713,0.7278122305870056,0.5569987297058105,-0.0165609959512949,0.7250810265541077,0.48848769068717957,-0.024191970005631447,0.7155212759971619,0.48597943782806396,-0.028526514768600464,0.7138884663581848,0.5162396430969238,-0.029985209926962852,0.0,0.0,0.0,0.0,0.0,0.0,0.0,0.0,0.0,0.0,0.0,0.0,0.0,0.0,0.0,0.0,0.0,0.0,0.0,0.0,0.0,0.0,0.0,0.0,0.0,0.0,0.0,0.0,0.0,0.0,0.0,0.0,0.0,0.0,0.0,0.0,0.0,0.0,0.0,0.0,0.0,0.0,0.0,0.0,0.0,0.0,0.0,0.0,0.0,0.0,0.0,0.0,0.0,0.0,0.0,0.0,0.0,0.0,0.0,0.0,0.0,0.0,0.0
1783345135.224061,0.7068489193916321,0.7500262260437012,-1.2361485346445988e-07,0.660510778427124,0.7313259243965149,-0.014165764674544334,0.6274920701980591,0.6561101078987122,-0.020873157307505608,0.6363325715065002,0.5927830934524536,-0.029337625950574875,0.6700439453125,0.5970078110694885,-0.036429230123758316,0.6540420055389404,0.5450267791748047,0.0010208174353465438,0.6502392292022705,0.4663097858428955,-0.015763001516461372,0.6406216025352478,0.4696078300476074,-0.030870523303747177,0.6392498016357422,0.5052851438522339,-0.039631880819797516,0.6785419583320618,0.536673367023468,-0.0021085040643811226,0.6774708032608032,0.44656747579574585,-0.02024313621222973,0.6664094924926758,0.4581752121448517,-0.03283444792032242,0.6657742857933044,0.5053224563598633,-0.03736015036702156,0.7021104693412781,0.5423417091369629,-0.008992962539196014,0.7029200196266174,0.46249207854270935,-0.02179594524204731,0.6916161179542542,0.4702591598033905,-0.029931889846920967,0.6920923590660095,0.5128064155578613,-0.03207943215966225,0.7275852560997009,0.5573897361755371,-0.01835506036877632,0.7251356840133667,0.48876309394836426,-0.026034196838736534,0.7151057124137878,0.4858029782772064,-0.030330438166856766,0.7133059501647949,0.5154544711112976,-0.031731948256492615,0.0,0.0,0.0,0.0,0.0,0.0,0.0,0.0,0.0,0.0,0.0,0.0,0.0,0.0,0.0,0.0,0.0,0.0,0.0,0.0,0.0,0.0,0.0,0.0,0.0,0.0,0.0,0.0,0.0,0.0,0.0,0.0,0.0,0.0,0.0,0.0,0.0,0.0,0.0,0.0,0.0,0.0,0.0,0.0,0.0,0.0,0.0,0.0,0.0,0.0,0.0,0.0,0.0,0.0,0.0,0.0,0.0,0.0,0.0,0.0,0.0,0.0,0.0
1783345135.376621,0.706978976726532,0.750110924243927,-1.197667671704039e-07,0.660440981388092,0.7311397194862366,-0.014085646718740463,0.6272678375244141,0.6559825539588928,-0.02068169414997101,0.6364519596099854,0.5924584865570068,-0.029004916548728943,0.6704131364822388,0.5977408289909363,-0.03592268377542496,0.653645396232605,0.544918954372406,0.0015125914942473173,0.6499518156051636,0.46747979521751404,-0.014665838330984116,0.6404631733894348,0.4698399603366852,-0.029291553422808647,0.6387830972671509,0.5045289397239685,-0.03781617060303688,0.6780343055725098,0.5357864499092102,-0.0014252724358811975,0.6763355135917664,0.4477391839027405,-0.018534161150455475,0.6657661199569702,0.45766010880470276,-0.030440310016274452,0.6650468707084656,0.5028752088546753,-0.03479393199086189,0.7015811204910278,0.5410472750663757,-0.008143745362758636,0.7018561363220215,0.4628519117832184,-0.0203404501080513,0.6911354064941406,0.46974313259124756,-0.02800344116985798,0.6915220022201538,0.51127028465271,-0.03002525120973587,0.7270077466964722,0.555961549282074,-0.017360428348183632,0.7243943810462952,0.488054096698761,-0.024775173515081406,0.7144196033477783,0.4850063920021057,-0.02884678915143013,0.7122752666473389,0.5143040418624878,-0.03015964664518833,0.0,0.0,0.0,0.0,0.0,0.0,0.0,0.0,0.0,0.0,0.0,0.0,0.0,0.0,0.0,0.0,0.0,0.0,0.0,0.0,0.0,0.0,0.0,0.0,0.0,0.0,0.0,0.0,0.0,0.0,0.0,0.0,0.0,0.0,0.0,0.0,0.0,0.0,0.0,0.0,0.0,0.0,0.0,0.0,0.0,0.0,0.0,0.0,0.0,0.0,0.0,0.0,0.0,0.0,0.0,0.0,0.0,0.0,0.0,0.0,0.0,0.0,0.0
1783345135.568038,0.7065005302429199,0.7486486434936523,-1.2428590423496644e-07,0.6601900458335876,0.7298697829246521,-0.014098136685788631,0.6272711753845215,0.6556961536407471,-0.020638357847929,0.6360900402069092,0.592312216758728,-0.028900213539600372,0.6690734028816223,0.5950160026550293,-0.03582051768898964,0.6538472175598145,0.5446584820747375,0.0013477717293426394,0.649549126625061,0.46690642833709717,-0.015114808455109596,0.6401362419128418,0.4692576825618744,-0.030039925128221512,0.6389380097389221,0.5038418173789978,-0.038675710558891296,0.6781197786331177,0.5360319018363953,-0.001639460795558989,0.676098644733429,0.44716426730155945,-0.019207021221518517,0.6653360724449158,0.45806002616882324,-0.031588464975357056,0.6649342179298401,0.5039728283882141,-0.036142777651548386,0.7016069293022156,0.5412003993988037,-0.008375641889870167,0.7017502188682556,0.4624843895435333,-0.021075250580906868,0.6907099485397339,0.4699166417121887,-0.029334023594856262,0.6914876699447632,0.5120590925216675,-0.031639400869607925,0.727054238319397,0.5559171438217163,-0.01755244843661785,0.7244428396224976,0.48775729537010193,-0.025331534445285797,0.7143006920814514,0.48495084047317505,-0.029697392135858536,0.7124676704406738,0.51478111743927,-0.03116077184677124,0.0,0.0,0.0,0.0,0.0,0.0,0.0,0.0,0.0,0.0,0.0,0.0,0.0,0.0,0.0,0.0,0.0,0.0,0.0,0.0,0.0,0.0,0.0,0.0,0.0,0.0,0.0,0.0,0.0,0.0,0.0,0.0,0.0,0.0,0.0,0.0,0.0,0.0,0.0,0.0,0.0,0.0,0.0,0.0,0.0,0.0,0.0,0.0,0.0,0.0,0.0,0.0,0.0,0.0,0.0,0.0,0.0,0.0,0.0,0.0,0.0,0.0,0.0
1783345135.89028,0.706218957901001,0.7493276000022888,-1.1877745009769569e-07,0.6597382426261902,0.7299898266792297,-0.014111131429672241,0.6269466280937195,0.6557420492172241,-0.020949820056557655,0.6361151933670044,0.5923771858215332,-0.029520288109779358,0.6701615452766418,0.5976471900939941,-0.03670737147331238,0.6534159779548645,0.5446977615356445,0.0011991196079179645,0.6499525308609009,0.46761974692344666,-0.01530079822987318,0.6401567459106445,0.4698264002799988,-0.03016994334757328,0.6382920742034912,0.504002571105957,-0.03885040059685707,0.6778347492218018,0.5358728766441345,-0.001884748344309628,0.6766501665115356,0.4473738372325897,-0.019490282982587814,0.6655675172805786,0.45770785212516785,-0.03162767365574837,0.6647564172744751,0.5031981468200684,-0.03601596876978874,0.7014329433441162,0.5413698554039001,-0.008723328821361065,0.7021888494491577,0.46279969811439514,-0.021280307322740555,0.6909812688827515,0.4697735607624054,-0.029039978981018066,0.6913465261459351,0.5114789009094238,-0.0309912022203207,0.7269531488418579,0.5566104054450989,-0.018049711361527443,0.7245593070983887,0.48860132694244385,-0.025667965412139893,0.7143008708953857,0.48501601815223694,-0.029807504266500473,0.7120885252952576,0.5140892267227173,-0.031076494604349136,0.0,0.0,0.0,0.0,0.0,0.0,0.0,0.0,0.0,0.0,0.0,0.0,0.0,0.0,0.0,0.0,0.0,0.0,0.0,0.0,0.0,0.0,0.0,0.0,0.0,0.0,0.0,0.0,0.0,0.0,0.0,0.0,0.0,0.0,0.0,0.0,0.0,0.0,0.0,0.0,0.0,0.0,0.0,0.0,0.0,0.0,0.0,0.0,0.0,0.0,0.0,0.0,0.0,0.0,0.0,0.0,0.0,0.0,0.0,0.0,0.0,0.0,0.0
1783345136.0689259,0.7064840793609619,0.7482890486717224,-1.3019361233546078e-07,0.6600124835968018,0.7290744781494141,-0.013614545576274395,0.6275930404663086,0.653960108757019,-0.019899196922779083,0.6366968154907227,0.5917707085609436,-0.02801976166665554,0.6695971488952637,0.5969654321670532,-0.034833911806344986,0.6541464328765869,0.5439574718475342,0.0015067413914948702,0.6499931216239929,0.46628326177597046,-0.014896984212100506,0.6404851675033569,0.46891647577285767,-0.029648171737790108,0.6390568017959595,0.5037192106246948,-0.03816685825586319,0.6783371567726135,0.5355851650238037,-0.0017677327850833535,0.6766850352287292,0.44674158096313477,-0.019445642828941345,0.665906548500061,0.45822498202323914,-0.03169945254921913,0.6656286716461182,0.5045907497406006,-0.03606167435646057,0.7018961310386658,0.5411224961280823,-0.008748073130846024,0.7023085355758667,0.46202170848846436,-0.02147919498383999,0.6912152767181396,0.47026216983795166,-0.029574833810329437,0.6919810175895691,0.5126201510429382,-0.03168901428580284,0.7274245023727417,0.5562179684638977,-0.018136536702513695,0.7252700328826904,0.4872252345085144,-0.025920605286955833,0.7150774598121643,0.48493343591690063,-0.030205149203538895,0.7131081819534302,0.5155964493751526,-0.03157147020101547,0.0,0.0,0.0,0.0,0.0,0.0,0.0,0.0,0.0,0.0,0.0,0.0,0.0,0.0,0.0,0.0,0.0,0.0,0.0,0.0,0.0,0.0,0.0,0.0,0.0,0.0,0.0,0.0,0.0,0.0,0.0,0.0,0.0,0.0,0.0,0.0,0.0,0.0,0.0,0.0,0.0,0.0,0.0,0.0,0.0,0.0,0.0,0.0,0.0,0.0,0.0,0.0,0.0,0.0,0.0,0.0,0.0,0.0,0.0,0.0,0.0,0.0,0.0
1783345136.22425,0.7067263722419739,0.748047411441803,-1.1851849990307528e-07,0.6601365804672241,0.7286241054534912,-0.013691631145775318,0.6275527477264404,0.6533692479133606,-0.020055344328284264,0.6368826627731323,0.5907546877861023,-0.028275607153773308,0.6703228950500488,0.5978084206581116,-0.03512858599424362,0.6541656851768494,0.5431354641914368,0.0019261682173237205,0.6498052477836609,0.4664532244205475,-0.014282203279435635,0.640380322933197,0.46803373098373413,-0.028864791616797447,0.6391750574111938,0.5022134780883789,-0.03730419650673866,0.6784682869911194,0.5341196060180664,-0.0013402820331975818,0.6765967011451721,0.4462182819843292,-0.018694518133997917,0.665774941444397,0.4562968611717224,-0.03058376908302307,0.665473222732544,0.5020199418067932,-0.03468106687068939,0.7020357251167297,0.5396883487701416,-0.00834398902952671,0.7022559642791748,0.4614311456680298,-0.020707009360194206,0.6913856863975525,0.4688926339149475,-0.0279066264629364,0.6923418641090393,0.5106899738311768,-0.029366983100771904,0.727507472038269,0.5549740195274353,-0.0178421251475811,0.7249046564102173,0.48678505420684814,-0.025397326797246933,0.7148454189300537,0.4843326210975647,-0.02913927286863327,0.7131679058074951,0.5144315361976624,-0.029985671862959862,0.0,0.0,0.0,0.0,0.0,0.0,0.0,0.0,0.0,0.0,0.0,0.0,0.0,0.0,0.0,0.0,0.0,0.0,0.0,0.0,0.0,0.0,0.0,0.0,0.0,0.0,0.0,0.0,0.0,0.0,0.0,0.0,0.0,0.0,0.0,0.0,0.0,0.0,0.0,0.0,0.0,0.0,0.0,0.0,0.0,0.0,0.0,0.0,0.0,0.0,0.0,0.0,0.0,0.0,0.0,0.0,0.0,0.0,0.0,0.0,0.0,0.0,0.0
1783345136.492637,0.7066274881362915,0.7479935884475708,-1.193661063325635e-07,0.6601794362068176,0.728519856929779,-0.013607783243060112,0.6277972459793091,0.6533148884773254,-0.020049376413226128,0.6370394825935364,0.5906922221183777,-0.028334159404039383,0.6701664328575134,0.5973502397537231,-0.035232752561569214,0.6542723774909973,0.5425207018852234,0.0015564648201689124,0.6503204703330994,0.4655105769634247,-0.01480180211365223,0.6408989429473877,0.4669930934906006,-0.029435481876134872,0.6392996311187744,0.5015255212783813,-0.03787297382950783,0.6785591244697571,0.5339300632476807,-0.0017443500692024827,0.6767783761024475,0.44604846835136414,-0.019202370196580887,0.6660751700401306,0.4556996524333954,-0.03111119195818901,0.6655644178390503,0.5016800165176392,-0.03525033965706825,0.7021676898002625,0.5398185849189758,-0.00875107105821371,0.7025575637817383,0.4613848328590393,-0.021233312785625458,0.6917880177497864,0.4684810936450958,-0.028459422290325165,0.6924323439598083,0.5104042887687683,-0.029929324984550476,0.7277095317840576,0.5553367733955383,-0.018228204920887947,0.7253169417381287,0.48706457018852234,-0.025911740958690643,0.7154065370559692,0.483956515789032,-0.02973449043929577,0.7134385704994202,0.5137768983840942,-0.030608171597123146,0.0,0.0,0.0,0.0,0.0,0.0,0.0,0.0,0.0,0.0,0.0,0.0,0.0,0.0,0.0,0.0,0.0,0.0,0.0,0.0,0.0,0.0,0.0,0.0,0.0,0.0,0.0,0.0,0.0,0.0,0.0,0.0,0.0,0.0,0.0,0.0,0.0,0.0,0.0,0.0,0.0,0.0,0.0,0.0,0.0,0.0,0.0,0.0,0.0,0.0,0.0,0.0,0.0,0.0,0.0,0.0,0.0,0.0,0.0,0.0,0.0,0.0,0.0
1783345136.684938,0.7069984078407288,0.7482990622520447,-1.1821441603387939e-07,0.6605929732322693,0.7292511463165283,-0.014031631872057915,0.6282321214675903,0.6548219323158264,-0.02078106440603733,0.6374898552894592,0.5918443202972412,-0.029275402426719666,0.6708235740661621,0.5985037684440613,-0.036400243639945984,0.6544532179832458,0.5434511303901672,0.0011508527677506208,0.6508060693740845,0.4667034447193146,-0.015400980599224567,0.6414559483528137,0.4676705002784729,-0.03030976839363575,0.6396854519844055,0.5015698075294495,-0.03898987919092178,0.6788986325263977,0.5346202850341797,-0.002005464630201459,0.6775294542312622,0.4467240571975708,-0.019749300554394722,0.666756808757782,0.456333726644516,-0.03200316056609154,0.6659020185470581,0.502091646194458,-0.036447133868932724,0.7025295495986938,0.5403485298156738,-0.008883142843842506,0.7034186720848083,0.46219009160995483,-0.021637097001075745,0.6924360394477844,0.469574511051178,-0.029295476153492928,0.6926860213279724,0.5116398930549622,-0.03107825107872486,0.7281333208084106,0.5559095740318298,-0.01824134774506092,0.7259593605995178,0.48800575733184814,-0.026046590879559517,0.715976357460022,0.4849064350128174,-0.030136173591017723,0.7137840390205383,0.5146170854568481,-0.03126753121614456,0.0,0.0,0.0,0.0,0.0,0.0,0.0,0.0,0.0,0.0,0.0,0.0,0.0,0.0,0.0,0.0,0.0,0.0,0.0,0.0,0.0,0.0,0.0,0.0,0.0,0.0,0.0,0.0,0.0,0.0,0.0,0.0,0.0,0.0,0.0,0.0,0.0,0.0,0.0,0.0,0.0,0.0,0.0,0.0,0.0,0.0,0.0,0.0,0.0,0.0,0.0,0.0,0.0,0.0,0.0,0.0,0.0,0.0,0.0,0.0,0.0,0.0,0.0
1783345136.839734,0.7077481746673584,0.7479409575462341,-1.180952438062377e-07,0.6610234379768372,0.7290419340133667,-0.013685672543942928,0.6284983158111572,0.6537322402000427,-0.019948413595557213,0.6379142999649048,0.591212809085846,-0.027988573536276817,0.6712997555732727,0.598134458065033,-0.03464521840214729,0.6548365950584412,0.5433712005615234,0.0018953788094222546,0.6507091522216797,0.4668707549571991,-0.014243130572140217,0.6415250301361084,0.46784648299217224,-0.02884173020720482,0.640001654624939,0.5016017556190491,-0.03731754794716835,0.6793254613876343,0.5344929695129395,-0.0012570483377203345,0.6776880621910095,0.4472351372241974,-0.018557485193014145,0.6670762896537781,0.4565735459327698,-0.030526716262102127,0.6663849949836731,0.5021893978118896,-0.03475465998053551,0.7029610276222229,0.5400987863540649,-0.008143465034663677,0.7034885287284851,0.4625259339809418,-0.020566903054714203,0.6926760077476501,0.46947339177131653,-0.028009876608848572,0.6931169629096985,0.5111695528030396,-0.029648473486304283,0.7286065816879272,0.5552772879600525,-0.017497915774583817,0.726338803768158,0.4876396656036377,-0.025165829807519913,0.7165136337280273,0.48443999886512756,-0.029134906828403473,0.7144760489463806,0.5140216946601868,-0.030153224244713783,0.0,0.0,0.0,0.0,0.0,0.0,0.0,0.0,0.0,0.0,0.0,0.0,0.0,0.0,0.0,0.0,0.0,0.0,0.0,0.0,0.0,0.0,0.0,0.0,0.0,0.0,0.0,0.0,0.0,0.0,0.0,0.0,0.0,0.0,0.0,0.0,0.0,0.0,0.0,0.0,0.0,0.0,0.0,0.0,0.0,0.0,0.0,0.0,0.0,0.0,0.0,0.0,0.0,0.0,0.0,0.0,0.0,0.0,0.0,0.0,0.0,0.0,0.0
1783345136.989898,0.7082823514938354,0.7476342916488647,-1.2021777706650028e-07,0.6611549854278564,0.7290748357772827,-0.013706129975616932,0.6284546852111816,0.653113067150116,-0.01978944055736065,0.6382582187652588,0.5902360677719116,-0.02767280861735344,0.6720409393310547,0.5974254608154297,-0.03418266028165817,0.6549969911575317,0.5433318018913269,0.002195417881011963,0.6506094932556152,0.46647992730140686,-0.013821572065353394,0.6415871977806091,0.4684171676635742,-0.028413066640496254,0.6406545639038086,0.5026963949203491,-0.03694618120789528,0.679475724697113,0.534162700176239,-0.0009193242294713855,0.6776605248451233,0.44634175300598145,-0.018254384398460388,0.6670117378234863,0.45689138770103455,-0.0302498210221529,0.6667593717575073,0.5029551982879639,-0.03443486988544464,0.7030792832374573,0.5395795106887817,-0.007786883972585201,0.7033145427703857,0.4615231156349182,-0.02010943740606308,0.6924503445625305,0.4693847596645355,-0.027556365355849266,0.6933406591415405,0.5113319158554077,-0.029218971729278564,0.7287468314170837,0.5546326041221619,-0.017145128920674324,0.7261966466903687,0.48638975620269775,-0.02471904084086418,0.7163567543029785,0.48377805948257446,-0.028657570481300354,0.7147545218467712,0.5137487649917603,-0.029697250574827194,0.0,0.0,0.0,0.0,0.0,0.0,0.0,0.0,0.0,0.0,0.0,0.0,0.0,0.0,0.0,0.0,0.0,0.0,0.0,0.0,0.0,0.0,0.0,0.0,0.0,0.0,0.0,0.0,0.0,0.0,0.0,0.0,0.0,0.0,0.0,0.0,0.0,0.0,0.0,0.0,0.0,0.0,0.0,0.0,0.0,0.0,0.0,0.0,0.0,0.0,0.0,0.0,0.0,0.0,0.0,0.0,0.0,0.0,0.0,0.0,0.0,0.0,0.0
1783345137.164633,0.7079548835754395,0.7472389936447144,-1.1782345410438211e-07,0.6613063812255859,0.7285881042480469,-0.014012882485985756,0.6287431120872498,0.6537764072418213,-0.0205451138317585,0.6382452249526978,0.591394305229187,-0.028835486620664597,0.6713929772377014,0.5968511700630188,-0.03581502288579941,0.6551130414009094,0.5431870818138123,0.0013415147550404072,0.6509028077125549,0.46607789397239685,-0.015185736119747162,0.6417245864868164,0.4673314094543457,-0.03020518273115158,0.6405202746391296,0.5013713836669922,-0.03897100314497948,0.6794877052307129,0.5344050526618958,-0.001811967114917934,0.6775608062744141,0.4454936981201172,-0.019844593480229378,0.666887104511261,0.45584022998809814,-0.032559704035520554,0.6665214896202087,0.5020331740379333,-0.0372416190803051,0.7030891180038452,0.5398608446121216,-0.008678197860717773,0.703408420085907,0.4609413743019104,-0.02158164232969284,0.6926171183586121,0.46881434321403503,-0.02981133572757244,0.6933940649032593,0.5111221075057983,-0.03199625015258789,0.7287718057632446,0.5549880266189575,-0.017994802445173264,0.7262885570526123,0.4864041209220886,-0.025878092274069786,0.7164579629898071,0.4837803840637207,-0.030244050547480583,0.7146428227424622,0.5138624310493469,-0.031658004969358444,0.0,0.0,0.0,0.0,0.0,0.0,0.0,0.0,0.0,0.0,0.0,0.0,0.0,0.0,0.0,0.0,0.0,0.0,0.0,0.0,0.0,0.0,0.0,0.0,0.0,0.0,0.0,0.0,0.0,0.0,0.0,0.0,0.0,0.0,0.0,0.0,0.0,0.0,0.0,0.0,0.0,0.0,0.0,0.0,0.0,0.0,0.0,0.0,0.0,0.0,0.0,0.0,0.0,0.0,0.0,0.0,0.0,0.0,0.0,0.0,0.0,0.0,0.0
1783345137.299259,0.7078969478607178,0.7466921806335449,-1.1568712210419108e-07,0.6614415645599365,0.7278627157211304,-0.014076239429414272,0.6286812424659729,0.653373658657074,-0.020830582827329636,0.6380814909934998,0.5911160111427307,-0.02937934175133705,0.6717416644096375,0.5969511270523071,-0.0365922749042511,0.6547490358352661,0.5424514412879944,0.0011942331911996007,0.6504319906234741,0.4651682674884796,-0.015350645408034325,0.6414034366607666,0.4666389524936676,-0.03027460165321827,0.6404849886894226,0.5007203221321106,-0.03897232562303543,0.6791447997093201,0.5334141254425049,-0.001998857595026493,0.6772950887680054,0.4447983205318451,-0.019930945709347725,0.6666619777679443,0.4552755653858185,-0.032413825392723083,0.666366457939148,0.5013435482978821,-0.03695034235715866,0.7028180360794067,0.5388020277023315,-0.008920671418309212,0.7031867504119873,0.46019628643989563,-0.02178174816071987,0.69230055809021,0.4684669077396393,-0.02977060154080391,0.6930371522903442,0.5108698606491089,-0.03178741782903671,0.728398323059082,0.5539721250534058,-0.01831066608428955,0.7258610725402832,0.4855736792087555,-0.026150275021791458,0.7159525752067566,0.4834633767604828,-0.03036855161190033,0.7142362594604492,0.5138335824012756,-0.031652696430683136,0.0,0.0,0.0,0.0,0.0,0.0,0.0,0.0,0.0,0.0,0.0,0.0,0.0,0.0,0.0,0.0,0.0,0.0,0.0,0.0,0.0,0.0,0.0,0.0,0.0,0.0,0.0,0.0,0.0,0.0,0.0,0.0,0.0,0.0,0.0,0.0,0.0,0.0,0.0,0.0,0.0,0.0,0.0,0.0,0.0,0.0,0.0,0.0,0.0,0.0,0.0,0.0,0.0,0.0,0.0,0.0,0.0,0.0,0.0,0.0,0.0,0.0,0.0
1783345137.4377558,0.7077785730361938,0.7462095022201538,-1.2268948523797008e-07,0.6616290807723999,0.7270194292068481,-0.013851888477802277,0.6288061141967773,0.6524965763092041,-0.020525198429822922,0.6373085975646973,0.5894880890846252,-0.02901487983763218,0.670911431312561,0.5937674045562744,-0.036084190011024475,0.6551274657249451,0.5416272282600403,0.0012431202922016382,0.6511368155479431,0.46343281865119934,-0.015315488912165165,0.6415999531745911,0.46546581387519836,-0.030060118064284325,0.6400004029273987,0.5002182722091675,-0.0385722815990448,0.6794042587280273,0.5331221222877502,-0.001981369685381651,0.6777865886688232,0.4443492293357849,-0.01991964504122734,0.6666978597640991,0.4550830125808716,-0.03224342316389084,0.6660100221633911,0.501459538936615,-0.03663778305053711,0.7029827237129211,0.5387102961540222,-0.0089173074811697,0.7035349011421204,0.45994511246681213,-0.021796630695462227,0.6923351883888245,0.4680688977241516,-0.0296690184623003,0.6927486658096313,0.5106530785560608,-0.03156662359833717,0.7285301089286804,0.5537778735160828,-0.018293067812919617,0.7260829210281372,0.4851674735546112,-0.026155751198530197,0.7159797549247742,0.4824667274951935,-0.030382830649614334,0.7138998508453369,0.5125421285629272,-0.031626079231500626,0.0,0.0,0.0,0.0,0.0,0.0,0.0,0.0,0.0,0.0,0.0,0.0,0.0,0.0,0.0,0.0,0.0,0.0,0.0,0.0,0.0,0.0,0.0,0.0,0.0,0.0,0.0,0.0,0.0,0.0,0.0,0.0,0.0,0.0,0.0,0.0,0.0,0.0,0.0,0.0,0.0,0.0,0.0,0.0,0.0,0.0,0.0,0.0,0.0,0.0,0.0,0.0,0.0,0.0,0.0,0.0,0.0,0.0,0.0,0.0,0.0,0.0,0.0
1783345137.604016,0.7083770632743835,0.7474175691604614,-1.146590520306745e-07,0.6613231301307678,0.7272302508354187,-0.013548482209444046,0.6288968920707703,0.6521909832954407,-0.019830787554383278,0.63821941614151,0.5897637009620667,-0.02788427658379078,0.672062337398529,0.5959342122077942,-0.03448117896914482,0.6551129221916199,0.541658341884613,0.0020645814947783947,0.6519896984100342,0.46512651443481445,-0.01399936806410551,0.6429166197776794,0.4658319652080536,-0.028575368225574493,0.6411080360412598,0.49937963485717773,-0.03710050508379936,0.6797952055931091,0.5330541729927063,-0.0011602223385125399,0.6793069243431091,0.4449908137321472,-0.01879047229886055,0.6683802008628845,0.45402660965919495,-0.03110950067639351,0.6670883297920227,0.4998665153980255,-0.035588573664426804,0.7035132646560669,0.5390006303787231,-0.008080449886620045,0.7051705121994019,0.4608331322669983,-0.02066066488623619,0.6941666007041931,0.46764281392097473,-0.028359634801745415,0.6942833662033081,0.5097225904464722,-0.030146848410367966,0.7292161583900452,0.5548828840255737,-0.017443595454096794,0.7275555729866028,0.4868162274360657,-0.02525555156171322,0.7175286412239075,0.48267000913619995,-0.02952229417860508,0.7151035666465759,0.5118042230606079,-0.030751075595617294,0.0,0.0,0.0,0.0,0.0,0.0,0.0,0.0,0.0,0.0,0.0,0.0,0.0,0.0,0.0,0.0,0.0,0.0,0.0,0.0,0.0,0.0,0.0,0.0,0.0,0.0,0.0,0.0,0.0,0.0,0.0,0.0,0.0,0.0,0.0,0.0,0.0,0.0,0.0,0.0,0.0,0.0,0.0,0.0,0.0,0.0,0.0,0.0,0.0,0.0,0.0,0.0,0.0,0.0,0.0,0.0,0.0,0.0,0.0,0.0,0.0,0.0,0.0
1783345137.758399,0.7088925242424011,0.7464945912361145,-1.2405794791447988e-07,0.6622108221054077,0.7268078327178955,-0.013381673023104668,0.6294993758201599,0.6515709161758423,-0.019158130511641502,0.6381946206092834,0.5880751609802246,-0.026746876537799835,0.6715359091758728,0.5918959975242615,-0.032921407371759415,0.6561033129692078,0.5415077805519104,0.002875031204894185,0.6521127223968506,0.46498411893844604,-0.012727433815598488,0.6430813074111938,0.4655628800392151,-0.02706008590757847,0.6416354775428772,0.4988286793231964,-0.03544911369681358,0.6805421113967896,0.5328497886657715,-0.00029527570586651564,0.678911566734314,0.44489291310310364,-0.017493175342679024,0.668287456035614,0.45517846941947937,-0.029761219397187233,0.6675611138343811,0.5011810064315796,-0.03424042463302612,0.7040371894836426,0.5382491946220398,-0.007142328191548586,0.7045331597328186,0.46007391810417175,-0.01946963556110859,0.6937003135681152,0.4681767225265503,-0.02724512852728367,0.694305419921875,0.5104108452796936,-0.029201267287135124,0.7296761274337769,0.5534053444862366,-0.016404805704951286,0.7271167635917664,0.48488935828208923,-0.024031873792409897,0.7172468900680542,0.48291897773742676,-0.02814267762005329,0.7154878377914429,0.5135247111320496,-0.029369886964559555,0.0,0.0,0.0,0.0,0.0,0.0,0.0,0.0,0.0,0.0,0.0,0.0,0.0,0.0,0.0,0.0,0.0,0.0,0.0,0.0,0.0,0.0,0.0,0.0,0.0,0.0,0.0,0.0,0.0,0.0,0.0,0.0,0.0,0.0,0.0,0.0,0.0,0.0,0.0,0.0,0.0,0.0,0.0,0.0,0.0,0.0,0.0,0.0,0.0,0.0,0.0,0.0,0.0,0.0,0.0,0.0,0.0,0.0,0.0,0.0,0.0,0.0,0.0
1783345137.9183931,0.7087332606315613,0.7453061938285828,-1.2288519712910784e-07,0.6622685790061951,0.7260644435882568,-0.013554136268794537,0.6295867562294006,0.6514942646026611,-0.01974228397011757,0.6384162902832031,0.5877357125282288,-0.02776188775897026,0.6718993186950684,0.5914159417152405,-0.034351885318756104,0.6560248136520386,0.5405489206314087,0.00223456509411335,0.6520430445671082,0.4633888900279999,-0.013766291551291943,0.643089234828949,0.4648649990558624,-0.028293292969465256,0.6419626474380493,0.4990301728248596,-0.03675337880849838,0.6804767847061157,0.5321752429008484,-0.0009839375270530581,0.6790540218353271,0.44383180141448975,-0.018389519304037094,0.6683969497680664,0.4545489549636841,-0.030589375644922256,0.6678014397621155,0.5007061958312988,-0.034990034997463226,0.703963577747345,0.5377741456031799,-0.007887136191129684,0.7046944499015808,0.4592677652835846,-0.02022683620452881,0.6937004327774048,0.46725207567214966,-0.027727654203772545,0.6941728591918945,0.509328305721283,-0.029509903863072395,0.7295547127723694,0.5529987215995789,-0.01724349707365036,0.7271129488945007,0.4846663773059845,-0.02476327493786812,0.7171347141265869,0.4823189973831177,-0.02868935465812683,0.7151942253112793,0.5124301910400391,-0.029780732467770576,0.0,0.0,0.0,0.0,0.0,0.0,0.0,0.0,0.0,0.0,0.0,0.0,0.0,0.0,0.0,0.0,0.0,0.0,0.0,0.0,0.0,0.0,0.0,0.0,0.0,0.0,0.0,0.0,0.0,0.0,0.0,0.0,0.0,0.0,0.0,0.0,0.0,0.0,0.0,0.0,0.0,0.0,0.0,0.0,0.0,0.0,0.0,0.0,0.0,0.0,0.0,0.0,0.0,0.0,0.0,0.0,0.0,0.0,0.0,0.0,0.0,0.0,0.0
1783345138.071409,0.7086183428764343,0.7447234988212585,-1.238861386809731e-07,0.6620542407035828,0.7250240445137024,-0.01356679480522871,0.6295968890190125,0.650580108165741,-0.019924858585000038,0.6389071941375732,0.587672770023346,-0.02813594415783882,0.6725929975509644,0.592239499092102,-0.03490082919597626,0.656456470489502,0.5402795076370239,0.001964257564395666,0.6525647044181824,0.4625641405582428,-0.014358608052134514,0.6428918838500977,0.4648281931877136,-0.028964949771761894,0.6413394212722778,0.4998928904533386,-0.03738533705472946,0.6806472539901733,0.5318790674209595,-0.0012514599366113544,0.6792898774147034,0.44358569383621216,-0.01879776269197464,0.6680945158004761,0.45377787947654724,-0.030852103605866432,0.6673213839530945,0.49982109665870667,-0.03512394800782204,0.7040520310401917,0.5374261736869812,-0.008199059404432774,0.7048443555831909,0.45899754762649536,-0.020704153925180435,0.6935238838195801,0.4661422371864319,-0.028229989111423492,0.6938146352767944,0.5081583261489868,-0.029961012303829193,0.7295085787773132,0.552450954914093,-0.01760712079703808,0.7273254990577698,0.4843098819255829,-0.025303052738308907,0.7170226573944092,0.4807945787906647,-0.0293776486068964,0.714704155921936,0.5101708769798279,-0.03050394169986248,0.0,0.0,0.0,0.0,0.0,0.0,0.0,0.0,0.0,0.0,0.0,0.0,0.0,0.0,0.0,0.0,0.0,0.0,0.0,0.0,0.0,0.0,0.0,0.0,0.0,0.0,0.0,0.0,0.0,0.0,0.0,0.0,0.0,0.0,0.0,0.0,0.0,0.0,0.0,0.0,0.0,0.0,0.0,0.0,0.0,0.0,0.0,0.0,0.0,0.0,0.0,0.0,0.0,0.0,0.0,0.0,0.0,0.0,0.0,0.0,0.0,0.0,0.0
