ciel274/research-hand-sign/data/raw/hiragana/sign_language_ta_1.csv
timestamp,R_joint_0_x,R_joint_0_y,R_joint_0_z,R_joint_1_x,R_joint_1_y,R_joint_1_z,R_joint_2_x,R_joint_2_y,R_joint_2_z,R_joint_3_x,R_joint_3_y,R_joint_3_z,R_joint_4_x,R_joint_4_y,R_joint_4_z,R_joint_5_x,R_joint_5_y,R_joint_5_z,R_joint_6_x,R_joint_6_y,R_joint_6_z,R_joint_7_x,R_joint_7_y,R_joint_7_z,R_joint_8_x,R_joint_8_y,R_joint_8_z,R_joint_9_x,R_joint_9_y,R_joint_9_z,R_joint_10_x,R_joint_10_y,R_joint_10_z,R_joint_11_x,R_joint_11_y,R_joint_11_z,R_joint_12_x,R_joint_12_y,R_joint_12_z,R_joint_13_x,R_joint_13_y,R_joint_13_z,R_joint_14_x,R_joint_14_y,R_joint_14_z,R_joint_15_x,R_joint_15_y,R_joint_15_z,R_joint_16_x,R_joint_16_y,R_joint_16_z,R_joint_17_x,R_joint_17_y,R_joint_17_z,R_joint_18_x,R_joint_18_y,R_joint_18_z,R_joint_19_x,R_joint_19_y,R_joint_19_z,R_joint_20_x,R_joint_20_y,R_joint_20_z,L_joint_0_x,L_joint_0_y,L_joint_0_z,L_joint_1_x,L_joint_1_y,L_joint_1_z,L_joint_2_x,L_joint_2_y,L_joint_2_z,L_joint_3_x,L_joint_3_y,L_joint_3_z,L_joint_4_x,L_joint_4_y,L_joint_4_z,L_joint_5_x,L_joint_5_y,L_joint_5_z,L_joint_6_x,L_joint_6_y,L_joint_6_z,L_joint_7_x,L_joint_7_y,L_joint_7_z,L_joint_8_x,L_joint_8_y,L_joint_8_z,L_joint_9_x,L_joint_9_y,L_joint_9_z,L_joint_10_x,L_joint_10_y,L_joint_10_z,L_joint_11_x,L_joint_11_y,L_joint_11_z,L_joint_12_x,L_joint_12_y,L_joint_12_z,L_joint_13_x,L_joint_13_y,L_joint_13_z,L_joint_14_x,L_joint_14_y,L_joint_14_z,L_joint_15_x,L_joint_15_y,L_joint_15_z,L_joint_16_x,L_joint_16_y,L_joint_16_z,L_joint_17_x,L_joint_17_y,L_joint_17_z,L_joint_18_x,L_joint_18_y,L_joint_18_z,L_joint_19_x,L_joint_19_y,L_joint_19_z,L_joint_20_x,L_joint_20_y,L_joint_20_z
1783390822.4308019,0.7147411704063416,0.80898118019104,-2.8575686883414164e-07,0.6849433183670044,0.7252265810966492,-0.012130196206271648,0.6638346314430237,0.6327399611473083,-0.026525286957621574,0.6603987216949463,0.5602457523345947,-0.03831718489527702,0.6655166149139404,0.5001594424247742,-0.04954758659005165,0.6910744309425354,0.6420055627822876,-0.052790213376283646,0.6224275827407837,0.6659483909606934,-0.07299909740686417,0.6345254778862,0.6889695525169373,-0.07485148310661316,0.6548696756362915,0.6820310950279236,-0.07396586239337921,0.7013202905654907,0.6990451216697693,-0.05634923651814461,0.6221440434455872,0.7183945178985596,-0.07501519471406937,0.6389778852462769,0.7302972078323364,-0.06795553863048553,0.6606665253639221,0.7268933057785034,-0.06428495794534683,0.7047431468963623,0.752732515335083,-0.059744756668806076,0.6301595568656921,0.765404999256134,-0.07818999141454697,0.6459431648254395,0.7733272910118103,-0.06687981635332108,0.6677423715591431,0.7688446044921875,-0.05919696390628815,0.7041268348693848,0.8010303378105164,-0.0633796900510788,0.6438198089599609,0.8045893907546997,-0.0766015276312828,0.6565329432487488,0.8081055879592896,-0.07160670310258865,0.6783522367477417,0.8067433834075928,-0.0675564631819725,0.0,0.0,0.0,0.0,0.0,0.0,0.0,0.0,0.0,0.0,0.0,0.0,0.0,0.0,0.0,0.0,0.0,0.0,0.0,0.0,0.0,0.0,0.0,0.0,0.0,0.0,0.0,0.0,0.0,0.0,0.0,0.0,0.0,0.0,0.0,0.0,0.0,0.0,0.0,0.0,0.0,0.0,0.0,0.0,0.0,0.0,0.0,0.0,0.0,0.0,0.0,0.0,0.0,0.0,0.0,0.0,0.0,0.0,0.0,0.0,0.0,0.0,0.0
1783390822.611873,0.7183520197868347,0.8154355883598328,-3.065697171678039e-07,0.6893192529678345,0.7297923564910889,-0.011829786002635956,0.6683739423751831,0.6389007568359375,-0.02472853474318981,0.662259042263031,0.5677130818367004,-0.03555414825677872,0.6649547815322876,0.507133960723877,-0.0458219014108181,0.6928226947784424,0.6463822722434998,-0.044821470975875854,0.6225674152374268,0.6675081253051758,-0.06540600955486298,0.6358844041824341,0.6944184899330139,-0.07029605656862259,0.6577968597412109,0.6897093653678894,-0.07164758443832397,0.702004611492157,0.7062448263168335,-0.04878692701458931,0.6232463121414185,0.7217371463775635,-0.06723669916391373,0.6409446001052856,0.7354366183280945,-0.06284261494874954,0.6630519032478333,0.7337650060653687,-0.06096382439136505,0.7056884765625,0.7617402076721191,-0.05307798832654953,0.6327735781669617,0.7729591131210327,-0.07066737860441208,0.6484954357147217,0.7804290652275085,-0.060057610273361206,0.6697680950164795,0.7758060693740845,-0.05276546999812126,0.7058871984481812,0.8115983605384827,-0.05783459544181824,0.6460010409355164,0.8125807642936707,-0.06994295865297318,0.6587958931922913,0.8147386312484741,-0.06415245682001114,0.6804837584495544,0.8133256435394287,-0.05933096632361412,0.0,0.0,0.0,0.0,0.0,0.0,0.0,0.0,0.0,0.0,0.0,0.0,0.0,0.0,0.0,0.0,0.0,0.0,0.0,0.0,0.0,0.0,0.0,0.0,0.0,0.0,0.0,0.0,0.0,0.0,0.0,0.0,0.0,0.0,0.0,0.0,0.0,0.0,0.0,0.0,0.0,0.0,0.0,0.0,0.0,0.0,0.0,0.0,0.0,0.0,0.0,0.0,0.0,0.0,0.0,0.0,0.0,0.0,0.0,0.0,0.0,0.0,0.0
1783390822.771841,0.7142196893692017,0.8116329312324524,-2.7443437033980445e-07,0.6866505742073059,0.7271549105644226,-0.012353920377790928,0.666838526725769,0.634661078453064,-0.026199208572506905,0.6624526977539062,0.5624873638153076,-0.03756330907344818,0.6669785976409912,0.5024446249008179,-0.04824721813201904,0.6926741003990173,0.6432446837425232,-0.04995531588792801,0.6233088374137878,0.6630162000656128,-0.06961384415626526,0.6355172395706177,0.6863241195678711,-0.0715281218290329,0.6564555168151855,0.6802210211753845,-0.07071604579687119,0.7024919986724854,0.7013236880302429,-0.05328479781746864,0.6226233243942261,0.7179660201072693,-0.07178986817598343,0.6408230066299438,0.7282170653343201,-0.06538531184196472,0.6630802154541016,0.7241302132606506,-0.06203923374414444,0.7059396505355835,0.755832314491272,-0.05659347027540207,0.6304789185523987,0.7658466100692749,-0.07484345883131027,0.6479320526123047,0.7726614475250244,-0.06403181701898575,0.6702054738998413,0.7683250904083252,-0.05655837804079056,0.7054834365844727,0.8048596382141113,-0.060181815177202225,0.6447092294692993,0.8064606189727783,-0.07338149845600128,0.6582837700843811,0.8096025586128235,-0.06865470856428146,0.6803920269012451,0.8084847927093506,-0.06464020907878876,0.0,0.0,0.0,0.0,0.0,0.0,0.0,0.0,0.0,0.0,0.0,0.0,0.0,0.0,0.0,0.0,0.0,0.0,0.0,0.0,0.0,0.0,0.0,0.0,0.0,0.0,0.0,0.0,0.0,0.0,0.0,0.0,0.0,0.0,0.0,0.0,0.0,0.0,0.0,0.0,0.0,0.0,0.0,0.0,0.0,0.0,0.0,0.0,0.0,0.0,0.0,0.0,0.0,0.0,0.0,0.0,0.0,0.0,0.0,0.0,0.0,0.0,0.0
1783390822.914736,0.7176090478897095,0.8100969791412354,-2.713192657211039e-07,0.687427818775177,0.7239131927490234,-0.013615778647363186,0.6672281622886658,0.6326382160186768,-0.02735387347638607,0.6630881428718567,0.5621469616889954,-0.03845057636499405,0.6663086414337158,0.5025128126144409,-0.04889380559325218,0.693507730960846,0.644980788230896,-0.048260193318128586,0.623384416103363,0.6660148501396179,-0.06831510365009308,0.636445164680481,0.689344048500061,-0.07196339964866638,0.6577214002609253,0.6847770810127258,-0.07238002866506577,0.702736496925354,0.7046184539794922,-0.05118602514266968,0.6237012147903442,0.7197001576423645,-0.06910834461450577,0.6414816975593567,0.7314450144767761,-0.06396214663982391,0.6631527543067932,0.7302800416946411,-0.061712052673101425,0.7061333656311035,0.7594086527824402,-0.054351557046175,0.6325774192810059,0.7684943675994873,-0.07189562171697617,0.6485575437545776,0.7741020321846008,-0.06150065362453461,0.6700698137283325,0.7707862257957458,-0.05444415658712387,0.7059212923049927,0.8086810111999512,-0.05804365873336792,0.6466411352157593,0.8072380423545837,-0.07076244056224823,0.660085916519165,0.8090898990631104,-0.06555874645709991,0.6822614669799805,0.8093060255050659,-0.061133284121751785,0.0,0.0,0.0,0.0,0.0,0.0,0.0,0.0,0.0,0.0,0.0,0.0,0.0,0.0,0.0,0.0,0.0,0.0,0.0,0.0,0.0,0.0,0.0,0.0,0.0,0.0,0.0,0.0,0.0,0.0,0.0,0.0,0.0,0.0,0.0,0.0,0.0,0.0,0.0,0.0,0.0,0.0,0.0,0.0,0.0,0.0,0.0,0.0,0.0,0.0,0.0,0.0,0.0,0.0,0.0,0.0,0.0,0.0,0.0,0.0,0.0,0.0,0.0
1783390823.087268,0.7170559763908386,0.8145130276679993,-2.987356140238262e-07,0.6890000104904175,0.7296034097671509,-0.01296629011631012,0.6684591174125671,0.6381112933158875,-0.026387788355350494,0.6626283526420593,0.5662240386009216,-0.037363991141319275,0.6657732129096985,0.5053920745849609,-0.0477641336619854,0.6931896805763245,0.6479465365409851,-0.047883935272693634,0.6235887408256531,0.6691609621047974,-0.06811445951461792,0.6365566849708557,0.6939839124679565,-0.07148770242929459,0.6579102873802185,0.6892886161804199,-0.07168229669332504,0.702800452709198,0.7068027257919312,-0.051194384694099426,0.6243892312049866,0.7233524918556213,-0.06948456913232803,0.6416223645210266,0.7362712025642395,-0.06411039084196091,0.6631378531455994,0.734295666217804,-0.06154961884021759,0.7064917683601379,0.7614127397537231,-0.0547446683049202,0.6333454251289368,0.7726590037345886,-0.07257364690303802,0.6489357352256775,0.7796894311904907,-0.06165750324726105,0.6698654890060425,0.7756109833717346,-0.05413474515080452,0.7063732147216797,0.8108808398246765,-0.058775901794433594,0.6465482711791992,0.8125308156013489,-0.07153100520372391,0.6591781377792358,0.8144888281822205,-0.06604976952075958,0.6805832386016846,0.8131894469261169,-0.061373014003038406,0.0,0.0,0.0,0.0,0.0,0.0,0.0,0.0,0.0,0.0,0.0,0.0,0.0,0.0,0.0,0.0,0.0,0.0,0.0,0.0,0.0,0.0,0.0,0.0,0.0,0.0,0.0,0.0,0.0,0.0,0.0,0.0,0.0,0.0,0.0,0.0,0.0,0.0,0.0,0.0,0.0,0.0,0.0,0.0,0.0,0.0,0.0,0.0,0.0,0.0,0.0,0.0,0.0,0.0,0.0,0.0,0.0,0.0,0.0,0.0,0.0,0.0,0.0
1783390823.247804,0.7172559499740601,0.8199475407600403,-3.076203256568988e-07,0.6895634531974792,0.7350302934646606,-0.013140144757926464,0.6685798764228821,0.6423987746238708,-0.026020195335149765,0.6623207926750183,0.5695288777351379,-0.03650032728910446,0.664985179901123,0.5083022117614746,-0.046324510127305984,0.6948090195655823,0.6498971581459045,-0.046006765216588974,0.6245467066764832,0.6710348129272461,-0.06647305190563202,0.6373444199562073,0.6969752311706543,-0.07017873972654343,0.6590414047241211,0.6924172043800354,-0.07042364776134491,0.7038496136665344,0.7086177468299866,-0.049077194184064865,0.6251487731933594,0.725333571434021,-0.06758300960063934,0.6425148248672485,0.7394453287124634,-0.062381044030189514,0.664292573928833,0.7372284531593323,-0.05963258445262909,0.7070178389549255,0.7633000612258911,-0.05259064957499504,0.633767306804657,0.7746551632881165,-0.07081139832735062,0.6495047807693481,0.7824207544326782,-0.06022309139370918,0.670822024345398,0.7781777381896973,-0.0525769367814064,0.7067431211471558,0.8131029009819031,-0.05660935863852501,0.6466934084892273,0.8144426345825195,-0.06957482546567917,0.6594492197036743,0.8173777461051941,-0.06426692754030228,0.6812764406204224,0.816680908203125,-0.05947250872850418,0.0,0.0,0.0,0.0,0.0,0.0,0.0,0.0,0.0,0.0,0.0,0.0,0.0,0.0,0.0,0.0,0.0,0.0,0.0,0.0,0.0,0.0,0.0,0.0,0.0,0.0,0.0,0.0,0.0,0.0,0.0,0.0,0.0,0.0,0.0,0.0,0.0,0.0,0.0,0.0,0.0,0.0,0.0,0.0,0.0,0.0,0.0,0.0,0.0,0.0,0.0,0.0,0.0,0.0,0.0,0.0,0.0,0.0,0.0,0.0,0.0,0.0,0.0
1783390823.418936,0.7173607349395752,0.8225710988044739,-2.9164408488213667e-07,0.6879413723945618,0.7363057136535645,-0.013409425504505634,0.6670703291893005,0.6420249938964844,-0.027417950332164764,0.6625904440879822,0.5681100487709045,-0.03878028690814972,0.6660650372505188,0.5069628953933716,-0.04931944981217384,0.6949967741966248,0.6499927043914795,-0.049437638372182846,0.6244421005249023,0.6706224083900452,-0.07035791873931885,0.6374932527542114,0.697378933429718,-0.0733107477426529,0.6593544483184814,0.6922479271888733,-0.07292477041482925,0.7049947381019592,0.7082247138023376,-0.05243130400776863,0.6253944039344788,0.7239932417869568,-0.07155859470367432,0.6430173516273499,0.7388978004455566,-0.06536877155303955,0.6648375391960144,0.7368669509887695,-0.06183341145515442,0.7083005309104919,0.7626181244850159,-0.05573026090860367,0.6337110996246338,0.7719098925590515,-0.07448369264602661,0.6497734189033508,0.780817449092865,-0.06365653872489929,0.6716122627258301,0.7774450778961182,-0.055857717990875244,0.7078150510787964,0.8118531703948975,-0.059421852231025696,0.6472611427307129,0.8119333386421204,-0.07269824296236038,0.6604040861129761,0.8162318468093872,-0.06762108951807022,0.682696521282196,0.8167577981948853,-0.06304783374071121,0.0,0.0,0.0,0.0,0.0,0.0,0.0,0.0,0.0,0.0,0.0,0.0,0.0,0.0,0.0,0.0,0.0,0.0,0.0,0.0,0.0,0.0,0.0,0.0,0.0,0.0,0.0,0.0,0.0,0.0,0.0,0.0,0.0,0.0,0.0,0.0,0.0,0.0,0.0,0.0,0.0,0.0,0.0,0.0,0.0,0.0,0.0,0.0,0.0,0.0,0.0,0.0,0.0,0.0,0.0,0.0,0.0,0.0,0.0,0.0,0.0,0.0,0.0
1783390823.549828,0.7200565934181213,0.8224427700042725,-3.041282070626039e-07,0.6910449862480164,0.7358562350273132,-0.013671360909938812,0.6694956421852112,0.6418236494064331,-0.02662522718310356,0.6643592715263367,0.569401741027832,-0.03688161075115204,0.6659607887268066,0.5109278559684753,-0.046270377933979034,0.695974588394165,0.6523842215538025,-0.04713330417871475,0.6249416470527649,0.6742263436317444,-0.0674808993935585,0.6378525495529175,0.6995943784713745,-0.07106030732393265,0.6595973372459412,0.6945634484291077,-0.07121916115283966,0.7050744295120239,0.711897075176239,-0.049839068204164505,0.6256566047668457,0.7288665771484375,-0.06826765090227127,0.6428906321525574,0.742253839969635,-0.06300042569637299,0.6649631857872009,0.7403016686439514,-0.06030527502298355,0.7084075808525085,0.7666513919830322,-0.052973221987485886,0.6348982453346252,0.7784363627433777,-0.07103721797466278,0.6502214670181274,0.7850323915481567,-0.060993682593107224,0.6719162464141846,0.7800710201263428,-0.053858935832977295,0.7086400985717773,0.8160198926925659,-0.056653909385204315,0.6484524607658386,0.8174328207969666,-0.06942377984523773,0.6613554954528809,0.8201464414596558,-0.06457994878292084,0.6838775873184204,0.8193931579589844,-0.06027887389063835,0.0,0.0,0.0,0.0,0.0,0.0,0.0,0.0,0.0,0.0,0.0,0.0,0.0,0.0,0.0,0.0,0.0,0.0,0.0,0.0,0.0,0.0,0.0,0.0,0.0,0.0,0.0,0.0,0.0,0.0,0.0,0.0,0.0,0.0,0.0,0.0,0.0,0.0,0.0,0.0,0.0,0.0,0.0,0.0,0.0,0.0,0.0,0.0,0.0,0.0,0.0,0.0,0.0,0.0,0.0,0.0,0.0,0.0,0.0,0.0,0.0,0.0,0.0
1783390823.790522,0.7182419896125793,0.8243120312690735,-3.074626135912695e-07,0.688926637172699,0.7385379672050476,-0.01283953431993723,0.6679354310035706,0.6463019847869873,-0.026907041668891907,0.6631996035575867,0.5736633539199829,-0.03847244009375572,0.6667720079421997,0.5122738480567932,-0.049507081508636475,0.6962155103683472,0.655911922454834,-0.051241882145404816,0.6253911256790161,0.6780933141708374,-0.07167366147041321,0.6380542516708374,0.7043163180351257,-0.07425177842378616,0.6598035097122192,0.6995791792869568,-0.07394911348819733,0.7057453393936157,0.7147937417030334,-0.055029984563589096,0.6269000172615051,0.7308352589607239,-0.07397199422121048,0.6438513994216919,0.7454595565795898,-0.06775671988725662,0.6660237312316895,0.7434638738632202,-0.06462642550468445,0.7092599272727966,0.7690373659133911,-0.058827344328165054,0.6356586217880249,0.780117392539978,-0.07710970938205719,0.6512694358825684,0.7877602577209473,-0.06554315984249115,0.6731136441230774,0.7834081053733826,-0.05772179737687111,0.7091113924980164,0.8184683918952942,-0.06307953596115112,0.6490457057952881,0.8202884197235107,-0.07637128978967667,0.6621021032333374,0.8229783773422241,-0.0707375556230545,0.6845661401748657,0.8217135667800903,-0.06603933125734329,0.0,0.0,0.0,0.0,0.0,0.0,0.0,0.0,0.0,0.0,0.0,0.0,0.0,0.0,0.0,0.0,0.0,0.0,0.0,0.0,0.0,0.0,0.0,0.0,0.0,0.0,0.0,0.0,0.0,0.0,0.0,0.0,0.0,0.0,0.0,0.0,0.0,0.0,0.0,0.0,0.0,0.0,0.0,0.0,0.0,0.0,0.0,0.0,0.0,0.0,0.0,0.0,0.0,0.0,0.0,0.0,0.0,0.0,0.0,0.0,0.0,0.0,0.0
1783390823.953613,0.7187590003013611,0.8202776312828064,-2.8660920747825003e-07,0.6897185444831848,0.73518306016922,-0.013982648029923439,0.6687133312225342,0.6435676217079163,-0.0278339721262455,0.6640576720237732,0.5722726583480835,-0.03885020315647125,0.6663015484809875,0.5132257342338562,-0.049119606614112854,0.6959580779075623,0.6567119359970093,-0.05067302659153938,0.6245741248130798,0.6780862212181091,-0.07106322050094604,0.6376466751098633,0.7025606632232666,-0.07387314736843109,0.6594505906105042,0.6973695158958435,-0.07352530211210251,0.7054846286773682,0.7161138653755188,-0.0534333772957325,0.6257222890853882,0.731975793838501,-0.07187562435865402,0.6433140635490417,0.7451865673065186,-0.06581635028123856,0.6651883721351624,0.7433913946151733,-0.0627393126487732,0.7089859247207642,0.7708134055137634,-0.05636577308177948,0.6347931027412415,0.781521201133728,-0.07445336878299713,0.6506519317626953,0.7879413962364197,-0.06366957724094391,0.6724713444709778,0.7840855121612549,-0.05623185262084007,0.7088877558708191,0.820240318775177,-0.05979989096522331,0.6486202478408813,0.8209664225578308,-0.07290016114711761,0.6618145704269409,0.8234360814094543,-0.06771622598171234,0.6843249797821045,0.82374107837677,-0.06326229125261307,0.0,0.0,0.0,0.0,0.0,0.0,0.0,0.0,0.0,0.0,0.0,0.0,0.0,0.0,0.0,0.0,0.0,0.0,0.0,0.0,0.0,0.0,0.0,0.0,0.0,0.0,0.0,0.0,0.0,0.0,0.0,0.0,0.0,0.0,0.0,0.0,0.0,0.0,0.0,0.0,0.0,0.0,0.0,0.0,0.0,0.0,0.0,0.0,0.0,0.0,0.0,0.0,0.0,0.0,0.0,0.0,0.0,0.0,0.0,0.0,0.0,0.0,0.0
1783390824.126967,0.7173031568527222,0.8203461170196533,-2.856331775547005e-07,0.68855220079422,0.7359498739242554,-0.0133171696215868,0.6672589182853699,0.6430740356445312,-0.02783381938934326,0.662595808506012,0.5693249106407166,-0.0396181121468544,0.6658843159675598,0.5077372193336487,-0.05068892985582352,0.6948814988136292,0.6527013778686523,-0.05254374071955681,0.624518096446991,0.6744986772537231,-0.07288908958435059,0.6373966932296753,0.7006626725196838,-0.07425334304571152,0.6588091850280762,0.6958496570587158,-0.07278280705213547,0.7045350670814514,0.7111367583274841,-0.05573984608054161,0.6248710751533508,0.7273325324058533,-0.07441911101341248,0.6422736048698425,0.7419455647468567,-0.0668996199965477,0.6637685894966125,0.7405471801757812,-0.06257422268390656,0.7075208425521851,0.7658235430717468,-0.05899956449866295,0.6328262090682983,0.7755035161972046,-0.07747650146484375,0.6489284634590149,0.7844823002815247,-0.06577057391405106,0.6705409288406372,0.7818005084991455,-0.05758931487798691,0.7067843079566956,0.8152852654457092,-0.06259024143218994,0.646095335483551,0.8157486915588379,-0.07600941509008408,0.6588748097419739,0.8199694156646729,-0.0707099512219429,0.6805477738380432,0.8211892247200012,-0.06611362099647522,0.0,0.0,0.0,0.0,0.0,0.0,0.0,0.0,0.0,0.0,0.0,0.0,0.0,0.0,0.0,0.0,0.0,0.0,0.0,0.0,0.0,0.0,0.0,0.0,0.0,0.0,0.0,0.0,0.0,0.0,0.0,0.0,0.0,0.0,0.0,0.0,0.0,0.0,0.0,0.0,0.0,0.0,0.0,0.0,0.0,0.0,0.0,0.0,0.0,0.0,0.0,0.0,0.0,0.0,0.0,0.0,0.0,0.0,0.0,0.0,0.0,0.0,0.0
1783390824.2861161,0.7182479500770569,0.817205011844635,-2.771598133222142e-07,0.688707172870636,0.730284571647644,-0.012313827872276306,0.6685071587562561,0.6374717950820923,-0.026624079793691635,0.6641960740089417,0.5644306540489197,-0.038435209542512894,0.6672095060348511,0.5029342770576477,-0.04953566938638687,0.6949029564857483,0.6479409337043762,-0.05058008059859276,0.6246305704116821,0.6692238450050354,-0.07042300701141357,0.6375600695610046,0.6951667666435242,-0.07198516279459,0.6593409180641174,0.6897801160812378,-0.07086152583360672,0.7048821449279785,0.706429660320282,-0.05414266139268875,0.625140905380249,0.7215870022773743,-0.07227981090545654,0.6424264907836914,0.736045241355896,-0.06516750156879425,0.6640792489051819,0.7338798642158508,-0.06149471551179886,0.7080780267715454,0.7605129480361938,-0.05770425871014595,0.6331299543380737,0.769267201423645,-0.07548537850379944,0.6491155028343201,0.7784070372581482,-0.06395037472248077,0.6708892583847046,0.7750126719474792,-0.05629054456949234,0.7075330018997192,0.8089512586593628,-0.06157387048006058,0.6468610763549805,0.8091781735420227,-0.07411369681358337,0.6600604057312012,0.8135548233985901,-0.06860703229904175,0.682187020778656,0.8138862252235413,-0.06422480940818787,0.0,0.0,0.0,0.0,0.0,0.0,0.0,0.0,0.0,0.0,0.0,0.0,0.0,0.0,0.0,0.0,0.0,0.0,0.0,0.0,0.0,0.0,0.0,0.0,0.0,0.0,0.0,0.0,0.0,0.0,0.0,0.0,0.0,0.0,0.0,0.0,0.0,0.0,0.0,0.0,0.0,0.0,0.0,0.0,0.0,0.0,0.0,0.0,0.0,0.0,0.0,0.0,0.0,0.0,0.0,0.0,0.0,0.0,0.0,0.0,0.0,0.0,0.0
1783390824.4424078,0.7215963006019592,0.8198370933532715,-3.1303224545808916e-07,0.6947203874588013,0.7351102232933044,-0.012515931390225887,0.6729214191436768,0.6404309272766113,-0.024379968643188477,0.6664214730262756,0.5663529634475708,-0.03392793610692024,0.6687045693397522,0.5068467259407043,-0.04267846792936325,0.6967865824699402,0.6515359878540039,-0.04411108419299126,0.6260965466499329,0.6693578362464905,-0.06439929455518723,0.6397599577903748,0.6952900886535645,-0.06849261373281479,0.6619199514389038,0.6914934515953064,-0.06900053471326828,0.7051581144332886,0.7102598547935486,-0.04711375758051872,0.6263818740844727,0.7226613163948059,-0.06525615602731705,0.6443037986755371,0.7365249395370483,-0.06029275804758072,0.6663699746131897,0.7351378202438354,-0.05771734192967415,0.7077146768569946,0.7643183469772339,-0.050601527094841,0.6346210837364197,0.77070552110672,-0.06874806433916092,0.6505463719367981,0.7791036367416382,-0.058456216007471085,0.6718829870223999,0.7760422825813293,-0.05089133232831955,0.7068239450454712,0.8134503364562988,-0.054548315703868866,0.6468393206596375,0.8113775253295898,-0.06740853190422058,0.6597452759742737,0.815079391002655,-0.062292635440826416,0.6816929578781128,0.8157281279563904,-0.05760274454951286,0.0,0.0,0.0,0.0,0.0,0.0,0.0,0.0,0.0,0.0,0.0,0.0,0.0,0.0,0.0,0.0,0.0,0.0,0.0,0.0,0.0,0.0,0.0,0.0,0.0,0.0,0.0,0.0,0.0,0.0,0.0,0.0,0.0,0.0,0.0,0.0,0.0,0.0,0.0,0.0,0.0,0.0,0.0,0.0,0.0,0.0,0.0,0.0,0.0,0.0,0.0,0.0,0.0,0.0,0.0,0.0,0.0,0.0,0.0,0.0,0.0,0.0,0.0
1783390824.579843,0.7216208577156067,0.8184714317321777,-2.97323708764452e-07,0.6932270526885986,0.7343043684959412,-0.011512664146721363,0.6732715368270874,0.6417051553726196,-0.02360367588698864,0.6686081886291504,0.5688303112983704,-0.03361934795975685,0.6708650588989258,0.50977623462677,-0.04317905753850937,0.697575032711029,0.6553422212600708,-0.044940412044525146,0.6275395750999451,0.6733866930007935,-0.0654027909040451,0.6420243978500366,0.6964825391769409,-0.07024554163217545,0.6644501090049744,0.6911754608154297,-0.07147634029388428,0.7067169547080994,0.7134414911270142,-0.04872336983680725,0.6279380321502686,0.7262197732925415,-0.06685034185647964,0.6466522216796875,0.7364626526832581,-0.06233462318778038,0.6693882346153259,0.733892560005188,-0.06044447794556618,0.7098857760429382,0.7669014930725098,-0.05275294557213783,0.6361896395683289,0.7745097279548645,-0.07047548145055771,0.6526809930801392,0.7810537219047546,-0.05994396284222603,0.6745790839195251,0.7773141860961914,-0.05263031646609306,0.709036648273468,0.8159565925598145,-0.05719940736889839,0.6485508680343628,0.815611720085144,-0.06983178853988647,0.6623212099075317,0.818937361240387,-0.06422325223684311,0.685055136680603,0.8189882636070251,-0.0594705194234848,0.0,0.0,0.0,0.0,0.0,0.0,0.0,0.0,0.0,0.0,0.0,0.0,0.0,0.0,0.0,0.0,0.0,0.0,0.0,0.0,0.0,0.0,0.0,0.0,0.0,0.0,0.0,0.0,0.0,0.0,0.0,0.0,0.0,0.0,0.0,0.0,0.0,0.0,0.0,0.0,0.0,0.0,0.0,0.0,0.0,0.0,0.0,0.0,0.0,0.0,0.0,0.0,0.0,0.0,0.0,0.0,0.0,0.0,0.0,0.0,0.0,0.0,0.0
1783390824.7181172,0.7222777605056763,0.8198848366737366,-2.8518357453322096e-07,0.6933289766311646,0.734804630279541,-0.01237650029361248,0.6737341284751892,0.6428608894348145,-0.025609098374843597,0.6692513823509216,0.5698280930519104,-0.03648722544312477,0.6722298860549927,0.5093852281570435,-0.04683529585599899,0.6979182958602905,0.653191864490509,-0.04821320250630379,0.6284071207046509,0.6723246574401855,-0.06791681796312332,0.641249418258667,0.6960784792900085,-0.07043571025133133,0.662678062915802,0.6914342641830444,-0.07002408057451248,0.7074623107910156,0.7118210792541504,-0.051679838448762894,0.6285108327865601,0.726177453994751,-0.06956931203603745,0.6460692286491394,0.7385042309761047,-0.06338714063167572,0.6679792404174805,0.7362748384475708,-0.06025392934679985,0.7107959985733032,0.7660996317863464,-0.05527292937040329,0.6362938284873962,0.7742855548858643,-0.07325044274330139,0.652654230594635,0.7818427681922913,-0.061871107667684555,0.6742438673973083,0.7787604331970215,-0.053950220346450806,0.7101114392280579,0.8154711723327637,-0.059240665286779404,0.6493887901306152,0.8154817223548889,-0.0724329948425293,0.6624518632888794,0.8190920352935791,-0.06681295484304428,0.6842283010482788,0.8192448616027832,-0.06193435937166214,0.0,0.0,0.0,0.0,0.0,0.0,0.0,0.0,0.0,0.0,0.0,0.0,0.0,0.0,0.0,0.0,0.0,0.0,0.0,0.0,0.0,0.0,0.0,0.0,0.0,0.0,0.0,0.0,0.0,0.0,0.0,0.0,0.0,0.0,0.0,0.0,0.0,0.0,0.0,0.0,0.0,0.0,0.0,0.0,0.0,0.0,0.0,0.0,0.0,0.0,0.0,0.0,0.0,0.0,0.0,0.0,0.0,0.0,0.0,0.0,0.0,0.0,0.0
1783390824.8486269,0.7258345484733582,0.8147231340408325,-2.64446555320319e-07,0.6985090970993042,0.7293438911437988,-0.01245384942740202,0.6781253814697266,0.6368011236190796,-0.025519004091620445,0.6731510162353516,0.5639562010765076,-0.03602655231952667,0.6762908697128296,0.5060205459594727,-0.045942943543195724,0.6993584632873535,0.6530818343162537,-0.04981432855129242,0.6293337345123291,0.6676985621452332,-0.06959670782089233,0.6427215337753296,0.6894378662109375,-0.07187941670417786,0.6646388173103333,0.6858566999435425,-0.07114798575639725,0.7072593569755554,0.7120491862297058,-0.05257707089185715,0.6279268264770508,0.721899688243866,-0.07026667147874832,0.6460558772087097,0.7327457070350647,-0.06340476125478745,0.6684174537658691,0.731434166431427,-0.05985843017697334,0.7093608975410461,0.7658419609069824,-0.05537181720137596,0.6346694827079773,0.7695658802986145,-0.07348242402076721,0.6513932943344116,0.7761411070823669,-0.06226601451635361,0.673373281955719,0.7748758792877197,-0.05438655987381935,0.7078536748886108,0.813969612121582,-0.058428529649972916,0.6472740769386292,0.811276912689209,-0.07172682136297226,0.6607419848442078,0.8142416477203369,-0.06643904745578766,0.6828092932701111,0.8155444264411926,-0.06186999753117561,0.0,0.0,0.0,0.0,0.0,0.0,0.0,0.0,0.0,0.0,0.0,0.0,0.0,0.0,0.0,0.0,0.0,0.0,0.0,0.0,0.0,0.0,0.0,0.0,0.0,0.0,0.0,0.0,0.0,0.0,0.0,0.0,0.0,0.0,0.0,0.0,0.0,0.0,0.0,0.0,0.0,0.0,0.0,0.0,0.0,0.0,0.0,0.0,0.0,0.0,0.0,0.0,0.0,0.0,0.0,0.0,0.0,0.0,0.0,0.0,0.0,0.0,0.0
1783390824.978766,0.7280957102775574,0.8036903738975525,-2.3146911587446084e-07,0.703118622303009,0.7194367051124573,-0.011096802540123463,0.6838774681091309,0.6313011646270752,-0.0252341628074646,0.6778727173805237,0.5630786418914795,-0.036817241460084915,0.6813377141952515,0.5050147175788879,-0.04824122041463852,0.6994599103927612,0.6596801280975342,-0.05350067466497421,0.6293590068817139,0.6663993000984192,-0.07361780107021332,0.643684983253479,0.6834114789962769,-0.07717926800251007,0.6656427979469299,0.6805527806282043,-0.0776272714138031,0.7048304677009583,0.7201777696609497,-0.0575077123939991,0.6257047653198242,0.7178714871406555,-0.07532037049531937,0.6444176435470581,0.7236740589141846,-0.06947221606969833,0.6678832173347473,0.7254147529602051,-0.0673217847943306,0.7059667110443115,0.773658275604248,-0.06086520478129387,0.6322175860404968,0.7662250399589539,-0.07869825512170792,0.6498878002166748,0.7709325551986694,-0.06663139164447784,0.6723454594612122,0.7738965749740601,-0.05860519781708717,0.7034292817115784,0.8205698728561401,-0.06434378772974014,0.6433879137039185,0.8087283372879028,-0.07811681181192398,0.657742440700531,0.8102521896362305,-0.07163243740797043,0.6795634031295776,0.8143599033355713,-0.0664314553141594,0.0,0.0,0.0,0.0,0.0,0.0,0.0,0.0,0.0,0.0,0.0,0.0,0.0,0.0,0.0,0.0,0.0,0.0,0.0,0.0,0.0,0.0,0.0,0.0,0.0,0.0,0.0,0.0,0.0,0.0,0.0,0.0,0.0,0.0,0.0,0.0,0.0,0.0,0.0,0.0,0.0,0.0,0.0,0.0,0.0,0.0,0.0,0.0,0.0,0.0,0.0,0.0,0.0,0.0,0.0,0.0,0.0,0.0,0.0,0.0,0.0,0.0,0.0
1783390825.1169071,0.7267051935195923,0.7948933839797974,-2.0256733535006788e-07,0.7084601521492004,0.7150006890296936,-0.008330021053552628,0.690629780292511,0.6261571645736694,-0.023854125291109085,0.6848264336585999,0.5615419745445251,-0.03694760426878929,0.6857969164848328,0.5052306056022644,-0.050293613225221634,0.7020715475082397,0.6615732312202454,-0.06009410321712494,0.6295378804206848,0.6577179431915283,-0.08104179799556732,0.6448634266853333,0.671485960483551,-0.08484955877065659,0.6670860052108765,0.6712190508842468,-0.08523590862751007,0.7055206298828125,0.7215515971183777,-0.06567242741584778,0.625557541847229,0.7093498706817627,-0.08337913453578949,0.6440798044204712,0.715976357460022,-0.07685188204050064,0.668124258518219,0.7214257121086121,-0.07444999366998672,0.7051050662994385,0.7753483057022095,-0.06970769166946411,0.6305338740348816,0.7574228048324585,-0.08601527661085129,0.6492825150489807,0.7629928588867188,-0.07237065583467484,0.6730079054832458,0.7675528526306152,-0.06392765045166016,0.7002842426300049,0.8215879797935486,-0.07356998324394226,0.6414757370948792,0.8051905632019043,-0.08708080649375916,0.6573308706283569,0.8059468269348145,-0.0794709101319313,0.6790491938591003,0.8105217814445496,-0.0739051103591919,0.0,0.0,0.0,0.0,0.0,0.0,0.0,0.0,0.0,0.0,0.0,0.0,0.0,0.0,0.0,0.0,0.0,0.0,0.0,0.0,0.0,0.0,0.0,0.0,0.0,0.0,0.0,0.0,0.0,0.0,0.0,0.0,0.0,0.0,0.0,0.0,0.0,0.0,0.0,0.0,0.0,0.0,0.0,0.0,0.0,0.0,0.0,0.0,0.0,0.0,0.0,0.0,0.0,0.0,0.0,0.0,0.0,0.0,0.0,0.0,0.0,0.0,0.0
1783390825.279079,0.7304753661155701,0.7903980016708374,-1.5922184104510961e-07,0.7161428928375244,0.710760772228241,-0.008595195598900318,0.6984871625900269,0.6213259696960449,-0.024459773674607277,0.6911376118659973,0.5574774742126465,-0.037848226726055145,0.690693199634552,0.5000128149986267,-0.05113140121102333,0.7047499418258667,0.6581804752349854,-0.05926758050918579,0.6307646036148071,0.6484273672103882,-0.0804227888584137,0.6482752561569214,0.6594586372375488,-0.0847366452217102,0.6711505651473999,0.6604583859443665,-0.08526376634836197,0.704955518245697,0.7189517617225647,-0.06452233344316483,0.6252546906471252,0.7007898092269897,-0.08316422253847122,0.6459619998931885,0.7051341533660889,-0.07751218229532242,0.6704979538917542,0.7133914828300476,-0.07509560137987137,0.702093780040741,0.7724300622940063,-0.06830856949090958,0.6301871538162231,0.7481350302696228,-0.08463563770055771,0.6500602960586548,0.7519091367721558,-0.07123353332281113,0.6734521389007568,0.7586058378219604,-0.06254898011684418,0.695835292339325,0.8172082901000977,-0.07200071215629578,0.6397016644477844,0.7943519949913025,-0.08531420677900314,0.6559997797012329,0.7942973375320435,-0.07771721482276917,0.6766462326049805,0.8016059398651123,-0.07195646315813065,0.0,0.0,0.0,0.0,0.0,0.0,0.0,0.0,0.0,0.0,0.0,0.0,0.0,0.0,0.0,0.0,0.0,0.0,0.0,0.0,0.0,0.0,0.0,0.0,0.0,0.0,0.0,0.0,0.0,0.0,0.0,0.0,0.0,0.0,0.0,0.0,0.0,0.0,0.0,0.0,0.0,0.0,0.0,0.0,0.0,0.0,0.0,0.0,0.0,0.0,0.0,0.0,0.0,0.0,0.0,0.0,0.0,0.0,0.0,0.0,0.0,0.0,0.0
1783390825.408658,0.7318201065063477,0.7864207029342651,-1.2776861524343985e-07,0.7200364470481873,0.7084799408912659,-0.0053532239980995655,0.7019003629684448,0.6185967326164246,-0.02019464038312435,0.6938895583152771,0.5557671785354614,-0.03321889415383339,0.6920866966247559,0.4987007975578308,-0.046452295035123825,0.7013818621635437,0.6501436829566956,-0.05665849149227142,0.6308623552322388,0.6372146010398865,-0.07466595619916916,0.6480118036270142,0.6471658945083618,-0.07606390118598938,0.6706688404083252,0.6493159532546997,-0.07477182894945145,0.699640691280365,0.7101554274559021,-0.062929667532444,0.6240392327308655,0.6894832849502563,-0.07916375249624252,0.6442390084266663,0.69432532787323,-0.07263775169849396,0.667770504951477,0.7020998597145081,-0.06948285549879074,0.6960523128509521,0.764265239238739,-0.06716367602348328,0.6261036396026611,0.7387365698814392,-0.08008068054914474,0.6454299688339233,0.7427873611450195,-0.06624744832515717,0.6682692766189575,0.7490825057029724,-0.05775760859251022,0.6907010078430176,0.8107560873031616,-0.0710383802652359,0.6362850069999695,0.78632652759552,-0.08218750357627869,0.6520204544067383,0.7843677997589111,-0.07428157329559326,0.6723353266716003,0.7908179759979248,-0.0683717429637909,0.0,0.0,0.0,0.0,0.0,0.0,0.0,0.0,0.0,0.0,0.0,0.0,0.0,0.0,0.0,0.0,0.0,0.0,0.0,0.0,0.0,0.0,0.0,0.0,0.0,0.0,0.0,0.0,0.0,0.0,0.0,0.0,0.0,0.0,0.0,0.0,0.0,0.0,0.0,0.0,0.0,0.0,0.0,0.0,0.0,0.0,0.0,0.0,0.0,0.0,0.0,0.0,0.0,0.0,0.0,0.0,0.0,0.0,0.0,0.0,0.0,0.0,0.0
1783390825.5493839,0.7303467988967896,0.7865003943443298,-8.705881526793746e-08,0.7210304141044617,0.708307683467865,-0.004024142399430275,0.7004055380821228,0.6192070841789246,-0.01768304593861103,0.6917502284049988,0.5564985871315002,-0.02969934046268463,0.6885530948638916,0.5006846785545349,-0.04181556776165962,0.6917153596878052,0.6504238843917847,-0.0548371896147728,0.6239453554153442,0.6343321800231934,-0.07028823345899582,0.6421111226081848,0.6457875967025757,-0.07019796222448349,0.6647201776504517,0.652025580406189,-0.0679878517985344,0.6873474717140198,0.710533857345581,-0.060800064355134964,0.6164786219596863,0.686954140663147,-0.07469980418682098,0.6378579139709473,0.6939082741737366,-0.06729159504175186,0.6610569953918457,0.7029358148574829,-0.0631924644112587,0.6830155253410339,0.7644025087356567,-0.0644453912973404,0.6175292730331421,0.7352399230003357,-0.07454082369804382,0.6373443603515625,0.7395918369293213,-0.060375187546014786,0.6602510809898376,0.7467937469482422,-0.05158986523747444,0.6785519123077393,0.8109908699989319,-0.06762577593326569,0.6275028586387634,0.7821214199066162,-0.07631614059209824,0.6414101719856262,0.7798965573310852,-0.0676828920841217,0.6604562401771545,0.7877145409584045,-0.06114988029003143,0.0,0.0,0.0,0.0,0.0,0.0,0.0,0.0,0.0,0.0,0.0,0.0,0.0,0.0,0.0,0.0,0.0,0.0,0.0,0.0,0.0,0.0,0.0,0.0,0.0,0.0,0.0,0.0,0.0,0.0,0.0,0.0,0.0,0.0,0.0,0.0,0.0,0.0,0.0,0.0,0.0,0.0,0.0,0.0,0.0,0.0,0.0,0.0,0.0,0.0,0.0,0.0,0.0,0.0,0.0,0.0,0.0,0.0,0.0,0.0,0.0,0.0,0.0
1783390825.677464,0.730054497718811,0.7957732081413269,-1.0966159891268035e-07,0.7199991345405579,0.7139984369277954,-0.003323885379359126,0.6962738037109375,0.6293478012084961,-0.015866125002503395,0.6866052150726318,0.564483106136322,-0.0272532906383276,0.6839733719825745,0.5089082717895508,-0.03840143233537674,0.6844639182090759,0.659339964389801,-0.04793603718280792,0.6187492609024048,0.6397497057914734,-0.06277721375226974,0.6376591324806213,0.6528211832046509,-0.06393355131149292,0.6603122353553772,0.6603652238845825,-0.06242796778678894,0.6793205142021179,0.7189667224884033,-0.05315621197223663,0.6122820377349854,0.6935899257659912,-0.06593615561723709,0.6342660188674927,0.7029150128364563,-0.059281423687934875,0.6574554443359375,0.7109714150428772,-0.05507240816950798,0.6744582056999207,0.7721954584121704,-0.05631943792104721,0.6124577522277832,0.7414121031761169,-0.06538978964090347,0.6324195265769958,0.7481507062911987,-0.05122841149568558,0.6556424498558044,0.7557708621025085,-0.04178360477089882,0.6704123020172119,0.8191403746604919,-0.0590665377676487,0.6207454800605774,0.7875393629074097,-0.06560409069061279,0.6342964172363281,0.7890928983688354,-0.05535838007926941,0.6536350846290588,0.7997533082962036,-0.047396548092365265,0.0,0.0,0.0,0.0,0.0,0.0,0.0,0.0,0.0,0.0,0.0,0.0,0.0,0.0,0.0,0.0,0.0,0.0,0.0,0.0,0.0,0.0,0.0,0.0,0.0,0.0,0.0,0.0,0.0,0.0,0.0,0.0,0.0,0.0,0.0,0.0,0.0,0.0,0.0,0.0,0.0,0.0,0.0,0.0,0.0,0.0,0.0,0.0,0.0,0.0,0.0,0.0,0.0,0.0,0.0,0.0,0.0,0.0,0.0,0.0,0.0,0.0,0.0
1783390825.811166,0.7312324643135071,0.800980806350708,-9.072274309573913e-08,0.7210344672203064,0.7172735333442688,-0.002810678444802761,0.6965159177780151,0.6346246600151062,-0.014940033666789532,0.6867533326148987,0.5667425394058228,-0.026112152263522148,0.6864189505577087,0.5107131600379944,-0.03712921217083931,0.6809411644935608,0.6637678742408752,-0.044526733458042145,0.6183326244354248,0.6429532766342163,-0.05906541645526886,0.6368373036384583,0.653566300868988,-0.060892388224601746,0.6582413911819458,0.6610910296440125,-0.05963621661067009,0.6748118996620178,0.7228878140449524,-0.049218934029340744,0.6102142333984375,0.691919207572937,-0.0608690120279789,0.6314287781715393,0.6987254023551941,-0.054679300636053085,0.6535519957542419,0.7078800797462463,-0.0505242794752121,0.6686005592346191,0.7752618789672852,-0.05191807448863983,0.6101764440536499,0.7411423325538635,-0.05949036777019501,0.6302108764648438,0.7449176907539368,-0.04570918157696724,0.6521306037902832,0.7531317472457886,-0.036432258784770966,0.6634063124656677,0.8209803104400635,-0.054240502417087555,0.6161112189292908,0.7847247123718262,-0.05828428640961647,0.6308833360671997,0.785861611366272,-0.04712169989943504,0.6495684385299683,0.7972425818443298,-0.03878369554877281,0.0,0.0,0.0,0.0,0.0,0.0,0.0,0.0,0.0,0.0,0.0,0.0,0.0,0.0,0.0,0.0,0.0,0.0,0.0,0.0,0.0,0.0,0.0,0.0,0.0,0.0,0.0,0.0,0.0,0.0,0.0,0.0,0.0,0.0,0.0,0.0,0.0,0.0,0.0,0.0,0.0,0.0,0.0,0.0,0.0,0.0,0.0,0.0,0.0,0.0,0.0,0.0,0.0,0.0,0.0,0.0,0.0,0.0,0.0,0.0,0.0,0.0,0.0
1783390825.948878,0.7310790419578552,0.7991255521774292,-7.439180649271293e-08,0.722771167755127,0.7154111862182617,-0.002557084895670414,0.6993750929832458,0.6345521211624146,-0.013594160787761211,0.6885514855384827,0.567084789276123,-0.023877309635281563,0.6880232095718384,0.5114645957946777,-0.03395860269665718,0.6796894669532776,0.6630368828773499,-0.03984140604734421,0.6184900403022766,0.6380622386932373,-0.05342666432261467,0.6361525058746338,0.6479370594024658,-0.055694736540317535,0.657714307308197,0.6559426188468933,-0.05473937839269638,0.6713632941246033,0.7189645171165466,-0.043910104781389236,0.6099820137023926,0.685329258441925,-0.05326960235834122,0.6291681528091431,0.6909695267677307,-0.0472639724612236,0.6497528553009033,0.7005255222320557,-0.04345233365893364,0.6638423204421997,0.7704338431358337,-0.04618428274989128,0.6082279682159424,0.7320021986961365,-0.05178061127662659,0.6272171139717102,0.7360140085220337,-0.038016483187675476,0.6477462649345398,0.7455622553825378,-0.029043348506093025,0.6583070755004883,0.8161182999610901,-0.04820798337459564,0.6134206652641296,0.7776798605918884,-0.05047081410884857,0.627905011177063,0.7785552740097046,-0.0386357307434082,0.6452603340148926,0.7901874780654907,-0.03001357614994049,0.0,0.0,0.0,0.0,0.0,0.0,0.0,0.0,0.0,0.0,0.0,0.0,0.0,0.0,0.0,0.0,0.0,0.0,0.0,0.0,0.0,0.0,0.0,0.0,0.0,0.0,0.0,0.0,0.0,0.0,0.0,0.0,0.0,0.0,0.0,0.0,0.0,0.0,0.0,0.0,0.0,0.0,0.0,0.0,0.0,0.0,0.0,0.0,0.0,0.0,0.0,0.0,0.0,0.0,0.0,0.0,0.0,0.0,0.0,0.0,0.0,0.0,0.0
1783390826.082548,0.7302547097206116,0.798889696598053,-7.07631642171691e-08,0.7235998511314392,0.7140507698059082,-0.003198368474841118,0.7014274001121521,0.6336920857429504,-0.01431597676128149,0.6897140145301819,0.5656355023384094,-0.024508796632289886,0.6889782547950745,0.5098268985748291,-0.0342581532895565,0.6790604591369629,0.663258969783783,-0.03906274959445,0.6192154884338379,0.6341680884361267,-0.0522787868976593,0.637147843837738,0.6438403129577637,-0.054315969347953796,0.6583194732666016,0.6536559462547302,-0.05310338735580444,0.6698818206787109,0.7189611792564392,-0.04240066185593605,0.6099858283996582,0.6813948154449463,-0.051174454391002655,0.629004180431366,0.686468780040741,-0.04515397176146507,0.6489569544792175,0.6971480250358582,-0.04126543551683426,0.6615571975708008,0.7694969773292542,-0.044013816863298416,0.6078226566314697,0.7282090783119202,-0.04905124381184578,0.6267428994178772,0.7320218682289124,-0.03537103161215782,0.6464342474937439,0.7421585917472839,-0.026478493586182594,0.6555612683296204,0.8135293126106262,-0.04544232040643692,0.6120496392250061,0.7729783058166504,-0.04693432152271271,0.6271317005157471,0.774315595626831,-0.034873876720666885,0.6442625522613525,0.7861307859420776,-0.026169557124376297,0.0,0.0,0.0,0.0,0.0,0.0,0.0,0.0,0.0,0.0,0.0,0.0,0.0,0.0,0.0,0.0,0.0,0.0,0.0,0.0,0.0,0.0,0.0,0.0,0.0,0.0,0.0,0.0,0.0,0.0,0.0,0.0,0.0,0.0,0.0,0.0,0.0,0.0,0.0,0.0,0.0,0.0,0.0,0.0,0.0,0.0,0.0,0.0,0.0,0.0,0.0,0.0,0.0,0.0,0.0,0.0,0.0,0.0,0.0,0.0,0.0,0.0,0.0
1783390826.215787,0.730643630027771,0.7984299063682556,-6.942388353081697e-08,0.7239735126495361,0.7132200002670288,-0.0038783412892371416,0.7013072967529297,0.6327420473098755,-0.015122681856155396,0.6897242665290833,0.564532995223999,-0.02550642192363739,0.6893269419670105,0.508073091506958,-0.03539742901921272,0.6780034303665161,0.6613696813583374,-0.03781883418560028,0.619181215763092,0.6335955858230591,-0.05115078017115593,0.6372315883636475,0.6440171599388123,-0.05363026261329651,0.6583720445632935,0.6538819074630737,-0.05277639627456665,0.6688939332962036,0.7176060080528259,-0.0410713329911232,0.6101839542388916,0.6809700727462769,-0.05012333393096924,0.6294931769371033,0.6868558526039124,-0.044698555022478104,0.6497441530227661,0.6975282430648804,-0.04108276218175888,0.6606758832931519,0.7685558199882507,-0.04279646277427673,0.6083686351776123,0.7272313833236694,-0.04816467687487602,0.6274722814559937,0.7317140102386475,-0.03494121879339218,0.6471965312957764,0.7417879104614258,-0.026246607303619385,0.6548081040382385,0.8126459121704102,-0.0444415844976902,0.6124195456504822,0.7709510326385498,-0.04619070515036583,0.6280330419540405,0.7731857895851135,-0.03432397544384003,0.6452063322067261,0.7853856682777405,-0.02568550780415535,0.0,0.0,0.0,0.0,0.0,0.0,0.0,0.0,0.0,0.0,0.0,0.0,0.0,0.0,0.0,0.0,0.0,0.0,0.0,0.0,0.0,0.0,0.0,0.0,0.0,0.0,0.0,0.0,0.0,0.0,0.0,0.0,0.0,0.0,0.0,0.0,0.0,0.0,0.0,0.0,0.0,0.0,0.0,0.0,0.0,0.0,0.0,0.0,0.0,0.0,0.0,0.0,0.0,0.0,0.0,0.0,0.0,0.0,0.0,0.0,0.0,0.0,0.0
1783390826.3417568,0.731360673904419,0.7935834527015686,-8.364192893850486e-08,0.7236440181732178,0.7101659178733826,-0.0032783490605652332,0.6999183893203735,0.6303249001502991,-0.014428299851715565,0.6880343556404114,0.5629070997238159,-0.02474783919751644,0.6876373887062073,0.5067965984344482,-0.03475669398903847,0.6787763237953186,0.6564120650291443,-0.03895531967282295,0.6184093356132507,0.6332647800445557,-0.052639782428741455,0.6361229419708252,0.6443415284156799,-0.05509541556239128,0.6573688983917236,0.6526448130607605,-0.05426521971821785,0.6710426211357117,0.712949812412262,-0.04267840459942818,0.6095281839370728,0.6808095574378967,-0.05234641954302788,0.6290048956871033,0.687537670135498,-0.04651123285293579,0.6497575640678406,0.6968525648117065,-0.04256729036569595,0.6638287305831909,0.7647064924240112,-0.04477711021900177,0.6089661121368408,0.7280397415161133,-0.05086549371480942,0.6282119750976562,0.7329238653182983,-0.03725805878639221,0.6485006213188171,0.7417545318603516,-0.02813393622636795,0.6585116386413574,0.8106976747512817,-0.04668903350830078,0.6134987473487854,0.7727882266044617,-0.04900890588760376,0.628989577293396,0.7751226425170898,-0.0370415523648262,0.6468847393989563,0.7865972518920898,-0.028257358819246292,0.0,0.0,0.0,0.0,0.0,0.0,0.0,0.0,0.0,0.0,0.0,0.0,0.0,0.0,0.0,0.0,0.0,0.0,0.0,0.0,0.0,0.0,0.0,0.0,0.0,0.0,0.0,0.0,0.0,0.0,0.0,0.0,0.0,0.0,0.0,0.0,0.0,0.0,0.0,0.0,0.0,0.0,0.0,0.0,0.0,0.0,0.0,0.0,0.0,0.0,0.0,0.0,0.0,0.0,0.0,0.0,0.0,0.0,0.0,0.0,0.0,0.0,0.0
1783390826.4828439,0.7336534261703491,0.7901531457901001,-1.443782053911491e-07,0.7185186147689819,0.708751380443573,-0.00238957186229527,0.6895398497581482,0.6269750595092773,-0.015420467592775822,0.6782206892967224,0.5600614547729492,-0.027745727449655533,0.6758582592010498,0.5027214288711548,-0.04032087326049805,0.6832239627838135,0.6511366963386536,-0.048582639545202255,0.6148465275764465,0.6462763547897339,-0.06440359354019165,0.6321578621864319,0.6586804986000061,-0.06584261357784271,0.654304563999176,0.6611595153808594,-0.0643899217247963,0.6831053495407104,0.7104552388191223,-0.054723598062992096,0.6098600029945374,0.6970853805541992,-0.06893014162778854,0.6308317184448242,0.7038674354553223,-0.06261026859283447,0.6546456813812256,0.7070378065109253,-0.05820609629154205,0.6812770366668701,0.7636558413505554,-0.058678824454545975,0.6123416423797607,0.7449770569801331,-0.06901774555444717,0.6329779028892517,0.7486612200737,-0.0549079105257988,0.656887948513031,0.7519018650054932,-0.045079831033945084,0.6791833639144897,0.8105857968330383,-0.06207965314388275,0.6241030693054199,0.7869586944580078,-0.06897445768117905,0.6385185718536377,0.7880138754844666,-0.05852280929684639,0.659190833568573,0.7958484292030334,-0.05047358199954033,0.0,0.0,0.0,0.0,0.0,0.0,0.0,0.0,0.0,0.0,0.0,0.0,0.0,0.0,0.0,0.0,0.0,0.0,0.0,0.0,0.0,0.0,0.0,0.0,0.0,0.0,0.0,0.0,0.0,0.0,0.0,0.0,0.0,0.0,0.0,0.0,0.0,0.0,0.0,0.0,0.0,0.0,0.0,0.0,0.0,0.0,0.0,0.0,0.0,0.0,0.0,0.0,0.0,0.0,0.0,0.0,0.0,0.0,0.0,0.0,0.0,0.0,0.0
1783390826.611178,0.7309844493865967,0.7893480658531189,-1.7715956346364692e-07,0.7131691575050354,0.7103741765022278,-0.002428589388728142,0.6856088042259216,0.6258989572525024,-0.019415969029068947,0.6762011051177979,0.5631499886512756,-0.03460535407066345,0.6758090853691101,0.5018599033355713,-0.05023588240146637,0.6901195645332336,0.6444175243377686,-0.06838569045066833,0.6203017830848694,0.6520599126815796,-0.08213908970355988,0.6374757289886475,0.6636864542961121,-0.07595276832580566,0.6582123637199402,0.6593424081802368,-0.07058247178792953,0.694777250289917,0.7019373774528503,-0.0764724537730217,0.617177426815033,0.7055329084396362,-0.09205596148967743,0.63864666223526,0.7105726003646851,-0.08020312339067459,0.6625438928604126,0.7100817561149597,-0.07354485988616943,0.6959903836250305,0.7556973695755005,-0.08090843260288239,0.6233668327331543,0.752903163433075,-0.09121102839708328,0.6440058350563049,0.7545585632324219,-0.07336986809968948,0.6675060987472534,0.7542041540145874,-0.0633389800786972,0.6951784491539001,0.8029735088348389,-0.08460801094770432,0.6363739967346191,0.7920381426811218,-0.0934048518538475,0.6499167680740356,0.7892612814903259,-0.08342920988798141,0.6701762080192566,0.7916971445083618,-0.07693839818239212,0.0,0.0,0.0,0.0,0.0,0.0,0.0,0.0,0.0,0.0,0.0,0.0,0.0,0.0,0.0,0.0,0.0,0.0,0.0,0.0,0.0,0.0,0.0,0.0,0.0,0.0,0.0,0.0,0.0,0.0,0.0,0.0,0.0,0.0,0.0,0.0,0.0,0.0,0.0,0.0,0.0,0.0,0.0,0.0,0.0,0.0,0.0,0.0,0.0,0.0,0.0,0.0,0.0,0.0,0.0,0.0,0.0,0.0,0.0,0.0,0.0,0.0,0.0
1783390827.2393758,0.7208573818206787,0.7850569486618042,-2.0971778269540664e-07,0.6961384415626526,0.711929202079773,-0.009473123587667942,0.6719759702682495,0.628792941570282,-0.02812298759818077,0.6661854982376099,0.5637409687042236,-0.04429083317518234,0.6694783568382263,0.5007845163345337,-0.060300562530756,0.6925724148750305,0.639221727848053,-0.0670735165476799,0.6229963302612305,0.6581429839134216,-0.08775514364242554,0.639501690864563,0.6754906177520752,-0.08775689452886581,0.6607775688171387,0.6686546206474304,-0.08603338152170181,0.7030015587806702,0.6936491131782532,-0.07358977943658829,0.6243587732315063,0.7135502099990845,-0.09289497882127762,0.6439297199249268,0.7220398187637329,-0.0828082486987114,0.6665496230125427,0.7181003093719482,-0.07792460918426514,0.707499086856842,0.747330367565155,-0.07868609577417374,0.6337662935256958,0.7576494812965393,-0.09582502394914627,0.6533212661743164,0.7626568078994751,-0.07973314076662064,0.6760225892066956,0.760032057762146,-0.07015862315893173,0.7079653143882751,0.7947400808334351,-0.08371568471193314,0.6490927934646606,0.7991669774055481,-0.0982443243265152,0.6634921431541443,0.7974714040756226,-0.09102654457092285,0.6837173104286194,0.7951482534408569,-0.08610052615404129,0.0,0.0,0.0,0.0,0.0,0.0,0.0,0.0,0.0,0.0,0.0,0.0,0.0,0.0,0.0,0.0,0.0,0.0,0.0,0.0,0.0,0.0,0.0,0.0,0.0,0.0,0.0,0.0,0.0,0.0,0.0,0.0,0.0,0.0,0.0,0.0,0.0,0.0,0.0,0.0,0.0,0.0,0.0,0.0,0.0,0.0,0.0,0.0,0.0,0.0,0.0,0.0,0.0,0.0,0.0,0.0,0.0,0.0,0.0,0.0,0.0,0.0,0.0
1783390827.5972228,0.7061168551445007,0.8359594345092773,-2.652017485615943e-07,0.6787525415420532,0.7495366930961609,-0.0074341497384011745,0.6683911085128784,0.6516536474227905,-0.019282298162579536,0.6698252558708191,0.5802537798881531,-0.0302506722509861,0.6732978820800781,0.5191836357116699,-0.04215309023857117,0.7075745463371277,0.6730581521987915,-0.042367223650217056,0.6699432730674744,0.6757320761680603,-0.05878661200404167,0.6779032349586487,0.6972546577453613,-0.06448101252317429,0.6936123967170715,0.6932291388511658,-0.06829842925071716,0.7212396264076233,0.7272564768791199,-0.049613092094659805,0.6760186553001404,0.7249967455863953,-0.0649886503815651,0.6853315830230713,0.733237624168396,-0.06277137994766235,0.7064083218574524,0.7316175699234009,-0.06313740462064743,0.7286372780799866,0.7792550325393677,-0.05632166936993599,0.6868185997009277,0.7682421207427979,-0.07110769301652908,0.6970310807228088,0.7690651416778564,-0.06221698224544525,0.7177329063415527,0.7608836889266968,-0.05660812929272652,0.7324776649475098,0.8244089484214783,-0.06323672086000443,0.7082043290138245,0.805238664150238,-0.07357745617628098,0.7140044569969177,0.7990905046463013,-0.0681343749165535,0.7292675971984863,0.7919599413871765,-0.0642981305718422,0.0,0.0,0.0,0.0,0.0,0.0,0.0,0.0,0.0,0.0,0.0,0.0,0.0,0.0,0.0,0.0,0.0,0.0,0.0,0.0,0.0,0.0,0.0,0.0,0.0,0.0,0.0,0.0,0.0,0.0,0.0,0.0,0.0,0.0,0.0,0.0,0.0,0.0,0.0,0.0,0.0,0.0,0.0,0.0,0.0,0.0,0.0,0.0,0.0,0.0,0.0,0.0,0.0,0.0,0.0,0.0,0.0,0.0,0.0,0.0,0.0,0.0,0.0
1783390827.8233118,0.6836061477661133,0.8473381996154785,-3.8212320419006574e-07,0.6548464894294739,0.7514058351516724,-0.023589633405208588,0.6587368845939636,0.6518212556838989,-0.0336790531873703,0.6711385846138,0.580695390701294,-0.03867388144135475,0.6750242710113525,0.5222344398498535,-0.04050077870488167,0.7257580757141113,0.654471755027771,-0.03848188742995262,0.6776905059814453,0.6716956496238708,-0.0534222237765789,0.6701063513755798,0.7051364779472351,-0.05541253462433815,0.6823523044586182,0.7020094990730286,-0.05644797906279564,0.745259165763855,0.7048889398574829,-0.03513418883085251,0.6798433661460876,0.7321853637695312,-0.050748731940984726,0.6762663722038269,0.7483145594596863,-0.04765169322490692,0.6920021176338196,0.7427973747253418,-0.04591313377022743,0.7513808608055115,0.7596442103385925,-0.03393007069826126,0.6868165135383606,0.7801706790924072,-0.05188262090086937,0.6832706332206726,0.7861471176147461,-0.04574695602059364,0.700269341468811,0.7808476686477661,-0.040097277611494064,0.7477348446846008,0.8091912269592285,-0.03461867943406105,0.6977370381355286,0.8209536075592041,-0.04988663271069527,0.6947947144508362,0.8202012777328491,-0.05092359334230423,0.71122807264328,0.815460741519928,-0.04962008818984032,0.0,0.0,0.0,0.0,0.0,0.0,0.0,0.0,0.0,0.0,0.0,0.0,0.0,0.0,0.0,0.0,0.0,0.0,0.0,0.0,0.0,0.0,0.0,0.0,0.0,0.0,0.0,0.0,0.0,0.0,0.0,0.0,0.0,0.0,0.0,0.0,0.0,0.0,0.0,0.0,0.0,0.0,0.0,0.0,0.0,0.0,0.0,0.0,0.0,0.0,0.0,0.0,0.0,0.0,0.0,0.0,0.0,0.0,0.0,0.0,0.0,0.0,0.0
1783390828.109901,0.6706331372261047,0.8327199220657349,-3.6545813486554835e-07,0.6469736099243164,0.7409790754318237,-0.0278299693018198,0.6567873954772949,0.6414361596107483,-0.035468894988298416,0.6692328453063965,0.5748686194419861,-0.036986056715250015,0.6718040704727173,0.5189237594604492,-0.033896319568157196,0.7227145433425903,0.6499215960502625,-0.02728552371263504,0.6721194386482239,0.6658895611763,-0.04067301005125046,0.6657032370567322,0.6972799897193909,-0.045487046241760254,0.6815006732940674,0.6996203064918518,-0.04929983615875244,0.742341935634613,0.6996523141860962,-0.021032603457570076,0.6750267148017883,0.7258391380310059,-0.03385021165013313,0.6714742183685303,0.7412322759628296,-0.03535156324505806,0.689440906047821,0.7350311875343323,-0.0370757058262825,0.747591495513916,0.7568862438201904,-0.017943954095244408,0.681908369064331,0.7762145400047302,-0.03307351842522621,0.6772897839546204,0.7829791903495789,-0.029887046664953232,0.693499743938446,0.7764840126037598,-0.027155118063092232,0.7446883320808411,0.8093577027320862,-0.017782477661967278,0.6918180584907532,0.8210891485214233,-0.03210168331861496,0.6867000460624695,0.8227241635322571,-0.03478638455271721,0.7000277042388916,0.8163914084434509,-0.03511100262403488,0.0,0.0,0.0,0.0,0.0,0.0,0.0,0.0,0.0,0.0,0.0,0.0,0.0,0.0,0.0,0.0,0.0,0.0,0.0,0.0,0.0,0.0,0.0,0.0,0.0,0.0,0.0,0.0,0.0,0.0,0.0,0.0,0.0,0.0,0.0,0.0,0.0,0.0,0.0,0.0,0.0,0.0,0.0,0.0,0.0,0.0,0.0,0.0,0.0,0.0,0.0,0.0,0.0,0.0,0.0,0.0,0.0,0.0,0.0,0.0,0.0,0.0,0.0
1783390828.359492,0.6639920473098755,0.8190352916717529,-3.98777501686709e-07,0.644006073474884,0.7330973744392395,-0.02800271473824978,0.6559678316116333,0.6394752860069275,-0.03550834581255913,0.6688533425331116,0.5747144818305969,-0.03705454617738724,0.6726087927818298,0.5195564031600952,-0.03422733396291733,0.7191433906555176,0.6527163982391357,-0.025609295815229416,0.670812726020813,0.6664910316467285,-0.039165738970041275,0.6632825136184692,0.6970939636230469,-0.045062001794576645,0.6779632568359375,0.7024439573287964,-0.04956164211034775,0.7400282621383667,0.702954888343811,-0.019080763682723045,0.6733972430229187,0.7262449264526367,-0.0315404012799263,0.6698708534240723,0.7412999272346497,-0.034110959619283676,0.686506986618042,0.7367441058158875,-0.036557819694280624,0.7464327216148376,0.7599199414253235,-0.015693066641688347,0.6813146471977234,0.7766043543815613,-0.030825814232230186,0.6753591299057007,0.784905731678009,-0.028110681101679802,0.6902738809585571,0.7791449427604675,-0.02557658590376377,0.7448321580886841,0.8118727803230286,-0.015309824608266354,0.691469669342041,0.8217206597328186,-0.029191715642809868,0.6846157312393188,0.8260312080383301,-0.03143727779388428,0.6961706876754761,0.8213660717010498,-0.03143149986863136,0.0,0.0,0.0,0.0,0.0,0.0,0.0,0.0,0.0,0.0,0.0,0.0,0.0,0.0,0.0,0.0,0.0,0.0,0.0,0.0,0.0,0.0,0.0,0.0,0.0,0.0,0.0,0.0,0.0,0.0,0.0,0.0,0.0,0.0,0.0,0.0,0.0,0.0,0.0,0.0,0.0,0.0,0.0,0.0,0.0,0.0,0.0,0.0,0.0,0.0,0.0,0.0,0.0,0.0,0.0,0.0,0.0,0.0,0.0,0.0,0.0,0.0,0.0
1783390828.518659,0.6655764579772949,0.8129801154136658,-4.1337335687785526e-07,0.645277738571167,0.7345818281173706,-0.027997594326734543,0.6557082533836365,0.6427375078201294,-0.0369306318461895,0.6671376824378967,0.578364372253418,-0.039836250245571136,0.6706321239471436,0.5220291018486023,-0.03838128224015236,0.7195293307304382,0.6548442244529724,-0.029660778120160103,0.669171929359436,0.6720132827758789,-0.04297308996319771,0.6613606214523315,0.6991435289382935,-0.04828597977757454,0.6751837134361267,0.705860435962677,-0.05264146625995636,0.7401467561721802,0.7051586508750916,-0.023467684164643288,0.6725972294807434,0.7293800711631775,-0.03570256009697914,0.6688870191574097,0.7423228621482849,-0.03749261051416397,0.6844053268432617,0.7398431897163391,-0.039816007018089294,0.7464383840560913,0.7611560821533203,-0.019981300458312035,0.681887686252594,0.7766343951225281,-0.035287968814373016,0.6751180291175842,0.7845219373703003,-0.03166183456778526,0.6888530254364014,0.7810772657394409,-0.028798846527934074,0.745338499546051,0.8129246234893799,-0.019526407122612,0.6932697296142578,0.8209378719329834,-0.03426670283079147,0.6846609711647034,0.8242088556289673,-0.03625144436955452,0.6941902041435242,0.819887101650238,-0.0360826775431633,0.0,0.0,0.0,0.0,0.0,0.0,0.0,0.0,0.0,0.0,0.0,0.0,0.0,0.0,0.0,0.0,0.0,0.0,0.0,0.0,0.0,0.0,0.0,0.0,0.0,0.0,0.0,0.0,0.0,0.0,0.0,0.0,0.0,0.0,0.0,0.0,0.0,0.0,0.0,0.0,0.0,0.0,0.0,0.0,0.0,0.0,0.0,0.0,0.0,0.0,0.0,0.0,0.0,0.0,0.0,0.0,0.0,0.0,0.0,0.0,0.0,0.0,0.0
1783390828.9057229,0.6625185608863831,0.8134055733680725,-4.1160086539093754e-07,0.6433157324790955,0.7319064736366272,-0.028676284477114677,0.6540867686271667,0.6405760645866394,-0.03910784050822258,0.665395200252533,0.5757119655609131,-0.04365744814276695,0.669007420539856,0.5162686705589294,-0.04369813948869705,0.7209202647209167,0.6529739499092102,-0.03052569553256035,0.6685773730278015,0.6693777441978455,-0.045541442930698395,0.6589928269386292,0.6971785426139832,-0.05162503942847252,0.6730411052703857,0.7043548226356506,-0.05629797279834747,0.7401135563850403,0.7029156684875488,-0.02492757886648178,0.6733943819999695,0.7257125973701477,-0.03902064636349678,0.6669303178787231,0.7396252155303955,-0.04121891409158707,0.682120680809021,0.7378369569778442,-0.043461307883262634,0.7454575300216675,0.758561372756958,-0.02216172404587269,0.6817938089370728,0.7734988331794739,-0.03887765109539032,0.6737993955612183,0.781937301158905,-0.035023994743824005,0.6875782012939453,0.7789717316627502,-0.03181321546435356,0.74370276927948,0.8104779124259949,-0.022498831152915955,0.6925382614135742,0.8192723989486694,-0.03785046935081482,0.6832913160324097,0.8229914903640747,-0.03943657875061035,0.6932820677757263,0.819237232208252,-0.03879885748028755,0.0,0.0,0.0,0.0,0.0,0.0,0.0,0.0,0.0,0.0,0.0,0.0,0.0,0.0,0.0,0.0,0.0,0.0,0.0,0.0,0.0,0.0,0.0,0.0,0.0,0.0,0.0,0.0,0.0,0.0,0.0,0.0,0.0,0.0,0.0,0.0,0.0,0.0,0.0,0.0,0.0,0.0,0.0,0.0,0.0,0.0,0.0,0.0,0.0,0.0,0.0,0.0,0.0,0.0,0.0,0.0,0.0,0.0,0.0,0.0,0.0,0.0,0.0
1783390829.12653,0.6679224371910095,0.8087843060493469,-3.9592089251527796e-07,0.6469670534133911,0.7284336090087891,-0.0281317587941885,0.6564452648162842,0.6376485824584961,-0.03787761926651001,0.6679005026817322,0.5736058354377747,-0.04156208410859108,0.6725683212280273,0.5167697072029114,-0.04075319692492485,0.7184349298477173,0.6528613567352295,-0.031356748193502426,0.6657112836837769,0.6674192547798157,-0.045330844819545746,0.6585841178894043,0.6932880878448486,-0.05093180388212204,0.6728025078773499,0.6998534202575684,-0.05534636974334717,0.7376834750175476,0.7037127614021301,-0.02531822770833969,0.6678830981254578,0.724545955657959,-0.0376400351524353,0.6666180491447449,0.7355923056602478,-0.03922784700989723,0.6833409070968628,0.7326305508613586,-0.04152343049645424,0.7427058815956116,0.7598211169242859,-0.02190021052956581,0.6767585873603821,0.7720933556556702,-0.037404511123895645,0.6728940606117249,0.7794013619422913,-0.03327759727835655,0.6884633898735046,0.7766745090484619,-0.02997070550918579,0.7405334711074829,0.811988890171051,-0.021529952064156532,0.6875994801521301,0.817621111869812,-0.03654438257217407,0.6818286776542664,0.820482611656189,-0.03816700354218483,0.693399965763092,0.817361056804657,-0.0376083143055439,0.0,0.0,0.0,0.0,0.0,0.0,0.0,0.0,0.0,0.0,0.0,0.0,0.0,0.0,0.0,0.0,0.0,0.0,0.0,0.0,0.0,0.0,0.0,0.0,0.0,0.0,0.0,0.0,0.0,0.0,0.0,0.0,0.0,0.0,0.0,0.0,0.0,0.0,0.0,0.0,0.0,0.0,0.0,0.0,0.0,0.0,0.0,0.0,0.0,0.0,0.0,0.0,0.0,0.0,0.0,0.0,0.0,0.0,0.0,0.0,0.0,0.0,0.0
1783390829.3338292,0.6794710159301758,0.807014524936676,-3.710955240876501e-07,0.6555153727531433,0.7409718036651611,-0.025835026055574417,0.660219669342041,0.6396951079368591,-0.03284261375665665,0.6697427034378052,0.5726543664932251,-0.03372230380773544,0.6719911098480225,0.521436870098114,-0.030144553631544113,0.712234377861023,0.6506522297859192,-0.032072458416223526,0.6591101288795471,0.6615996360778809,-0.04605909809470177,0.6569601893424988,0.6925162076950073,-0.052538324147462845,0.6732739806175232,0.6991834044456482,-0.057700593024492264,0.7340793013572693,0.7002511024475098,-0.02536592073738575,0.6565028429031372,0.7221490144729614,-0.03600556030869484,0.6638887524604797,0.7351634502410889,-0.03609718382358551,0.6852555274963379,0.7308253645896912,-0.03746470808982849,0.7392399907112122,0.7576361298561096,-0.021136268973350525,0.6671361923217773,0.7743569612503052,-0.034579094499349594,0.6691514849662781,0.7814710736274719,-0.028862515464425087,0.6887401342391968,0.77802574634552,-0.02446061186492443,0.7368724346160889,0.8114553689956665,-0.01983965002000332,0.6794881820678711,0.8177480697631836,-0.03557197377085686,0.6784037351608276,0.8214919567108154,-0.03853561356663704,0.693806529045105,0.8197822570800781,-0.038568057119846344,0.0,0.0,0.0,0.0,0.0,0.0,0.0,0.0,0.0,0.0,0.0,0.0,0.0,0.0,0.0,0.0,0.0,0.0,0.0,0.0,0.0,0.0,0.0,0.0,0.0,0.0,0.0,0.0,0.0,0.0,0.0,0.0,0.0,0.0,0.0,0.0,0.0,0.0,0.0,0.0,0.0,0.0,0.0,0.0,0.0,0.0,0.0,0.0,0.0,0.0,0.0,0.0,0.0,0.0,0.0,0.0,0.0,0.0,0.0,0.0,0.0,0.0,0.0
1783390829.588296,0.6924610733985901,0.805492103099823,-2.6453344048604777e-07,0.670940637588501,0.7271312475204468,-0.028284700587391853,0.6682418584823608,0.6394351720809937,-0.04131050407886505,0.672687828540802,0.5747774243354797,-0.04798808693885803,0.6796507239341736,0.5159850716590881,-0.04973219707608223,0.7175590991973877,0.6576757431030273,-0.046019818633794785,0.6496902704238892,0.6678066849708557,-0.06608904153108597,0.6546226143836975,0.6931856870651245,-0.07258794456720352,0.6766215562820435,0.6971226334571838,-0.07604697346687317,0.729916512966156,0.7086389660835266,-0.04142582044005394,0.6484501957893372,0.7278866767883301,-0.05948380008339882,0.662337064743042,0.7392711639404297,-0.059088241308927536,0.6866792440414429,0.7372609972953796,-0.059532344341278076,0.7321447134017944,0.7643171548843384,-0.03910620138049126,0.6563519239425659,0.7812486290931702,-0.05755959823727608,0.6681942939758301,0.78605055809021,-0.04980239272117615,0.6909716725349426,0.7821730375289917,-0.04338282719254494,0.7282505631446838,0.8199867606163025,-0.03997344523668289,0.6704713106155396,0.8277978301048279,-0.057657238095998764,0.6792701482772827,0.8258646726608276,-0.059205081313848495,0.7008926272392273,0.8201630711555481,-0.058003075420856476,0.0,0.0,0.0,0.0,0.0,0.0,0.0,0.0,0.0,0.0,0.0,0.0,0.0,0.0,0.0,0.0,0.0,0.0,0.0,0.0,0.0,0.0,0.0,0.0,0.0,0.0,0.0,0.0,0.0,0.0,0.0,0.0,0.0,0.0,0.0,0.0,0.0,0.0,0.0,0.0,0.0,0.0,0.0,0.0,0.0,0.0,0.0,0.0,0.0,0.0,0.0,0.0,0.0,0.0,0.0,0.0,0.0,0.0,0.0,0.0,0.0,0.0,0.0
1783390829.773385,0.6972814202308655,0.8029170632362366,-1.835175993392113e-07,0.6789754629135132,0.7211965918540955,-0.025563020259141922,0.6733753085136414,0.643143892288208,-0.04813094064593315,0.6777986884117126,0.5832241773605347,-0.06413428485393524,0.6839657425880432,0.5174773931503296,-0.07678917795419693,0.7122840881347656,0.6729108095169067,-0.07606817781925201,0.6405134797096252,0.6791666746139526,-0.1000518649816513,0.6463600397109985,0.6959083080291748,-0.10064693540334702,0.6677854657173157,0.6945920586585999,-0.09857052564620972,0.7197588682174683,0.7274332642555237,-0.07563069462776184,0.6361891627311707,0.7339463829994202,-0.0944494977593422,0.6505952477455139,0.7423191666603088,-0.08295530825853348,0.6737574338912964,0.7398868203163147,-0.07670309394598007,0.7188714146614075,0.7837190628051758,-0.07590905576944351,0.6412295699119568,0.7888675928115845,-0.09254095703363419,0.6555393934249878,0.7894669771194458,-0.07557068765163422,0.6778691411018372,0.7881305813789368,-0.06512486189603806,0.7139201164245605,0.8376224040985107,-0.07882020622491837,0.6552348136901855,0.832823634147644,-0.095688097178936,0.6666356325149536,0.8263818621635437,-0.0937114804983139,0.6883970499038696,0.8232253193855286,-0.09126036614179611,0.0,0.0,0.0,0.0,0.0,0.0,0.0,0.0,0.0,0.0,0.0,0.0,0.0,0.0,0.0,0.0,0.0,0.0,0.0,0.0,0.0,0.0,0.0,0.0,0.0,0.0,0.0,0.0,0.0,0.0,0.0,0.0,0.0,0.0,0.0,0.0,0.0,0.0,0.0,0.0,0.0,0.0,0.0,0.0,0.0,0.0,0.0,0.0,0.0,0.0,0.0,0.0,0.0,0.0,0.0,0.0,0.0,0.0,0.0,0.0,0.0,0.0,0.0
1783390829.992998,0.7045793533325195,0.8261365294456482,-1.9980353727078182e-07,0.6822255849838257,0.7309930324554443,-0.014263779856264591,0.6743330359458923,0.6519849300384521,-0.03814225271344185,0.676875114440918,0.5906075835227966,-0.05756417289376259,0.6816880702972412,0.5233797430992126,-0.07455682754516602,0.7081004977226257,0.6811424493789673,-0.08109503239393234,0.6341196894645691,0.6894592046737671,-0.10357879847288132,0.6416419148445129,0.7068284153938293,-0.09979499131441116,0.664533257484436,0.7026885151863098,-0.09430383890867233,0.7136557102203369,0.7359741926193237,-0.08635903894901276,0.6281242370605469,0.7417802810668945,-0.10213412344455719,0.6451016664505005,0.7492072582244873,-0.08393862843513489,0.6687613725662231,0.745944619178772,-0.07400527596473694,0.7124462723731995,0.789799153804779,-0.09046287089586258,0.6329271197319031,0.7947701215744019,-0.10114989429712296,0.64877849817276,0.7978537678718567,-0.07831017673015594,0.6717340350151062,0.7985673546791077,-0.06632178276777267,0.7080045342445374,0.8405906558036804,-0.09632128477096558,0.6465470790863037,0.8367673754692078,-0.10734562575817108,0.6602002382278442,0.8323001861572266,-0.10161156952381134,0.6831938624382019,0.8332868814468384,-0.09810511022806168,0.0,0.0,0.0,0.0,0.0,0.0,0.0,0.0,0.0,0.0,0.0,0.0,0.0,0.0,0.0,0.0,0.0,0.0,0.0,0.0,0.0,0.0,0.0,0.0,0.0,0.0,0.0,0.0,0.0,0.0,0.0,0.0,0.0,0.0,0.0,0.0,0.0,0.0,0.0,0.0,0.0,0.0,0.0,0.0,0.0,0.0,0.0,0.0,0.0,0.0,0.0,0.0,0.0,0.0,0.0,0.0,0.0,0.0,0.0,0.0,0.0,0.0,0.0
1783390830.3790321,0.7122125029563904,0.8393199443817139,-2.6733491154118383e-07,0.6878002285957336,0.7473041415214539,-0.01103990338742733,0.6778209209442139,0.6560502052307129,-0.028756050392985344,0.6822309494018555,0.5861809849739075,-0.042921509593725204,0.6889566779136658,0.5253857970237732,-0.05585165694355965,0.707668662071228,0.683774471282959,-0.06536627560853958,0.6352189779281616,0.690704345703125,-0.08423295617103577,0.6433588266372681,0.7161127924919128,-0.08168695122003555,0.6645010709762573,0.7129364013671875,-0.07772597670555115,0.7127490639686584,0.7406940460205078,-0.06992463022470474,0.6309423446655273,0.7452540397644043,-0.0844070240855217,0.6458598375320435,0.756718099117279,-0.07185440510511398,0.6667755246162415,0.7554864883422852,-0.06608152389526367,0.710946798324585,0.7943658232688904,-0.07336165755987167,0.6363000273704529,0.7954460978507996,-0.08428721129894257,0.6494714021682739,0.8032297492027283,-0.0694923847913742,0.6717323660850525,0.8045715689659119,-0.06275990605354309,0.7066333293914795,0.8420374393463135,-0.07739922404289246,0.6468321084976196,0.8350542187690735,-0.08571858704090118,0.6581382155418396,0.8365157842636108,-0.08081486076116562,0.6802348494529724,0.840473473072052,-0.07870610803365707,0.0,0.0,0.0,0.0,0.0,0.0,0.0,0.0,0.0,0.0,0.0,0.0,0.0,0.0,0.0,0.0,0.0,0.0,0.0,0.0,0.0,0.0,0.0,0.0,0.0,0.0,0.0,0.0,0.0,0.0,0.0,0.0,0.0,0.0,0.0,0.0,0.0,0.0,0.0,0.0,0.0,0.0,0.0,0.0,0.0,0.0,0.0,0.0,0.0,0.0,0.0,0.0,0.0,0.0,0.0,0.0,0.0,0.0,0.0,0.0,0.0,0.0,0.0
1783390830.616703,0.7261326313018799,0.8314130902290344,-2.4338700654880085e-07,0.7056811451911926,0.7432864308357239,-0.015189924277365208,0.6900860667228699,0.6474695205688477,-0.028320949524641037,0.6907205581665039,0.5766763687133789,-0.03827744722366333,0.6976589560508728,0.5202493071556091,-0.04741103947162628,0.708787202835083,0.6765052676200867,-0.04805070161819458,0.6362776756286621,0.6861496567726135,-0.06855828315019608,0.6503100395202637,0.7088363766670227,-0.07354821264743805,0.6731323599815369,0.7077330350875854,-0.07470566779375076,0.7120962738990784,0.7384052276611328,-0.04974200204014778,0.6324074268341064,0.7374752759933472,-0.06753364205360413,0.6516391038894653,0.749270498752594,-0.06362108141183853,0.6744260787963867,0.7519647479057312,-0.062365490943193436,0.7108927965164185,0.7934918403625488,-0.05188765749335289,0.6379404664039612,0.7872215509414673,-0.069524385035038,0.654527485370636,0.7936924695968628,-0.060744527727365494,0.6773446798324585,0.7934994101524353,-0.05480968952178955,0.7078040242195129,0.8417937755584717,-0.05472166836261749,0.6491110324859619,0.8274591565132141,-0.0674324780702591,0.6628196239471436,0.8314491510391235,-0.0633700042963028,0.6856614351272583,0.836825966835022,-0.05993417277932167,0.0,0.0,0.0,0.0,0.0,0.0,0.0,0.0,0.0,0.0,0.0,0.0,0.0,0.0,0.0,0.0,0.0,0.0,0.0,0.0,0.0,0.0,0.0,0.0,0.0,0.0,0.0,0.0,0.0,0.0,0.0,0.0,0.0,0.0,0.0,0.0,0.0,0.0,0.0,0.0,0.0,0.0,0.0,0.0,0.0,0.0,0.0,0.0,0.0,0.0,0.0,0.0,0.0,0.0,0.0,0.0,0.0,0.0,0.0,0.0,0.0,0.0,0.0
1783390830.85359,0.7285135984420776,0.8168218731880188,-2.3815024974283006e-07,0.7092756628990173,0.7394551038742065,-0.01143238227814436,0.6881283521652222,0.645575761795044,-0.02332111820578575,0.6829165816307068,0.5725363492965698,-0.03290744498372078,0.6874984502792358,0.5156156420707703,-0.042103953659534454,0.7003586888313293,0.6731570959091187,-0.04660220071673393,0.6299166679382324,0.6759421825408936,-0.06833140552043915,0.6441917419433594,0.6965903043746948,-0.07434014230966568,0.6672675013542175,0.6939583420753479,-0.07596531510353088,0.702829122543335,0.7326070070266724,-0.049729254096746445,0.6252881288528442,0.7278746366500854,-0.06864383816719055,0.6440078020095825,0.7373352646827698,-0.06396503746509552,0.6679571270942688,0.7392532229423523,-0.061716653406620026,0.7017197608947754,0.7857517600059509,-0.053047969937324524,0.6310563087463379,0.7761663198471069,-0.07262939214706421,0.6479516625404358,0.7854799032211304,-0.06227078288793564,0.670638918876648,0.7888750433921814,-0.05425785854458809,0.6981356739997864,0.8313372731208801,-0.05653201416134834,0.640241801738739,0.8177056908607483,-0.07091791927814484,0.6546358466148376,0.8237943649291992,-0.06557917594909668,0.6772046089172363,0.8304378390312195,-0.060640230774879456,0.0,0.0,0.0,0.0,0.0,0.0,0.0,0.0,0.0,0.0,0.0,0.0,0.0,0.0,0.0,0.0,0.0,0.0,0.0,0.0,0.0,0.0,0.0,0.0,0.0,0.0,0.0,0.0,0.0,0.0,0.0,0.0,0.0,0.0,0.0,0.0,0.0,0.0,0.0,0.0,0.0,0.0,0.0,0.0,0.0,0.0,0.0,0.0,0.0,0.0,0.0,0.0,0.0,0.0,0.0,0.0,0.0,0.0,0.0,0.0,0.0,0.0,0.0
1783390831.065238,0.7277283072471619,0.8143699765205383,-2.061624257976291e-07,0.711185872554779,0.7350343465805054,-0.007765049580484629,0.691794216632843,0.6443436145782471,-0.022741856053471565,0.6854598522186279,0.5768898725509644,-0.03556527942419052,0.687814474105835,0.5166066288948059,-0.04837167635560036,0.7013710737228394,0.6762635707855225,-0.05670928955078125,0.627784788608551,0.6715776324272156,-0.07736619561910629,0.6439520716667175,0.6870213747024536,-0.08159376680850983,0.6673516631126404,0.6882724165916443,-0.08224473148584366,0.7034447193145752,0.7360372543334961,-0.06235695257782936,0.6237019300460815,0.7238011360168457,-0.0805392935872078,0.6429449915885925,0.7308944463729858,-0.07505424320697784,0.6679316759109497,0.7371839284896851,-0.07288885116577148,0.7019907832145691,0.7899543046951294,-0.06659066677093506,0.6292187571525574,0.7723037004470825,-0.08266002684831619,0.6480988264083862,0.7785224914550781,-0.06962786614894867,0.6719473600387573,0.7839541435241699,-0.0612214095890522,0.6966924071311951,0.8364837169647217,-0.07070177048444748,0.6392201781272888,0.8191210031509399,-0.08346831053495407,0.6545506715774536,0.8196244239807129,-0.07605157792568207,0.6760308146476746,0.8250206708908081,-0.07047756016254425,0.0,0.0,0.0,0.0,0.0,0.0,0.0,0.0,0.0,0.0,0.0,0.0,0.0,0.0,0.0,0.0,0.0,0.0,0.0,0.0,0.0,0.0,0.0,0.0,0.0,0.0,0.0,0.0,0.0,0.0,0.0,0.0,0.0,0.0,0.0,0.0,0.0,0.0,0.0,0.0,0.0,0.0,0.0,0.0,0.0,0.0,0.0,0.0,0.0,0.0,0.0,0.0,0.0,0.0,0.0,0.0,0.0,0.0,0.0,0.0,0.0,0.0,0.0
1783390831.2722108,0.728661298751831,0.8093985319137573,-1.4364555056545214e-07,0.71196049451828,0.7304166555404663,-0.008645203895866871,0.6927784085273743,0.6417603492736816,-0.026165956631302834,0.6864840388298035,0.5782248377799988,-0.04067150875926018,0.6880930662155151,0.518234133720398,-0.055192284286022186,0.6993203163146973,0.6784618496894836,-0.06751558929681778,0.6269825100898743,0.6743344068527222,-0.08555551618337631,0.6433544158935547,0.6870256066322327,-0.08516708016395569,0.6662445068359375,0.6877246499061584,-0.08320257812738419,0.7008518576622009,0.7385201454162598,-0.07291695475578308,0.6228683590888977,0.7260490655899048,-0.08925415575504303,0.642028272151947,0.730671763420105,-0.08067918568849564,0.6663283109664917,0.7375037670135498,-0.07732192426919937,0.6992983818054199,0.7922642230987549,-0.07595737278461456,0.628221333026886,0.7747114300727844,-0.08961032330989838,0.6476390957832336,0.7787911891937256,-0.07461090385913849,0.6713482737541199,0.785102367401123,-0.06627693772315979,0.694685161113739,0.8379466533660889,-0.07882428914308548,0.6392667293548584,0.820523738861084,-0.09035489708185196,0.6543083190917969,0.819445013999939,-0.08224210143089294,0.6745123267173767,0.8260132670402527,-0.0770319253206253,0.0,0.0,0.0,0.0,0.0,0.0,0.0,0.0,0.0,0.0,0.0,0.0,0.0,0.0,0.0,0.0,0.0,0.0,0.0,0.0,0.0,0.0,0.0,0.0,0.0,0.0,0.0,0.0,0.0,0.0,0.0,0.0,0.0,0.0,0.0,0.0,0.0,0.0,0.0,0.0,0.0,0.0,0.0,0.0,0.0,0.0,0.0,0.0,0.0,0.0,0.0,0.0,0.0,0.0,0.0,0.0,0.0,0.0,0.0,0.0,0.0,0.0,0.0
1783390831.474747,0.7279066443443298,0.8064891695976257,-8.689046637755382e-08,0.7118039131164551,0.7260370254516602,-0.004789293278008699,0.6912019848823547,0.6408658623695374,-0.02414431981742382,0.6833304166793823,0.5800611972808838,-0.04059041664004326,0.6829386353492737,0.5205695033073425,-0.05720102787017822,0.6912648677825928,0.6750458478927612,-0.07439105957746506,0.6233167052268982,0.6741035580635071,-0.08562972396612167,0.6408745646476746,0.6817681193351746,-0.07642058283090591,0.663018524646759,0.6818219423294067,-0.06939294934272766,0.6920350790023804,0.734480082988739,-0.08145612478256226,0.619641125202179,0.7248033285140991,-0.09157483279705048,0.6405143141746521,0.7267691493034363,-0.07679066061973572,0.6627199053764343,0.7312638163566589,-0.0705636739730835,0.6909894347190857,0.7880787253379822,-0.08455180376768112,0.6234956383705139,0.7720503211021423,-0.09078648686408997,0.644028902053833,0.7729586958885193,-0.0716317668557167,0.6663780212402344,0.7787991762161255,-0.06333436816930771,0.688644528388977,0.834140956401825,-0.08713023364543915,0.6360079646110535,0.8170343637466431,-0.09512776881456375,0.6516777873039246,0.8124210238456726,-0.08537807315587997,0.670903742313385,0.8175278902053833,-0.08026399463415146,0.0,0.0,0.0,0.0,0.0,0.0,0.0,0.0,0.0,0.0,0.0,0.0,0.0,0.0,0.0,0.0,0.0,0.0,0.0,0.0,0.0,0.0,0.0,0.0,0.0,0.0,0.0,0.0,0.0,0.0,0.0,0.0,0.0,0.0,0.0,0.0,0.0,0.0,0.0,0.0,0.0,0.0,0.0,0.0,0.0,0.0,0.0,0.0,0.0,0.0,0.0,0.0,0.0,0.0,0.0,0.0,0.0,0.0,0.0,0.0,0.0,0.0,0.0
1783390831.6489081,0.7286060452461243,0.7993978261947632,-5.563394722685189e-08,0.7112265825271606,0.7217425107955933,-0.00407483009621501,0.687458872795105,0.6395242214202881,-0.02244214341044426,0.6785331964492798,0.5795906186103821,-0.03857944533228874,0.6756721138954163,0.521854043006897,-0.055088505148887634,0.686111330986023,0.6734157800674438,-0.07063867151737213,0.6190863847732544,0.6733017563819885,-0.08241783827543259,0.6364401578903198,0.6814677119255066,-0.07379443943500519,0.6589291095733643,0.6824271082878113,-0.06658285111188889,0.6881305575370789,0.7343221306800842,-0.07791552692651749,0.6148056983947754,0.7278615832328796,-0.08966238051652908,0.6361005306243896,0.7314514517784119,-0.0750521719455719,0.6591998934745789,0.7342332005500793,-0.06740102916955948,0.6879215240478516,0.7892926335334778,-0.0816497877240181,0.6195271611213684,0.7768346667289734,-0.0887523889541626,0.6402928829193115,0.7762225866317749,-0.06972086429595947,0.6636313796043396,0.7788988351821899,-0.06008334830403328,0.6865474581718445,0.835822343826294,-0.0848778635263443,0.6333768963813782,0.8198758959770203,-0.09219146519899368,0.6471582055091858,0.8139851093292236,-0.08206874877214432,0.6661820411682129,0.8182350993156433,-0.07602992653846741,0.0,0.0,0.0,0.0,0.0,0.0,0.0,0.0,0.0,0.0,0.0,0.0,0.0,0.0,0.0,0.0,0.0,0.0,0.0,0.0,0.0,0.0,0.0,0.0,0.0,0.0,0.0,0.0,0.0,0.0,0.0,0.0,0.0,0.0,0.0,0.0,0.0,0.0,0.0,0.0,0.0,0.0,0.0,0.0,0.0,0.0,0.0,0.0,0.0,0.0,0.0,0.0,0.0,0.0,0.0,0.0,0.0,0.0,0.0,0.0,0.0,0.0,0.0
1783390831.816542,0.7264581918716431,0.8075558543205261,-1.2223890166751517e-07,0.7099081873893738,0.7333130836486816,-0.0038331940304487944,0.6811249256134033,0.6487663388252258,-0.017863525077700615,0.6682208776473999,0.5876861214637756,-0.030702723190188408,0.6623351573944092,0.5307568311691284,-0.043594930320978165,0.6809523701667786,0.676973819732666,-0.05370344966650009,0.6108072400093079,0.6811649799346924,-0.07133162766695023,0.6292639970779419,0.6913179159164429,-0.07293075323104858,0.6529459357261658,0.6910601854324341,-0.07168978452682495,0.6834940910339355,0.7376171350479126,-0.06083659455180168,0.6077246069908142,0.7364247441291809,-0.07787797600030899,0.630170464515686,0.7406859993934631,-0.07146209478378296,0.6558161973953247,0.7417559623718262,-0.06704284995794296,0.6845454573631287,0.79307621717453,-0.06595969945192337,0.6161375045776367,0.7869046330451965,-0.07832228392362595,0.6362869739532471,0.7876824140548706,-0.06403233110904694,0.6602045893669128,0.7859576940536499,-0.05430271476507187,0.6845113039016724,0.841537594795227,-0.07070781290531158,0.6291698217391968,0.8288450837135315,-0.07961883395910263,0.6427138447761536,0.8255389332771301,-0.07020224630832672,0.6633642315864563,0.827838659286499,-0.06297460943460464,0.0,0.0,0.0,0.0,0.0,0.0,0.0,0.0,0.0,0.0,0.0,0.0,0.0,0.0,0.0,0.0,0.0,0.0,0.0,0.0,0.0,0.0,0.0,0.0,0.0,0.0,0.0,0.0,0.0,0.0,0.0,0.0,0.0,0.0,0.0,0.0,0.0,0.0,0.0,0.0,0.0,0.0,0.0,0.0,0.0,0.0,0.0,0.0,0.0,0.0,0.0,0.0,0.0,0.0,0.0,0.0,0.0,0.0,0.0,0.0,0.0,0.0,0.0
1783390831.9462242,0.7257636189460754,0.812709629535675,-1.2145459038492845e-07,0.7073386907577515,0.7365330457687378,-0.0033936328254640102,0.6781730651855469,0.6530704498291016,-0.01825616881251335,0.6646476984024048,0.5924060940742493,-0.03126278519630432,0.6577728390693665,0.5364325046539307,-0.044181082397699356,0.6760851740837097,0.6831702589988708,-0.06024570018053055,0.6071702241897583,0.6904176473617554,-0.07479723542928696,0.6253750324249268,0.6978795528411865,-0.07139082252979279,0.6483230590820312,0.69664466381073,-0.0670190304517746,0.6792690753936768,0.7447597980499268,-0.06711498647928238,0.6049070954322815,0.7456969022750854,-0.08181887120008469,0.6266306042671204,0.7472540140151978,-0.07172197848558426,0.6507360935211182,0.747846782207489,-0.06566367298364639,0.6807796955108643,0.800340473651886,-0.07118131220340729,0.61212557554245,0.7944275140762329,-0.0813925638794899,0.6323992609977722,0.7927035093307495,-0.06480483710765839,0.6555538177490234,0.791951596736908,-0.05464750900864601,0.6813607811927795,0.8488278388977051,-0.07470103353261948,0.6261856555938721,0.8359098434448242,-0.08249270170927048,0.6399333477020264,0.8306810855865479,-0.0721902921795845,0.6597743034362793,0.8331629037857056,-0.06491216272115707,0.0,0.0,0.0,0.0,0.0,0.0,0.0,0.0,0.0,0.0,0.0,0.0,0.0,0.0,0.0,0.0,0.0,0.0,0.0,0.0,0.0,0.0,0.0,0.0,0.0,0.0,0.0,0.0,0.0,0.0,0.0,0.0,0.0,0.0,0.0,0.0,0.0,0.0,0.0,0.0,0.0,0.0,0.0,0.0,0.0,0.0,0.0,0.0,0.0,0.0,0.0,0.0,0.0,0.0,0.0,0.0,0.0,0.0,0.0,0.0,0.0,0.0,0.0
1783390832.1154509,0.726162850856781,0.8192057609558105,-1.5993931867797073e-07,0.7067974209785461,0.7446708083152771,-0.0029228748753666878,0.6757341623306274,0.6630867123603821,-0.016711080446839333,0.6620962619781494,0.6016156673431396,-0.029416793957352638,0.6561359167098999,0.5446799993515015,-0.0424392968416214,0.6764456629753113,0.687157928943634,-0.053044021129608154,0.607810378074646,0.6967739462852478,-0.0692405104637146,0.6254490613937378,0.708541989326477,-0.06997667998075485,0.6483416557312012,0.7068958878517151,-0.06848029792308807,0.6806585788726807,0.7479155659675598,-0.060207780450582504,0.6062289476394653,0.7533276081085205,-0.07574981451034546,0.6279371976852417,0.7581234574317932,-0.06868477165699005,0.652958333492279,0.7582582235336304,-0.06427794694900513,0.6829317212104797,0.8039339184761047,-0.06511484831571579,0.6134405732154846,0.803521990776062,-0.07637322694063187,0.6335403919219971,0.8040932416915894,-0.06167363002896309,0.6571008563041687,0.802248477935791,-0.05212807655334473,0.6838826537132263,0.8532184958457947,-0.06948330253362656,0.6275980472564697,0.8460674285888672,-0.07762269675731659,0.641718327999115,0.8425155878067017,-0.06761295348405838,0.6622096300125122,0.8436182141304016,-0.060193195939064026,0.0,0.0,0.0,0.0,0.0,0.0,0.0,0.0,0.0,0.0,0.0,0.0,0.0,0.0,0.0,0.0,0.0,0.0,0.0,0.0,0.0,0.0,0.0,0.0,0.0,0.0,0.0,0.0,0.0,0.0,0.0,0.0,0.0,0.0,0.0,0.0,0.0,0.0,0.0,0.0,0.0,0.0,0.0,0.0,0.0,0.0,0.0,0.0,0.0,0.0,0.0,0.0,0.0,0.0,0.0,0.0,0.0,0.0,0.0,0.0,0.0,0.0,0.0
1783390832.25113,0.7259801030158997,0.8211401700973511,-1.5678043041589262e-07,0.7065722942352295,0.7481069564819336,-0.002617018064484,0.6758735179901123,0.6672416925430298,-0.01599760167300701,0.6611263155937195,0.6072855591773987,-0.028323234990239143,0.65376216173172,0.5519944429397583,-0.040845923125743866,0.6758872270584106,0.6941688060760498,-0.05109615623950958,0.6068757772445679,0.7043800950050354,-0.06758551299571991,0.6246548891067505,0.713220477104187,-0.06891259551048279,0.6477934718132019,0.7106850743293762,-0.06770617514848709,0.680167555809021,0.7545193433761597,-0.0583130419254303,0.6057127714157104,0.760170042514801,-0.0737227350473404,0.6273168325424194,0.7631224393844604,-0.06710131466388702,0.6522164940834045,0.7634315490722656,-0.06316182762384415,0.6823228001594543,0.8097721934318542,-0.06339798867702484,0.6134094595909119,0.8093821406364441,-0.07457713037729263,0.6334620714187622,0.8088511228561401,-0.06013261154294014,0.6569035053253174,0.8070617914199829,-0.05088645964860916,0.6828517317771912,0.8583311438560486,-0.06799555569887161,0.6275408267974854,0.8513910174369812,-0.07645277678966522,0.642166018486023,0.8467301726341248,-0.06688570976257324,0.6625924706459045,0.8473807573318481,-0.05978676676750183,0.0,0.0,0.0,0.0,0.0,0.0,0.0,0.0,0.0,0.0,0.0,0.0,0.0,0.0,0.0,0.0,0.0,0.0,0.0,0.0,0.0,0.0,0.0,0.0,0.0,0.0,0.0,0.0,0.0,0.0,0.0,0.0,0.0,0.0,0.0,0.0,0.0,0.0,0.0,0.0,0.0,0.0,0.0,0.0,0.0,0.0,0.0,0.0,0.0,0.0,0.0,0.0,0.0,0.0,0.0,0.0,0.0,0.0,0.0,0.0,0.0,0.0,0.0
1783390832.381702,0.7264323830604553,0.8182238340377808,-1.6009612124889827e-07,0.7072661519050598,0.7469186186790466,-0.0031559180933982134,0.675408661365509,0.667136549949646,-0.016116995364427567,0.6592779755592346,0.6078935861587524,-0.028222443535923958,0.6516128182411194,0.5523450374603271,-0.04044992849230766,0.6763612627983093,0.6916568875312805,-0.04847097396850586,0.6078778505325317,0.7040494084358215,-0.06601729989051819,0.6251339912414551,0.7124145030975342,-0.06847979128360748,0.647917628288269,0.708809494972229,-0.06768891215324402,0.6811049580574036,0.7508634924888611,-0.055460765957832336,0.606329083442688,0.7594777345657349,-0.07165165990591049,0.6279257535934448,0.7613949179649353,-0.06608965247869492,0.6528050303459167,0.7592872381210327,-0.06234182044863701,0.683685839176178,0.8052746057510376,-0.06071821600198746,0.6147681474685669,0.8074522614479065,-0.07299888879060745,0.6347225904464722,0.8072211742401123,-0.05953265726566315,0.6581984162330627,0.8037722110748291,-0.05023108050227165,0.6843574643135071,0.8536717295646667,-0.06557166576385498,0.6280189156532288,0.8494775891304016,-0.07473722845315933,0.6418455839157104,0.8450548648834229,-0.06593437492847443,0.6625369787216187,0.8447898626327515,-0.05894104763865471,0.0,0.0,0.0,0.0,0.0,0.0,0.0,0.0,0.0,0.0,0.0,0.0,0.0,0.0,0.0,0.0,0.0,0.0,0.0,0.0,0.0,0.0,0.0,0.0,0.0,0.0,0.0,0.0,0.0,0.0,0.0,0.0,0.0,0.0,0.0,0.0,0.0,0.0,0.0,0.0,0.0,0.0,0.0,0.0,0.0,0.0,0.0,0.0,0.0,0.0,0.0,0.0,0.0,0.0,0.0,0.0,0.0,0.0,0.0,0.0,0.0,0.0,0.0
1783390832.5504792,0.7280142903327942,0.8043371438980103,-1.5821647991742793e-07,0.7084980607032776,0.7354193925857544,-0.003396165557205677,0.676514744758606,0.6559754014015198,-0.016220636665821075,0.6593946814537048,0.5971018671989441,-0.02781527116894722,0.6501091122627258,0.5433325171470642,-0.03950115665793419,0.6785287857055664,0.6775025725364685,-0.05032394826412201,0.6099256873130798,0.6937172412872314,-0.06713499128818512,0.6253011226654053,0.7021833062171936,-0.06824379414319992,0.6462241411209106,0.6973684430122375,-0.06657860428094864,0.6838185787200928,0.7346190810203552,-0.05694592744112015,0.6090419888496399,0.746597170829773,-0.07242235541343689,0.6287943720817566,0.7486780881881714,-0.06564540416002274,0.6519355773925781,0.7452665567398071,-0.06142314150929451,0.6866803765296936,0.789097249507904,-0.061721716076135635,0.6177595853805542,0.7943058013916016,-0.07395687699317932,0.6365247964859009,0.7940658330917358,-0.060384538024663925,0.6588912010192871,0.7893582582473755,-0.05136317014694214,0.6873025298118591,0.8387468457221985,-0.06598369777202606,0.6304336190223694,0.8367913365364075,-0.07571002840995789,0.6439052224159241,0.8310326337814331,-0.06754148751497269,0.6645548939704895,0.8279427886009216,-0.06111422926187515,0.0,0.0,0.0,0.0,0.0,0.0,0.0,0.0,0.0,0.0,0.0,0.0,0.0,0.0,0.0,0.0,0.0,0.0,0.0,0.0,0.0,0.0,0.0,0.0,0.0,0.0,0.0,0.0,0.0,0.0,0.0,0.0,0.0,0.0,0.0,0.0,0.0,0.0,0.0,0.0,0.0,0.0,0.0,0.0,0.0,0.0,0.0,0.0,0.0,0.0,0.0,0.0,0.0,0.0,0.0,0.0,0.0,0.0,0.0,0.0,0.0,0.0,0.0
1783390832.713063,0.7296878099441528,0.7975592017173767,-1.453733915468547e-07,0.7093724608421326,0.7296743988990784,-0.004040223080664873,0.6780130863189697,0.6509138941764832,-0.016861949115991592,0.661087691783905,0.5929581522941589,-0.028349442407488823,0.6514028310775757,0.5408079028129578,-0.039891187101602554,0.6809405088424683,0.6774077415466309,-0.04995774105191231,0.6120011210441589,0.6907681822776794,-0.06756984442472458,0.6286044120788574,0.6970251202583313,-0.06993839144706726,0.6507723927497864,0.6934040784835815,-0.06907948106527328,0.6856687664985657,0.7363391518592834,-0.05627935752272606,0.6107885837554932,0.7467338442802429,-0.07194426655769348,0.6315535306930542,0.7464402318000793,-0.06609617173671722,0.655653715133667,0.7450651526451111,-0.06267306208610535,0.6882705092430115,0.7909405827522278,-0.06093091145157814,0.619920015335083,0.7957296967506409,-0.07293230295181274,0.6392936706542969,0.7930243015289307,-0.05971851572394371,0.661969006061554,0.7889004945755005,-0.051080986857414246,0.6884844303131104,0.8394758105278015,-0.06523620337247849,0.6333073377609253,0.8379245400428772,-0.07482509315013885,0.647280752658844,0.8306730389595032,-0.06678804010152817,0.6671459674835205,0.8286576867103577,-0.06059544160962105,0.0,0.0,0.0,0.0,0.0,0.0,0.0,0.0,0.0,0.0,0.0,0.0,0.0,0.0,0.0,0.0,0.0,0.0,0.0,0.0,0.0,0.0,0.0,0.0,0.0,0.0,0.0,0.0,0.0,0.0,0.0,0.0,0.0,0.0,0.0,0.0,0.0,0.0,0.0,0.0,0.0,0.0,0.0,0.0,0.0,0.0,0.0,0.0,0.0,0.0,0.0,0.0,0.0,0.0,0.0,0.0,0.0,0.0,0.0,0.0,0.0,0.0,0.0
1783390832.846737,0.7376097440719604,0.7971317768096924,-1.469625630079463e-07,0.7154034972190857,0.7301310300827026,-0.003306548809632659,0.6821799278259277,0.6535652279853821,-0.01810651831328869,0.665826678276062,0.5954692959785461,-0.03117065317928791,0.6567162275314331,0.54256671667099,-0.04448283463716507,0.686135470867157,0.6771347522735596,-0.05964404344558716,0.6178984642028809,0.6949371695518494,-0.074702687561512,0.6346339583396912,0.7015860080718994,-0.0722375214099884,0.6568111181259155,0.6962419748306274,-0.06854251772165298,0.6925229430198669,0.7360286712646484,-0.06648606806993484,0.6186527609825134,0.7495948672294617,-0.08141560107469559,0.6394044756889343,0.7501369118690491,-0.07223494350910187,0.6638910174369812,0.7481112480163574,-0.06690236181020737,0.6956918239593506,0.7910304665565491,-0.07057041674852371,0.6260263323783875,0.7985795736312866,-0.08076582103967667,0.6457930207252502,0.7958619594573975,-0.06508642435073853,0.6695265769958496,0.7924800515174866,-0.05580531060695648,0.696341335773468,0.8407344818115234,-0.074126698076725,0.6404611468315125,0.8413254022598267,-0.08283867686986923,0.6544035077095032,0.8340909481048584,-0.07382017374038696,0.6747568249702454,0.832574188709259,-0.06746914237737656,0.0,0.0,0.0,0.0,0.0,0.0,0.0,0.0,0.0,0.0,0.0,0.0,0.0,0.0,0.0,0.0,0.0,0.0,0.0,0.0,0.0,0.0,0.0,0.0,0.0,0.0,0.0,0.0,0.0,0.0,0.0,0.0,0.0,0.0,0.0,0.0,0.0,0.0,0.0,0.0,0.0,0.0,0.0,0.0,0.0,0.0,0.0,0.0,0.0,0.0,0.0,0.0,0.0,0.0,0.0,0.0,0.0,0.0,0.0,0.0,0.0,0.0,0.0
1783390832.9855711,0.7408397197723389,0.8000954389572144,-1.4079435572966759e-07,0.7189114689826965,0.730227530002594,-0.0027596792206168175,0.6869122982025146,0.6519173979759216,-0.018204858526587486,0.6718364953994751,0.5933138132095337,-0.03203841671347618,0.6638388633728027,0.5383859276771545,-0.04598965495824814,0.6923589706420898,0.67424076795578,-0.061195481568574905,0.6238144636154175,0.6890296936035156,-0.07598826289176941,0.6401805877685547,0.6981020569801331,-0.07259376347064972,0.6613103747367859,0.6928600668907166,-0.068555548787117,0.6988194584846497,0.7326628565788269,-0.0688326507806778,0.6223236322402954,0.744364321231842,-0.08456190675497055,0.6438800692558289,0.7464306354522705,-0.07467833906412125,0.6685622930526733,0.7435726523399353,-0.06863432377576828,0.7016135454177856,0.7870920896530151,-0.07355188578367233,0.630827009677887,0.7944813966751099,-0.08397024869918823,0.6511985659599304,0.7924022078514099,-0.06741920113563538,0.6748453378677368,0.7882566452026367,-0.05753394961357117,0.7016851305961609,0.8359564542770386,-0.07768101245164871,0.6447663307189941,0.8348763585090637,-0.08606304228305817,0.6590405106544495,0.8279919028282166,-0.07635065913200378,0.6796712279319763,0.8262354731559753,-0.0696566253900528,0.0,0.0,0.0,0.0,0.0,0.0,0.0,0.0,0.0,0.0,0.0,0.0,0.0,0.0,0.0,0.0,0.0,0.0,0.0,0.0,0.0,0.0,0.0,0.0,0.0,0.0,0.0,0.0,0.0,0.0,0.0,0.0,0.0,0.0,0.0,0.0,0.0,0.0,0.0,0.0,0.0,0.0,0.0,0.0,0.0,0.0,0.0,0.0,0.0,0.0,0.0,0.0,0.0,0.0,0.0,0.0,0.0,0.0,0.0,0.0,0.0,0.0,0.0
1783390833.153261,0.7399682998657227,0.7980997562408447,-1.4080140431360633e-07,0.7206224799156189,0.7291258573532104,-0.003966810181736946,0.6907315850257874,0.6497191786766052,-0.017507528886198997,0.675016462802887,0.5917795896530151,-0.02983778901398182,0.6663554906845093,0.5378668904304504,-0.04243377223610878,0.694057285785675,0.6751142740249634,-0.0506737194955349,0.6252625584602356,0.6873898506164551,-0.0686255618929863,0.6416890621185303,0.6936491131782532,-0.0714300125837326,0.6637660264968872,0.6899357438087463,-0.07101722806692123,0.6990363597869873,0.7338626980781555,-0.05742620676755905,0.623462975025177,0.7424120903015137,-0.07357423007488251,0.6442891359329224,0.7426614165306091,-0.06812544167041779,0.668997585773468,0.7423632740974426,-0.06498908996582031,0.7016464471817017,0.7886139750480652,-0.06245347484946251,0.6325051188468933,0.7921767830848694,-0.07471904903650284,0.6521693468093872,0.7902097105979919,-0.061522677540779114,0.6753011345863342,0.786727249622345,-0.05296678468585014,0.7018786668777466,0.8374026417732239,-0.06712818890810013,0.6461315155029297,0.8354748487472534,-0.07702687382698059,0.6605930924415588,0.8281549215316772,-0.06897494196891785,0.680980920791626,0.8258904218673706,-0.06283669173717499,0.0,0.0,0.0,0.0,0.0,0.0,0.0,0.0,0.0,0.0,0.0,0.0,0.0,0.0,0.0,0.0,0.0,0.0,0.0,0.0,0.0,0.0,0.0,0.0,0.0,0.0,0.0,0.0,0.0,0.0,0.0,0.0,0.0,0.0,0.0,0.0,0.0,0.0,0.0,0.0,0.0,0.0,0.0,0.0,0.0,0.0,0.0,0.0,0.0,0.0,0.0,0.0,0.0,0.0,0.0,0.0,0.0,0.0,0.0,0.0,0.0,0.0,0.0
1783390833.278839,0.7402157783508301,0.7987967729568481,-1.4283645555224211e-07,0.7206639051437378,0.7301546931266785,-0.003865022212266922,0.6907991170883179,0.6499752402305603,-0.017424844205379486,0.6753157377243042,0.591913640499115,-0.029804982244968414,0.667138397693634,0.5375858545303345,-0.0425000861287117,0.6938087344169617,0.6739012002944946,-0.05107678100466728,0.6249414682388306,0.6866641044616699,-0.06908774375915527,0.6415979266166687,0.6949349641799927,-0.07165475189685822,0.6645007729530334,0.6913117170333862,-0.071003757417202,0.6989654898643494,0.7325292229652405,-0.057952385395765305,0.6232819557189941,0.7424906492233276,-0.07457415014505386,0.6443262100219727,0.7446425557136536,-0.06911755353212357,0.6697671413421631,0.7437809705734253,-0.06566895544528961,0.7018311619758606,0.7877026796340942,-0.06304866820573807,0.6314257979393005,0.7924335598945618,-0.07549481093883514,0.6512845158576965,0.7921689748764038,-0.062304697930812836,0.6754430532455444,0.7887372374534607,-0.05356196314096451,0.7024289965629578,0.8370907306671143,-0.06776605546474457,0.6462324261665344,0.8370484113693237,-0.07796858996152878,0.6599792838096619,0.8310863375663757,-0.07018424570560455,0.680451512336731,0.8289527297019958,-0.06402339786291122,0.0,0.0,0.0,0.0,0.0,0.0,0.0,0.0,0.0,0.0,0.0,0.0,0.0,0.0,0.0,0.0,0.0,0.0,0.0,0.0,0.0,0.0,0.0,0.0,0.0,0.0,0.0,0.0,0.0,0.0,0.0,0.0,0.0,0.0,0.0,0.0,0.0,0.0,0.0,0.0,0.0,0.0,0.0,0.0,0.0,0.0,0.0,0.0,0.0,0.0,0.0,0.0,0.0,0.0,0.0,0.0,0.0,0.0,0.0,0.0,0.0,0.0,0.0
1783390833.419662,0.7409811019897461,0.7974236011505127,-1.5291055888155825e-07,0.7222196459770203,0.7293831706047058,-0.00402846047654748,0.6923788785934448,0.6489952206611633,-0.01751876249909401,0.6764681935310364,0.590874433517456,-0.029742784798145294,0.6677901148796082,0.5365477800369263,-0.04219193384051323,0.6960752010345459,0.6723479628562927,-0.05066912621259689,0.6269986033439636,0.6843591332435608,-0.06855086237192154,0.6434887647628784,0.6921710968017578,-0.07107483595609665,0.6656115651130676,0.6887940764427185,-0.07049977779388428,0.7012447714805603,0.7298950552940369,-0.057450078427791595,0.6254530549049377,0.7382805347442627,-0.07365499436855316,0.6464079022407532,0.7408543825149536,-0.0681077316403389,0.671215295791626,0.741669237613678,-0.06489323824644089,0.7037684321403503,0.7844347357749939,-0.06251499801874161,0.6346818804740906,0.7886597514152527,-0.07482554763555527,0.6547298431396484,0.7884368896484375,-0.061527784913778305,0.6781849265098572,0.7857216596603394,-0.05303506925702095,0.7036357522010803,0.8336888551712036,-0.06720912456512451,0.6484009027481079,0.8331431150436401,-0.07747357338666916,0.6637352108955383,0.8272207975387573,-0.06950721889734268,0.684389054775238,0.8252516984939575,-0.06346722692251205,0.0,0.0,0.0,0.0,0.0,0.0,0.0,0.0,0.0,0.0,0.0,0.0,0.0,0.0,0.0,0.0,0.0,0.0,0.0,0.0,0.0,0.0,0.0,0.0,0.0,0.0,0.0,0.0,0.0,0.0,0.0,0.0,0.0,0.0,0.0,0.0,0.0,0.0,0.0,0.0,0.0,0.0,0.0,0.0,0.0,0.0,0.0,0.0,0.0,0.0,0.0,0.0,0.0,0.0,0.0,0.0,0.0,0.0,0.0,0.0,0.0,0.0,0.0
