ciel274/research-hand-sign/data/raw/hiragana/sign_language_to_2.csv
timestamp,R_joint_0_x,R_joint_0_y,R_joint_0_z,R_joint_1_x,R_joint_1_y,R_joint_1_z,R_joint_2_x,R_joint_2_y,R_joint_2_z,R_joint_3_x,R_joint_3_y,R_joint_3_z,R_joint_4_x,R_joint_4_y,R_joint_4_z,R_joint_5_x,R_joint_5_y,R_joint_5_z,R_joint_6_x,R_joint_6_y,R_joint_6_z,R_joint_7_x,R_joint_7_y,R_joint_7_z,R_joint_8_x,R_joint_8_y,R_joint_8_z,R_joint_9_x,R_joint_9_y,R_joint_9_z,R_joint_10_x,R_joint_10_y,R_joint_10_z,R_joint_11_x,R_joint_11_y,R_joint_11_z,R_joint_12_x,R_joint_12_y,R_joint_12_z,R_joint_13_x,R_joint_13_y,R_joint_13_z,R_joint_14_x,R_joint_14_y,R_joint_14_z,R_joint_15_x,R_joint_15_y,R_joint_15_z,R_joint_16_x,R_joint_16_y,R_joint_16_z,R_joint_17_x,R_joint_17_y,R_joint_17_z,R_joint_18_x,R_joint_18_y,R_joint_18_z,R_joint_19_x,R_joint_19_y,R_joint_19_z,R_joint_20_x,R_joint_20_y,R_joint_20_z,L_joint_0_x,L_joint_0_y,L_joint_0_z,L_joint_1_x,L_joint_1_y,L_joint_1_z,L_joint_2_x,L_joint_2_y,L_joint_2_z,L_joint_3_x,L_joint_3_y,L_joint_3_z,L_joint_4_x,L_joint_4_y,L_joint_4_z,L_joint_5_x,L_joint_5_y,L_joint_5_z,L_joint_6_x,L_joint_6_y,L_joint_6_z,L_joint_7_x,L_joint_7_y,L_joint_7_z,L_joint_8_x,L_joint_8_y,L_joint_8_z,L_joint_9_x,L_joint_9_y,L_joint_9_z,L_joint_10_x,L_joint_10_y,L_joint_10_z,L_joint_11_x,L_joint_11_y,L_joint_11_z,L_joint_12_x,L_joint_12_y,L_joint_12_z,L_joint_13_x,L_joint_13_y,L_joint_13_z,L_joint_14_x,L_joint_14_y,L_joint_14_z,L_joint_15_x,L_joint_15_y,L_joint_15_z,L_joint_16_x,L_joint_16_y,L_joint_16_z,L_joint_17_x,L_joint_17_y,L_joint_17_z,L_joint_18_x,L_joint_18_y,L_joint_18_z,L_joint_19_x,L_joint_19_y,L_joint_19_z,L_joint_20_x,L_joint_20_y,L_joint_20_z
1783391071.422249,0.6989272832870483,0.8437075614929199,3.9817552988097304e-07,0.7204601168632507,0.7536352872848511,0.013956994749605656,0.7125288248062134,0.6758448481559753,0.014473807066679,0.6884365677833557,0.6391478180885315,0.011486230418086052,0.66547030210495,0.6252776980400085,0.007181058172136545,0.7130633592605591,0.6316207051277161,-0.0056900884956121445,0.7052983045578003,0.5336634516716003,-0.012245464138686657,0.7032296061515808,0.47868862748146057,-0.01579754613339901,0.700098991394043,0.4338419437408447,-0.017241470515727997,0.685951292514801,0.637269914150238,-0.01570332609117031,0.6809112429618835,0.5286540985107422,-0.020067481324076653,0.6782221794128418,0.4631022810935974,-0.02237231843173504,0.6741830110549927,0.4133588969707489,-0.024679945781826973,0.658008873462677,0.6546290516853333,-0.022666294127702713,0.6485843062400818,0.5676083564758301,-0.021290546283125877,0.657106339931488,0.5896052122116089,-0.013000154867768288,0.6619810461997986,0.6176990866661072,-0.00703178346157074,0.6350061893463135,0.6785793900489807,-0.02868971973657608,0.6281894445419312,0.617294192314148,-0.022030053660273552,0.6374073028564453,0.632672131061554,-0.00945153459906578,0.642817497253418,0.655264139175415,9.749840683070943e-05,0.0,0.0,0.0,0.0,0.0,0.0,0.0,0.0,0.0,0.0,0.0,0.0,0.0,0.0,0.0,0.0,0.0,0.0,0.0,0.0,0.0,0.0,0.0,0.0,0.0,0.0,0.0,0.0,0.0,0.0,0.0,0.0,0.0,0.0,0.0,0.0,0.0,0.0,0.0,0.0,0.0,0.0,0.0,0.0,0.0,0.0,0.0,0.0,0.0,0.0,0.0,0.0,0.0,0.0,0.0,0.0,0.0,0.0,0.0,0.0,0.0,0.0,0.0
1783391071.7185779,0.6989840269088745,0.8437269330024719,4.0666307654646516e-07,0.7198353409767151,0.7525141835212708,0.01620260439813137,0.7125362753868103,0.677856981754303,0.017410362139344215,0.6895701289176941,0.641289472579956,0.014563925564289093,0.6670129299163818,0.628303050994873,0.01038422156125307,0.7123842239379883,0.6301040649414062,-0.0029786587692797184,0.7046876549720764,0.5333238244056702,-0.009604290127754211,0.7024237513542175,0.4783340096473694,-0.013588514178991318,0.698996365070343,0.43327829241752625,-0.015213972888886929,0.6853826642036438,0.6354424357414246,-0.013936365023255348,0.6808586716651917,0.5271791219711304,-0.018363552168011665,0.6784203052520752,0.46152669191360474,-0.020725267007946968,0.6743354201316833,0.41231220960617065,-0.022710537537932396,0.6575726270675659,0.6532757878303528,-0.021697944030165672,0.6491727232933044,0.5702918171882629,-0.019542794674634933,0.6575176119804382,0.5921597480773926,-0.010590513236820698,0.6619471311569214,0.6195819973945618,-0.003940888214856386,0.6348021626472473,0.6783910989761353,-0.028458237648010254,0.6295821666717529,0.6182398200035095,-0.020272638648748398,0.6385332345962524,0.6340470910072327,-0.006428432185202837,0.6436679363250732,0.656669557094574,0.004155860748142004,0.0,0.0,0.0,0.0,0.0,0.0,0.0,0.0,0.0,0.0,0.0,0.0,0.0,0.0,0.0,0.0,0.0,0.0,0.0,0.0,0.0,0.0,0.0,0.0,0.0,0.0,0.0,0.0,0.0,0.0,0.0,0.0,0.0,0.0,0.0,0.0,0.0,0.0,0.0,0.0,0.0,0.0,0.0,0.0,0.0,0.0,0.0,0.0,0.0,0.0,0.0,0.0,0.0,0.0,0.0,0.0,0.0,0.0,0.0,0.0,0.0,0.0,0.0
1783391071.961545,0.699060320854187,0.8411377668380737,3.9840335830376716e-07,0.7210286855697632,0.7505512833595276,0.01474754512310028,0.7140141129493713,0.6737780570983887,0.015554467216134071,0.6907038688659668,0.6344929337501526,0.012820915319025517,0.6682202219963074,0.6189849972724915,0.008717428892850876,0.7133083343505859,0.6295257806777954,-0.005396585445851088,0.7051494717597961,0.5335747599601746,-0.012275886721909046,0.7025772333145142,0.47948727011680603,-0.016412146389484406,0.6986761689186096,0.43448275327682495,-0.018192628398537636,0.6858678460121155,0.6356642842292786,-0.015544881112873554,0.6817594766616821,0.5267860293388367,-0.01978357508778572,0.6794059872627258,0.46123936772346497,-0.021908428519964218,0.6748606562614441,0.41125330328941345,-0.02400079369544983,0.6577920317649841,0.6534798741340637,-0.02254968322813511,0.6492358446121216,0.5677527785301208,-0.020768821239471436,0.6578646898269653,0.5896983742713928,-0.012023569084703922,0.6625095009803772,0.6177117228507996,-0.005672188010066748,0.6351342797279358,0.6777173280715942,-0.028581717982888222,0.6304613947868347,0.6152664422988892,-0.02097485587000847,0.6396713256835938,0.6308447122573853,-0.007520084735006094,0.644859790802002,0.65364670753479,0.0026324850041419268,0.0,0.0,0.0,0.0,0.0,0.0,0.0,0.0,0.0,0.0,0.0,0.0,0.0,0.0,0.0,0.0,0.0,0.0,0.0,0.0,0.0,0.0,0.0,0.0,0.0,0.0,0.0,0.0,0.0,0.0,0.0,0.0,0.0,0.0,0.0,0.0,0.0,0.0,0.0,0.0,0.0,0.0,0.0,0.0,0.0,0.0,0.0,0.0,0.0,0.0,0.0,0.0,0.0,0.0,0.0,0.0,0.0,0.0,0.0,0.0,0.0,0.0,0.0
1783391072.30021,0.6998936533927917,0.8451887369155884,4.0045972582447575e-07,0.7214176058769226,0.7551525831222534,0.014929786324501038,0.7135518193244934,0.6773287653923035,0.0161505788564682,0.6894127130508423,0.6405100226402283,0.013855146244168282,0.6664351224899292,0.62795090675354,0.01029406301677227,0.713520348072052,0.6321914792060852,-0.004433866590261459,0.7047995328903198,0.5347644686698914,-0.010016868822276592,0.7022108435630798,0.4806959331035614,-0.01306915283203125,0.6984055042266846,0.4360789656639099,-0.014343115501105785,0.6856831908226013,0.6376680731773376,-0.014522846788167953,0.6809720993041992,0.5293437838554382,-0.018368052318692207,0.6782942414283752,0.46407508850097656,-0.02044103294610977,0.6738715171813965,0.4142247140407562,-0.02255997434258461,0.6572592854499817,0.6553995013237,-0.02137402445077896,0.6493783593177795,0.5675156116485596,-0.018976040184497833,0.6579148769378662,0.5904611349105835,-0.00980294868350029,0.6618658900260925,0.6187616586685181,-0.0033043576404452324,0.6345563530921936,0.6798588037490845,-0.027246927842497826,0.6291938424110413,0.6171610355377197,-0.01946304365992546,0.6386165618896484,0.6331151127815247,-0.005948211066424847,0.6434665322303772,0.6559097766876221,0.004239190835505724,0.0,0.0,0.0,0.0,0.0,0.0,0.0,0.0,0.0,0.0,0.0,0.0,0.0,0.0,0.0,0.0,0.0,0.0,0.0,0.0,0.0,0.0,0.0,0.0,0.0,0.0,0.0,0.0,0.0,0.0,0.0,0.0,0.0,0.0,0.0,0.0,0.0,0.0,0.0,0.0,0.0,0.0,0.0,0.0,0.0,0.0,0.0,0.0,0.0,0.0,0.0,0.0,0.0,0.0,0.0,0.0,0.0,0.0,0.0,0.0,0.0,0.0,0.0
1783391072.509129,0.6998648047447205,0.8439853191375732,4.070663806032826e-07,0.7204803824424744,0.7503603100776672,0.018253063783049583,0.7130293846130371,0.6759250164031982,0.020092159509658813,0.6894124150276184,0.6385321021080017,0.01751781813800335,0.6671506762504578,0.6247910261154175,0.013589935377240181,0.7131910920143127,0.629280686378479,-0.0021135355345904827,0.7048954367637634,0.5342735648155212,-0.009167390875518322,0.7024251818656921,0.4792703092098236,-0.013717059046030045,0.6991075277328491,0.433866024017334,-0.01593034341931343,0.6860241889953613,0.6350787878036499,-0.01386510580778122,0.6813480257987976,0.5272411704063416,-0.01944296807050705,0.6789212226867676,0.46109071373939514,-0.0227018091827631,0.6750313639640808,0.41188549995422363,-0.025337930768728256,0.6580091118812561,0.653437077999115,-0.022041065618395805,0.648693859577179,0.5697088241577148,-0.01948373392224312,0.6570948362350464,0.5913519859313965,-0.009462873451411724,0.6615938544273376,0.6184675097465515,-0.002233466599136591,0.6353726387023926,0.6793496012687683,-0.029131583869457245,0.6293112635612488,0.6193616986274719,-0.020075172185897827,0.6386433243751526,0.6350363492965698,-0.0054014697670936584,0.6441699862480164,0.6576141715049744,0.005687871482223272,0.0,0.0,0.0,0.0,0.0,0.0,0.0,0.0,0.0,0.0,0.0,0.0,0.0,0.0,0.0,0.0,0.0,0.0,0.0,0.0,0.0,0.0,0.0,0.0,0.0,0.0,0.0,0.0,0.0,0.0,0.0,0.0,0.0,0.0,0.0,0.0,0.0,0.0,0.0,0.0,0.0,0.0,0.0,0.0,0.0,0.0,0.0,0.0,0.0,0.0,0.0,0.0,0.0,0.0,0.0,0.0,0.0,0.0,0.0,0.0,0.0,0.0,0.0
1783391072.862015,0.6996497511863708,0.8444408178329468,3.8532959933945676e-07,0.7203803658485413,0.7508440017700195,0.01875961758196354,0.7137972116470337,0.675538957118988,0.020830441266298294,0.6913672089576721,0.6342596411705017,0.018506720662117004,0.6703413128852844,0.6157332062721252,0.014927804470062256,0.7143653631210327,0.6297703981399536,-0.002559117041528225,0.7058435678482056,0.5344972014427185,-0.010250973515212536,0.7031761407852173,0.47867318987846375,-0.015164812095463276,0.6995307207107544,0.43329963088035583,-0.017555467784404755,0.687786877155304,0.635780930519104,-0.014631328172981739,0.6825999021530151,0.5268654227256775,-0.020499521866440773,0.6795327067375183,0.4602639973163605,-0.023727187886834145,0.6748941540718079,0.41153475642204285,-0.02638302929699421,0.6597979664802551,0.653724193572998,-0.023103948682546616,0.649669885635376,0.569553792476654,-0.02057562582194805,0.6579391360282898,0.5895982980728149,-0.010125083848834038,0.6626120805740356,0.6162633299827576,-0.002674523741006851,0.6366620063781738,0.6788825392723083,-0.03048090636730194,0.629916787147522,0.6173672080039978,-0.02159174717962742,0.6388984322547913,0.6318852305412292,-0.006881781853735447,0.6443291306495667,0.6540722846984863,0.004252768121659756,0.0,0.0,0.0,0.0,0.0,0.0,0.0,0.0,0.0,0.0,0.0,0.0,0.0,0.0,0.0,0.0,0.0,0.0,0.0,0.0,0.0,0.0,0.0,0.0,0.0,0.0,0.0,0.0,0.0,0.0,0.0,0.0,0.0,0.0,0.0,0.0,0.0,0.0,0.0,0.0,0.0,0.0,0.0,0.0,0.0,0.0,0.0,0.0,0.0,0.0,0.0,0.0,0.0,0.0,0.0,0.0,0.0,0.0,0.0,0.0,0.0,0.0,0.0
1783391073.258833,0.7009909749031067,0.8398226499557495,4.0180631799557887e-07,0.7214189171791077,0.7476897835731506,0.015996521338820457,0.7135443687438965,0.6711388826370239,0.01669185608625412,0.690679669380188,0.6332548260688782,0.013660716824233532,0.6681520342826843,0.6178354024887085,0.009346959181129932,0.7145932912826538,0.6272450685501099,-0.005612099077552557,0.7060877680778503,0.530589759349823,-0.012775366194546223,0.7036270499229431,0.4768088161945343,-0.01697774976491928,0.6999437808990479,0.4321889877319336,-0.018725262954831123,0.6871247291564941,0.6351375579833984,-0.01652486063539982,0.682461142539978,0.5252302289009094,-0.021419405937194824,0.6799197196960449,0.4597626030445099,-0.023851223289966583,0.6753407716751099,0.4103693664073944,-0.026092667132616043,0.6587205529212952,0.6536689400672913,-0.024060804396867752,0.6500483751296997,0.5663052201271057,-0.022426053881645203,0.6586593389511108,0.588834822177887,-0.01321573555469513,0.6633775234222412,0.6167750954627991,-0.006524413358420134,0.6357848644256592,0.6782395839691162,-0.030499065294861794,0.6310675144195557,0.6147136688232422,-0.02269405871629715,0.6404790282249451,0.6310634613037109,-0.008629046380519867,0.645828366279602,0.6539761424064636,0.0019946203101426363,0.0,0.0,0.0,0.0,0.0,0.0,0.0,0.0,0.0,0.0,0.0,0.0,0.0,0.0,0.0,0.0,0.0,0.0,0.0,0.0,0.0,0.0,0.0,0.0,0.0,0.0,0.0,0.0,0.0,0.0,0.0,0.0,0.0,0.0,0.0,0.0,0.0,0.0,0.0,0.0,0.0,0.0,0.0,0.0,0.0,0.0,0.0,0.0,0.0,0.0,0.0,0.0,0.0,0.0,0.0,0.0,0.0,0.0,0.0,0.0,0.0,0.0,0.0
1783391073.4974551,0.7012349367141724,0.8426505327224731,3.924371299035556e-07,0.7223874926567078,0.7514286041259766,0.014931727200746536,0.7145406603813171,0.6747713685035706,0.015610318630933762,0.6908293962478638,0.6400622129440308,0.01267422828823328,0.6678747534751892,0.6291502118110657,0.008299430832266808,0.7151176929473877,0.6313747763633728,-0.0059005022048950195,0.7072697281837463,0.5352569818496704,-0.012794672511518002,0.7045935392379761,0.4806778132915497,-0.01674075983464718,0.7008333802223206,0.43572258949279785,-0.01851406693458557,0.6877599358558655,0.6370307207107544,-0.016498174518346786,0.6828835010528564,0.5295385122299194,-0.02104785107076168,0.6802297830581665,0.46454232931137085,-0.023206152021884918,0.6760054230690002,0.4151183068752289,-0.02537529729306698,0.6597194075584412,0.6549990177154541,-0.02390090934932232,0.6501425504684448,0.5683965682983398,-0.022304564714431763,0.6584726572036743,0.5907266139984131,-0.013332570903003216,0.6630721092224121,0.6184121370315552,-0.006905518006533384,0.6368634104728699,0.6801563501358032,-0.030313992872834206,0.6300478577613831,0.6174854636192322,-0.0230741947889328,0.6392629742622375,0.6328421235084534,-0.009573469869792461,0.6448252201080322,0.6554114818572998,0.000608361791819334,0.0,0.0,0.0,0.0,0.0,0.0,0.0,0.0,0.0,0.0,0.0,0.0,0.0,0.0,0.0,0.0,0.0,0.0,0.0,0.0,0.0,0.0,0.0,0.0,0.0,0.0,0.0,0.0,0.0,0.0,0.0,0.0,0.0,0.0,0.0,0.0,0.0,0.0,0.0,0.0,0.0,0.0,0.0,0.0,0.0,0.0,0.0,0.0,0.0,0.0,0.0,0.0,0.0,0.0,0.0,0.0,0.0,0.0,0.0,0.0,0.0,0.0,0.0
1783391073.746469,0.7011356353759766,0.8447666168212891,4.0693348068998603e-07,0.7222655415534973,0.7534469962120056,0.016517357900738716,0.7150418758392334,0.6787726879119873,0.017840787768363953,0.6925609111785889,0.641285240650177,0.015209111385047436,0.6704937219619751,0.6279174089431763,0.011243616230785847,0.7153440713882446,0.6315487027168274,-0.00371680804528296,0.706861138343811,0.535731852054596,-0.010280498303472996,0.7043134570121765,0.4810207486152649,-0.014265641570091248,0.7006619572639465,0.43583640456199646,-0.016007764264941216,0.6877100467681885,0.6368821263313293,-0.01467317808419466,0.683129608631134,0.5286557674407959,-0.019386328756809235,0.6806473731994629,0.46278512477874756,-0.021929780021309853,0.6765010952949524,0.41356736421585083,-0.024027982726693153,0.6594478487968445,0.6548990607261658,-0.022219205275177956,0.650118350982666,0.5709196329116821,-0.019839683547616005,0.6583382487297058,0.5929204225540161,-0.0104726767167449,0.6628773212432861,0.6208306550979614,-0.003608513157814741,0.6367334127426147,0.6805073618888855,-0.028738604858517647,0.6308514475822449,0.6202393174171448,-0.02018800750374794,0.6399162411689758,0.6358389258384705,-0.006021937821060419,0.6453797221183777,0.6586012840270996,0.004776631016284227,0.0,0.0,0.0,0.0,0.0,0.0,0.0,0.0,0.0,0.0,0.0,0.0,0.0,0.0,0.0,0.0,0.0,0.0,0.0,0.0,0.0,0.0,0.0,0.0,0.0,0.0,0.0,0.0,0.0,0.0,0.0,0.0,0.0,0.0,0.0,0.0,0.0,0.0,0.0,0.0,0.0,0.0,0.0,0.0,0.0,0.0,0.0,0.0,0.0,0.0,0.0,0.0,0.0,0.0,0.0,0.0,0.0,0.0,0.0,0.0,0.0,0.0,0.0
1783391073.944989,0.7018710970878601,0.8463437557220459,4.002936577762739e-07,0.7228410840034485,0.7545130848884583,0.015549121424555779,0.715217649936676,0.679202675819397,0.016289327293634415,0.6921120882034302,0.6444836854934692,0.013258405961096287,0.669378936290741,0.6332180500030518,0.008729798719286919,0.7152372598648071,0.6331614255905151,-0.005604772362858057,0.7073495984077454,0.537517786026001,-0.012616237625479698,0.7049532532691956,0.4829627275466919,-0.01689944975078106,0.7012264132499695,0.4374358654022217,-0.018948404118418694,0.6875699162483215,0.6389088034629822,-0.01649005152285099,0.6834985613822937,0.5304420590400696,-0.020905381068587303,0.6815195679664612,0.46515005826950073,-0.023121777921915054,0.6775296926498413,0.41555893421173096,-0.0253750067204237,0.6594249606132507,0.6570890545845032,-0.02411055751144886,0.6501210331916809,0.5696501731872559,-0.022318750619888306,0.6586682796478271,0.592343807220459,-0.01348556112498045,0.6635422110557556,0.6206913590431213,-0.0072075673379004,0.6368992924690247,0.6824068427085876,-0.030719993636012077,0.6308234930038452,0.6207914352416992,-0.023392092436552048,0.6401574015617371,0.6363791823387146,-0.010109919123351574,0.6458236575126648,0.6589454412460327,-8.960840932559222e-05,0.0,0.0,0.0,0.0,0.0,0.0,0.0,0.0,0.0,0.0,0.0,0.0,0.0,0.0,0.0,0.0,0.0,0.0,0.0,0.0,0.0,0.0,0.0,0.0,0.0,0.0,0.0,0.0,0.0,0.0,0.0,0.0,0.0,0.0,0.0,0.0,0.0,0.0,0.0,0.0,0.0,0.0,0.0,0.0,0.0,0.0,0.0,0.0,0.0,0.0,0.0,0.0,0.0,0.0,0.0,0.0,0.0,0.0,0.0,0.0,0.0,0.0,0.0
1783391074.14121,0.7012403607368469,0.844906747341156,3.930178138489282e-07,0.721951425075531,0.7521692514419556,0.01691039651632309,0.7143558263778687,0.6746155023574829,0.01842670515179634,0.6909814476966858,0.635453462600708,0.015972459688782692,0.6685546040534973,0.6206412315368652,0.012167612090706825,0.7148411870002747,0.6297317147254944,-0.003386011114344001,0.7062816619873047,0.5357398390769958,-0.009721525013446808,0.7038315534591675,0.4817506968975067,-0.01376534253358841,0.7001137733459473,0.4371222257614136,-0.01574096642434597,0.6876624226570129,0.6369791030883789,-0.014628129079937935,0.6829200983047485,0.529485285282135,-0.019175032153725624,0.6804509162902832,0.46417927742004395,-0.022117523476481438,0.6761346459388733,0.41446977853775024,-0.02488364279270172,0.6596819758415222,0.6558701992034912,-0.02240971475839615,0.6501284241676331,0.571345865726471,-0.02011292055249214,0.6589552760124207,0.5941489338874817,-0.010874866507947445,0.6639963984489441,0.6215877532958984,-0.004400171805173159,0.6369646191596985,0.6810784339904785,-0.02905404567718506,0.6305435299873352,0.6185041666030884,-0.020727669820189476,0.6399591565132141,0.6346123814582825,-0.006567580625414848,0.6455990076065063,0.6573705077171326,0.003994492348283529,0.0,0.0,0.0,0.0,0.0,0.0,0.0,0.0,0.0,0.0,0.0,0.0,0.0,0.0,0.0,0.0,0.0,0.0,0.0,0.0,0.0,0.0,0.0,0.0,0.0,0.0,0.0,0.0,0.0,0.0,0.0,0.0,0.0,0.0,0.0,0.0,0.0,0.0,0.0,0.0,0.0,0.0,0.0,0.0,0.0,0.0,0.0,0.0,0.0,0.0,0.0,0.0,0.0,0.0,0.0,0.0,0.0,0.0,0.0,0.0,0.0,0.0,0.0
1783391074.326695,0.7008398771286011,0.8436698317527771,3.891369146913348e-07,0.721463680267334,0.7527641654014587,0.017051776871085167,0.714069664478302,0.6756181120872498,0.018675271421670914,0.6917538642883301,0.6355621814727783,0.01628943905234337,0.6697950959205627,0.6195065379142761,0.012668282724916935,0.7148547768592834,0.6299533247947693,-0.0031825758051127195,0.7055886387825012,0.5336006879806519,-0.009377352893352509,0.7029463052749634,0.47971466183662415,-0.013034223578870296,0.6993021965026855,0.4357106387615204,-0.014612972736358643,0.6878370642662048,0.6371183395385742,-0.014328275807201862,0.6819809079170227,0.5288060903549194,-0.01895168609917164,0.6789287328720093,0.4633491635322571,-0.021758854389190674,0.6744534373283386,0.4140926003456116,-0.02431550621986389,0.6598004102706909,0.6558505892753601,-0.021978719159960747,0.6496177315711975,0.5700929164886475,-0.01946409046649933,0.657809317111969,0.5928752422332764,-0.009797030128538609,0.6623978018760681,0.6206285953521729,-0.0029956416692584753,0.6369228959083557,0.6813482046127319,-0.02852666564285755,0.6300962567329407,0.6192392110824585,-0.020065894350409508,0.6391904950141907,0.6355018615722656,-0.005804350133985281,0.6444322466850281,0.6581253409385681,0.004899799358099699,0.0,0.0,0.0,0.0,0.0,0.0,0.0,0.0,0.0,0.0,0.0,0.0,0.0,0.0,0.0,0.0,0.0,0.0,0.0,0.0,0.0,0.0,0.0,0.0,0.0,0.0,0.0,0.0,0.0,0.0,0.0,0.0,0.0,0.0,0.0,0.0,0.0,0.0,0.0,0.0,0.0,0.0,0.0,0.0,0.0,0.0,0.0,0.0,0.0,0.0,0.0,0.0,0.0,0.0,0.0,0.0,0.0,0.0,0.0,0.0,0.0,0.0,0.0
1783391074.511749,0.6997102499008179,0.8455715179443359,4.00565596692104e-07,0.7205526232719421,0.7546488642692566,0.014485137537121773,0.7117306590080261,0.6775185465812683,0.015295172110199928,0.6865928173065186,0.6431748270988464,0.012470352463424206,0.6632910370826721,0.6312373876571655,0.008286288008093834,0.7124183177947998,0.6328383088111877,-0.004505125805735588,0.7045664191246033,0.53560471534729,-0.010514993220567703,0.7021303772926331,0.4813234806060791,-0.013792300596833229,0.6988383531570435,0.4366428852081299,-0.015146883204579353,0.6852195262908936,0.6386674046516418,-0.014693017117679119,0.6800143122673035,0.5311483144760132,-0.018786389380693436,0.6772594451904297,0.4661388397216797,-0.021188335493206978,0.6733218431472778,0.416477233171463,-0.023548899218440056,0.6576048135757446,0.656648576259613,-0.021765323355793953,0.6485355496406555,0.5706194043159485,-0.02003629133105278,0.6570755243301392,0.592949390411377,-0.011812172830104828,0.6617010831832886,0.6208576560020447,-0.0058856322430074215,0.6352881789207458,0.6814792156219482,-0.027859292924404144,0.628491997718811,0.6209215521812439,-0.020911436527967453,0.6380395293235779,0.636375904083252,-0.008278491906821728,0.6435762643814087,0.6588746905326843,0.0013051799032837152,0.0,0.0,0.0,0.0,0.0,0.0,0.0,0.0,0.0,0.0,0.0,0.0,0.0,0.0,0.0,0.0,0.0,0.0,0.0,0.0,0.0,0.0,0.0,0.0,0.0,0.0,0.0,0.0,0.0,0.0,0.0,0.0,0.0,0.0,0.0,0.0,0.0,0.0,0.0,0.0,0.0,0.0,0.0,0.0,0.0,0.0,0.0,0.0,0.0,0.0,0.0,0.0,0.0,0.0,0.0,0.0,0.0,0.0,0.0,0.0,0.0,0.0,0.0
1783391074.6808388,0.6998015642166138,0.8460343480110168,3.980600240538479e-07,0.7189978957176208,0.7527897357940674,0.018266910687088966,0.7115098237991333,0.6757573485374451,0.02030923217535019,0.6890425682067871,0.6355974078178406,0.018013691529631615,0.6669474244117737,0.6204503178596497,0.014463657513260841,0.7116761207580566,0.6290596723556519,-0.001239226432517171,0.7026887536048889,0.5344027280807495,-0.007373445201665163,0.7001498341560364,0.4803214967250824,-0.011238391511142254,0.6964524388313293,0.43599554896354675,-0.013072404079139233,0.6851192116737366,0.6369578242301941,-0.013150876387953758,0.6798436641693115,0.5295692682266235,-0.018432985991239548,0.6768755912780762,0.4641793370246887,-0.02176784910261631,0.6722927689552307,0.4149600863456726,-0.02452290803194046,0.6572961211204529,0.656633734703064,-0.021486885845661163,0.6477082371711731,0.5712100863456726,-0.019352911040186882,0.6562655568122864,0.5939543843269348,-0.009341206401586533,0.6608801484107971,0.6207582354545593,-0.002095026196911931,0.6347288489341736,0.682941734790802,-0.028640491887927055,0.6285414099693298,0.6194882392883301,-0.020128579810261726,0.6379063129425049,0.6364086270332336,-0.005285938270390034,0.643137514591217,0.6592610478401184,0.005946005694568157,0.0,0.0,0.0,0.0,0.0,0.0,0.0,0.0,0.0,0.0,0.0,0.0,0.0,0.0,0.0,0.0,0.0,0.0,0.0,0.0,0.0,0.0,0.0,0.0,0.0,0.0,0.0,0.0,0.0,0.0,0.0,0.0,0.0,0.0,0.0,0.0,0.0,0.0,0.0,0.0,0.0,0.0,0.0,0.0,0.0,0.0,0.0,0.0,0.0,0.0,0.0,0.0,0.0,0.0,0.0,0.0,0.0,0.0,0.0,0.0,0.0,0.0,0.0
1783391074.858123,0.699910581111908,0.8473609089851379,4.0482359509042e-07,0.7196210026741028,0.7542426586151123,0.01707913912832737,0.7116861939430237,0.6770159602165222,0.01829058676958084,0.6879768967628479,0.6396046280860901,0.015485569834709167,0.664857029914856,0.6263858675956726,0.011401483789086342,0.7120509743690491,0.6314204335212708,-0.0038974792696535587,0.7025371193885803,0.5356311202049255,-0.010315723717212677,0.6999210715293884,0.48155561089515686,-0.013960243202745914,0.6960889101028442,0.43734925985336304,-0.01560292113572359,0.6848236918449402,0.638802170753479,-0.015356057323515415,0.6798701286315918,0.5296688079833984,-0.020807623863220215,0.6773021817207336,0.4641645550727844,-0.023593107238411903,0.6730232238769531,0.41466304659843445,-0.025982504710555077,0.6564929485321045,0.6578016877174377,-0.023264676332473755,0.647205114364624,0.5696954131126404,-0.021240446716547012,0.6555200219154358,0.5930871367454529,-0.010971654206514359,0.6597583293914795,0.6207798719406128,-0.003638416063040495,0.6337772011756897,0.6832690834999084,-0.030065640807151794,0.6282328367233276,0.6197018623352051,-0.021635843440890312,0.6378557682037354,0.6364334225654602,-0.006847589276731014,0.6430155634880066,0.6592960357666016,0.00425103772431612,0.0,0.0,0.0,0.0,0.0,0.0,0.0,0.0,0.0,0.0,0.0,0.0,0.0,0.0,0.0,0.0,0.0,0.0,0.0,0.0,0.0,0.0,0.0,0.0,0.0,0.0,0.0,0.0,0.0,0.0,0.0,0.0,0.0,0.0,0.0,0.0,0.0,0.0,0.0,0.0,0.0,0.0,0.0,0.0,0.0,0.0,0.0,0.0,0.0,0.0,0.0,0.0,0.0,0.0,0.0,0.0,0.0,0.0,0.0,0.0,0.0,0.0,0.0
1783391075.0185668,0.6995005011558533,0.849076509475708,3.9908255189402553e-07,0.7194987535476685,0.7554567456245422,0.019658297300338745,0.7121272087097168,0.6811010241508484,0.02227431908249855,0.689694344997406,0.6438176035881042,0.020284926518797874,0.6678155660629272,0.6306406855583191,0.017124058678746223,0.7121195197105408,0.6331022381782532,-0.0006951778777875006,0.7025400996208191,0.5371747016906738,-0.006833593361079693,0.6997561454772949,0.481881707906723,-0.010714284144341946,0.6960126161575317,0.4370400905609131,-0.012617392465472221,0.6850595474243164,0.6395257711410522,-0.013003958389163017,0.6797146201133728,0.5308917760848999,-0.018607061356306076,0.6769307851791382,0.46447300910949707,-0.021950658410787582,0.6729012131690979,0.4152904748916626,-0.024668553844094276,0.6567287445068359,0.6582387089729309,-0.02154891937971115,0.6477017402648926,0.5709379315376282,-0.01837361790239811,0.6560578346252441,0.5933058261871338,-0.007325042504817247,0.6602367162704468,0.6201106905937195,0.00044517850619740784,0.6339483261108398,0.6842929720878601,-0.02892112359404564,0.628129780292511,0.6200661063194275,-0.019130846485495567,0.6375022530555725,0.6359756588935852,-0.0035116425715386868,0.642633318901062,0.658558189868927,0.008193458430469036,0.0,0.0,0.0,0.0,0.0,0.0,0.0,0.0,0.0,0.0,0.0,0.0,0.0,0.0,0.0,0.0,0.0,0.0,0.0,0.0,0.0,0.0,0.0,0.0,0.0,0.0,0.0,0.0,0.0,0.0,0.0,0.0,0.0,0.0,0.0,0.0,0.0,0.0,0.0,0.0,0.0,0.0,0.0,0.0,0.0,0.0,0.0,0.0,0.0,0.0,0.0,0.0,0.0,0.0,0.0,0.0,0.0,0.0,0.0,0.0,0.0,0.0,0.0
1783391075.192387,0.6997301578521729,0.8479117751121521,4.0131112655217294e-07,0.7195289731025696,0.754058837890625,0.018672971054911613,0.7118461728096008,0.679650604724884,0.020646994933485985,0.6887627840042114,0.6426134705543518,0.018183402717113495,0.6666366457939148,0.6292101740837097,0.014559519477188587,0.7119564414024353,0.6321325302124023,-0.0015773297054693103,0.7026450037956238,0.5367558002471924,-0.00768295768648386,0.6999372243881226,0.4823834002017975,-0.011537494137883186,0.6961557865142822,0.4380204379558563,-0.0134633993729949,0.6849060654640198,0.6392881274223328,-0.013586729764938354,0.6795019507408142,0.5311785936355591,-0.01909666694700718,0.6766126751899719,0.46524977684020996,-0.022629203274846077,0.6723734736442566,0.4158523678779602,-0.025644268840551376,0.6565034985542297,0.6581138372421265,-0.021896690130233765,0.6474318504333496,0.5713759660720825,-0.01918984204530716,0.6560179591178894,0.594084620475769,-0.008769264444708824,0.6604625582695007,0.6211657524108887,-0.0014640373410657048,0.6337641477584839,0.6834434270858765,-0.02905302867293358,0.6278117299079895,0.6208277344703674,-0.01988128200173378,0.6373886466026306,0.6368936896324158,-0.00482171680778265,0.6427031755447388,0.6595025658607483,0.006445760373026133,0.0,0.0,0.0,0.0,0.0,0.0,0.0,0.0,0.0,0.0,0.0,0.0,0.0,0.0,0.0,0.0,0.0,0.0,0.0,0.0,0.0,0.0,0.0,0.0,0.0,0.0,0.0,0.0,0.0,0.0,0.0,0.0,0.0,0.0,0.0,0.0,0.0,0.0,0.0,0.0,0.0,0.0,0.0,0.0,0.0,0.0,0.0,0.0,0.0,0.0,0.0,0.0,0.0,0.0,0.0,0.0,0.0,0.0,0.0,0.0,0.0,0.0,0.0
1783391075.424039,0.7010971903800964,0.8510173559188843,3.8119728174024203e-07,0.72081059217453,0.7571514844894409,0.01895773410797119,0.7138087749481201,0.682237982749939,0.02152121253311634,0.6916175484657288,0.6436810493469238,0.019555002450942993,0.6703611612319946,0.6297520399093628,0.01629786752164364,0.7131352424621582,0.6335503458976746,-0.0007467798423022032,0.7035781145095825,0.5399314165115356,-0.007383319083601236,0.7006042003631592,0.4849798083305359,-0.012082691304385662,0.6967554092407227,0.4398469030857086,-0.014686684124171734,0.6861479878425598,0.6398699879646301,-0.013068467378616333,0.6805538535118103,0.5336769223213196,-0.01834860071539879,0.6780611872673035,0.4683811366558075,-0.02178480662405491,0.6742827892303467,0.4195571541786194,-0.024777984246611595,0.6581130027770996,0.6590266227722168,-0.021852491423487663,0.6492308974266052,0.5733467936515808,-0.019079873338341713,0.6576191782951355,0.5939353108406067,-0.008872190490365028,0.6622157692909241,0.6200947165489197,-0.0017372585134580731,0.6357024312019348,0.6854609847068787,-0.029554422944784164,0.6300257444381714,0.6215477585792542,-0.02067728154361248,0.6392865777015686,0.6357007026672363,-0.006021564826369286,0.6449059247970581,0.6576998233795166,0.0049873958341777325,0.0,0.0,0.0,0.0,0.0,0.0,0.0,0.0,0.0,0.0,0.0,0.0,0.0,0.0,0.0,0.0,0.0,0.0,0.0,0.0,0.0,0.0,0.0,0.0,0.0,0.0,0.0,0.0,0.0,0.0,0.0,0.0,0.0,0.0,0.0,0.0,0.0,0.0,0.0,0.0,0.0,0.0,0.0,0.0,0.0,0.0,0.0,0.0,0.0,0.0,0.0,0.0,0.0,0.0,0.0,0.0,0.0,0.0,0.0,0.0,0.0,0.0,0.0
1783391075.584519,0.7010793685913086,0.8505396246910095,3.996754855961626e-07,0.7212107181549072,0.7576686143875122,0.017838547006249428,0.7137528657913208,0.6816063523292542,0.01952465996146202,0.6907418370246887,0.6429685950279236,0.017015449702739716,0.6687835454940796,0.6284211874008179,0.01331814844161272,0.7134523391723633,0.63416987657547,-0.003249022178351879,0.7037728428840637,0.5389900803565979,-0.009661749936640263,0.701067328453064,0.48470282554626465,-0.013365229591727257,0.6971648931503296,0.4405897855758667,-0.015128768980503082,0.6864280700683594,0.6416411399841309,-0.015119198709726334,0.6809785962104797,0.533281683921814,-0.021267592906951904,0.6782163381576538,0.4672175943851471,-0.024682804942131042,0.6740086078643799,0.41764402389526367,-0.027435874566435814,0.6581819653511047,0.6610068678855896,-0.023296339437365532,0.6491304636001587,0.5731990337371826,-0.021531252190470695,0.657367467880249,0.595687985420227,-0.011064822785556316,0.661517858505249,0.6225044131278992,-0.003494391217827797,0.6356023550033569,0.6870934367179871,-0.030321374535560608,0.6294711828231812,0.6233100891113281,-0.021931929513812065,0.6388600468635559,0.6396724581718445,-0.0069212340749800205,0.6438955068588257,0.662600576877594,0.004448622465133667,0.0,0.0,0.0,0.0,0.0,0.0,0.0,0.0,0.0,0.0,0.0,0.0,0.0,0.0,0.0,0.0,0.0,0.0,0.0,0.0,0.0,0.0,0.0,0.0,0.0,0.0,0.0,0.0,0.0,0.0,0.0,0.0,0.0,0.0,0.0,0.0,0.0,0.0,0.0,0.0,0.0,0.0,0.0,0.0,0.0,0.0,0.0,0.0,0.0,0.0,0.0,0.0,0.0,0.0,0.0,0.0,0.0,0.0,0.0,0.0,0.0,0.0,0.0
1783391075.75238,0.7016528248786926,0.8495791554450989,3.94102954714981e-07,0.7213066816329956,0.7552973628044128,0.0187210850417614,0.7134113311767578,0.6802051067352295,0.02098745107650757,0.6903247833251953,0.6417461037635803,0.01880737952888012,0.6680549383163452,0.6275264024734497,0.015372934751212597,0.7135720252990723,0.6341733932495117,-0.001284911995753646,0.7050735354423523,0.5387206077575684,-0.0080409562215209,0.7027559876441956,0.48373866081237793,-0.012188311666250229,0.6995075345039368,0.4389794170856476,-0.014059795998036861,0.6870627403259277,0.6406274437904358,-0.013344382867217064,0.681683361530304,0.5321674346923828,-0.01886352337896824,0.6787344813346863,0.4661990702152252,-0.0220470167696476,0.6743985414505005,0.41745367646217346,-0.02455875091254711,0.6595187783241272,0.6593695282936096,-0.021867385134100914,0.6486576795578003,0.5759220719337463,-0.019701417535543442,0.6570056676864624,0.5969979763031006,-0.010016399435698986,0.6620512008666992,0.623379111289978,-0.002887504640966654,0.6370515823364258,0.6852089166641235,-0.02921333536505699,0.6300597190856934,0.624297022819519,-0.020471831783652306,0.6391969323158264,0.6394286155700684,-0.006035282742232084,0.6450648307800293,0.6616191267967224,0.004930499475449324,0.0,0.0,0.0,0.0,0.0,0.0,0.0,0.0,0.0,0.0,0.0,0.0,0.0,0.0,0.0,0.0,0.0,0.0,0.0,0.0,0.0,0.0,0.0,0.0,0.0,0.0,0.0,0.0,0.0,0.0,0.0,0.0,0.0,0.0,0.0,0.0,0.0,0.0,0.0,0.0,0.0,0.0,0.0,0.0,0.0,0.0,0.0,0.0,0.0,0.0,0.0,0.0,0.0,0.0,0.0,0.0,0.0,0.0,0.0,0.0,0.0,0.0,0.0
1783391075.925041,0.7022256255149841,0.8514251112937927,3.84716940970975e-07,0.7219977378845215,0.7564355134963989,0.019549807533621788,0.7143670916557312,0.6806187033653259,0.02216637320816517,0.6914228200912476,0.6398172378540039,0.02030976675450802,0.6695554256439209,0.6229813098907471,0.01721653714776039,0.7147119045257568,0.6341658234596252,-0.0014319298788905144,0.7058340907096863,0.538640558719635,-0.008481357246637344,0.7032260894775391,0.4831162393093109,-0.012784848921000957,0.6995438933372498,0.4380530118942261,-0.01475511584430933,0.6883479952812195,0.6405953764915466,-0.013749448582530022,0.6824520230293274,0.5313960313796997,-0.019809402525424957,0.6791422367095947,0.46504905819892883,-0.022940225899219513,0.6743201613426208,0.4162508547306061,-0.02527734264731407,0.6607054471969604,0.6592335104942322,-0.022371701896190643,0.6494500637054443,0.5763933062553406,-0.02020282857120037,0.6575849056243896,0.5970301628112793,-0.009864101186394691,0.6625344753265381,0.6231897473335266,-0.0021868888288736343,0.6377118825912476,0.6858301162719727,-0.0297535490244627,0.6301166415214539,0.6233280897140503,-0.020888712257146835,0.6391198635101318,0.6387463212013245,-0.005981271620839834,0.645068347454071,0.6615610122680664,0.005444492679089308,0.0,0.0,0.0,0.0,0.0,0.0,0.0,0.0,0.0,0.0,0.0,0.0,0.0,0.0,0.0,0.0,0.0,0.0,0.0,0.0,0.0,0.0,0.0,0.0,0.0,0.0,0.0,0.0,0.0,0.0,0.0,0.0,0.0,0.0,0.0,0.0,0.0,0.0,0.0,0.0,0.0,0.0,0.0,0.0,0.0,0.0,0.0,0.0,0.0,0.0,0.0,0.0,0.0,0.0,0.0,0.0,0.0,0.0,0.0,0.0,0.0,0.0,0.0
1783391076.179626,0.7033324837684631,0.8475696444511414,3.8317881490002037e-07,0.7221581935882568,0.7516946792602539,0.021863969042897224,0.7143746018409729,0.6768535375595093,0.024839404970407486,0.6925151944160461,0.6358204483985901,0.02299829199910164,0.6711283922195435,0.6194881200790405,0.020006801933050156,0.7151627540588379,0.629631519317627,-0.0006089991657063365,0.7055879831314087,0.5348191261291504,-0.007323395926505327,0.7030695676803589,0.48017242550849915,-0.011765495873987675,0.6994970440864563,0.43572941422462463,-0.01405057031661272,0.6888175010681152,0.6387233734130859,-0.013941271230578423,0.6829289197921753,0.5289812088012695,-0.020153285935521126,0.680036187171936,0.4635371267795563,-0.02374323643743992,0.6756218075752258,0.4157911539077759,-0.026672126725316048,0.660733163356781,0.6585420370101929,-0.02316386066377163,0.6500822901725769,0.5725946426391602,-0.020229803398251534,0.6585342884063721,0.5949180722236633,-0.008789869956672192,0.663669228553772,0.6211767196655273,-0.0007991806487552822,0.6378471255302429,0.6852666139602661,-0.03099382296204567,0.631085991859436,0.6213626265525818,-0.0211735088378191,0.6403893232345581,0.6391248106956482,-0.005068135913461447,0.6462690830230713,0.6625238656997681,0.0069666290655732155,0.0,0.0,0.0,0.0,0.0,0.0,0.0,0.0,0.0,0.0,0.0,0.0,0.0,0.0,0.0,0.0,0.0,0.0,0.0,0.0,0.0,0.0,0.0,0.0,0.0,0.0,0.0,0.0,0.0,0.0,0.0,0.0,0.0,0.0,0.0,0.0,0.0,0.0,0.0,0.0,0.0,0.0,0.0,0.0,0.0,0.0,0.0,0.0,0.0,0.0,0.0,0.0,0.0,0.0,0.0,0.0,0.0,0.0,0.0,0.0,0.0,0.0,0.0
1783391076.453538,0.7018393278121948,0.8456602692604065,3.827094587904867e-07,0.721849799156189,0.7524548768997192,0.017707617953419685,0.7143884897232056,0.6765944361686707,0.019182246178388596,0.6923961043357849,0.639443039894104,0.01642695814371109,0.6705854535102844,0.6257176995277405,0.012342391535639763,0.7157374024391174,0.6309380531311035,-0.0038011400029063225,0.7058988809585571,0.5347084403038025,-0.010492229834198952,0.702850341796875,0.48038116097450256,-0.014467612840235233,0.6987270712852478,0.4362543821334839,-0.01635303720831871,0.6891927123069763,0.6392257809638977,-0.015750398859381676,0.682173490524292,0.5307404398918152,-0.021193429827690125,0.6789124011993408,0.4647795259952545,-0.02434564381837845,0.6744848489761353,0.41488564014434814,-0.027246257290244102,0.6611988544464111,0.6589210629463196,-0.024128468707203865,0.6501019597053528,0.5715603232383728,-0.02219359017908573,0.6583011746406555,0.5950176119804382,-0.012195752933621407,0.6630875468254089,0.6225855946540833,-0.005223571322858334,0.6380396485328674,0.6849507689476013,-0.03134976699948311,0.6300359964370728,0.6210554242134094,-0.02331707440316677,0.6390479803085327,0.6370434761047363,-0.008834234438836575,0.6444423198699951,0.6594244241714478,0.001969423145055771,0.0,0.0,0.0,0.0,0.0,0.0,0.0,0.0,0.0,0.0,0.0,0.0,0.0,0.0,0.0,0.0,0.0,0.0,0.0,0.0,0.0,0.0,0.0,0.0,0.0,0.0,0.0,0.0,0.0,0.0,0.0,0.0,0.0,0.0,0.0,0.0,0.0,0.0,0.0,0.0,0.0,0.0,0.0,0.0,0.0,0.0,0.0,0.0,0.0,0.0,0.0,0.0,0.0,0.0,0.0,0.0,0.0,0.0,0.0,0.0,0.0,0.0,0.0
1783391076.71297,0.7026863694190979,0.8446650505065918,3.9269124840757286e-07,0.7223334908485413,0.7507448792457581,0.019099025055766106,0.7145475745201111,0.6770306825637817,0.02072722837328911,0.6922668814659119,0.6405889987945557,0.017966168001294136,0.6698535084724426,0.6283798813819885,0.013905386440455914,0.7157323360443115,0.6306637525558472,-0.0032875556498765945,0.7065780162811279,0.5343872308731079,-0.010298365727066994,0.7037301659584045,0.4797099530696869,-0.014640284702181816,0.6998690962791443,0.4349038004875183,-0.016702495515346527,0.6885397434234619,0.6390663385391235,-0.015604911372065544,0.6825252771377563,0.5297545194625854,-0.021098081022500992,0.6793267726898193,0.46426481008529663,-0.02418431267142296,0.6746676564216614,0.41570132970809937,-0.02688928321003914,0.6602715253829956,0.6587187647819519,-0.024149088189005852,0.64973384141922,0.5715111494064331,-0.021806104108691216,0.6581618785858154,0.5948632955551147,-0.011511320248246193,0.6633378267288208,0.6225941181182861,-0.004228598903864622,0.6375045776367188,0.6850913166999817,-0.03146221116185188,0.6303364634513855,0.6229230165481567,-0.022820129990577698,0.6396238207817078,0.6394484043121338,-0.008031729608774185,0.6456047296524048,0.6617427468299866,0.003109741723164916,0.0,0.0,0.0,0.0,0.0,0.0,0.0,0.0,0.0,0.0,0.0,0.0,0.0,0.0,0.0,0.0,0.0,0.0,0.0,0.0,0.0,0.0,0.0,0.0,0.0,0.0,0.0,0.0,0.0,0.0,0.0,0.0,0.0,0.0,0.0,0.0,0.0,0.0,0.0,0.0,0.0,0.0,0.0,0.0,0.0,0.0,0.0,0.0,0.0,0.0,0.0,0.0,0.0,0.0,0.0,0.0,0.0,0.0,0.0,0.0,0.0,0.0,0.0
1783391076.9783528,0.7034417986869812,0.850051999092102,3.8187542372725147e-07,0.723204493522644,0.7568726539611816,0.018168313428759575,0.715471088886261,0.6819902658462524,0.019924592226743698,0.6930128931999207,0.645912766456604,0.017266662791371346,0.6712692975997925,0.6338412165641785,0.013188526034355164,0.7165594100952148,0.6360388398170471,-0.0034996429458260536,0.7077019214630127,0.5407525300979614,-0.01110768597573042,0.7047187685966492,0.4849805235862732,-0.015983376652002335,0.7007402777671814,0.4394643008708954,-0.018568916246294975,0.6899530291557312,0.6423214673995972,-0.015779193490743637,0.6840580701828003,0.534062922000885,-0.021718958392739296,0.6807848811149597,0.46780577301979065,-0.025197993963956833,0.6763721108436584,0.4184437692165375,-0.028257550671696663,0.6619919538497925,0.6613339781761169,-0.02447398379445076,0.6503331065177917,0.5732780694961548,-0.02254439890384674,0.6583890318870544,0.5959279537200928,-0.012214642949402332,0.6634509563446045,0.6230967044830322,-0.004926031455397606,0.6391540169715881,0.6881495714187622,-0.032086148858070374,0.6301825642585754,0.6249693632125854,-0.024259496480226517,0.63942950963974,0.640293300151825,-0.00989790540188551,0.6455302238464355,0.66230708360672,0.0009660359937697649,0.0,0.0,0.0,0.0,0.0,0.0,0.0,0.0,0.0,0.0,0.0,0.0,0.0,0.0,0.0,0.0,0.0,0.0,0.0,0.0,0.0,0.0,0.0,0.0,0.0,0.0,0.0,0.0,0.0,0.0,0.0,0.0,0.0,0.0,0.0,0.0,0.0,0.0,0.0,0.0,0.0,0.0,0.0,0.0,0.0,0.0,0.0,0.0,0.0,0.0,0.0,0.0,0.0,0.0,0.0,0.0,0.0,0.0,0.0,0.0,0.0,0.0,0.0
1783391077.193999,0.7038611769676208,0.8504878282546997,3.9009324837024906e-07,0.7233213186264038,0.7555361390113831,0.020435338839888573,0.7163064479827881,0.6812182664871216,0.022811302915215492,0.6949508190155029,0.6406938433647156,0.02047753520309925,0.6739249229431152,0.6238560080528259,0.01694026030600071,0.7173934578895569,0.6354339122772217,-0.0020994129590690136,0.7079887986183167,0.5411515831947327,-0.009759102016687393,0.70533686876297,0.4856279492378235,-0.014705249108374119,0.7017619013786316,0.44013118743896484,-0.017284110188484192,0.6910899877548218,0.6432852745056152,-0.015307134948670864,0.6848101019859314,0.5335201025009155,-0.02249906398355961,0.6816282272338867,0.46640539169311523,-0.026383351534605026,0.677054226398468,0.41703560948371887,-0.02936847135424614,0.6629006862640381,0.662581205368042,-0.02461826428771019,0.6511197686195374,0.5754936933517456,-0.022962652146816254,0.6591552495956421,0.5966448783874512,-0.011780345812439919,0.6642864346504211,0.6229698061943054,-0.00360359949991107,0.6395726799964905,0.689244270324707,-0.03266860544681549,0.6315857172012329,0.6238159537315369,-0.023891840130090714,0.6406171917915344,0.6392489671707153,-0.008215779438614845,0.6466781497001648,0.6618427634239197,0.0037032384425401688,0.0,0.0,0.0,0.0,0.0,0.0,0.0,0.0,0.0,0.0,0.0,0.0,0.0,0.0,0.0,0.0,0.0,0.0,0.0,0.0,0.0,0.0,0.0,0.0,0.0,0.0,0.0,0.0,0.0,0.0,0.0,0.0,0.0,0.0,0.0,0.0,0.0,0.0,0.0,0.0,0.0,0.0,0.0,0.0,0.0,0.0,0.0,0.0,0.0,0.0,0.0,0.0,0.0,0.0,0.0,0.0,0.0,0.0,0.0,0.0,0.0,0.0,0.0
1783391077.3866,0.704026997089386,0.8514819741249084,3.984085310548835e-07,0.7245694994926453,0.7588927745819092,0.01670481450855732,0.7156185507774353,0.6820291876792908,0.017974581569433212,0.6911506652832031,0.6441236734390259,0.015567991882562637,0.6677868366241455,0.6304306983947754,0.011964058503508568,0.7172012329101562,0.6366597414016724,-0.005089336074888706,0.7080483436584473,0.5389954447746277,-0.0118683110922575,0.705370306968689,0.48416370153427124,-0.01600925251841545,0.7013610601425171,0.4389668405056,-0.017918720841407776,0.6893648505210876,0.6448530554771423,-0.015894437208771706,0.6841199994087219,0.5343737602233887,-0.02081485651433468,0.6814672350883484,0.4686400890350342,-0.02349461056292057,0.6767697334289551,0.4183843731880188,-0.026011044159531593,0.6607946753501892,0.6635282635688782,-0.023132236674427986,0.6508810520172119,0.5740926265716553,-0.020804962143301964,0.6595370769500732,0.5972422957420349,-0.011037216521799564,0.6644200086593628,0.6255377531051636,-0.004159187898039818,0.63792884349823,0.6884768605232239,-0.02925182692706585,0.6318884491920471,0.6254639625549316,-0.020710809156298637,0.6413080096244812,0.6416674852371216,-0.006437786854803562,0.6470682621002197,0.6642893552780151,0.004236410837620497,0.0,0.0,0.0,0.0,0.0,0.0,0.0,0.0,0.0,0.0,0.0,0.0,0.0,0.0,0.0,0.0,0.0,0.0,0.0,0.0,0.0,0.0,0.0,0.0,0.0,0.0,0.0,0.0,0.0,0.0,0.0,0.0,0.0,0.0,0.0,0.0,0.0,0.0,0.0,0.0,0.0,0.0,0.0,0.0,0.0,0.0,0.0,0.0,0.0,0.0,0.0,0.0,0.0,0.0,0.0,0.0,0.0,0.0,0.0,0.0,0.0,0.0,0.0
1783391077.583075,0.7040225267410278,0.850817084312439,3.909571262283862e-07,0.724223256111145,0.7568060755729675,0.018858054652810097,0.7164099216461182,0.6814345121383667,0.02097255177795887,0.6933173537254333,0.6424131989479065,0.01892620138823986,0.6711212992668152,0.6270694136619568,0.015643682330846786,0.7173262238502502,0.6359938383102417,-0.0031377708073705435,0.7084678411483765,0.5410638451576233,-0.010017020627856255,0.7055940628051758,0.48609501123428345,-0.014390561729669571,0.7015936374664307,0.4409775733947754,-0.01653580367565155,0.6904675960540771,0.6441105604171753,-0.015095616690814495,0.6851375102996826,0.5340608358383179,-0.020790882408618927,0.6823157072067261,0.4680687189102173,-0.023942947387695312,0.6777384281158447,0.4185003638267517,-0.026619624346494675,0.6624390482902527,0.6630169153213501,-0.023265931755304337,0.6516895890235901,0.5752406716346741,-0.021049680188298225,0.6597709655761719,0.5970864295959473,-0.010839724913239479,0.6646261811256409,0.6238377690315247,-0.003565102582797408,0.6395097970962524,0.6888667941093445,-0.03016887791454792,0.632256805896759,0.6259722709655762,-0.021432608366012573,0.6413892507553101,0.6427090167999268,-0.006527254357933998,0.6472935080528259,0.665712833404541,0.004692173562943935,0.0,0.0,0.0,0.0,0.0,0.0,0.0,0.0,0.0,0.0,0.0,0.0,0.0,0.0,0.0,0.0,0.0,0.0,0.0,0.0,0.0,0.0,0.0,0.0,0.0,0.0,0.0,0.0,0.0,0.0,0.0,0.0,0.0,0.0,0.0,0.0,0.0,0.0,0.0,0.0,0.0,0.0,0.0,0.0,0.0,0.0,0.0,0.0,0.0,0.0,0.0,0.0,0.0,0.0,0.0,0.0,0.0,0.0,0.0,0.0,0.0,0.0,0.0
1783391077.777007,0.7037060856819153,0.8512424230575562,3.9485979641540325e-07,0.7246799468994141,0.7594892978668213,0.016360411420464516,0.7169519662857056,0.6825700402259827,0.017657577991485596,0.6935073137283325,0.6445454955101013,0.015259867534041405,0.6708276271820068,0.6311928033828735,0.01164369285106659,0.7171118259429932,0.6368342638015747,-0.005070080514997244,0.7081301212310791,0.5412977337837219,-0.012003105133771896,0.7055014371871948,0.48670363426208496,-0.01626175455749035,0.7014628052711487,0.44166815280914307,-0.018303051590919495,0.6897404789924622,0.6448031067848206,-0.01603475585579872,0.6851542592048645,0.5352401733398438,-0.02142232283949852,0.6827397346496582,0.46934980154037476,-0.02432522363960743,0.6783119440078735,0.41941094398498535,-0.026932887732982635,0.6615234613418579,0.6634680032730103,-0.023517221212387085,0.6525170207023621,0.5733364224433899,-0.022098619490861893,0.6608347296714783,0.5957481861114502,-0.012716986238956451,0.6655614972114563,0.6235369443893433,-0.005898832809180021,0.6389570832252502,0.6881796717643738,-0.029870519414544106,0.6327612400054932,0.6242194175720215,-0.02225881814956665,0.6419749855995178,0.6406883597373962,-0.008281231857836246,0.6474906802177429,0.6635883450508118,0.002306091831997037,0.0,0.0,0.0,0.0,0.0,0.0,0.0,0.0,0.0,0.0,0.0,0.0,0.0,0.0,0.0,0.0,0.0,0.0,0.0,0.0,0.0,0.0,0.0,0.0,0.0,0.0,0.0,0.0,0.0,0.0,0.0,0.0,0.0,0.0,0.0,0.0,0.0,0.0,0.0,0.0,0.0,0.0,0.0,0.0,0.0,0.0,0.0,0.0,0.0,0.0,0.0,0.0,0.0,0.0,0.0,0.0,0.0,0.0,0.0,0.0,0.0,0.0,0.0
1783391078.082026,0.7041404843330383,0.8516895174980164,3.8914330957595666e-07,0.7247546911239624,0.7587401866912842,0.01850355602800846,0.7168362736701965,0.6835818290710449,0.02081538550555706,0.6938819289207458,0.644141435623169,0.019146259874105453,0.6720178127288818,0.6279923319816589,0.01635248214006424,0.7176693081855774,0.6368366479873657,-0.002768391976132989,0.7089059948921204,0.5421796441078186,-0.009447689168155193,0.7061089277267456,0.4873938262462616,-0.014074066653847694,0.7020958065986633,0.44193050265312195,-0.016418006271123886,0.6901560425758362,0.6448296308517456,-0.014213640242815018,0.6853576302528381,0.5361288785934448,-0.01923283375799656,0.6829732656478882,0.4703731834888458,-0.022272802889347076,0.6786749958992004,0.4205426871776581,-0.02499893493950367,0.6618505120277405,0.6633558869361877,-0.021952364593744278,0.6526317596435547,0.5765040516853333,-0.018919315189123154,0.6611007452011108,0.598196804523468,-0.008726868778467178,0.6659497618675232,0.6252928376197815,-0.001640667556785047,0.6391152143478394,0.6885581016540527,-0.028519023209810257,0.6331298351287842,0.62643963098526,-0.019015539437532425,0.6421776413917542,0.6426569223403931,-0.00403271708637476,0.647842288017273,0.6652340888977051,0.007137560285627842,0.0,0.0,0.0,0.0,0.0,0.0,0.0,0.0,0.0,0.0,0.0,0.0,0.0,0.0,0.0,0.0,0.0,0.0,0.0,0.0,0.0,0.0,0.0,0.0,0.0,0.0,0.0,0.0,0.0,0.0,0.0,0.0,0.0,0.0,0.0,0.0,0.0,0.0,0.0,0.0,0.0,0.0,0.0,0.0,0.0,0.0,0.0,0.0,0.0,0.0,0.0,0.0,0.0,0.0,0.0,0.0,0.0,0.0,0.0,0.0,0.0,0.0,0.0
1783391078.292772,0.705436646938324,0.8537503480911255,3.9271125729101186e-07,0.7246435284614563,0.7600159645080566,0.0194868016988039,0.7165214419364929,0.6851732730865479,0.0215502567589283,0.6935429573059082,0.6460521817207336,0.019292237237095833,0.6714232563972473,0.6307051777839661,0.01587194763123989,0.7177307605743408,0.6376147270202637,-0.003003802616149187,0.7092118859291077,0.5421544909477234,-0.010409902781248093,0.7066852450370789,0.48703232407569885,-0.015286334790289402,0.7030198574066162,0.4415687918663025,-0.017765508964657784,0.6909959316253662,0.6458835005760193,-0.015330074355006218,0.6858192086219788,0.5360084176063538,-0.021437523886561394,0.683113694190979,0.4701458811759949,-0.02467120811343193,0.6787291169166565,0.4207889437675476,-0.027362214401364326,0.6631069183349609,0.6648902297019958,-0.02381397970020771,0.6528539061546326,0.5768221020698547,-0.021408801898360252,0.6608862280845642,0.5998017191886902,-0.010392910800874233,0.6656104922294617,0.6270685195922852,-0.002581248991191387,0.6404650807380676,0.6911302208900452,-0.031086010858416557,0.6332002878189087,0.6285095810890198,-0.022088773548603058,0.6422924995422363,0.6456385850906372,-0.00668988935649395,0.6481196880340576,0.6682077646255493,0.004923244006931782,0.0,0.0,0.0,0.0,0.0,0.0,0.0,0.0,0.0,0.0,0.0,0.0,0.0,0.0,0.0,0.0,0.0,0.0,0.0,0.0,0.0,0.0,0.0,0.0,0.0,0.0,0.0,0.0,0.0,0.0,0.0,0.0,0.0,0.0,0.0,0.0,0.0,0.0,0.0,0.0,0.0,0.0,0.0,0.0,0.0,0.0,0.0,0.0,0.0,0.0,0.0,0.0,0.0,0.0,0.0,0.0,0.0,0.0,0.0,0.0,0.0,0.0,0.0
1783391078.480494,0.7041922211647034,0.8512211441993713,3.903401761817804e-07,0.7241153120994568,0.7569624185562134,0.019512277096509933,0.7162893414497375,0.6817770600318909,0.02150421030819416,0.693315327167511,0.6420872807502747,0.019209783524274826,0.6712837815284729,0.6267913579940796,0.015693524852395058,0.7173796892166138,0.6356261372566223,-0.003276705974712968,0.7082329988479614,0.5405271053314209,-0.009967650286853313,0.7055801749229431,0.48601579666137695,-0.014000263065099716,0.7019582986831665,0.4416697919368744,-0.015924513339996338,0.6905711889266968,0.6446542143821716,-0.01558911893516779,0.6850441098213196,0.5354680418968201,-0.021549329161643982,0.6820380687713623,0.4696948528289795,-0.024844862520694733,0.6776565909385681,0.4204283654689789,-0.027652546763420105,0.6625835299491882,0.6640532612800598,-0.02393069490790367,0.6527358889579773,0.5774202346801758,-0.021416284143924713,0.6608988642692566,0.59987872838974,-0.0106899943202734,0.6656734943389893,0.6265950202941895,-0.0031899521127343178,0.639987587928772,0.6898227334022522,-0.030963117256760597,0.6329011917114258,0.6275067329406738,-0.021714789792895317,0.6420794129371643,0.6445290446281433,-0.006312919780611992,0.647722065448761,0.6674400568008423,0.005183049943298101,0.0,0.0,0.0,0.0,0.0,0.0,0.0,0.0,0.0,0.0,0.0,0.0,0.0,0.0,0.0,0.0,0.0,0.0,0.0,0.0,0.0,0.0,0.0,0.0,0.0,0.0,0.0,0.0,0.0,0.0,0.0,0.0,0.0,0.0,0.0,0.0,0.0,0.0,0.0,0.0,0.0,0.0,0.0,0.0,0.0,0.0,0.0,0.0,0.0,0.0,0.0,0.0,0.0,0.0,0.0,0.0,0.0,0.0,0.0,0.0,0.0,0.0,0.0
1783391078.718859,0.704537570476532,0.850600004196167,3.880286101320962e-07,0.7242456078529358,0.7570582032203674,0.019428778439760208,0.7159874439239502,0.6821626424789429,0.02172977291047573,0.6929376721382141,0.6420519351959229,0.01984003186225891,0.6710490584373474,0.6252739429473877,0.0168519988656044,0.7172967195510864,0.6352518200874329,-0.0023237187415361404,0.7078065872192383,0.5392724871635437,-0.008769896812736988,0.7050048112869263,0.4846789836883545,-0.012762819416821003,0.7012090086936951,0.4402759373188019,-0.014551935717463493,0.6902896165847778,0.644315779209137,-0.014221344143152237,0.6843424439430237,0.534974992275238,-0.019737983122467995,0.6811758875846863,0.4690295457839966,-0.02289831079542637,0.6765099763870239,0.4198477864265442,-0.02551535703241825,0.6623983979225159,0.6635708808898926,-0.02223345823585987,0.6520473957061768,0.5769520998001099,-0.019313767552375793,0.6603982448577881,0.5986355543136597,-0.008771667256951332,0.6654583215713501,0.625328779220581,-0.0013144398108124733,0.6399532556533813,0.6894045472145081,-0.028958244249224663,0.632494330406189,0.6269822120666504,-0.019385527819395065,0.6416522860527039,0.643569827079773,-0.004068014677613974,0.6476031541824341,0.6663435697555542,0.007455986924469471,0.0,0.0,0.0,0.0,0.0,0.0,0.0,0.0,0.0,0.0,0.0,0.0,0.0,0.0,0.0,0.0,0.0,0.0,0.0,0.0,0.0,0.0,0.0,0.0,0.0,0.0,0.0,0.0,0.0,0.0,0.0,0.0,0.0,0.0,0.0,0.0,0.0,0.0,0.0,0.0,0.0,0.0,0.0,0.0,0.0,0.0,0.0,0.0,0.0,0.0,0.0,0.0,0.0,0.0,0.0,0.0,0.0,0.0,0.0,0.0,0.0,0.0,0.0
