ciel274/research-hand-sign/data/raw/hiragana/sign_language_u_2.csv
timestamp,R_joint_0_x,R_joint_0_y,R_joint_0_z,R_joint_1_x,R_joint_1_y,R_joint_1_z,R_joint_2_x,R_joint_2_y,R_joint_2_z,R_joint_3_x,R_joint_3_y,R_joint_3_z,R_joint_4_x,R_joint_4_y,R_joint_4_z,R_joint_5_x,R_joint_5_y,R_joint_5_z,R_joint_6_x,R_joint_6_y,R_joint_6_z,R_joint_7_x,R_joint_7_y,R_joint_7_z,R_joint_8_x,R_joint_8_y,R_joint_8_z,R_joint_9_x,R_joint_9_y,R_joint_9_z,R_joint_10_x,R_joint_10_y,R_joint_10_z,R_joint_11_x,R_joint_11_y,R_joint_11_z,R_joint_12_x,R_joint_12_y,R_joint_12_z,R_joint_13_x,R_joint_13_y,R_joint_13_z,R_joint_14_x,R_joint_14_y,R_joint_14_z,R_joint_15_x,R_joint_15_y,R_joint_15_z,R_joint_16_x,R_joint_16_y,R_joint_16_z,R_joint_17_x,R_joint_17_y,R_joint_17_z,R_joint_18_x,R_joint_18_y,R_joint_18_z,R_joint_19_x,R_joint_19_y,R_joint_19_z,R_joint_20_x,R_joint_20_y,R_joint_20_z,L_joint_0_x,L_joint_0_y,L_joint_0_z,L_joint_1_x,L_joint_1_y,L_joint_1_z,L_joint_2_x,L_joint_2_y,L_joint_2_z,L_joint_3_x,L_joint_3_y,L_joint_3_z,L_joint_4_x,L_joint_4_y,L_joint_4_z,L_joint_5_x,L_joint_5_y,L_joint_5_z,L_joint_6_x,L_joint_6_y,L_joint_6_z,L_joint_7_x,L_joint_7_y,L_joint_7_z,L_joint_8_x,L_joint_8_y,L_joint_8_z,L_joint_9_x,L_joint_9_y,L_joint_9_z,L_joint_10_x,L_joint_10_y,L_joint_10_z,L_joint_11_x,L_joint_11_y,L_joint_11_z,L_joint_12_x,L_joint_12_y,L_joint_12_z,L_joint_13_x,L_joint_13_y,L_joint_13_z,L_joint_14_x,L_joint_14_y,L_joint_14_z,L_joint_15_x,L_joint_15_y,L_joint_15_z,L_joint_16_x,L_joint_16_y,L_joint_16_z,L_joint_17_x,L_joint_17_y,L_joint_17_z,L_joint_18_x,L_joint_18_y,L_joint_18_z,L_joint_19_x,L_joint_19_y,L_joint_19_z,L_joint_20_x,L_joint_20_y,L_joint_20_z
1783345081.228037,0.704820990562439,0.7696995735168457,3.082430168888095e-07,0.6635301113128662,0.7210913896560669,-0.013071042485535145,0.645464301109314,0.6350004076957703,-0.01970069482922554,0.657402753829956,0.559031069278717,-0.029886411502957344,0.6840969920158386,0.512938916683197,-0.039610281586647034,0.6582800149917603,0.5388674736022949,0.0026626349426805973,0.6495363116264343,0.4453202784061432,-0.011316836811602116,0.6485287547111511,0.3895210325717926,-0.0228793453425169,0.6514343023300171,0.3396560549736023,-0.03164064139127731,0.6841979026794434,0.5325753092765808,-0.003564232960343361,0.6754863858222961,0.42427554726600647,-0.019567858427762985,0.6690903902053833,0.36288145184516907,-0.03407087177038193,0.6690124273300171,0.31020545959472656,-0.04406244680285454,0.7095947861671448,0.5473973751068115,-0.012940555810928345,0.7078678011894226,0.44828855991363525,-0.037347082048654556,0.691040575504303,0.49736544489860535,-0.0451175719499588,0.6835856437683105,0.5497477054595947,-0.044550493359565735,0.7341940402984619,0.5746365785598755,-0.02353283204138279,0.7210760116577148,0.5125651359558105,-0.04315977916121483,0.7038558721542358,0.5387828946113586,-0.047086428850889206,0.6947383880615234,0.5761969089508057,-0.04643205925822258,0.0,0.0,0.0,0.0,0.0,0.0,0.0,0.0,0.0,0.0,0.0,0.0,0.0,0.0,0.0,0.0,0.0,0.0,0.0,0.0,0.0,0.0,0.0,0.0,0.0,0.0,0.0,0.0,0.0,0.0,0.0,0.0,0.0,0.0,0.0,0.0,0.0,0.0,0.0,0.0,0.0,0.0,0.0,0.0,0.0,0.0,0.0,0.0,0.0,0.0,0.0,0.0,0.0,0.0,0.0,0.0,0.0,0.0,0.0,0.0,0.0,0.0,0.0
1783345081.456056,0.7049576044082642,0.7735410332679749,2.8536049967442523e-07,0.6641544699668884,0.7262257933616638,-0.014474359340965748,0.6452965140342712,0.642712414264679,-0.022352419793605804,0.6551843881607056,0.5656293034553528,-0.033302512019872665,0.680282473564148,0.5161279439926147,-0.04361946880817413,0.6578384041786194,0.5483027100563049,-0.0015924854669719934,0.6485558748245239,0.4526820480823517,-0.017510201781988144,0.6472106575965881,0.39556849002838135,-0.03023875318467617,0.6502166986465454,0.34491872787475586,-0.039637476205825806,0.6839021444320679,0.5424168705940247,-0.007439897861331701,0.6742690801620483,0.43234559893608093,-0.024915102869272232,0.667987048625946,0.37044548988342285,-0.04009811952710152,0.6682816743850708,0.3166015148162842,-0.05072014033794403,0.7093839645385742,0.5567822456359863,-0.016336778178811073,0.7088841199874878,0.4598713517189026,-0.04085606336593628,0.690923810005188,0.5056882500648499,-0.04800158739089966,0.681400716304779,0.5549188852310181,-0.047410763800144196,0.733771562576294,0.5840373635292053,-0.026636576279997826,0.7218479514122009,0.5219073295593262,-0.04564521461725235,0.7040039300918579,0.5439354181289673,-0.04894015192985535,0.6927467584609985,0.5777236819267273,-0.048215169459581375,0.0,0.0,0.0,0.0,0.0,0.0,0.0,0.0,0.0,0.0,0.0,0.0,0.0,0.0,0.0,0.0,0.0,0.0,0.0,0.0,0.0,0.0,0.0,0.0,0.0,0.0,0.0,0.0,0.0,0.0,0.0,0.0,0.0,0.0,0.0,0.0,0.0,0.0,0.0,0.0,0.0,0.0,0.0,0.0,0.0,0.0,0.0,0.0,0.0,0.0,0.0,0.0,0.0,0.0,0.0,0.0,0.0,0.0,0.0,0.0,0.0,0.0,0.0
1783345081.7421582,0.7036128640174866,0.7717171311378479,2.974443873426935e-07,0.6628420352935791,0.7223853468894958,-0.01233893446624279,0.6451017260551453,0.6367806196212769,-0.018916616216301918,0.6570616960525513,0.5621830224990845,-0.02915603667497635,0.6827459335327148,0.5160061120986938,-0.038864485919475555,0.6578831076622009,0.5417267680168152,0.0021678560879081488,0.6493209004402161,0.44961094856262207,-0.011722361668944359,0.6483332514762878,0.3956634998321533,-0.0232904851436615,0.6508514881134033,0.34627780318260193,-0.03208037465810776,0.6835836172103882,0.5359194874763489,-0.004323876462876797,0.6746023297309875,0.42926186323165894,-0.019877880811691284,0.6680334806442261,0.36941245198249817,-0.03375587984919548,0.6673330068588257,0.31646808981895447,-0.04337462782859802,0.7092145085334778,0.5512803196907043,-0.013840085826814175,0.706193208694458,0.4565340280532837,-0.037607885897159576,0.6888756155967712,0.5059061646461487,-0.04484432935714722,0.6806034445762634,0.5577806234359741,-0.044041674584150314,0.7339205741882324,0.5792730450630188,-0.024570507928729057,0.7216717600822449,0.5179442167282104,-0.04351479187607765,0.7030501961708069,0.5416085720062256,-0.0470607690513134,0.6917886137962341,0.5770348906517029,-0.046257100999355316,0.0,0.0,0.0,0.0,0.0,0.0,0.0,0.0,0.0,0.0,0.0,0.0,0.0,0.0,0.0,0.0,0.0,0.0,0.0,0.0,0.0,0.0,0.0,0.0,0.0,0.0,0.0,0.0,0.0,0.0,0.0,0.0,0.0,0.0,0.0,0.0,0.0,0.0,0.0,0.0,0.0,0.0,0.0,0.0,0.0,0.0,0.0,0.0,0.0,0.0,0.0,0.0,0.0,0.0,0.0,0.0,0.0,0.0,0.0,0.0,0.0,0.0,0.0
1783345081.9511218,0.7034873366355896,0.7773971557617188,3.3658287179605395e-07,0.6601850390434265,0.73075932264328,-0.010543398559093475,0.6385765075683594,0.649554431438446,-0.019166117534041405,0.6422017216682434,0.5762264132499695,-0.03159245848655701,0.6670070886611938,0.5321562886238098,-0.04360268637537956,0.6580648422241211,0.5481145977973938,-0.006174669601023197,0.651688277721405,0.4512547254562378,-0.023956796154379845,0.6508978009223938,0.3945528566837311,-0.03697402775287628,0.6541865468025208,0.34403184056282043,-0.04647291824221611,0.6833854913711548,0.5438224673271179,-0.015012788586318493,0.6778795123100281,0.42734983563423157,-0.034192509949207306,0.6727415323257446,0.36101195216178894,-0.04809105023741722,0.6727907657623291,0.306744247674942,-0.0573536716401577,0.7092239856719971,0.5606053471565247,-0.0260227769613266,0.7022361755371094,0.4576159715652466,-0.05225108936429024,0.6805713772773743,0.5151211619377136,-0.05521941930055618,0.6697036623954773,0.5723756551742554,-0.05107163265347481,0.7327989935874939,0.5913848280906677,-0.0380016528069973,0.7081579566001892,0.5339561104774475,-0.059384893625974655,0.6870341897010803,0.5658048987388611,-0.060684528201818466,0.6763152480125427,0.6035690903663635,-0.057518571615219116,0.0,0.0,0.0,0.0,0.0,0.0,0.0,0.0,0.0,0.0,0.0,0.0,0.0,0.0,0.0,0.0,0.0,0.0,0.0,0.0,0.0,0.0,0.0,0.0,0.0,0.0,0.0,0.0,0.0,0.0,0.0,0.0,0.0,0.0,0.0,0.0,0.0,0.0,0.0,0.0,0.0,0.0,0.0,0.0,0.0,0.0,0.0,0.0,0.0,0.0,0.0,0.0,0.0,0.0,0.0,0.0,0.0,0.0,0.0,0.0,0.0,0.0,0.0
1783345082.09778,0.7028434872627258,0.7771887183189392,3.707932023644389e-07,0.658321738243103,0.730816125869751,-0.009235871955752373,0.6355575323104858,0.6488419771194458,-0.018499094992876053,0.6319995522499084,0.575206458568573,-0.03214646875858307,0.655890703201294,0.5322753190994263,-0.04522838070988655,0.6586874127388,0.5453833341598511,-0.006184559781104326,0.651814341545105,0.44601982831954956,-0.024029545485973358,0.6508926749229431,0.38841667771339417,-0.0361095629632473,0.6550310850143433,0.33741798996925354,-0.044824231415987015,0.6837807893753052,0.5438154339790344,-0.0161240566521883,0.6801604628562927,0.4248118996620178,-0.036639902740716934,0.6757355332374573,0.3557819426059723,-0.05071249604225159,0.6756351590156555,0.30069875717163086,-0.05968799442052841,0.7087832093238831,0.5621588230133057,-0.028067179024219513,0.6963183879852295,0.45927563309669495,-0.05539130046963692,0.6707907319068909,0.5181311368942261,-0.05830101668834686,0.6566128134727478,0.575451672077179,-0.05369706079363823,0.730435848236084,0.59359210729599,-0.04077047109603882,0.6976475119590759,0.5380621552467346,-0.0624406524002552,0.673480212688446,0.5695669054985046,-0.06404311209917068,0.6603372097015381,0.605158269405365,-0.06099529191851616,0.0,0.0,0.0,0.0,0.0,0.0,0.0,0.0,0.0,0.0,0.0,0.0,0.0,0.0,0.0,0.0,0.0,0.0,0.0,0.0,0.0,0.0,0.0,0.0,0.0,0.0,0.0,0.0,0.0,0.0,0.0,0.0,0.0,0.0,0.0,0.0,0.0,0.0,0.0,0.0,0.0,0.0,0.0,0.0,0.0,0.0,0.0,0.0,0.0,0.0,0.0,0.0,0.0,0.0,0.0,0.0,0.0,0.0,0.0,0.0,0.0,0.0,0.0
1783345082.246716,0.7041053771972656,0.7773991227149963,3.8305614680211875e-07,0.6569777727127075,0.7295325994491577,-0.008604979142546654,0.6317722797393799,0.6469930410385132,-0.017822744324803352,0.6230131983757019,0.5722549557685852,-0.03209035471081734,0.6439532041549683,0.5331611037254333,-0.045672282576560974,0.6577990651130676,0.542732834815979,-0.003522901562973857,0.6496889591217041,0.44331133365631104,-0.02037844993174076,0.6481917500495911,0.38644057512283325,-0.03151826187968254,0.6522543430328369,0.3362189531326294,-0.03972306475043297,0.6825755834579468,0.5431201457977295,-0.014269229955971241,0.6772947907447815,0.42358970642089844,-0.03526323661208153,0.6718144416809082,0.35402393341064453,-0.04972100630402565,0.6713970899581909,0.29817652702331543,-0.058773647993803024,0.7068772315979004,0.5617642998695374,-0.02717922069132328,0.6890206336975098,0.45690202713012695,-0.055407341569662094,0.6614817976951599,0.5153189897537231,-0.05876487120985985,0.6471247673034668,0.572202742099762,-0.054130684584379196,0.726883590221405,0.5922699570655823,-0.04082486033439636,0.6891226768493652,0.5346682071685791,-0.06299316138029099,0.6625621914863586,0.5668919682502747,-0.06521039456129074,0.6482333540916443,0.6032758951187134,-0.06257395446300507,0.0,0.0,0.0,0.0,0.0,0.0,0.0,0.0,0.0,0.0,0.0,0.0,0.0,0.0,0.0,0.0,0.0,0.0,0.0,0.0,0.0,0.0,0.0,0.0,0.0,0.0,0.0,0.0,0.0,0.0,0.0,0.0,0.0,0.0,0.0,0.0,0.0,0.0,0.0,0.0,0.0,0.0,0.0,0.0,0.0,0.0,0.0,0.0,0.0,0.0,0.0,0.0,0.0,0.0,0.0,0.0,0.0,0.0,0.0,0.0,0.0,0.0,0.0
1783345082.363931,0.7062439322471619,0.7711647748947144,4.0857017324924527e-07,0.6576091051101685,0.7216935157775879,-0.008154049515724182,0.6317542195320129,0.6414487361907959,-0.01750178448855877,0.618710458278656,0.5715305209159851,-0.03221197798848152,0.6337698698043823,0.5275698900222778,-0.04574389383196831,0.6578233242034912,0.5389378666877747,-0.0005030707689002156,0.6480509042739868,0.4397996962070465,-0.016665706411004066,0.6452696323394775,0.3828105628490448,-0.026754841208457947,0.6483221650123596,0.3340636193752289,-0.03406856581568718,0.6831485033035278,0.5381507277488708,-0.011273560114204884,0.6763123273849487,0.41872844099998474,-0.032300520688295364,0.6689029335975647,0.35152295231819153,-0.04634128510951996,0.6669334769248962,0.297037273645401,-0.054839663207530975,0.7066465020179749,0.5549565553665161,-0.02444472536444664,0.6822100877761841,0.45231378078460693,-0.052693355828523636,0.6536291837692261,0.5145168900489807,-0.05481747165322304,0.6390811800956726,0.5734059810638428,-0.0491313599050045,0.7242668271064758,0.5838578939437866,-0.03842655569314957,0.6793869733810425,0.5350857377052307,-0.0606083869934082,0.6527246236801147,0.5670279264450073,-0.06283045560121536,0.6389329433441162,0.5997902154922485,-0.06004393473267555,0.0,0.0,0.0,0.0,0.0,0.0,0.0,0.0,0.0,0.0,0.0,0.0,0.0,0.0,0.0,0.0,0.0,0.0,0.0,0.0,0.0,0.0,0.0,0.0,0.0,0.0,0.0,0.0,0.0,0.0,0.0,0.0,0.0,0.0,0.0,0.0,0.0,0.0,0.0,0.0,0.0,0.0,0.0,0.0,0.0,0.0,0.0,0.0,0.0,0.0,0.0,0.0,0.0,0.0,0.0,0.0,0.0,0.0,0.0,0.0,0.0,0.0,0.0
1783345082.5464141,0.7076773047447205,0.7661717534065247,4.051822770634317e-07,0.6571485996246338,0.7115991711616516,-0.005215572193264961,0.631592869758606,0.6372168660163879,-0.013194284401834011,0.6163761615753174,0.572536826133728,-0.02720552496612072,0.625062108039856,0.5288473963737488,-0.040255628526210785,0.6606349945068359,0.5349916219711304,0.0025218448136001825,0.6504306197166443,0.43699994683265686,-0.011787897907197475,0.646577000617981,0.3819158375263214,-0.020917246118187904,0.6481747031211853,0.3334382474422455,-0.02772577293217182,0.6840320825576782,0.5351152420043945,-0.009547658264636993,0.6758318543434143,0.41763588786125183,-0.029147956520318985,0.6687310934066772,0.34947526454925537,-0.043040648102760315,0.6665188074111938,0.29387372732162476,-0.051753267645835876,0.7051452398300171,0.5506752729415894,-0.023814139887690544,0.6769426465034485,0.45299965143203735,-0.050179701298475266,0.6464346647262573,0.5100523233413696,-0.05357987433671951,0.6298155784606934,0.5662420988082886,-0.0496189258992672,0.7190990447998047,0.5776738524436951,-0.038790829479694366,0.6734389066696167,0.5297175645828247,-0.059294432401657104,0.6450566649436951,0.5592303276062012,-0.06204601377248764,0.6289997100830078,0.5916854739189148,-0.06032249331474304,0.0,0.0,0.0,0.0,0.0,0.0,0.0,0.0,0.0,0.0,0.0,0.0,0.0,0.0,0.0,0.0,0.0,0.0,0.0,0.0,0.0,0.0,0.0,0.0,0.0,0.0,0.0,0.0,0.0,0.0,0.0,0.0,0.0,0.0,0.0,0.0,0.0,0.0,0.0,0.0,0.0,0.0,0.0,0.0,0.0,0.0,0.0,0.0,0.0,0.0,0.0,0.0,0.0,0.0,0.0,0.0,0.0,0.0,0.0,0.0,0.0,0.0,0.0
1783345082.6642828,0.7109739780426025,0.7619170546531677,4.017689718693873e-07,0.6592870354652405,0.7085309028625488,-0.004123734775930643,0.6329066753387451,0.6372260451316833,-0.012008730322122574,0.6157954335212708,0.5773828625679016,-0.02603297121822834,0.6240713596343994,0.5369165539741516,-0.03916839882731438,0.6633586287498474,0.5322598218917847,0.005222352221608162,0.6532819271087646,0.4370660185813904,-0.007683351170271635,0.6493208408355713,0.3821611702442169,-0.015977781265974045,0.6507830023765564,0.33577945828437805,-0.022308561950922012,0.6861405968666077,0.5321218371391296,-0.00740233575925231,0.6762468814849854,0.41717642545700073,-0.025971004739403725,0.666959285736084,0.3508928418159485,-0.03922141343355179,0.6625427603721619,0.29826003313064575,-0.04747015982866287,0.7057910561561584,0.5465072989463806,-0.022347992286086082,0.6743159294128418,0.4480840563774109,-0.048093147575855255,0.6430631875991821,0.49797114729881287,-0.052236173301935196,0.6263294816017151,0.5502526760101318,-0.04901950806379318,0.7163940072059631,0.5726113319396973,-0.037841930985450745,0.6675893664360046,0.5238247513771057,-0.05799410119652748,0.6402378082275391,0.5524480938911438,-0.06113896518945694,0.6262965202331543,0.5850749611854553,-0.0598938874900341,0.0,0.0,0.0,0.0,0.0,0.0,0.0,0.0,0.0,0.0,0.0,0.0,0.0,0.0,0.0,0.0,0.0,0.0,0.0,0.0,0.0,0.0,0.0,0.0,0.0,0.0,0.0,0.0,0.0,0.0,0.0,0.0,0.0,0.0,0.0,0.0,0.0,0.0,0.0,0.0,0.0,0.0,0.0,0.0,0.0,0.0,0.0,0.0,0.0,0.0,0.0,0.0,0.0,0.0,0.0,0.0,0.0,0.0,0.0,0.0,0.0,0.0,0.0
1783345082.824991,0.7135505080223083,0.761073887348175,3.9794932149561646e-07,0.6602544188499451,0.7079912424087524,-0.0030510402284562588,0.6343912482261658,0.6378533244132996,-0.010432721115648746,0.6165083646774292,0.5813814997673035,-0.024316340684890747,0.6235612630844116,0.5412459969520569,-0.037385616451501846,0.6651098728179932,0.530815601348877,0.006856441963464022,0.6534897089004517,0.4370207190513611,-0.0054589929059147835,0.6492048501968384,0.38173896074295044,-0.013572017662227154,0.650209903717041,0.33567431569099426,-0.019904404878616333,0.6874507069587708,0.5307950377464294,-0.006659036967903376,0.676433801651001,0.41719481348991394,-0.025150397792458534,0.6663880944252014,0.35015439987182617,-0.03884436935186386,0.6614686250686646,0.29783928394317627,-0.047440603375434875,0.7060407400131226,0.5454580187797546,-0.022460313513875008,0.6737692952156067,0.44676563143730164,-0.04760650917887688,0.642754852771759,0.4931601583957672,-0.051885347813367844,0.6260718703269958,0.5427282452583313,-0.049041032791137695,0.7150150537490845,0.572078287601471,-0.03877914324402809,0.6650423407554626,0.5222693085670471,-0.05844565108418465,0.6378633975982666,0.551749587059021,-0.06131908670067787,0.6241236925125122,0.5860267877578735,-0.060028284788131714,0.0,0.0,0.0,0.0,0.0,0.0,0.0,0.0,0.0,0.0,0.0,0.0,0.0,0.0,0.0,0.0,0.0,0.0,0.0,0.0,0.0,0.0,0.0,0.0,0.0,0.0,0.0,0.0,0.0,0.0,0.0,0.0,0.0,0.0,0.0,0.0,0.0,0.0,0.0,0.0,0.0,0.0,0.0,0.0,0.0,0.0,0.0,0.0,0.0,0.0,0.0,0.0,0.0,0.0,0.0,0.0,0.0,0.0,0.0,0.0,0.0,0.0,0.0
1783345082.921487,0.7185445427894592,0.7575837969779968,3.649180371212424e-07,0.6651428937911987,0.7052503228187561,0.00012023931049043313,0.6389513611793518,0.6374260187149048,-0.005624528042972088,0.6195448637008667,0.5870357751846313,-0.018737243488430977,0.6213554739952087,0.5482354760169983,-0.031120294705033302,0.6683200001716614,0.5253745317459106,0.011104281060397625,0.6555659770965576,0.4384225010871887,-0.0007825319189578295,0.650463342666626,0.38406646251678467,-0.009316603653132915,0.6507392525672913,0.33970433473587036,-0.01632002741098404,0.6886625289916992,0.5233815908432007,-0.004207989666610956,0.6753401160240173,0.41665521264076233,-0.022339873015880585,0.664268970489502,0.35272708535194397,-0.03661061078310013,0.6589202880859375,0.301175981760025,-0.04607249051332474,0.7046413421630859,0.5377066731452942,-0.02173071727156639,0.6712232232093811,0.4443764090538025,-0.045544326305389404,0.6419894695281982,0.4918227195739746,-0.04926358908414841,0.6263560056686401,0.540497899055481,-0.04667389392852783,0.7117748260498047,0.5658626556396484,-0.039768390357494354,0.6629871129989624,0.5191720128059387,-0.058444466441869736,0.6361833214759827,0.5469900369644165,-0.06125359982252121,0.6212849020957947,0.5798904299736023,-0.06025584787130356,0.0,0.0,0.0,0.0,0.0,0.0,0.0,0.0,0.0,0.0,0.0,0.0,0.0,0.0,0.0,0.0,0.0,0.0,0.0,0.0,0.0,0.0,0.0,0.0,0.0,0.0,0.0,0.0,0.0,0.0,0.0,0.0,0.0,0.0,0.0,0.0,0.0,0.0,0.0,0.0,0.0,0.0,0.0,0.0,0.0,0.0,0.0,0.0,0.0,0.0,0.0,0.0,0.0,0.0,0.0,0.0,0.0,0.0,0.0,0.0,0.0,0.0,0.0
1783345083.081336,0.7225101590156555,0.7564306259155273,3.376498227680713e-07,0.6667625904083252,0.7009827494621277,0.008606486022472382,0.6410283446311951,0.6341019868850708,0.006906141526997089,0.6204965710639954,0.5859358310699463,-0.003846255596727133,0.61872798204422,0.5504176616668701,-0.01436975784599781,0.6728843450546265,0.5254579186439514,0.021117348223924637,0.65789794921875,0.4402216076850891,0.013478897511959076,0.6511961221694946,0.3879549503326416,0.007562692742794752,0.6499029994010925,0.3445526659488678,0.0020806589163839817,0.6914088726043701,0.522732675075531,0.002032485092058778,0.6762508749961853,0.4166015386581421,-0.013001044280827045,0.6643583178520203,0.3524344265460968,-0.025541875511407852,0.6589065790176392,0.30324506759643555,-0.03382163122296333,0.7047744393348694,0.5371187925338745,-0.018736783415079117,0.6694963574409485,0.44578319787979126,-0.03962738439440727,0.6413927674293518,0.4901774823665619,-0.04253346472978592,0.6271216869354248,0.5359282493591309,-0.03987405449151993,0.7085750102996826,0.5657044053077698,-0.03937287628650665,0.658318281173706,0.516602635383606,-0.055566199123859406,0.6323106288909912,0.5466604828834534,-0.056863777339458466,0.6187384724617004,0.5825977921485901,-0.055185236036777496,0.0,0.0,0.0,0.0,0.0,0.0,0.0,0.0,0.0,0.0,0.0,0.0,0.0,0.0,0.0,0.0,0.0,0.0,0.0,0.0,0.0,0.0,0.0,0.0,0.0,0.0,0.0,0.0,0.0,0.0,0.0,0.0,0.0,0.0,0.0,0.0,0.0,0.0,0.0,0.0,0.0,0.0,0.0,0.0,0.0,0.0,0.0,0.0,0.0,0.0,0.0,0.0,0.0,0.0,0.0,0.0,0.0,0.0,0.0,0.0,0.0,0.0,0.0
1783345083.192841,0.7217292189598083,0.7532947063446045,3.508280883579573e-07,0.6664332747459412,0.6966400146484375,0.009809923358261585,0.6427791714668274,0.6312059760093689,0.008355549536645412,0.6233698129653931,0.5835616588592529,-0.002138822805136442,0.6209437251091003,0.547130823135376,-0.012465874664485455,0.6745820641517639,0.523628294467926,0.020492980256676674,0.6590203046798706,0.43729570508003235,0.012826992198824883,0.6520578861236572,0.38446876406669617,0.00691672507673502,0.650600254535675,0.3406178653240204,0.0015515470877289772,0.6926095485687256,0.5204835534095764,0.0009995335713028908,0.6769571304321289,0.41363289952278137,-0.014232410117983818,0.6652082204818726,0.34803327918052673,-0.02668597362935543,0.6599570512771606,0.2989240288734436,-0.03472066670656204,0.7053276300430298,0.5348857641220093,-0.01988741010427475,0.6697992086410522,0.4455549418926239,-0.04037332162261009,0.642296552658081,0.48827555775642395,-0.042845018208026886,0.6284023523330688,0.5326616168022156,-0.03988167271018028,0.7081771492958069,0.5636681318283081,-0.0405450277030468,0.6582913398742676,0.5150970816612244,-0.056033894419670105,0.6335265040397644,0.5448490381240845,-0.05643085017800331,0.6209278702735901,0.5806691646575928,-0.05403983220458031,0.0,0.0,0.0,0.0,0.0,0.0,0.0,0.0,0.0,0.0,0.0,0.0,0.0,0.0,0.0,0.0,0.0,0.0,0.0,0.0,0.0,0.0,0.0,0.0,0.0,0.0,0.0,0.0,0.0,0.0,0.0,0.0,0.0,0.0,0.0,0.0,0.0,0.0,0.0,0.0,0.0,0.0,0.0,0.0,0.0,0.0,0.0,0.0,0.0,0.0,0.0,0.0,0.0,0.0,0.0,0.0,0.0,0.0,0.0,0.0,0.0,0.0,0.0
1783345083.330562,0.7224039435386658,0.7526158690452576,3.38950030709384e-07,0.667652428150177,0.6965219974517822,0.007958528585731983,0.6433005928993225,0.6306686401367188,0.005892693996429443,0.6235709190368652,0.5833055973052979,-0.005034201312810183,0.619499683380127,0.5498205423355103,-0.0155716547742486,0.6748327016830444,0.5216898918151855,0.020674491301178932,0.6604315042495728,0.4382253587245941,0.012594589963555336,0.6537922024726868,0.38627615571022034,0.006270229816436768,0.652644157409668,0.34369590878486633,0.0006303960108198225,0.6922285556793213,0.5185381174087524,0.0021163939964026213,0.676653265953064,0.4140610992908478,-0.012861513532698154,0.664502739906311,0.35012537240982056,-0.02516797184944153,0.6590019464492798,0.3007240295410156,-0.03321525454521179,0.704619288444519,0.5328584909439087,-0.018203966319561005,0.6689520478248596,0.44432348012924194,-0.0383688248693943,0.6409533619880676,0.48728176951408386,-0.04074687138199806,0.6268640756607056,0.5318291783332825,-0.037837546318769455,0.7079855799674988,0.5621331334114075,-0.03858469799160957,0.6586637496948242,0.5146949887275696,-0.054003264755010605,0.6329860091209412,0.5421938300132751,-0.05498208478093147,0.6194089651107788,0.5756749510765076,-0.053087715059518814,0.0,0.0,0.0,0.0,0.0,0.0,0.0,0.0,0.0,0.0,0.0,0.0,0.0,0.0,0.0,0.0,0.0,0.0,0.0,0.0,0.0,0.0,0.0,0.0,0.0,0.0,0.0,0.0,0.0,0.0,0.0,0.0,0.0,0.0,0.0,0.0,0.0,0.0,0.0,0.0,0.0,0.0,0.0,0.0,0.0,0.0,0.0,0.0,0.0,0.0,0.0,0.0,0.0,0.0,0.0,0.0,0.0,0.0,0.0,0.0,0.0,0.0,0.0
1783345083.492011,0.7236919403076172,0.7530051469802856,3.299324475847243e-07,0.6684944033622742,0.6975846290588379,0.010843527503311634,0.6432144045829773,0.6290535926818848,0.010760858654975891,0.6227119565010071,0.5811727046966553,0.0011621559970080853,0.6215389370918274,0.5468202233314514,-0.00803226325660944,0.6751180291175842,0.5199097394943237,0.025492504239082336,0.6602513790130615,0.4371066689491272,0.018906373530626297,0.6532816886901855,0.38557252287864685,0.013096455484628677,0.6518809199333191,0.34303537011146545,0.007320734206587076,0.6927153468132019,0.5168523192405701,0.005297584924846888,0.676552951335907,0.4137052595615387,-0.009510651230812073,0.6638439893722534,0.3488193452358246,-0.022642098367214203,0.6586331129074097,0.3005885183811188,-0.03143173083662987,0.7049560546875,0.5321385264396667,-0.016527514904737473,0.6700890064239502,0.44289353489875793,-0.03600572794675827,0.6427101492881775,0.4871674180030823,-0.03759035840630531,0.6291906833648682,0.5312837362289429,-0.034256964921951294,0.7083277702331543,0.5621420741081238,-0.03829627484083176,0.6581879258155823,0.5133674144744873,-0.053047358989715576,0.6337529420852661,0.5431487560272217,-0.053300946950912476,0.6214502453804016,0.5782644152641296,-0.05098126828670502,0.0,0.0,0.0,0.0,0.0,0.0,0.0,0.0,0.0,0.0,0.0,0.0,0.0,0.0,0.0,0.0,0.0,0.0,0.0,0.0,0.0,0.0,0.0,0.0,0.0,0.0,0.0,0.0,0.0,0.0,0.0,0.0,0.0,0.0,0.0,0.0,0.0,0.0,0.0,0.0,0.0,0.0,0.0,0.0,0.0,0.0,0.0,0.0,0.0,0.0,0.0,0.0,0.0,0.0,0.0,0.0,0.0,0.0,0.0,0.0,0.0,0.0,0.0
1783345083.6348531,0.7209601998329163,0.7546214461326599,3.4922277336590923e-07,0.6672437191009521,0.6962947845458984,0.013402510434389114,0.6421570777893066,0.6280443072319031,0.013511352241039276,0.6224509477615356,0.5786501169204712,0.00323836924508214,0.6238378286361694,0.5424591302871704,-0.007194344885647297,0.6718116998672485,0.5211877226829529,0.027778707444667816,0.6579248905181885,0.4345628023147583,0.021263929083943367,0.6524558663368225,0.3826151490211487,0.01596391573548317,0.652468740940094,0.3388504683971405,0.010833710432052612,0.691300630569458,0.517779529094696,0.005482909269630909,0.6773514747619629,0.41053667664527893,-0.008519346825778484,0.6670919060707092,0.3461456596851349,-0.02025057189166546,0.6627808213233948,0.2979683578014374,-0.02776401676237583,0.7062653303146362,0.5317739844322205,-0.01848924532532692,0.6713410019874573,0.4412935972213745,-0.03899583965539932,0.6443201899528503,0.48712968826293945,-0.04076900705695152,0.6306396126747131,0.5334224700927734,-0.03706826642155647,0.7123064994812012,0.5603081583976746,-0.04206198826432228,0.6626956462860107,0.5084161758422852,-0.05744628235697746,0.6383153796195984,0.5389559864997864,-0.057094182819128036,0.6263260841369629,0.5749730467796326,-0.054139867424964905,0.0,0.0,0.0,0.0,0.0,0.0,0.0,0.0,0.0,0.0,0.0,0.0,0.0,0.0,0.0,0.0,0.0,0.0,0.0,0.0,0.0,0.0,0.0,0.0,0.0,0.0,0.0,0.0,0.0,0.0,0.0,0.0,0.0,0.0,0.0,0.0,0.0,0.0,0.0,0.0,0.0,0.0,0.0,0.0,0.0,0.0,0.0,0.0,0.0,0.0,0.0,0.0,0.0,0.0,0.0,0.0,0.0,0.0,0.0,0.0,0.0,0.0,0.0
1783345083.838042,0.7200552821159363,0.7554256319999695,3.6007742210131255e-07,0.6680727601051331,0.6993776559829712,0.005276168696582317,0.6415246725082397,0.6320561170578003,0.0017036987701430917,0.6223125457763672,0.5795570611953735,-0.010545887984335423,0.628126323223114,0.5391823649406433,-0.02257097326219082,0.6707835793495178,0.5224846005439758,0.02090367302298546,0.6585710644721985,0.43502718210220337,0.012265688739717007,0.6533429026603699,0.382341206073761,0.005968538112938404,0.6538344621658325,0.3384917974472046,0.0006812030915170908,0.6911268830299377,0.5208191871643066,0.002849342068657279,0.6795560121536255,0.41227495670318604,-0.011863208375871181,0.6692960262298584,0.34929370880126953,-0.023324713110923767,0.6636994481086731,0.300836443901062,-0.030253639444708824,0.7081254720687866,0.5343369841575623,-0.017672855406999588,0.6739977598190308,0.443794846534729,-0.04049038141965866,0.6460215449333191,0.48433953523635864,-0.04496799036860466,0.6314676403999329,0.5291458368301392,-0.04244416207075119,0.7162657380104065,0.5616374611854553,-0.0382048599421978,0.666857898235321,0.5104040503501892,-0.05579448118805885,0.6424302458763123,0.5389161705970764,-0.05756714195013046,0.6308317184448242,0.5746517181396484,-0.05567759647965431,0.0,0.0,0.0,0.0,0.0,0.0,0.0,0.0,0.0,0.0,0.0,0.0,0.0,0.0,0.0,0.0,0.0,0.0,0.0,0.0,0.0,0.0,0.0,0.0,0.0,0.0,0.0,0.0,0.0,0.0,0.0,0.0,0.0,0.0,0.0,0.0,0.0,0.0,0.0,0.0,0.0,0.0,0.0,0.0,0.0,0.0,0.0,0.0,0.0,0.0,0.0,0.0,0.0,0.0,0.0,0.0,0.0,0.0,0.0,0.0,0.0,0.0,0.0
1783345083.955578,0.7164917588233948,0.7573900818824768,3.6371511669130996e-07,0.6629890203475952,0.703985869884491,-0.0014373707817867398,0.6366877555847168,0.634219765663147,-0.007949354127049446,0.6201939582824707,0.5716285109519958,-0.021369753405451775,0.6310805678367615,0.5243108868598938,-0.034086570143699646,0.6645949482917786,0.5347285866737366,0.010664480738341808,0.6534688472747803,0.43857473134994507,-0.0003593627188820392,0.6492220163345337,0.383912056684494,-0.007585188373923302,0.6503286957740784,0.33727702498435974,-0.013051120564341545,0.6866481304168701,0.5322750806808472,-0.002928950823843479,0.6764609813690186,0.4174050986766815,-0.019193600863218307,0.6676473617553711,0.3527251183986664,-0.031074466183781624,0.6632986068725586,0.30148059129714966,-0.038388803601264954,0.7070116996765137,0.5439746975898743,-0.01894470863044262,0.6784533858299255,0.44367679953575134,-0.04301540181040764,0.6517443656921387,0.49196913838386536,-0.04696039482951164,0.6379548907279968,0.5437635183334351,-0.0437123104929924,0.7196534276008606,0.566888153553009,-0.03528314083814621,0.6726781725883484,0.5128393769264221,-0.05380285531282425,0.6448224782943726,0.5401296615600586,-0.05593540146946907,0.6294193863868713,0.5739716291427612,-0.05414821580052376,0.0,0.0,0.0,0.0,0.0,0.0,0.0,0.0,0.0,0.0,0.0,0.0,0.0,0.0,0.0,0.0,0.0,0.0,0.0,0.0,0.0,0.0,0.0,0.0,0.0,0.0,0.0,0.0,0.0,0.0,0.0,0.0,0.0,0.0,0.0,0.0,0.0,0.0,0.0,0.0,0.0,0.0,0.0,0.0,0.0,0.0,0.0,0.0,0.0,0.0,0.0,0.0,0.0,0.0,0.0,0.0,0.0,0.0,0.0,0.0,0.0,0.0,0.0
1783345084.121032,0.7123281359672546,0.7591150999069214,3.7738732316938695e-07,0.6609677672386169,0.7125257849693298,-0.006794699467718601,0.6349151134490967,0.6345575451850891,-0.01460497546941042,0.6218218803405762,0.5599666237831116,-0.02780008502304554,0.6376485228538513,0.510553777217865,-0.04005969315767288,0.6618093252182007,0.5369666218757629,0.005228389985859394,0.6521850824356079,0.439809650182724,-0.007911546155810356,0.6493436694145203,0.3834167718887329,-0.01633724570274353,0.6519800424575806,0.3352876305580139,-0.022419601678848267,0.6849237680435181,0.5332685112953186,-0.005066442769020796,0.6753979921340942,0.416858434677124,-0.02286483719944954,0.6673539876937866,0.350957453250885,-0.035248756408691406,0.6641219258308411,0.29690277576446533,-0.042563941329717636,0.7070645093917847,0.545263946056366,-0.018010213971138,0.683571994304657,0.4415198862552643,-0.04412023723125458,0.6577698588371277,0.493486613035202,-0.04865068197250366,0.644221842288971,0.5472311973571777,-0.044965486973524094,0.7234763503074646,0.5680354237556458,-0.03148503974080086,0.6793842315673828,0.5170501470565796,-0.0518762543797493,0.6519597172737122,0.5453575849533081,-0.05510474741458893,0.6367289423942566,0.5779162645339966,-0.05352556332945824,0.0,0.0,0.0,0.0,0.0,0.0,0.0,0.0,0.0,0.0,0.0,0.0,0.0,0.0,0.0,0.0,0.0,0.0,0.0,0.0,0.0,0.0,0.0,0.0,0.0,0.0,0.0,0.0,0.0,0.0,0.0,0.0,0.0,0.0,0.0,0.0,0.0,0.0,0.0,0.0,0.0,0.0,0.0,0.0,0.0,0.0,0.0,0.0,0.0,0.0,0.0,0.0,0.0,0.0,0.0,0.0,0.0,0.0,0.0,0.0,0.0,0.0,0.0
1783345084.292146,0.7105042338371277,0.7604669332504272,3.8471785046567675e-07,0.6613171100616455,0.7160820960998535,-0.010212735272943974,0.6355060338973999,0.6355674266815186,-0.019577480852603912,0.6237286925315857,0.5543308854103088,-0.03385055437684059,0.6456148028373718,0.5051817297935486,-0.04714360460639,0.6581887602806091,0.5350341200828552,0.0024835211224853992,0.6491207480430603,0.43999502062797546,-0.012405674904584885,0.6464266180992126,0.384737104177475,-0.021924875676631927,0.6490002870559692,0.33702829480171204,-0.02925262041389942,0.6836422085762024,0.5316728353500366,-0.006574589293450117,0.6762871742248535,0.41690048575401306,-0.02616867981851101,0.6683963537216187,0.3513282239437103,-0.0403892882168293,0.665404736995697,0.2975221276283264,-0.04933387041091919,0.7074034810066223,0.5471537709236145,-0.018465889617800713,0.689182698726654,0.43931320309638977,-0.045698489993810654,0.663365364074707,0.4960249960422516,-0.049970000982284546,0.6490646600723267,0.5521913170814514,-0.046070344746112823,0.7278016209602356,0.5732581615447998,-0.031160946935415268,0.6879309415817261,0.5203108191490173,-0.05262558534741402,0.6642605662345886,0.5494607090950012,-0.05633176118135452,0.6514643430709839,0.5823516249656677,-0.05492480471730232,0.0,0.0,0.0,0.0,0.0,0.0,0.0,0.0,0.0,0.0,0.0,0.0,0.0,0.0,0.0,0.0,0.0,0.0,0.0,0.0,0.0,0.0,0.0,0.0,0.0,0.0,0.0,0.0,0.0,0.0,0.0,0.0,0.0,0.0,0.0,0.0,0.0,0.0,0.0,0.0,0.0,0.0,0.0,0.0,0.0,0.0,0.0,0.0,0.0,0.0,0.0,0.0,0.0,0.0,0.0,0.0,0.0,0.0,0.0,0.0,0.0,0.0,0.0
1783345084.425802,0.7100539207458496,0.7613544464111328,3.149728229345783e-07,0.6632521152496338,0.7203941941261292,-0.009007531218230724,0.6380903124809265,0.6384909749031067,-0.016060182824730873,0.6311224699020386,0.5603317618370056,-0.027765337377786636,0.6511870622634888,0.5092881917953491,-0.039220090955495834,0.6578613519668579,0.5430619716644287,0.0010575894266366959,0.6472383141517639,0.4472704529762268,-0.013627516105771065,0.6435472965240479,0.391824334859848,-0.023912079632282257,0.6446847319602966,0.3423035442829132,-0.03180694952607155,0.6823928952217102,0.5382468104362488,-0.008277027867734432,0.6748474836349487,0.4211147427558899,-0.02646147646009922,0.666335940361023,0.3566311001777649,-0.040519874542951584,0.6628550291061401,0.30499279499053955,-0.04994819685816765,0.7065021395683289,0.5511950850486755,-0.020115183666348457,0.692255973815918,0.4400651156902313,-0.04673515260219574,0.6682992577552795,0.4935134947299957,-0.052289824932813644,0.6562454700469971,0.5498321056365967,-0.049809880554676056,0.7281251549720764,0.5742926001548767,-0.03256329521536827,0.694511353969574,0.510672390460968,-0.05393365025520325,0.674454391002655,0.5410729646682739,-0.05717955902218819,0.6660050749778748,0.5788965225219727,-0.05579239875078201,0.0,0.0,0.0,0.0,0.0,0.0,0.0,0.0,0.0,0.0,0.0,0.0,0.0,0.0,0.0,0.0,0.0,0.0,0.0,0.0,0.0,0.0,0.0,0.0,0.0,0.0,0.0,0.0,0.0,0.0,0.0,0.0,0.0,0.0,0.0,0.0,0.0,0.0,0.0,0.0,0.0,0.0,0.0,0.0,0.0,0.0,0.0,0.0,0.0,0.0,0.0,0.0,0.0,0.0,0.0,0.0,0.0,0.0,0.0,0.0,0.0,0.0,0.0
1783345084.590094,0.7075532674789429,0.7582046985626221,2.832088625837059e-07,0.663725733757019,0.7138077020645142,-0.008577193133533001,0.6417796611785889,0.6295574307441711,-0.01414053700864315,0.6447245478630066,0.5495738387107849,-0.024196770042181015,0.667212724685669,0.49899423122406006,-0.03438898175954819,0.6578899621963501,0.5384779572486877,0.003209769492968917,0.6460497975349426,0.4456978142261505,-0.010172800160944462,0.6420438289642334,0.3907950520515442,-0.0205086600035429,0.6428513526916504,0.3415326178073883,-0.028326865285634995,0.6827170252799988,0.5330960154533386,-0.0055313799530267715,0.6733468174934387,0.42020636796951294,-0.021386075764894485,0.6644085645675659,0.35735440254211426,-0.0348411463201046,0.6614937782287598,0.30700597167015076,-0.04402001574635506,0.7077361345291138,0.5456497669219971,-0.0168231762945652,0.6991462111473083,0.438701868057251,-0.04141058772802353,0.6776321530342102,0.4873424470424652,-0.048567626625299454,0.6674265265464783,0.5406014323234558,-0.04760226979851723,0.7307869791984558,0.567629337310791,-0.028705723583698273,0.7052875757217407,0.49852797389030457,-0.04888061806559563,0.6847517490386963,0.5286988019943237,-0.052344176918268204,0.6747450232505798,0.5703464150428772,-0.05133666470646858,0.0,0.0,0.0,0.0,0.0,0.0,0.0,0.0,0.0,0.0,0.0,0.0,0.0,0.0,0.0,0.0,0.0,0.0,0.0,0.0,0.0,0.0,0.0,0.0,0.0,0.0,0.0,0.0,0.0,0.0,0.0,0.0,0.0,0.0,0.0,0.0,0.0,0.0,0.0,0.0,0.0,0.0,0.0,0.0,0.0,0.0,0.0,0.0,0.0,0.0,0.0,0.0,0.0,0.0,0.0,0.0,0.0,0.0,0.0,0.0,0.0,0.0,0.0
1783345084.753567,0.707992672920227,0.756423830986023,2.7369065946913906e-07,0.6642748713493347,0.7109525799751282,-0.009445436298847198,0.6432050466537476,0.624020516872406,-0.014190783724188805,0.6502261757850647,0.5414218902587891,-0.02321004495024681,0.6763761043548584,0.4923498332500458,-0.03198159486055374,0.6579812169075012,0.5428538918495178,0.005956004373729229,0.6456460952758789,0.4487694799900055,-0.006075265817344189,0.6423782110214233,0.39423781633377075,-0.015705937519669533,0.6435914635658264,0.3456743657588959,-0.023111863061785698,0.6829171180725098,0.5350108742713928,-0.0010447320528328419,0.6724399924278259,0.42467185854911804,-0.015572831965982914,0.6632721424102783,0.3623247444629669,-0.028432991355657578,0.6607347130775452,0.3120528757572174,-0.03732068091630936,0.7073021531105042,0.54483562707901,-0.010848451405763626,0.6996808052062988,0.4390258193016052,-0.0334165021777153,0.680219829082489,0.4842163026332855,-0.040437549352645874,0.6720584034919739,0.5364231467247009,-0.039631713181734085,0.7307989597320557,0.5633901953697205,-0.021546991541981697,0.7107204794883728,0.49472057819366455,-0.039619915187358856,0.6919349431991577,0.5205214619636536,-0.04322786256670952,0.6829448342323303,0.5609003901481628,-0.04265253618359566,0.0,0.0,0.0,0.0,0.0,0.0,0.0,0.0,0.0,0.0,0.0,0.0,0.0,0.0,0.0,0.0,0.0,0.0,0.0,0.0,0.0,0.0,0.0,0.0,0.0,0.0,0.0,0.0,0.0,0.0,0.0,0.0,0.0,0.0,0.0,0.0,0.0,0.0,0.0,0.0,0.0,0.0,0.0,0.0,0.0,0.0,0.0,0.0,0.0,0.0,0.0,0.0,0.0,0.0,0.0,0.0,0.0,0.0,0.0,0.0,0.0,0.0,0.0
1783345084.9227982,0.7090504169464111,0.7571048736572266,2.6823730081559916e-07,0.6680011749267578,0.7109240889549255,-0.010887093842029572,0.647129237651825,0.6208370327949524,-0.015590453520417213,0.6582992672920227,0.5371826887130737,-0.023923762142658234,0.6865317821502686,0.4880844056606293,-0.03191724792122841,0.6586875915527344,0.5449175238609314,0.004021508153527975,0.6464459896087646,0.4510250687599182,-0.007970983162522316,0.6425138711929321,0.39595189690589905,-0.01754962094128132,0.6426699757575989,0.34682345390319824,-0.024935567751526833,0.6839002966880798,0.5360799431800842,-0.0016633780905976892,0.6725614666938782,0.4280977249145508,-0.016038447618484497,0.6633204221725464,0.3665987253189087,-0.02850629761815071,0.6609402298927307,0.3147429823875427,-0.03701530769467354,0.7090637683868408,0.5451829433441162,-0.010151329450309277,0.7040227055549622,0.446600079536438,-0.03261151909828186,0.6853097081184387,0.49132540822029114,-0.03964317589998245,0.6767561435699463,0.541392982006073,-0.03880182281136513,0.7339317202568054,0.5635063052177429,-0.01964849792420864,0.7194013595581055,0.49584853649139404,-0.03764365613460541,0.7018632888793945,0.5207381844520569,-0.04109805449843407,0.6925926208496094,0.5593042969703674,-0.040375299751758575,0.0,0.0,0.0,0.0,0.0,0.0,0.0,0.0,0.0,0.0,0.0,0.0,0.0,0.0,0.0,0.0,0.0,0.0,0.0,0.0,0.0,0.0,0.0,0.0,0.0,0.0,0.0,0.0,0.0,0.0,0.0,0.0,0.0,0.0,0.0,0.0,0.0,0.0,0.0,0.0,0.0,0.0,0.0,0.0,0.0,0.0,0.0,0.0,0.0,0.0,0.0,0.0,0.0,0.0,0.0,0.0,0.0,0.0,0.0,0.0,0.0,0.0,0.0
1783345085.0493839,0.710289716720581,0.7531465888023376,2.9468273510246945e-07,0.6701088547706604,0.7044366598129272,-0.011752705089747906,0.6504338383674622,0.6180305480957031,-0.016717063263058662,0.6641848683357239,0.5364353060722351,-0.024885384365916252,0.6922450661659241,0.48847854137420654,-0.03262421116232872,0.658536434173584,0.5425946116447449,0.0035420507192611694,0.647250771522522,0.4477478563785553,-0.008256391622126102,0.6443800926208496,0.3914134204387665,-0.017744529992341995,0.645231306552887,0.3417215943336487,-0.024869238957762718,0.6841292977333069,0.5331932306289673,-0.0011702460469678044,0.6728177070617676,0.42641130089759827,-0.014844056218862534,0.6646353602409363,0.3661206364631653,-0.026920698583126068,0.6630169153213501,0.3149242401123047,-0.035015769302845,0.7098909020423889,0.5418708324432373,-0.00874742865562439,0.7073966860771179,0.4475042223930359,-0.03064766526222229,0.6914713382720947,0.4887195825576782,-0.03839046508073807,0.6844743490219116,0.5359252095222473,-0.038066595792770386,0.7354612946510315,0.5607449412345886,-0.017395123839378357,0.7268001437187195,0.4969990849494934,-0.03481302782893181,0.7113479375839233,0.5180755853652954,-0.03871738165616989,0.7026906609535217,0.5528810024261475,-0.038307078182697296,0.0,0.0,0.0,0.0,0.0,0.0,0.0,0.0,0.0,0.0,0.0,0.0,0.0,0.0,0.0,0.0,0.0,0.0,0.0,0.0,0.0,0.0,0.0,0.0,0.0,0.0,0.0,0.0,0.0,0.0,0.0,0.0,0.0,0.0,0.0,0.0,0.0,0.0,0.0,0.0,0.0,0.0,0.0,0.0,0.0,0.0,0.0,0.0,0.0,0.0,0.0,0.0,0.0,0.0,0.0,0.0,0.0,0.0,0.0,0.0,0.0,0.0,0.0
1783345085.184182,0.7116075158119202,0.7536482214927673,2.9254493938424275e-07,0.6724835634231567,0.7048636674880981,-0.013620531186461449,0.6537808775901794,0.617804765701294,-0.018487662076950073,0.6681054830551147,0.5358036756515503,-0.02627476677298546,0.6963401436805725,0.4880310297012329,-0.03355405107140541,0.659396231174469,0.5437750220298767,0.00426078774034977,0.6492586731910706,0.45030537247657776,-0.007586766965687275,0.6465639472007751,0.39403435587882996,-0.01744433306157589,0.6472542881965637,0.34414902329444885,-0.024893758818507195,0.685236394405365,0.533169150352478,0.0005329816485755146,0.6744166016578674,0.4282711446285248,-0.013173307292163372,0.6661982536315918,0.36882519721984863,-0.02568196877837181,0.6641122698783875,0.3168562352657318,-0.034157369285821915,0.7113606333732605,0.540746808052063,-0.006423643324524164,0.7107386589050293,0.4476485848426819,-0.02897884137928486,0.6963449120521545,0.4901418685913086,-0.03746464103460312,0.6901490092277527,0.538194477558136,-0.03746401518583298,0.7372691631317139,0.5592395663261414,-0.014640570618212223,0.7306166291236877,0.4965217411518097,-0.032606177031993866,0.7164071798324585,0.5176342725753784,-0.03711139038205147,0.7084043025970459,0.5523877143859863,-0.03707244247198105,0.0,0.0,0.0,0.0,0.0,0.0,0.0,0.0,0.0,0.0,0.0,0.0,0.0,0.0,0.0,0.0,0.0,0.0,0.0,0.0,0.0,0.0,0.0,0.0,0.0,0.0,0.0,0.0,0.0,0.0,0.0,0.0,0.0,0.0,0.0,0.0,0.0,0.0,0.0,0.0,0.0,0.0,0.0,0.0,0.0,0.0,0.0,0.0,0.0,0.0,0.0,0.0,0.0,0.0,0.0,0.0,0.0,0.0,0.0,0.0,0.0,0.0,0.0
1783345085.3207119,0.7130846381187439,0.7548812627792358,2.989137897202454e-07,0.6750445365905762,0.7065626382827759,-0.01448006834834814,0.6577675938606262,0.6171401143074036,-0.01906517520546913,0.6733448505401611,0.5341212749481201,-0.02638731151819229,0.7027801871299744,0.4906257688999176,-0.0331156849861145,0.661048948764801,0.5430788993835449,0.0051053958013653755,0.6519950032234192,0.4495352506637573,-0.00600732397288084,0.6501474380493164,0.3934462368488312,-0.01577915996313095,0.6516772508621216,0.34357666969299316,-0.023465873673558235,0.6867303252220154,0.5317692160606384,0.0017816944746300578,0.6750879287719727,0.4299278259277344,-0.0110939871519804,0.667347252368927,0.37124690413475037,-0.023488463833928108,0.6658809185028076,0.3192340135574341,-0.03213825449347496,0.7132236957550049,0.5403465628623962,-0.0049964068457484245,0.7138646841049194,0.4451250433921814,-0.026876965537667274,0.7018173336982727,0.4860764741897583,-0.035824988037347794,0.6971650123596191,0.533237636089325,-0.036526307463645935,0.7398636937141418,0.5605549216270447,-0.013204756192862988,0.7347236275672913,0.49642544984817505,-0.031187817454338074,0.7218989729881287,0.5177009701728821,-0.03635047748684883,0.7150567173957825,0.5522426962852478,-0.03697161376476288,0.0,0.0,0.0,0.0,0.0,0.0,0.0,0.0,0.0,0.0,0.0,0.0,0.0,0.0,0.0,0.0,0.0,0.0,0.0,0.0,0.0,0.0,0.0,0.0,0.0,0.0,0.0,0.0,0.0,0.0,0.0,0.0,0.0,0.0,0.0,0.0,0.0,0.0,0.0,0.0,0.0,0.0,0.0,0.0,0.0,0.0,0.0,0.0,0.0,0.0,0.0,0.0,0.0,0.0,0.0,0.0,0.0,0.0,0.0,0.0,0.0,0.0,0.0
1783345085.455152,0.7143012285232544,0.7558179497718811,3.0168655484885676e-07,0.6764445900917053,0.7081324458122253,-0.014316166751086712,0.6593942642211914,0.6166994571685791,-0.019057096913456917,0.6761766672134399,0.5334760546684265,-0.026507798582315445,0.7062381505966187,0.4915830194950104,-0.033341530710458755,0.6628981828689575,0.5422707200050354,0.002801249036565423,0.6543156504631042,0.44706475734710693,-0.00838816724717617,0.6525968909263611,0.3916095793247223,-0.017879227176308632,0.6537250876426697,0.34223759174346924,-0.02541731670498848,0.6892482042312622,0.5310636758804321,-0.0007216379162855446,0.6780732870101929,0.4273872375488281,-0.01373559981584549,0.6703104972839355,0.3687058091163635,-0.02583417110145092,0.6684386730194092,0.3160822093486786,-0.034211594611406326,0.7161830067634583,0.5404089689254761,-0.007404595613479614,0.7163560390472412,0.4458465576171875,-0.029032662510871887,0.7045819759368896,0.4896375834941864,-0.03634880483150482,0.6998648047447205,0.5373038053512573,-0.03576699271798134,0.7427599430084229,0.5614441633224487,-0.015527362935245037,0.7378816604614258,0.49560481309890747,-0.033006589859724045,0.7254977822303772,0.5168851613998413,-0.036802541464567184,0.7187724709510803,0.5513454675674438,-0.03629366680979729,0.0,0.0,0.0,0.0,0.0,0.0,0.0,0.0,0.0,0.0,0.0,0.0,0.0,0.0,0.0,0.0,0.0,0.0,0.0,0.0,0.0,0.0,0.0,0.0,0.0,0.0,0.0,0.0,0.0,0.0,0.0,0.0,0.0,0.0,0.0,0.0,0.0,0.0,0.0,0.0,0.0,0.0,0.0,0.0,0.0,0.0,0.0,0.0,0.0,0.0,0.0,0.0,0.0,0.0,0.0,0.0,0.0,0.0,0.0,0.0,0.0,0.0,0.0
1783345085.588913,0.7149486541748047,0.75455242395401,3.0574693710150314e-07,0.6772461533546448,0.7060932517051697,-0.014949802309274673,0.6607335209846497,0.6169439554214478,-0.01988878846168518,0.677990198135376,0.5351015329360962,-0.02734922058880329,0.7084348201751709,0.4940211772918701,-0.034075889736413956,0.6624704003334045,0.5392089486122131,0.003068105550482869,0.6546537280082703,0.4428950548171997,-0.007575959898531437,0.6537594795227051,0.387746661901474,-0.016725370660424232,0.6556789875030518,0.33875107765197754,-0.02399657666683197,0.6894265413284302,0.5295053720474243,1.408043499395717e-05,0.6787235140800476,0.4268854856491089,-0.012460209429264069,0.6721652150154114,0.3673049211502075,-0.02482438087463379,0.6711893677711487,0.31453630328178406,-0.03357357904314995,0.7166107296943665,0.5397083163261414,-0.006335451267659664,0.7181797623634338,0.4487231373786926,-0.027842916548252106,0.7073400020599365,0.4876558482646942,-0.03741128742694855,0.7021554708480835,0.5325577259063721,-0.03864264488220215,0.7433277368545532,0.5614210367202759,-0.01405664999037981,0.7401823997497559,0.4969885051250458,-0.03158656135201454,0.7279968857765198,0.5165051817893982,-0.036921534687280655,0.7201299667358398,0.5501912832260132,-0.037824831902980804,0.0,0.0,0.0,0.0,0.0,0.0,0.0,0.0,0.0,0.0,0.0,0.0,0.0,0.0,0.0,0.0,0.0,0.0,0.0,0.0,0.0,0.0,0.0,0.0,0.0,0.0,0.0,0.0,0.0,0.0,0.0,0.0,0.0,0.0,0.0,0.0,0.0,0.0,0.0,0.0,0.0,0.0,0.0,0.0,0.0,0.0,0.0,0.0,0.0,0.0,0.0,0.0,0.0,0.0,0.0,0.0,0.0,0.0,0.0,0.0,0.0,0.0,0.0
1783345085.734432,0.7151901721954346,0.7565485239028931,3.103059498243965e-07,0.6775867342948914,0.7059130668640137,-0.014260249212384224,0.6614875197410583,0.6156647205352783,-0.018958522006869316,0.6788445711135864,0.5340978503227234,-0.02624266967177391,0.7088450193405151,0.49189117550849915,-0.032806091010570526,0.6637864112854004,0.5386990308761597,0.0032165104057639837,0.6557809114456177,0.4428824782371521,-0.007492876145988703,0.6547646522521973,0.3873796761035919,-0.01669926568865776,0.6564914584159851,0.33819183707237244,-0.02397216483950615,0.6906673908233643,0.5291359424591064,-8.933013305068016e-05,0.6802424788475037,0.42585650086402893,-0.012256486341357231,0.6736315488815308,0.3662298321723938,-0.02417340688407421,0.6726284623146057,0.31320226192474365,-0.032567694783210754,0.7178578972816467,0.5399329662322998,-0.006636699661612511,0.7183921933174133,0.4495660960674286,-0.02737930603325367,0.7070342302322388,0.4873707890510559,-0.03617086261510849,0.7019469738006592,0.5310789346694946,-0.03700459748506546,0.7445870637893677,0.562579870223999,-0.014567935839295387,0.7417579293251038,0.4980078339576721,-0.03124767355620861,0.7292572855949402,0.5164729952812195,-0.0359981395304203,0.721294105052948,0.5488594174385071,-0.03658294305205345,0.0,0.0,0.0,0.0,0.0,0.0,0.0,0.0,0.0,0.0,0.0,0.0,0.0,0.0,0.0,0.0,0.0,0.0,0.0,0.0,0.0,0.0,0.0,0.0,0.0,0.0,0.0,0.0,0.0,0.0,0.0,0.0,0.0,0.0,0.0,0.0,0.0,0.0,0.0,0.0,0.0,0.0,0.0,0.0,0.0,0.0,0.0,0.0,0.0,0.0,0.0,0.0,0.0,0.0,0.0,0.0,0.0,0.0,0.0,0.0,0.0,0.0,0.0
1783345085.859605,0.7150817513465881,0.7568807005882263,3.04799129935418e-07,0.6777010560035706,0.7053340077400208,-0.014223289676010609,0.6615189909934998,0.6151666045188904,-0.018803894519805908,0.6794803738594055,0.5347945094108582,-0.02596346288919449,0.7089017629623413,0.4918951690196991,-0.03248908743262291,0.6644107699394226,0.5372045636177063,0.0031957554165273905,0.6558322310447693,0.4403536915779114,-0.0076510109938681126,0.654769241809845,0.38400882482528687,-0.016958381980657578,0.6565537452697754,0.33450111746788025,-0.024179628118872643,0.6912306547164917,0.5277999043464661,-0.0001255468523595482,0.6810219883918762,0.42422428727149963,-0.01210238691419363,0.674297571182251,0.3642403483390808,-0.023924004286527634,0.6733459830284119,0.31167957186698914,-0.03231116011738777,0.7180594205856323,0.5386538505554199,-0.006767360959202051,0.7185122966766357,0.4490601122379303,-0.0275113545358181,0.7068789601325989,0.4853827953338623,-0.03694906085729599,0.7018035054206848,0.5285891890525818,-0.03834407404065132,0.7443609833717346,0.5612876415252686,-0.014754517003893852,0.7417812943458557,0.4967702329158783,-0.031530994921922684,0.7287482619285583,0.5165536403656006,-0.03658291697502136,0.7203640937805176,0.5506765246391296,-0.037497226148843765,0.0,0.0,0.0,0.0,0.0,0.0,0.0,0.0,0.0,0.0,0.0,0.0,0.0,0.0,0.0,0.0,0.0,0.0,0.0,0.0,0.0,0.0,0.0,0.0,0.0,0.0,0.0,0.0,0.0,0.0,0.0,0.0,0.0,0.0,0.0,0.0,0.0,0.0,0.0,0.0,0.0,0.0,0.0,0.0,0.0,0.0,0.0,0.0,0.0,0.0,0.0,0.0,0.0,0.0,0.0,0.0,0.0,0.0,0.0,0.0,0.0,0.0,0.0
1783345085.994379,0.7146392464637756,0.7572712898254395,2.9652747457475925e-07,0.6773151159286499,0.704360842704773,-0.014068463817238808,0.6616233587265015,0.6160047650337219,-0.019018907099962234,0.6789211630821228,0.5363086462020874,-0.026724757626652718,0.707807719707489,0.4923783838748932,-0.03378820791840553,0.6649928689002991,0.5378273129463196,0.0031455857679247856,0.6563177704811096,0.4417041540145874,-0.008359994739294052,0.6551638841629028,0.385551780462265,-0.018115973100066185,0.6570570468902588,0.335865318775177,-0.025646816939115524,0.6916642785072327,0.5285652875900269,-0.0005388632998801768,0.6813333630561829,0.4248950183391571,-0.013337913900613785,0.6743186712265015,0.3654637932777405,-0.025635557249188423,0.673372745513916,0.31292369961738586,-0.03434835001826286,0.7183566093444824,0.5396263003349304,-0.007524044252932072,0.7188059687614441,0.4494018256664276,-0.028823764994740486,0.7065035104751587,0.48775047063827515,-0.037719741463661194,0.7010636329650879,0.5317956209182739,-0.03864268958568573,0.7447603344917297,0.5628507733345032,-0.015882570296525955,0.7423813343048096,0.4974196255207062,-0.032839272171258926,0.7289014458656311,0.5170207023620605,-0.03754236549139023,0.7200194001197815,0.5507202744483948,-0.03816217556595802,0.0,0.0,0.0,0.0,0.0,0.0,0.0,0.0,0.0,0.0,0.0,0.0,0.0,0.0,0.0,0.0,0.0,0.0,0.0,0.0,0.0,0.0,0.0,0.0,0.0,0.0,0.0,0.0,0.0,0.0,0.0,0.0,0.0,0.0,0.0,0.0,0.0,0.0,0.0,0.0,0.0,0.0,0.0,0.0,0.0,0.0,0.0,0.0,0.0,0.0,0.0,0.0,0.0,0.0,0.0,0.0,0.0,0.0,0.0,0.0,0.0,0.0,0.0
1783345086.119958,0.714667558670044,0.756951630115509,2.9154668368391867e-07,0.6773278713226318,0.7051941156387329,-0.014249191619455814,0.6614406108856201,0.6158849596977234,-0.018860559910535812,0.6789731979370117,0.5354570746421814,-0.02614664100110531,0.707737922668457,0.49241307377815247,-0.03281330317258835,0.6654648184776306,0.5374751091003418,0.0036851761396974325,0.6564450263977051,0.44103026390075684,-0.007238651625812054,0.655003547668457,0.38502001762390137,-0.01657320186495781,0.656689465045929,0.3359236419200897,-0.02381153777241707,0.6921612024307251,0.5285844206809998,0.00026705797063186765,0.6816743612289429,0.4249439835548401,-0.01211377140134573,0.6746460795402527,0.3650464713573456,-0.024263447150588036,0.6737712025642395,0.31305181980133057,-0.032848846167325974,0.7187239527702332,0.5398608446121216,-0.006531856022775173,0.7187711000442505,0.4500720202922821,-0.027975518256425858,0.7061794400215149,0.48677197098731995,-0.03797940909862518,0.7005858421325684,0.530396044254303,-0.0396278016269207,0.7449678778648376,0.5628029108047485,-0.014625808224081993,0.7419813871383667,0.4979264736175537,-0.0320916622877121,0.7280008792877197,0.5177600979804993,-0.03771410882472992,0.7188920378684998,0.5520732402801514,-0.03897668421268463,0.0,0.0,0.0,0.0,0.0,0.0,0.0,0.0,0.0,0.0,0.0,0.0,0.0,0.0,0.0,0.0,0.0,0.0,0.0,0.0,0.0,0.0,0.0,0.0,0.0,0.0,0.0,0.0,0.0,0.0,0.0,0.0,0.0,0.0,0.0,0.0,0.0,0.0,0.0,0.0,0.0,0.0,0.0,0.0,0.0,0.0,0.0,0.0,0.0,0.0,0.0,0.0,0.0,0.0,0.0,0.0,0.0,0.0,0.0,0.0,0.0,0.0,0.0
1783345086.25804,0.7149185538291931,0.757003664970398,2.8825598974435707e-07,0.6773048043251038,0.7058988213539124,-0.01411826815456152,0.6611086130142212,0.6169075965881348,-0.01884712092578411,0.6784034371376038,0.5364936590194702,-0.026267820969223976,0.707404375076294,0.49325230717658997,-0.03306262195110321,0.665538489818573,0.5384150147438049,0.0031684355344623327,0.6568318009376526,0.4415963292121887,-0.007929036393761635,0.6556281447410583,0.3854491710662842,-0.017363762483000755,0.6574256420135498,0.3359812796115875,-0.024779224768280983,0.6922541260719299,0.5292544364929199,-0.00034232481266371906,0.6816866993904114,0.42553335428237915,-0.012902610003948212,0.6747933030128479,0.3654640316963196,-0.0250454880297184,0.6738678812980652,0.3128676116466522,-0.033747997134923935,0.7188214659690857,0.5403831005096436,-0.007172218523919582,0.718777596950531,0.44896233081817627,-0.0287366583943367,0.7063384652137756,0.48598119616508484,-0.038529932498931885,0.7007110714912415,0.5299765467643738,-0.04011496156454086,0.7451943159103394,0.5634218454360962,-0.015302779152989388,0.7422096729278564,0.4984028935432434,-0.03324182331562042,0.7278916239738464,0.5178027153015137,-0.03914858028292656,0.7182166576385498,0.551986038684845,-0.040597569197416306,0.0,0.0,0.0,0.0,0.0,0.0,0.0,0.0,0.0,0.0,0.0,0.0,0.0,0.0,0.0,0.0,0.0,0.0,0.0,0.0,0.0,0.0,0.0,0.0,0.0,0.0,0.0,0.0,0.0,0.0,0.0,0.0,0.0,0.0,0.0,0.0,0.0,0.0,0.0,0.0,0.0,0.0,0.0,0.0,0.0,0.0,0.0,0.0,0.0,0.0,0.0,0.0,0.0,0.0,0.0,0.0,0.0,0.0,0.0,0.0,0.0,0.0,0.0
1783345086.39711,0.7150834202766418,0.7572183012962341,2.948291921711643e-07,0.6773225665092468,0.7061951756477356,-0.013907946646213531,0.6610411405563354,0.6170244216918945,-0.018621502444148064,0.6782957315444946,0.5362102389335632,-0.026020346209406853,0.7075455188751221,0.49328547716140747,-0.032751791179180145,0.6653956174850464,0.5374602675437927,0.003062502946704626,0.6567346453666687,0.44103580713272095,-0.00803049374371767,0.6555418372154236,0.3853721022605896,-0.017461463809013367,0.6572062969207764,0.3360253870487213,-0.02492009848356247,0.6923680901527405,0.5283316373825073,-0.0006335751386359334,0.6822822690010071,0.4242071509361267,-0.013287469744682312,0.6760640740394592,0.3641705811023712,-0.02546076290309429,0.6755668520927429,0.3110455274581909,-0.034144170582294464,0.7191668152809143,0.5399728417396545,-0.007552320137619972,0.7190609574317932,0.44878846406936646,-0.029043525457382202,0.7067855000495911,0.48754626512527466,-0.03803065046668053,0.7011516690254211,0.5320051908493042,-0.03900449723005295,0.7456540465354919,0.5635942816734314,-0.015775403007864952,0.742190420627594,0.4991244375705719,-0.033600643277168274,0.7281686067581177,0.5192098021507263,-0.038838643580675125,0.718916654586792,0.553111732006073,-0.03970487043261528,0.0,0.0,0.0,0.0,0.0,0.0,0.0,0.0,0.0,0.0,0.0,0.0,0.0,0.0,0.0,0.0,0.0,0.0,0.0,0.0,0.0,0.0,0.0,0.0,0.0,0.0,0.0,0.0,0.0,0.0,0.0,0.0,0.0,0.0,0.0,0.0,0.0,0.0,0.0,0.0,0.0,0.0,0.0,0.0,0.0,0.0,0.0,0.0,0.0,0.0,0.0,0.0,0.0,0.0,0.0,0.0,0.0,0.0,0.0,0.0,0.0,0.0,0.0
1783345086.563206,0.7152497172355652,0.7582708597183228,2.9903125664532126e-07,0.6772218942642212,0.7069075107574463,-0.013916164636611938,0.661020040512085,0.6175181865692139,-0.018836354836821556,0.6779318451881409,0.5366493463516235,-0.026486922055482864,0.7072462439537048,0.4934970736503601,-0.033452413976192474,0.6657837629318237,0.5374981164932251,0.002796506742015481,0.6567721962928772,0.4410845935344696,-0.00880253966897726,0.6556423902511597,0.38495203852653503,-0.018547505140304565,0.6576046347618103,0.3352870047092438,-0.02610405907034874,0.6927539706230164,0.5286176800727844,-0.000882754975464195,0.6824750900268555,0.4243771731853485,-0.013821890577673912,0.6759201884269714,0.36439868807792664,-0.025900814682245255,0.6754685044288635,0.3117775321006775,-0.034407395869493484,0.7194821238517761,0.5405725836753845,-0.007810043171048164,0.7188946008682251,0.4500897526741028,-0.029173363000154495,0.7056670188903809,0.4896227717399597,-0.03749264031648636,0.6996281743049622,0.5346360802650452,-0.03793191909790039,0.7458547949790955,0.5645046830177307,-0.016110409051179886,0.7420767545700073,0.4998640716075897,-0.033462733030319214,0.727715790271759,0.5197405815124512,-0.038159992545843124,0.7183119058609009,0.5532440543174744,-0.038616079837083817,0.0,0.0,0.0,0.0,0.0,0.0,0.0,0.0,0.0,0.0,0.0,0.0,0.0,0.0,0.0,0.0,0.0,0.0,0.0,0.0,0.0,0.0,0.0,0.0,0.0,0.0,0.0,0.0,0.0,0.0,0.0,0.0,0.0,0.0,0.0,0.0,0.0,0.0,0.0,0.0,0.0,0.0,0.0,0.0,0.0,0.0,0.0,0.0,0.0,0.0,0.0,0.0,0.0,0.0,0.0,0.0,0.0,0.0,0.0,0.0,0.0,0.0,0.0
1783345086.6943848,0.7152690291404724,0.7584914565086365,2.956519722374651e-07,0.6774635314941406,0.7075586318969727,-0.01433443371206522,0.6608558893203735,0.6184216141700745,-0.019362395629286766,0.6781082153320312,0.5372307300567627,-0.026971783488988876,0.7084059715270996,0.4939606189727783,-0.03389677777886391,0.6658533811569214,0.5377333760261536,0.002715190639719367,0.6570443511009216,0.44132864475250244,-0.008410058915615082,0.6559078097343445,0.38549304008483887,-0.017853764817118645,0.657791793346405,0.3360249400138855,-0.025267211720347404,0.692783772945404,0.5288664102554321,-0.00069069629535079,0.6826972365379333,0.4246395230293274,-0.012916073203086853,0.676123321056366,0.36503538489341736,-0.024643322452902794,0.6754426956176758,0.312796413898468,-0.03307764232158661,0.7194697260856628,0.5405417680740356,-0.007404854986816645,0.7187917232513428,0.4498671293258667,-0.028333326801657677,0.705735445022583,0.48789939284324646,-0.03717941790819168,0.6999984979629517,0.5320941805839539,-0.03822419047355652,0.7457850575447083,0.5640379786491394,-0.015504632145166397,0.7420719265937805,0.4991703927516937,-0.032647505402565,0.7279108762741089,0.5194548964500427,-0.03768313303589821,0.718899667263031,0.5537548065185547,-0.038580868393182755,0.0,0.0,0.0,0.0,0.0,0.0,0.0,0.0,0.0,0.0,0.0,0.0,0.0,0.0,0.0,0.0,0.0,0.0,0.0,0.0,0.0,0.0,0.0,0.0,0.0,0.0,0.0,0.0,0.0,0.0,0.0,0.0,0.0,0.0,0.0,0.0,0.0,0.0,0.0,0.0,0.0,0.0,0.0,0.0,0.0,0.0,0.0,0.0,0.0,0.0,0.0,0.0,0.0,0.0,0.0,0.0,0.0,0.0,0.0,0.0,0.0,0.0,0.0
1783345086.812819,0.7153882384300232,0.759338915348053,2.990367136135319e-07,0.6773706078529358,0.7089542150497437,-0.013837388716638088,0.6611116528511047,0.620023250579834,-0.019048290327191353,0.6777654886245728,0.5392189025878906,-0.027013015002012253,0.707122802734375,0.49554669857025146,-0.03429361432790756,0.6662875413894653,0.5373123288154602,0.0021457273978739977,0.6572544574737549,0.44088488817214966,-0.00955068040639162,0.6559401154518127,0.3848422169685364,-0.01912575773894787,0.6577751636505127,0.3353255093097687,-0.02647722139954567,0.6932268142700195,0.5289791822433472,-0.0017836923943832517,0.6832507848739624,0.42391467094421387,-0.014799467287957668,0.6764742732048035,0.36437809467315674,-0.026599599048495293,0.6758517622947693,0.31222108006477356,-0.03479466959834099,0.7199497222900391,0.5412384271621704,-0.008877701126039028,0.7189819812774658,0.4509715437889099,-0.030266916379332542,0.7049981355667114,0.49263715744018555,-0.03784989193081856,0.6986979842185974,0.5382006168365479,-0.03768568113446236,0.7462171316146851,0.5653457641601562,-0.017339928075671196,0.7419095635414124,0.5004932880401611,-0.03447427600622177,0.7275549173355103,0.5219781994819641,-0.038392405956983566,0.7185999751091003,0.5562567710876465,-0.038203220814466476,0.0,0.0,0.0,0.0,0.0,0.0,0.0,0.0,0.0,0.0,0.0,0.0,0.0,0.0,0.0,0.0,0.0,0.0,0.0,0.0,0.0,0.0,0.0,0.0,0.0,0.0,0.0,0.0,0.0,0.0,0.0,0.0,0.0,0.0,0.0,0.0,0.0,0.0,0.0,0.0,0.0,0.0,0.0,0.0,0.0,0.0,0.0,0.0,0.0,0.0,0.0,0.0,0.0,0.0,0.0,0.0,0.0,0.0,0.0,0.0,0.0,0.0,0.0
1783345086.963957,0.7156117558479309,0.7598523497581482,2.969072454561683e-07,0.677619218826294,0.7089032530784607,-0.01429618801921606,0.6613317131996155,0.6206176280975342,-0.01984381303191185,0.6780137419700623,0.5407066345214844,-0.028090890496969223,0.7072730660438538,0.4966856837272644,-0.03566253185272217,0.6663820743560791,0.5378953814506531,0.0017152840737253428,0.6572051644325256,0.44195276498794556,-0.010481487959623337,0.6560295820236206,0.3856963515281677,-0.020495468750596046,0.6580743789672852,0.3358069360256195,-0.028105992823839188,0.6934312582015991,0.5295470952987671,-0.002035880694165826,0.6830571889877319,0.4248054623603821,-0.01548148225992918,0.6761724948883057,0.364971399307251,-0.027546703815460205,0.6755219101905823,0.3124431371688843,-0.03591879457235336,0.720258355140686,0.5415831804275513,-0.009023020975291729,0.7196550369262695,0.45149528980255127,-0.03089943714439869,0.7055870890617371,0.49331405758857727,-0.038790084421634674,0.6990567445755005,0.5392573475837708,-0.03873990848660469,0.7466291785240173,0.5654903650283813,-0.01740347035229206,0.742702841758728,0.5010751485824585,-0.03487805649638176,0.7281209230422974,0.5218632221221924,-0.03909885510802269,0.7187275886535645,0.5554642677307129,-0.039100419729948044,0.0,0.0,0.0,0.0,0.0,0.0,0.0,0.0,0.0,0.0,0.0,0.0,0.0,0.0,0.0,0.0,0.0,0.0,0.0,0.0,0.0,0.0,0.0,0.0,0.0,0.0,0.0,0.0,0.0,0.0,0.0,0.0,0.0,0.0,0.0,0.0,0.0,0.0,0.0,0.0,0.0,0.0,0.0,0.0,0.0,0.0,0.0,0.0,0.0,0.0,0.0,0.0,0.0,0.0,0.0,0.0,0.0,0.0,0.0,0.0,0.0,0.0,0.0
1783345087.116163,0.716421902179718,0.7593159675598145,2.7764028232013516e-07,0.6779444813728333,0.7090156674385071,-0.014369519427418709,0.6614479422569275,0.6187219023704529,-0.019211459904909134,0.6784145832061768,0.536341667175293,-0.02685311995446682,0.7080689668655396,0.49262765049934387,-0.03378160670399666,0.6670112609863281,0.539027214050293,0.003694373881444335,0.6557077765464783,0.4432569146156311,-0.0074369823560118675,0.6523820161819458,0.3882126808166504,-0.01655672676861286,0.6524730920791626,0.339305579662323,-0.02378850430250168,0.6939398050308228,0.5296894907951355,-8.868206350598484e-05,0.6824689507484436,0.42472153902053833,-0.013239532709121704,0.674379825592041,0.3655737638473511,-0.025580652058124542,0.6727891564369202,0.3137880563735962,-0.03416082262992859,0.720478892326355,0.5412200093269348,-0.007246061228215694,0.7194125652313232,0.4484822452068329,-0.029836097732186317,0.706520676612854,0.48961448669433594,-0.03904159739613533,0.7013346552848816,0.535345733165741,-0.039749953895807266,0.7466297745704651,0.5641347765922546,-0.0157078318297863,0.7419575452804565,0.49992579221725464,-0.03420829400420189,0.7279037237167358,0.5222446918487549,-0.0395653210580349,0.7195953130722046,0.5573466420173645,-0.04032164439558983,0.0,0.0,0.0,0.0,0.0,0.0,0.0,0.0,0.0,0.0,0.0,0.0,0.0,0.0,0.0,0.0,0.0,0.0,0.0,0.0,0.0,0.0,0.0,0.0,0.0,0.0,0.0,0.0,0.0,0.0,0.0,0.0,0.0,0.0,0.0,0.0,0.0,0.0,0.0,0.0,0.0,0.0,0.0,0.0,0.0,0.0,0.0,0.0,0.0,0.0,0.0,0.0,0.0,0.0,0.0,0.0,0.0,0.0,0.0,0.0,0.0,0.0,0.0
1783345087.254714,0.7166261076927185,0.7601059079170227,2.7806001412500336e-07,0.6779205203056335,0.70997554063797,-0.013911416754126549,0.661637008190155,0.6202503442764282,-0.01893964223563671,0.6782607436180115,0.5381981134414673,-0.02690691128373146,0.7073485851287842,0.4954620897769928,-0.034164201468229294,0.6673312783241272,0.5398568511009216,0.0025692367926239967,0.6560467481613159,0.443789541721344,-0.00912901759147644,0.6529284119606018,0.3883154094219208,-0.018599169328808784,0.6530960202217102,0.33909904956817627,-0.026057563722133636,0.6942406892776489,0.5304555892944336,-0.001483514322899282,0.6825187802314758,0.4256909191608429,-0.015331899747252464,0.6744101047515869,0.3660491108894348,-0.027861781418323517,0.6726359724998474,0.3137832581996918,-0.036550067365169525,0.720626711845398,0.5419233441352844,-0.008738758973777294,0.719400942325592,0.4501456320285797,-0.031212469562888145,0.7063654661178589,0.4928441345691681,-0.039529308676719666,0.7007449269294739,0.5400488972663879,-0.0396110899746418,0.7466714382171631,0.5650288462638855,-0.017351869493722916,0.742263913154602,0.5007216930389404,-0.03553077206015587,0.7276417016983032,0.5216284394264221,-0.04045776650309563,0.7181223034858704,0.5562601089477539,-0.04087294265627861,0.0,0.0,0.0,0.0,0.0,0.0,0.0,0.0,0.0,0.0,0.0,0.0,0.0,0.0,0.0,0.0,0.0,0.0,0.0,0.0,0.0,0.0,0.0,0.0,0.0,0.0,0.0,0.0,0.0,0.0,0.0,0.0,0.0,0.0,0.0,0.0,0.0,0.0,0.0,0.0,0.0,0.0,0.0,0.0,0.0,0.0,0.0,0.0,0.0,0.0,0.0,0.0,0.0,0.0,0.0,0.0,0.0,0.0,0.0,0.0,0.0,0.0,0.0
1783345087.411307,0.7161582708358765,0.758313000202179,2.8392503281793324e-07,0.6777845025062561,0.7072678804397583,-0.014047815464437008,0.6613708734512329,0.6183062195777893,-0.01911957934498787,0.67826908826828,0.5365245938301086,-0.02702648937702179,0.7076168060302734,0.49271392822265625,-0.03422892466187477,0.6666876077651978,0.5387773513793945,0.003052250947803259,0.6557433605194092,0.4431571662425995,-0.00864396058022976,0.6527738571166992,0.3876987099647522,-0.018145183101296425,0.6529797315597534,0.338436096906662,-0.025504447519779205,0.6937780976295471,0.5294045209884644,-0.0008050178876146674,0.682549238204956,0.4245462119579315,-0.014352009631693363,0.674653172492981,0.3648253381252289,-0.026617109775543213,0.6728990077972412,0.3125395178794861,-0.0350165031850338,0.7203040719032288,0.5407067537307739,-0.007936070673167706,0.7191994786262512,0.4491989314556122,-0.030545925721526146,0.7062546610832214,0.4910382628440857,-0.03914804756641388,0.700713038444519,0.537333071231842,-0.03929765149950981,0.7463417053222656,0.5636355876922607,-0.016368892043828964,0.7416227459907532,0.5001035332679749,-0.03477674350142479,0.7270835638046265,0.522371232509613,-0.039751190692186356,0.7179295420646667,0.5575374960899353,-0.040090274065732956,0.0,0.0,0.0,0.0,0.0,0.0,0.0,0.0,0.0,0.0,0.0,0.0,0.0,0.0,0.0,0.0,0.0,0.0,0.0,0.0,0.0,0.0,0.0,0.0,0.0,0.0,0.0,0.0,0.0,0.0,0.0,0.0,0.0,0.0,0.0,0.0,0.0,0.0,0.0,0.0,0.0,0.0,0.0,0.0,0.0,0.0,0.0,0.0,0.0,0.0,0.0,0.0,0.0,0.0,0.0,0.0,0.0,0.0,0.0,0.0,0.0,0.0,0.0
