ciel274/research-hand-sign/data/raw/hiragana/sign_language_mu_1.csv
timestamp,R_joint_0_x,R_joint_0_y,R_joint_0_z,R_joint_1_x,R_joint_1_y,R_joint_1_z,R_joint_2_x,R_joint_2_y,R_joint_2_z,R_joint_3_x,R_joint_3_y,R_joint_3_z,R_joint_4_x,R_joint_4_y,R_joint_4_z,R_joint_5_x,R_joint_5_y,R_joint_5_z,R_joint_6_x,R_joint_6_y,R_joint_6_z,R_joint_7_x,R_joint_7_y,R_joint_7_z,R_joint_8_x,R_joint_8_y,R_joint_8_z,R_joint_9_x,R_joint_9_y,R_joint_9_z,R_joint_10_x,R_joint_10_y,R_joint_10_z,R_joint_11_x,R_joint_11_y,R_joint_11_z,R_joint_12_x,R_joint_12_y,R_joint_12_z,R_joint_13_x,R_joint_13_y,R_joint_13_z,R_joint_14_x,R_joint_14_y,R_joint_14_z,R_joint_15_x,R_joint_15_y,R_joint_15_z,R_joint_16_x,R_joint_16_y,R_joint_16_z,R_joint_17_x,R_joint_17_y,R_joint_17_z,R_joint_18_x,R_joint_18_y,R_joint_18_z,R_joint_19_x,R_joint_19_y,R_joint_19_z,R_joint_20_x,R_joint_20_y,R_joint_20_z,L_joint_0_x,L_joint_0_y,L_joint_0_z,L_joint_1_x,L_joint_1_y,L_joint_1_z,L_joint_2_x,L_joint_2_y,L_joint_2_z,L_joint_3_x,L_joint_3_y,L_joint_3_z,L_joint_4_x,L_joint_4_y,L_joint_4_z,L_joint_5_x,L_joint_5_y,L_joint_5_z,L_joint_6_x,L_joint_6_y,L_joint_6_z,L_joint_7_x,L_joint_7_y,L_joint_7_z,L_joint_8_x,L_joint_8_y,L_joint_8_z,L_joint_9_x,L_joint_9_y,L_joint_9_z,L_joint_10_x,L_joint_10_y,L_joint_10_z,L_joint_11_x,L_joint_11_y,L_joint_11_z,L_joint_12_x,L_joint_12_y,L_joint_12_z,L_joint_13_x,L_joint_13_y,L_joint_13_z,L_joint_14_x,L_joint_14_y,L_joint_14_z,L_joint_15_x,L_joint_15_y,L_joint_15_z,L_joint_16_x,L_joint_16_y,L_joint_16_z,L_joint_17_x,L_joint_17_y,L_joint_17_z,L_joint_18_x,L_joint_18_y,L_joint_18_z,L_joint_19_x,L_joint_19_y,L_joint_19_z,L_joint_20_x,L_joint_20_y,L_joint_20_z
1784046823.397129,0.0,0.0,0.0,0.0,0.0,0.0,0.0,0.0,0.0,0.0,0.0,0.0,0.0,0.0,0.0,0.0,0.0,0.0,0.0,0.0,0.0,0.0,0.0,0.0,0.0,0.0,0.0,0.0,0.0,0.0,0.0,0.0,0.0,0.0,0.0,0.0,0.0,0.0,0.0,0.0,0.0,0.0,0.0,0.0,0.0,0.0,0.0,0.0,0.0,0.0,0.0,0.0,0.0,0.0,0.0,0.0,0.0,0.0,0.0,0.0,0.0,0.0,0.0,0.0,0.0,0.0,0.0,0.0,0.0,0.0,0.0,0.0,0.0,0.0,0.0,0.0,0.0,0.0,0.0,0.0,0.0,0.0,0.0,0.0,0.0,0.0,0.0,0.0,0.0,0.0,0.0,0.0,0.0,0.0,0.0,0.0,0.0,0.0,0.0,0.0,0.0,0.0,0.0,0.0,0.0,0.0,0.0,0.0,0.0,0.0,0.0,0.0,0.0,0.0,0.0,0.0,0.0,0.0,0.0,0.0,0.0,0.0,0.0,0.0,0.0,0.0
1784046823.5001442,0.0,0.0,0.0,0.0,0.0,0.0,0.0,0.0,0.0,0.0,0.0,0.0,0.0,0.0,0.0,0.0,0.0,0.0,0.0,0.0,0.0,0.0,0.0,0.0,0.0,0.0,0.0,0.0,0.0,0.0,0.0,0.0,0.0,0.0,0.0,0.0,0.0,0.0,0.0,0.0,0.0,0.0,0.0,0.0,0.0,0.0,0.0,0.0,0.0,0.0,0.0,0.0,0.0,0.0,0.0,0.0,0.0,0.0,0.0,0.0,0.0,0.0,0.0,0.0,0.0,0.0,0.0,0.0,0.0,0.0,0.0,0.0,0.0,0.0,0.0,0.0,0.0,0.0,0.0,0.0,0.0,0.0,0.0,0.0,0.0,0.0,0.0,0.0,0.0,0.0,0.0,0.0,0.0,0.0,0.0,0.0,0.0,0.0,0.0,0.0,0.0,0.0,0.0,0.0,0.0,0.0,0.0,0.0,0.0,0.0,0.0,0.0,0.0,0.0,0.0,0.0,0.0,0.0,0.0,0.0,0.0,0.0,0.0,0.0,0.0,0.0
1784046823.5982459,0.0,0.0,0.0,0.0,0.0,0.0,0.0,0.0,0.0,0.0,0.0,0.0,0.0,0.0,0.0,0.0,0.0,0.0,0.0,0.0,0.0,0.0,0.0,0.0,0.0,0.0,0.0,0.0,0.0,0.0,0.0,0.0,0.0,0.0,0.0,0.0,0.0,0.0,0.0,0.0,0.0,0.0,0.0,0.0,0.0,0.0,0.0,0.0,0.0,0.0,0.0,0.0,0.0,0.0,0.0,0.0,0.0,0.0,0.0,0.0,0.0,0.0,0.0,0.0,0.0,0.0,0.0,0.0,0.0,0.0,0.0,0.0,0.0,0.0,0.0,0.0,0.0,0.0,0.0,0.0,0.0,0.0,0.0,0.0,0.0,0.0,0.0,0.0,0.0,0.0,0.0,0.0,0.0,0.0,0.0,0.0,0.0,0.0,0.0,0.0,0.0,0.0,0.0,0.0,0.0,0.0,0.0,0.0,0.0,0.0,0.0,0.0,0.0,0.0,0.0,0.0,0.0,0.0,0.0,0.0,0.0,0.0,0.0,0.0,0.0,0.0
1784046823.730919,0.7849141955375671,0.9933397769927979,2.7241370048614044e-07,0.7805886268615723,0.9107251167297363,-0.04590863734483719,0.7563269138336182,0.8317084908485413,-0.07532545924186707,0.7366406917572021,0.7534578442573547,-0.09618664532899857,0.7242608666419983,0.6849055290222168,-0.11829805374145508,0.6880410313606262,0.9104275107383728,-0.08198177814483643,0.6162047386169434,0.909572958946228,-0.11006704717874527,0.568618893623352,0.9112730026245117,-0.1265876442193985,0.5316630601882935,0.9148327112197876,-0.13658884167671204,0.6827734708786011,0.976412832736969,-0.06560808420181274,0.6277042031288147,0.9930075407028198,-0.09227005392313004,0.6330376863479614,0.9927696585655212,-0.09792251884937286,0.6488854289054871,0.9993700385093689,-0.09879029542207718,0.6861838102340698,1.029746174812317,-0.05002790316939354,0.6398786902427673,1.0442008972167969,-0.0742696151137352,0.6500101685523987,1.0481690168380737,-0.07399061322212219,0.6651531457901001,1.0549249649047852,-0.06901823729276657,0.6906254887580872,1.0680371522903442,-0.03658830747008324,0.6524660587310791,1.0840532779693604,-0.050419386476278305,0.6601117849349976,1.0889838933944702,-0.04683121666312218,0.673583984375,1.0959275960922241,-0.041572291404008865,0.0,0.0,0.0,0.0,0.0,0.0,0.0,0.0,0.0,0.0,0.0,0.0,0.0,0.0,0.0,0.0,0.0,0.0,0.0,0.0,0.0,0.0,0.0,0.0,0.0,0.0,0.0,0.0,0.0,0.0,0.0,0.0,0.0,0.0,0.0,0.0,0.0,0.0,0.0,0.0,0.0,0.0,0.0,0.0,0.0,0.0,0.0,0.0,0.0,0.0,0.0,0.0,0.0,0.0,0.0,0.0,0.0,0.0,0.0,0.0,0.0,0.0,0.0
1784046823.864804,0.8118250370025635,0.9369314908981323,2.8868871027043497e-07,0.7957608103752136,0.8131363391876221,-0.01335529051721096,0.7543932795524597,0.7283247709274292,-0.02728162705898285,0.724299430847168,0.6646626591682434,-0.038016099482774734,0.7040532231330872,0.6310301423072815,-0.05020786076784134,0.7085433602333069,0.7479457855224609,-0.05230213701725006,0.6155332326889038,0.7207789421081543,-0.06878618150949478,0.5591443777084351,0.7088022232055664,-0.07619324326515198,0.5145326256752014,0.7083308100700378,-0.08153184503316879,0.7015163898468018,0.8363438844680786,-0.052716903388500214,0.6125094890594482,0.8160628080368042,-0.07111099362373352,0.6374531984329224,0.8078700304031372,-0.0680517852306366,0.6730318069458008,0.8094496130943298,-0.06271721422672272,0.7007349133491516,0.9193902611732483,-0.05089183151721954,0.6226829290390015,0.8883796334266663,-0.06054888293147087,0.6473757028579712,0.8820978403091431,-0.044415246695280075,0.6769787669181824,0.8879045844078064,-0.032331619411706924,0.7037040591239929,0.9892609715461731,-0.049831464886665344,0.6377053260803223,0.9500941634178162,-0.0539071299135685,0.6608671545982361,0.9394888281822205,-0.03878625109791756,0.6869205832481384,0.9455522894859314,-0.026882026344537735,0.0,0.0,0.0,0.0,0.0,0.0,0.0,0.0,0.0,0.0,0.0,0.0,0.0,0.0,0.0,0.0,0.0,0.0,0.0,0.0,0.0,0.0,0.0,0.0,0.0,0.0,0.0,0.0,0.0,0.0,0.0,0.0,0.0,0.0,0.0,0.0,0.0,0.0,0.0,0.0,0.0,0.0,0.0,0.0,0.0,0.0,0.0,0.0,0.0,0.0,0.0,0.0,0.0,0.0,0.0,0.0,0.0,0.0,0.0,0.0,0.0,0.0,0.0
1784046823.997015,0.8116534352302551,0.8236736059188843,1.1265037613839013e-07,0.7883714437484741,0.6957707405090332,0.006887156516313553,0.7543155550956726,0.5969914197921753,0.0015643222723156214,0.7365309596061707,0.4962993860244751,-0.0034478448797017336,0.7360364198684692,0.4197078347206116,-0.010014703497290611,0.6890414357185364,0.6245113611221313,-0.023312848061323166,0.6021186113357544,0.607484757900238,-0.03763144463300705,0.5488475561141968,0.6012847423553467,-0.050509389489889145,0.5069862604141235,0.6026654243469238,-0.0591266006231308,0.6792305111885071,0.7039946913719177,-0.02651395834982395,0.6032108664512634,0.7089054584503174,-0.03061516024172306,0.6340880990028381,0.7111817598342896,-0.021929612383246422,0.6721280217170715,0.7093505263328552,-0.016052981838583946,0.6785179376602173,0.7861089110374451,-0.02753472328186035,0.6167987585067749,0.7727062702178955,-0.02978733368217945,0.6441787481307983,0.7755003571510315,-0.015622601844370365,0.677279531955719,0.7790963649749756,-0.006131707690656185,0.6812821626663208,0.8555643558502197,-0.027169939130544662,0.6338303685188293,0.836201012134552,-0.024169832468032837,0.6602401733398438,0.837007462978363,-0.007777904160320759,0.6861936450004578,0.8380585312843323,0.004307646304368973,0.0,0.0,0.0,0.0,0.0,0.0,0.0,0.0,0.0,0.0,0.0,0.0,0.0,0.0,0.0,0.0,0.0,0.0,0.0,0.0,0.0,0.0,0.0,0.0,0.0,0.0,0.0,0.0,0.0,0.0,0.0,0.0,0.0,0.0,0.0,0.0,0.0,0.0,0.0,0.0,0.0,0.0,0.0,0.0,0.0,0.0,0.0,0.0,0.0,0.0,0.0,0.0,0.0,0.0,0.0,0.0,0.0,0.0,0.0,0.0,0.0,0.0,0.0
1784046824.1299222,0.7974399328231812,0.7532954812049866,1.2777967128840828e-07,0.7767850756645203,0.6333019733428955,-0.0014366310788318515,0.7403115630149841,0.5250146985054016,-0.012284211814403534,0.7265549302101135,0.4227820932865143,-0.023877505213022232,0.7352115511894226,0.3459523320198059,-0.03829734027385712,0.6699802279472351,0.5628927946090698,-0.026936320587992668,0.5860456228256226,0.551372230052948,-0.04002739489078522,0.5362890958786011,0.5471909046173096,-0.049014199525117874,0.4957635998725891,0.5456600785255432,-0.05597727373242378,0.660852313041687,0.6337125897407532,-0.030840223655104637,0.6038121581077576,0.6626299023628235,-0.04354855790734291,0.633294403553009,0.6705977916717529,-0.038874734193086624,0.6660046577453613,0.6657384037971497,-0.034523818641901016,0.6611418128013611,0.7108445763587952,-0.03306737542152405,0.610532820224762,0.7241639494895935,-0.04317070543766022,0.6380721926689148,0.728521466255188,-0.030399542301893234,0.6688933968544006,0.726646900177002,-0.02038438804447651,0.6651933789253235,0.7808050513267517,-0.035046014934778214,0.6285445690155029,0.7789779901504517,-0.039367832243442535,0.6541824340820312,0.7805178761482239,-0.026335669681429863,0.6795964241027832,0.7804989218711853,-0.015064997598528862,0.0,0.0,0.0,0.0,0.0,0.0,0.0,0.0,0.0,0.0,0.0,0.0,0.0,0.0,0.0,0.0,0.0,0.0,0.0,0.0,0.0,0.0,0.0,0.0,0.0,0.0,0.0,0.0,0.0,0.0,0.0,0.0,0.0,0.0,0.0,0.0,0.0,0.0,0.0,0.0,0.0,0.0,0.0,0.0,0.0,0.0,0.0,0.0,0.0,0.0,0.0,0.0,0.0,0.0,0.0,0.0,0.0,0.0,0.0,0.0,0.0,0.0,0.0
1784046824.263733,0.7884811162948608,0.7386152148246765,-1.5461780744630005e-09,0.7725104689598083,0.6220057010650635,0.004302662331610918,0.738240122795105,0.513721764087677,-0.004109561443328857,0.7215180397033691,0.40890854597091675,-0.012841496616601944,0.7319758534431458,0.32901230454444885,-0.024313412606716156,0.6670640707015991,0.5485551357269287,-0.029373180121183395,0.5808547139167786,0.5421940088272095,-0.046278178691864014,0.528590738773346,0.5390465259552002,-0.061052221804857254,0.48752260208129883,0.5375280380249023,-0.07155825942754745,0.6578591465950012,0.6199463605880737,-0.032605838030576706,0.5995872616767883,0.6517229080200195,-0.04378077760338783,0.6316907405853271,0.6639171242713928,-0.03775516897439957,0.667465090751648,0.6613807082176208,-0.03326316922903061,0.6565549373626709,0.6980641484260559,-0.03341937065124512,0.6078137159347534,0.7120545506477356,-0.04300404712557793,0.6352035999298096,0.720603883266449,-0.030819114297628403,0.6691150069236755,0.718254029750824,-0.021596034988760948,0.6577395796775818,0.7662506103515625,-0.03260807693004608,0.6217344403266907,0.7624208331108093,-0.03416680172085762,0.649133026599884,0.7713701725006104,-0.019136913120746613,0.6766664981842041,0.772477388381958,-0.007333355490118265,0.0,0.0,0.0,0.0,0.0,0.0,0.0,0.0,0.0,0.0,0.0,0.0,0.0,0.0,0.0,0.0,0.0,0.0,0.0,0.0,0.0,0.0,0.0,0.0,0.0,0.0,0.0,0.0,0.0,0.0,0.0,0.0,0.0,0.0,0.0,0.0,0.0,0.0,0.0,0.0,0.0,0.0,0.0,0.0,0.0,0.0,0.0,0.0,0.0,0.0,0.0,0.0,0.0,0.0,0.0,0.0,0.0,0.0,0.0,0.0,0.0,0.0,0.0
1784046824.3979762,0.7827777862548828,0.7358489036560059,-7.909335408839979e-08,0.7711379528045654,0.6212065815925598,0.017208365723490715,0.7386325597763062,0.5174326300621033,0.014957900159060955,0.7195413708686829,0.41355055570602417,0.010872647166252136,0.7281412482261658,0.3337770700454712,0.004078428260982037,0.6633251905441284,0.5478394031524658,-0.0131814731284976,0.5785748362541199,0.5425204634666443,-0.024860061705112457,0.5274994373321533,0.543791651725769,-0.03915582224726677,0.48840638995170593,0.5462707281112671,-0.04961693659424782,0.6543391346931458,0.6193458437919617,-0.01779475435614586,0.6009824872016907,0.6525560617446899,-0.01857435703277588,0.6333197951316833,0.6642594337463379,-0.011373257264494896,0.6677472591400146,0.6617887616157532,-0.00833864975720644,0.6526162624359131,0.6994819641113281,-0.018973851576447487,0.6089030504226685,0.7139049172401428,-0.018679294735193253,0.6372367143630981,0.7238363027572632,-0.00871263351291418,0.672448456287384,0.7216320037841797,-0.0037437931168824434,0.6516317129135132,0.7674694061279297,-0.01718946360051632,0.6239150762557983,0.7657433748245239,-0.011084598489105701,0.6540288925170898,0.7747079133987427,0.003087678225710988,0.681599497795105,0.7722099423408508,0.012615461833775043,0.0,0.0,0.0,0.0,0.0,0.0,0.0,0.0,0.0,0.0,0.0,0.0,0.0,0.0,0.0,0.0,0.0,0.0,0.0,0.0,0.0,0.0,0.0,0.0,0.0,0.0,0.0,0.0,0.0,0.0,0.0,0.0,0.0,0.0,0.0,0.0,0.0,0.0,0.0,0.0,0.0,0.0,0.0,0.0,0.0,0.0,0.0,0.0,0.0,0.0,0.0,0.0,0.0,0.0,0.0,0.0,0.0,0.0,0.0,0.0,0.0,0.0,0.0
1784046824.540788,0.7815166711807251,0.7340173721313477,-3.577548568500788e-08,0.7697580456733704,0.6198245286941528,0.0134260980412364,0.735058069229126,0.5152925848960876,0.008633780293166637,0.7165046334266663,0.4101253151893616,0.002393256174400449,0.7268745303153992,0.33042287826538086,-0.006582174450159073,0.6607006788253784,0.5478039383888245,-0.017706027254462242,0.5767312049865723,0.5423919558525085,-0.030543383210897446,0.5257796049118042,0.5426890254020691,-0.04531567916274071,0.4868868291378021,0.5445020794868469,-0.056120872497558594,0.6519559025764465,0.6194495558738708,-0.021612634882330894,0.599639356136322,0.6533661484718323,-0.023746058344841003,0.6313108801841736,0.6642603874206543,-0.016491735354065895,0.6660863161087036,0.6613309979438782,-0.013136040419340134,0.6510882377624512,0.6996138691902161,-0.022420734167099,0.6084268093109131,0.712887167930603,-0.02372654341161251,0.6357840299606323,0.7218044400215149,-0.014567711390554905,0.6708695292472839,0.7196108102798462,-0.009776818566024303,0.6508601307868958,0.76851487159729,-0.0205532256513834,0.6239966154098511,0.7632237076759338,-0.015862487256526947,0.6539624333381653,0.7715734243392944,-0.0024380108807235956,0.6819413900375366,0.7700471878051758,0.006771079730242491,0.0,0.0,0.0,0.0,0.0,0.0,0.0,0.0,0.0,0.0,0.0,0.0,0.0,0.0,0.0,0.0,0.0,0.0,0.0,0.0,0.0,0.0,0.0,0.0,0.0,0.0,0.0,0.0,0.0,0.0,0.0,0.0,0.0,0.0,0.0,0.0,0.0,0.0,0.0,0.0,0.0,0.0,0.0,0.0,0.0,0.0,0.0,0.0,0.0,0.0,0.0,0.0,0.0,0.0,0.0,0.0,0.0,0.0,0.0,0.0,0.0,0.0,0.0
1784046824.70884,0.7771623134613037,0.7257120013237,-1.4842734152864523e-08,0.7638020515441895,0.6115790009498596,0.010042378678917885,0.7318114042282104,0.5081976652145386,0.004381014034152031,0.715084969997406,0.4035504460334778,-0.0023849247954785824,0.7249969840049744,0.32521456480026245,-0.01153873372823,0.6572098135948181,0.5428144335746765,-0.01992529071867466,0.5734221339225769,0.5367335081100464,-0.034571439027786255,0.5214396715164185,0.5357378721237183,-0.0499720573425293,0.48189598321914673,0.5363481640815735,-0.06088901683688164,0.6487026214599609,0.6163032054901123,-0.023125838488340378,0.596540629863739,0.647836446762085,-0.028849659487605095,0.6273170113563538,0.6593769788742065,-0.022998632863163948,0.6622133851051331,0.6575849056243896,-0.01972866989672184,0.6481300592422485,0.6954577565193176,-0.023604385554790497,0.6059550642967224,0.7064903974533081,-0.02767045609652996,0.6323589086532593,0.7153394222259521,-0.018202632665634155,0.6666416525840759,0.7140370607376099,-0.01232814509421587,0.6485450267791748,0.7627980709075928,-0.021879928186535835,0.6218914985656738,0.7576203942298889,-0.01908186823129654,0.6505449414253235,0.7658675312995911,-0.005631237290799618,0.6779929399490356,0.7643289566040039,0.004196896683424711,0.0,0.0,0.0,0.0,0.0,0.0,0.0,0.0,0.0,0.0,0.0,0.0,0.0,0.0,0.0,0.0,0.0,0.0,0.0,0.0,0.0,0.0,0.0,0.0,0.0,0.0,0.0,0.0,0.0,0.0,0.0,0.0,0.0,0.0,0.0,0.0,0.0,0.0,0.0,0.0,0.0,0.0,0.0,0.0,0.0,0.0,0.0,0.0,0.0,0.0,0.0,0.0,0.0,0.0,0.0,0.0,0.0,0.0,0.0,0.0,0.0,0.0,0.0
1784046824.9157078,0.7769513726234436,0.726993978023529,3.6338153819315266e-08,0.7592282891273499,0.6110886335372925,0.008293517865240574,0.7250085473060608,0.5100076198577881,0.002114330418407917,0.708618700504303,0.40664952993392944,-0.005218289792537689,0.7160625457763672,0.32786738872528076,-0.01518272701650858,0.6532201170921326,0.5468724966049194,-0.019004592671990395,0.5691654682159424,0.5421226620674133,-0.02793300338089466,0.5193594098091125,0.5435385704040527,-0.03684878721833229,0.48114559054374695,0.5456503629684448,-0.04351513832807541,0.6425114274024963,0.6178377270698547,-0.021823439747095108,0.5965743660926819,0.6536902785301208,-0.022201672196388245,0.624927818775177,0.6629601716995239,-0.013326643034815788,0.6567181348800659,0.6576403975486755,-0.008805451914668083,0.6420952081680298,0.6967719793319702,-0.021990090608596802,0.607294499874115,0.7120097279548645,-0.021278131753206253,0.6318003535270691,0.7189514636993408,-0.01073005236685276,0.6620125770568848,0.7169287204742432,-0.005287450738251209,0.6435220241546631,0.7656245231628418,-0.02048042044043541,0.621527373790741,0.7606229782104492,-0.014952292665839195,0.6485451459884644,0.7662149667739868,-0.0013971163425594568,0.6739622354507446,0.765296995639801,0.008097550831735134,0.0,0.0,0.0,0.0,0.0,0.0,0.0,0.0,0.0,0.0,0.0,0.0,0.0,0.0,0.0,0.0,0.0,0.0,0.0,0.0,0.0,0.0,0.0,0.0,0.0,0.0,0.0,0.0,0.0,0.0,0.0,0.0,0.0,0.0,0.0,0.0,0.0,0.0,0.0,0.0,0.0,0.0,0.0,0.0,0.0,0.0,0.0,0.0,0.0,0.0,0.0,0.0,0.0,0.0,0.0,0.0,0.0,0.0,0.0,0.0,0.0,0.0,0.0
1784046825.1290162,0.7766348719596863,0.7230085134506226,8.929790240586044e-09,0.7621103525161743,0.6083120107650757,0.003902875119820237,0.7273815870285034,0.5074820518493652,-0.004325817339122295,0.709129273891449,0.40385815501213074,-0.013315118849277496,0.7155808210372925,0.32465606927871704,-0.024971971288323402,0.653337299823761,0.5461245179176331,-0.024910220876336098,0.5697318911552429,0.5393784642219543,-0.038477350026369095,0.518330991268158,0.5385617017745972,-0.050820667296648026,0.47928279638290405,0.5404173135757446,-0.0598459392786026,0.6429970860481262,0.6159393191337585,-0.027134068310260773,0.595888614654541,0.6521831750869751,-0.03295304998755455,0.6249858140945435,0.6635897159576416,-0.025160808116197586,0.6572604179382324,0.6600476503372192,-0.020742123946547508,0.6434043049812317,0.6936901807785034,-0.02729978784918785,0.6061285138130188,0.7097407579421997,-0.03300917148590088,0.6313578486442566,0.7173764705657959,-0.021889178082346916,0.6626740097999573,0.7157769799232483,-0.014753676950931549,0.6464453935623169,0.7621867656707764,-0.0259987972676754,0.6208455562591553,0.7591617107391357,-0.02570018172264099,0.6482706069946289,0.7651252150535583,-0.012125123292207718,0.6746455430984497,0.7646474838256836,-0.0018311453750357032,0.0,0.0,0.0,0.0,0.0,0.0,0.0,0.0,0.0,0.0,0.0,0.0,0.0,0.0,0.0,0.0,0.0,0.0,0.0,0.0,0.0,0.0,0.0,0.0,0.0,0.0,0.0,0.0,0.0,0.0,0.0,0.0,0.0,0.0,0.0,0.0,0.0,0.0,0.0,0.0,0.0,0.0,0.0,0.0,0.0,0.0,0.0,0.0,0.0,0.0,0.0,0.0,0.0,0.0,0.0,0.0,0.0,0.0,0.0,0.0,0.0,0.0,0.0
1784046825.364498,0.7753922939300537,0.721185564994812,7.541966162705194e-09,0.7616491317749023,0.6060065627098083,0.005167112685739994,0.7269604802131653,0.5042387843132019,-0.0023293516132980585,0.7085484266281128,0.4011097550392151,-0.010706962086260319,0.7151410579681396,0.3237171471118927,-0.021737685427069664,0.6524409055709839,0.5439381003379822,-0.02382008358836174,0.5689367651939392,0.5392764806747437,-0.036528728902339935,0.5179966688156128,0.5397001504898071,-0.048218779265880585,0.47979921102523804,0.5423449277877808,-0.05684330314397812,0.642240047454834,0.6148160099983215,-0.02622104622423649,0.5964022874832153,0.6517873406410217,-0.03101477213203907,0.6254741549491882,0.6622523665428162,-0.023052403703331947,0.6580811142921448,0.6584433317184448,-0.018658442422747612,0.6428442001342773,0.6929805874824524,-0.02644333243370056,0.6077374219894409,0.7093961238861084,-0.03076079674065113,0.6328003406524658,0.7166126370429993,-0.020258890464901924,0.6641827821731567,0.7151395082473755,-0.013922267593443394,0.6454734206199646,0.7619856595993042,-0.02509271539747715,0.6223876476287842,0.7598244547843933,-0.023795006796717644,0.6499046087265015,0.7661169171333313,-0.010926846414804459,0.6756723523139954,0.7654464244842529,-0.0014100922271609306,0.0,0.0,0.0,0.0,0.0,0.0,0.0,0.0,0.0,0.0,0.0,0.0,0.0,0.0,0.0,0.0,0.0,0.0,0.0,0.0,0.0,0.0,0.0,0.0,0.0,0.0,0.0,0.0,0.0,0.0,0.0,0.0,0.0,0.0,0.0,0.0,0.0,0.0,0.0,0.0,0.0,0.0,0.0,0.0,0.0,0.0,0.0,0.0,0.0,0.0,0.0,0.0,0.0,0.0,0.0,0.0,0.0,0.0,0.0,0.0,0.0,0.0,0.0
1784046825.569401,0.7748653292655945,0.7201988101005554,1.6489053678014898e-08,0.761033296585083,0.6067076921463013,0.005600655451416969,0.7266292572021484,0.504717230796814,-0.0019160849042236805,0.7080450654029846,0.4017986059188843,-0.0104511808604002,0.7139060497283936,0.3227560222148895,-0.021542873233556747,0.6517953872680664,0.5434052348136902,-0.022501468658447266,0.5676589608192444,0.5393866896629333,-0.0345410518348217,0.5169973969459534,0.5404438972473145,-0.04548819735646248,0.4791737496852875,0.5426005125045776,-0.05336471647024155,0.6412724256515503,0.6144000291824341,-0.0248540248721838,0.5958770513534546,0.6520726084709167,-0.028990939259529114,0.6249184012413025,0.6627189517021179,-0.020862707868218422,0.6575385928153992,0.6581631302833557,-0.016178803518414497,0.6416829824447632,0.6926960945129395,-0.024998880922794342,0.6072900295257568,0.7099292874336243,-0.028626371175050735,0.6323389410972595,0.7177543640136719,-0.018514100462198257,0.6635876297950745,0.7156017422676086,-0.012378955259919167,0.6438774466514587,0.7620037198066711,-0.023517869412899017,0.6221100091934204,0.7601779103279114,-0.021035024896264076,0.6498159766197205,0.7663153409957886,-0.00799094419926405,0.6754154562950134,0.765023946762085,0.0016449486138299108,0.0,0.0,0.0,0.0,0.0,0.0,0.0,0.0,0.0,0.0,0.0,0.0,0.0,0.0,0.0,0.0,0.0,0.0,0.0,0.0,0.0,0.0,0.0,0.0,0.0,0.0,0.0,0.0,0.0,0.0,0.0,0.0,0.0,0.0,0.0,0.0,0.0,0.0,0.0,0.0,0.0,0.0,0.0,0.0,0.0,0.0,0.0,0.0,0.0,0.0,0.0,0.0,0.0,0.0,0.0,0.0,0.0,0.0,0.0,0.0,0.0,0.0,0.0
1784046825.758155,0.7758617401123047,0.7220439314842224,2.222430417475607e-08,0.7614132761955261,0.6084259748458862,0.005082413554191589,0.7259332537651062,0.5054312944412231,-0.003006418701261282,0.7079435586929321,0.40098831057548523,-0.012049062177538872,0.7146081328392029,0.32132986187934875,-0.02373824082314968,0.652881383895874,0.5443888306617737,-0.022839391604065895,0.5684977769851685,0.5405111312866211,-0.03526214510202408,0.5177627205848694,0.5414111614227295,-0.047058477997779846,0.4791887402534485,0.5433986186981201,-0.05583764985203743,0.6433597207069397,0.6130675673484802,-0.02522347681224346,0.5966833829879761,0.6558074951171875,-0.02953755110502243,0.626442551612854,0.6674114465713501,-0.021724553778767586,0.6590791940689087,0.6607692241668701,-0.017334047704935074,0.6437968015670776,0.6913307309150696,-0.02546967752277851,0.6078100800514221,0.7116233110427856,-0.028819184750318527,0.6335622668266296,0.7205179929733276,-0.018586155027151108,0.6650118827819824,0.7168275117874146,-0.012560411356389523,0.6456344127655029,0.7615585327148438,-0.024201199412345886,0.6231265664100647,0.7608696222305298,-0.021987909451127052,0.6515112519264221,0.7680791616439819,-0.009121205657720566,0.6775305867195129,0.7667617797851562,0.0003630220890045166,0.0,0.0,0.0,0.0,0.0,0.0,0.0,0.0,0.0,0.0,0.0,0.0,0.0,0.0,0.0,0.0,0.0,0.0,0.0,0.0,0.0,0.0,0.0,0.0,0.0,0.0,0.0,0.0,0.0,0.0,0.0,0.0,0.0,0.0,0.0,0.0,0.0,0.0,0.0,0.0,0.0,0.0,0.0,0.0,0.0,0.0,0.0,0.0,0.0,0.0,0.0,0.0,0.0,0.0,0.0,0.0,0.0,0.0,0.0,0.0,0.0,0.0,0.0
1784046825.961119,0.7767868041992188,0.7243490219116211,5.0643298443731055e-09,0.7631094455718994,0.6105715036392212,0.006766003556549549,0.7280136346817017,0.5085923075675964,-0.0006185846868902445,0.7096261978149414,0.40402501821517944,-0.009123332798480988,0.7149634957313538,0.3246673047542572,-0.020189739763736725,0.6536664962768555,0.5445629358291626,-0.022234350442886353,0.5696466565132141,0.5406683683395386,-0.03542161360383034,0.5188935995101929,0.5419554710388184,-0.04804639518260956,0.48046019673347473,0.5447937250137329,-0.057283785194158554,0.6440310478210449,0.6128416657447815,-0.025041669607162476,0.5968835353851318,0.6565197706222534,-0.02886815182864666,0.6267716288566589,0.6675836443901062,-0.02065436914563179,0.6594821810722351,0.6600852608680725,-0.01630675047636032,0.6442204117774963,0.6917657852172852,-0.025663338601589203,0.6085917949676514,0.7134601473808289,-0.028787896037101746,0.6340133547782898,0.722074031829834,-0.01853431947529316,0.6656219363212585,0.7177650332450867,-0.012722229585051537,0.6456944942474365,0.762169599533081,-0.02457658387720585,0.6248045563697815,0.7626878619194031,-0.022200606763362885,0.6529532074928284,0.7698943614959717,-0.009533099830150604,0.6785297393798828,0.7679627537727356,-0.00036248067044653,0.0,0.0,0.0,0.0,0.0,0.0,0.0,0.0,0.0,0.0,0.0,0.0,0.0,0.0,0.0,0.0,0.0,0.0,0.0,0.0,0.0,0.0,0.0,0.0,0.0,0.0,0.0,0.0,0.0,0.0,0.0,0.0,0.0,0.0,0.0,0.0,0.0,0.0,0.0,0.0,0.0,0.0,0.0,0.0,0.0,0.0,0.0,0.0,0.0,0.0,0.0,0.0,0.0,0.0,0.0,0.0,0.0,0.0,0.0,0.0,0.0,0.0,0.0
1784046826.156588,0.7776715159416199,0.7223786115646362,-2.2138953781336568e-08,0.7654449343681335,0.6094498038291931,0.009115497581660748,0.7313401699066162,0.5080372095108032,0.00341139012016356,0.7116082310676575,0.4043598175048828,-0.0035482498351484537,0.7156990766525269,0.3260980248451233,-0.012974000535905361,0.6557575464248657,0.5432961583137512,-0.019865095615386963,0.5705462098121643,0.53957599401474,-0.03274332731962204,0.519320011138916,0.5416038632392883,-0.045956190675497055,0.48094505071640015,0.5449399352073669,-0.0556233711540699,0.6468451023101807,0.6131545305252075,-0.022699924185872078,0.5981557965278625,0.6561938524246216,-0.024938778951764107,0.6277095675468445,0.6675441861152649,-0.016453823074698448,0.6604093313217163,0.6604843735694885,-0.01255321130156517,0.6475094556808472,0.6925280094146729,-0.023184657096862793,0.6103249192237854,0.7131577730178833,-0.025145191699266434,0.6359280943870544,0.7218171954154968,-0.014779232442378998,0.6683738827705383,0.7177916765213013,-0.009422099217772484,0.6490263342857361,0.7633067965507507,-0.021699165925383568,0.6269223690032959,0.7628544569015503,-0.01869596168398857,0.6557035446166992,0.7703697681427002,-0.005870057735592127,0.6819678544998169,0.7683690786361694,0.0031014352571219206,0.0,0.0,0.0,0.0,0.0,0.0,0.0,0.0,0.0,0.0,0.0,0.0,0.0,0.0,0.0,0.0,0.0,0.0,0.0,0.0,0.0,0.0,0.0,0.0,0.0,0.0,0.0,0.0,0.0,0.0,0.0,0.0,0.0,0.0,0.0,0.0,0.0,0.0,0.0,0.0,0.0,0.0,0.0,0.0,0.0,0.0,0.0,0.0,0.0,0.0,0.0,0.0,0.0,0.0,0.0,0.0,0.0,0.0,0.0,0.0,0.0,0.0,0.0
1784046826.350453,0.7789337635040283,0.7234106063842773,-1.868264298821032e-08,0.7662868499755859,0.6098333597183228,0.008333751000463963,0.7312719821929932,0.5084413886070251,0.0024052991066128016,0.712121844291687,0.4037972688674927,-0.004609709605574608,0.7176811695098877,0.32532453536987305,-0.013999572023749352,0.6571517586708069,0.543919563293457,-0.020921817049384117,0.5721606016159058,0.5398366451263428,-0.03418365865945816,0.5207182168960571,0.5418594479560852,-0.04753587767481804,0.4819895625114441,0.5456591248512268,-0.05732013285160065,0.6481397747993469,0.6134213805198669,-0.02359881065785885,0.598982572555542,0.6555526256561279,-0.026552416384220123,0.6290293335914612,0.6661912798881531,-0.01821098104119301,0.6621492505073547,0.6589135527610779,-0.014122492633759975,0.6483580470085144,0.6923342347145081,-0.023972639814019203,0.6104750633239746,0.7121717929840088,-0.026152558624744415,0.6361397504806519,0.7207077145576477,-0.015693290159106255,0.6685295104980469,0.7169516086578369,-0.010086552239954472,0.6494899988174438,0.7625969648361206,-0.02250809781253338,0.6274293065071106,0.7621707320213318,-0.01965663954615593,0.6559190154075623,0.7695311307907104,-0.006993118207901716,0.6818862557411194,0.7675353288650513,0.0019734641537070274,0.0,0.0,0.0,0.0,0.0,0.0,0.0,0.0,0.0,0.0,0.0,0.0,0.0,0.0,0.0,0.0,0.0,0.0,0.0,0.0,0.0,0.0,0.0,0.0,0.0,0.0,0.0,0.0,0.0,0.0,0.0,0.0,0.0,0.0,0.0,0.0,0.0,0.0,0.0,0.0,0.0,0.0,0.0,0.0,0.0,0.0,0.0,0.0,0.0,0.0,0.0,0.0,0.0,0.0,0.0,0.0,0.0,0.0,0.0,0.0,0.0,0.0,0.0
1784046826.5360699,0.7820913791656494,0.7284253239631653,1.0424630936256563e-08,0.7670116424560547,0.6154941320419312,0.00742769381031394,0.7318803668022156,0.5141772627830505,0.001475806813687086,0.7129993438720703,0.4100492000579834,-0.005891567561775446,0.7175799608230591,0.3307904601097107,-0.01573643833398819,0.6577727794647217,0.5493104457855225,-0.017977166920900345,0.5736506581306458,0.5437155961990356,-0.02915344387292862,0.522661566734314,0.5446168780326843,-0.04035883769392967,0.4836723208427429,0.5469337701797485,-0.04877335950732231,0.6482176780700684,0.6173958778381348,-0.020978571847081184,0.6014421582221985,0.6603220105171204,-0.023402027785778046,0.6308585405349731,0.6712518334388733,-0.015168274752795696,0.6626483798027039,0.6635339856147766,-0.01083881314843893,0.6488900184631348,0.696104109287262,-0.021861203014850616,0.6137223243713379,0.7174997329711914,-0.02379891648888588,0.638773500919342,0.7259423732757568,-0.013523888774216175,0.6693136096000671,0.7219787240028381,-0.007824819535017014,0.6508830785751343,0.7673317193984985,-0.02114502526819706,0.63034588098526,0.7677847146987915,-0.01818062551319599,0.658227264881134,0.7746880054473877,-0.005574733950197697,0.683318555355072,0.7729583382606506,0.003572833491489291,0.0,0.0,0.0,0.0,0.0,0.0,0.0,0.0,0.0,0.0,0.0,0.0,0.0,0.0,0.0,0.0,0.0,0.0,0.0,0.0,0.0,0.0,0.0,0.0,0.0,0.0,0.0,0.0,0.0,0.0,0.0,0.0,0.0,0.0,0.0,0.0,0.0,0.0,0.0,0.0,0.0,0.0,0.0,0.0,0.0,0.0,0.0,0.0,0.0,0.0,0.0,0.0,0.0,0.0,0.0,0.0,0.0,0.0,0.0,0.0,0.0,0.0,0.0
1784046826.728342,0.7860541939735413,0.749919056892395,3.030471873444185e-08,0.7662838101387024,0.63429856300354,0.0017515126382932067,0.7304341197013855,0.5332164764404297,-0.006613323464989662,0.7137276530265808,0.4296613335609436,-0.016148453578352928,0.7169495820999146,0.34974801540374756,-0.02810998633503914,0.6601175665855408,0.5628868937492371,-0.023247074335813522,0.5763046145439148,0.555907130241394,-0.036406658589839935,0.5253527760505676,0.5520035028457642,-0.04585839435458183,0.486253023147583,0.5500389337539673,-0.05230804905295372,0.649246096611023,0.6308141946792603,-0.026338014751672745,0.5988124012947083,0.671852707862854,-0.035044655203819275,0.6275891661643982,0.6856740713119507,-0.02815346047282219,0.660417914390564,0.6816282868385315,-0.022430837154388428,0.6485804915428162,0.7090433835983276,-0.027860211208462715,0.6127884387969971,0.7339209318161011,-0.0362430103123188,0.6379299759864807,0.7433634996414185,-0.025806788355112076,0.667522132396698,0.7405998110771179,-0.01745939999818802,0.6508131623268127,0.7806687355041504,-0.02834402769804001,0.6290189027786255,0.7876537442207336,-0.029899096116423607,0.655311107635498,0.7946392893791199,-0.01747147925198078,0.6797211170196533,0.7934264540672302,-0.006803521420806646,0.0,0.0,0.0,0.0,0.0,0.0,0.0,0.0,0.0,0.0,0.0,0.0,0.0,0.0,0.0,0.0,0.0,0.0,0.0,0.0,0.0,0.0,0.0,0.0,0.0,0.0,0.0,0.0,0.0,0.0,0.0,0.0,0.0,0.0,0.0,0.0,0.0,0.0,0.0,0.0,0.0,0.0,0.0,0.0,0.0,0.0,0.0,0.0,0.0,0.0,0.0,0.0,0.0,0.0,0.0,0.0,0.0,0.0,0.0,0.0,0.0,0.0,0.0
