ciel274/research-hand-sign/data/raw/hiragana/sign_language_me_1.csv
timestamp,R_joint_0_x,R_joint_0_y,R_joint_0_z,R_joint_1_x,R_joint_1_y,R_joint_1_z,R_joint_2_x,R_joint_2_y,R_joint_2_z,R_joint_3_x,R_joint_3_y,R_joint_3_z,R_joint_4_x,R_joint_4_y,R_joint_4_z,R_joint_5_x,R_joint_5_y,R_joint_5_z,R_joint_6_x,R_joint_6_y,R_joint_6_z,R_joint_7_x,R_joint_7_y,R_joint_7_z,R_joint_8_x,R_joint_8_y,R_joint_8_z,R_joint_9_x,R_joint_9_y,R_joint_9_z,R_joint_10_x,R_joint_10_y,R_joint_10_z,R_joint_11_x,R_joint_11_y,R_joint_11_z,R_joint_12_x,R_joint_12_y,R_joint_12_z,R_joint_13_x,R_joint_13_y,R_joint_13_z,R_joint_14_x,R_joint_14_y,R_joint_14_z,R_joint_15_x,R_joint_15_y,R_joint_15_z,R_joint_16_x,R_joint_16_y,R_joint_16_z,R_joint_17_x,R_joint_17_y,R_joint_17_z,R_joint_18_x,R_joint_18_y,R_joint_18_z,R_joint_19_x,R_joint_19_y,R_joint_19_z,R_joint_20_x,R_joint_20_y,R_joint_20_z,L_joint_0_x,L_joint_0_y,L_joint_0_z,L_joint_1_x,L_joint_1_y,L_joint_1_z,L_joint_2_x,L_joint_2_y,L_joint_2_z,L_joint_3_x,L_joint_3_y,L_joint_3_z,L_joint_4_x,L_joint_4_y,L_joint_4_z,L_joint_5_x,L_joint_5_y,L_joint_5_z,L_joint_6_x,L_joint_6_y,L_joint_6_z,L_joint_7_x,L_joint_7_y,L_joint_7_z,L_joint_8_x,L_joint_8_y,L_joint_8_z,L_joint_9_x,L_joint_9_y,L_joint_9_z,L_joint_10_x,L_joint_10_y,L_joint_10_z,L_joint_11_x,L_joint_11_y,L_joint_11_z,L_joint_12_x,L_joint_12_y,L_joint_12_z,L_joint_13_x,L_joint_13_y,L_joint_13_z,L_joint_14_x,L_joint_14_y,L_joint_14_z,L_joint_15_x,L_joint_15_y,L_joint_15_z,L_joint_16_x,L_joint_16_y,L_joint_16_z,L_joint_17_x,L_joint_17_y,L_joint_17_z,L_joint_18_x,L_joint_18_y,L_joint_18_z,L_joint_19_x,L_joint_19_y,L_joint_19_z,L_joint_20_x,L_joint_20_y,L_joint_20_z
1784046865.2568629,0.0,0.0,0.0,0.0,0.0,0.0,0.0,0.0,0.0,0.0,0.0,0.0,0.0,0.0,0.0,0.0,0.0,0.0,0.0,0.0,0.0,0.0,0.0,0.0,0.0,0.0,0.0,0.0,0.0,0.0,0.0,0.0,0.0,0.0,0.0,0.0,0.0,0.0,0.0,0.0,0.0,0.0,0.0,0.0,0.0,0.0,0.0,0.0,0.0,0.0,0.0,0.0,0.0,0.0,0.0,0.0,0.0,0.0,0.0,0.0,0.0,0.0,0.0,0.0,0.0,0.0,0.0,0.0,0.0,0.0,0.0,0.0,0.0,0.0,0.0,0.0,0.0,0.0,0.0,0.0,0.0,0.0,0.0,0.0,0.0,0.0,0.0,0.0,0.0,0.0,0.0,0.0,0.0,0.0,0.0,0.0,0.0,0.0,0.0,0.0,0.0,0.0,0.0,0.0,0.0,0.0,0.0,0.0,0.0,0.0,0.0,0.0,0.0,0.0,0.0,0.0,0.0,0.0,0.0,0.0,0.0,0.0,0.0,0.0,0.0,0.0
1784046865.389642,0.0,0.0,0.0,0.0,0.0,0.0,0.0,0.0,0.0,0.0,0.0,0.0,0.0,0.0,0.0,0.0,0.0,0.0,0.0,0.0,0.0,0.0,0.0,0.0,0.0,0.0,0.0,0.0,0.0,0.0,0.0,0.0,0.0,0.0,0.0,0.0,0.0,0.0,0.0,0.0,0.0,0.0,0.0,0.0,0.0,0.0,0.0,0.0,0.0,0.0,0.0,0.0,0.0,0.0,0.0,0.0,0.0,0.0,0.0,0.0,0.0,0.0,0.0,0.0,0.0,0.0,0.0,0.0,0.0,0.0,0.0,0.0,0.0,0.0,0.0,0.0,0.0,0.0,0.0,0.0,0.0,0.0,0.0,0.0,0.0,0.0,0.0,0.0,0.0,0.0,0.0,0.0,0.0,0.0,0.0,0.0,0.0,0.0,0.0,0.0,0.0,0.0,0.0,0.0,0.0,0.0,0.0,0.0,0.0,0.0,0.0,0.0,0.0,0.0,0.0,0.0,0.0,0.0,0.0,0.0,0.0,0.0,0.0,0.0,0.0,0.0
1784046865.5249689,0.0,0.0,0.0,0.0,0.0,0.0,0.0,0.0,0.0,0.0,0.0,0.0,0.0,0.0,0.0,0.0,0.0,0.0,0.0,0.0,0.0,0.0,0.0,0.0,0.0,0.0,0.0,0.0,0.0,0.0,0.0,0.0,0.0,0.0,0.0,0.0,0.0,0.0,0.0,0.0,0.0,0.0,0.0,0.0,0.0,0.0,0.0,0.0,0.0,0.0,0.0,0.0,0.0,0.0,0.0,0.0,0.0,0.0,0.0,0.0,0.0,0.0,0.0,0.0,0.0,0.0,0.0,0.0,0.0,0.0,0.0,0.0,0.0,0.0,0.0,0.0,0.0,0.0,0.0,0.0,0.0,0.0,0.0,0.0,0.0,0.0,0.0,0.0,0.0,0.0,0.0,0.0,0.0,0.0,0.0,0.0,0.0,0.0,0.0,0.0,0.0,0.0,0.0,0.0,0.0,0.0,0.0,0.0,0.0,0.0,0.0,0.0,0.0,0.0,0.0,0.0,0.0,0.0,0.0,0.0,0.0,0.0,0.0,0.0,0.0,0.0
1784046865.745318,0.7170236706733704,0.9983221292495728,1.0847783471490402e-07,0.673970639705658,0.9729897379875183,-0.022223444655537605,0.64104163646698,0.9292416572570801,-0.044233500957489014,0.6203362345695496,0.9067978858947754,-0.06443266570568085,0.6119211912155151,0.8783023357391357,-0.08709452301263809,0.6812440156936646,0.8373371362686157,-0.05583752319216728,0.6838656663894653,0.7561622858047485,-0.08698517084121704,0.681939423084259,0.7488096356391907,-0.11169416457414627,0.6782892942428589,0.7658910751342773,-0.1280611753463745,0.7188624143600464,0.8579620718955994,-0.06454887986183167,0.743341326713562,0.7727223038673401,-0.09242509305477142,0.738501250743866,0.7502369284629822,-0.11004053056240082,0.7317294478416443,0.7550586462020874,-0.12385164946317673,0.7508726716041565,0.907370924949646,-0.07449599355459213,0.7587172985076904,0.829033374786377,-0.10075590759515762,0.7526549696922302,0.7973105907440186,-0.11241050064563751,0.743826150894165,0.7900201678276062,-0.12192656099796295,0.777743935585022,0.9708036184310913,-0.0850958302617073,0.7891818881034851,0.9352093935012817,-0.10847983509302139,0.7868810296058655,0.9114012122154236,-0.11293550580739975,0.7784104347229004,0.8967697620391846,-0.11686696112155914,0.0,0.0,0.0,0.0,0.0,0.0,0.0,0.0,0.0,0.0,0.0,0.0,0.0,0.0,0.0,0.0,0.0,0.0,0.0,0.0,0.0,0.0,0.0,0.0,0.0,0.0,0.0,0.0,0.0,0.0,0.0,0.0,0.0,0.0,0.0,0.0,0.0,0.0,0.0,0.0,0.0,0.0,0.0,0.0,0.0,0.0,0.0,0.0,0.0,0.0,0.0,0.0,0.0,0.0,0.0,0.0,0.0,0.0,0.0,0.0,0.0,0.0,0.0
1784046866.036051,0.7107479572296143,0.9588655233383179,3.021522161361645e-07,0.6672117710113525,0.8691921234130859,-0.012168108485639095,0.6336250901222229,0.7766703367233276,-0.020639613270759583,0.6046290397644043,0.7083556652069092,-0.030287930741906166,0.5846994519233704,0.6486558318138123,-0.03927535191178322,0.6885585188865662,0.7197166085243225,0.0040153744630515575,0.6739097833633423,0.6490564942359924,-0.011071266606450081,0.6560910940170288,0.6068990230560303,-0.029392030090093613,0.641203761100769,0.5710453987121582,-0.04231169819831848,0.7149723172187805,0.7159914374351501,-0.00030086160404607654,0.7154273986816406,0.6444540023803711,-0.010815994814038277,0.713294267654419,0.5871373414993286,-0.02467222884297371,0.7122831344604492,0.5395281910896301,-0.03562270104885101,0.7401409149169922,0.7230679988861084,-0.00830246414989233,0.7469637393951416,0.6503528356552124,-0.018586857244372368,0.7531338334083557,0.5870712995529175,-0.026584848761558533,0.7591797709465027,0.5308189392089844,-0.03252846747636795,0.7616149187088013,0.7443217635154724,-0.01816379651427269,0.7774151563644409,0.6733437776565552,-0.02546030841767788,0.789798378944397,0.6195480823516846,-0.027569744735956192,0.8006709814071655,0.5719161033630371,-0.029100921005010605,0.0,0.0,0.0,0.0,0.0,0.0,0.0,0.0,0.0,0.0,0.0,0.0,0.0,0.0,0.0,0.0,0.0,0.0,0.0,0.0,0.0,0.0,0.0,0.0,0.0,0.0,0.0,0.0,0.0,0.0,0.0,0.0,0.0,0.0,0.0,0.0,0.0,0.0,0.0,0.0,0.0,0.0,0.0,0.0,0.0,0.0,0.0,0.0,0.0,0.0,0.0,0.0,0.0,0.0,0.0,0.0,0.0,0.0,0.0,0.0,0.0,0.0,0.0
1784046866.185794,0.6948720812797546,0.8720647096633911,2.3508668789418152e-07,0.6479434967041016,0.7915477752685547,-0.009388216771185398,0.6147927641868591,0.6968019008636475,-0.012798534706234932,0.5849196314811707,0.6316336393356323,-0.018546372652053833,0.560747504234314,0.5759900212287903,-0.022767266258597374,0.6614526510238647,0.6113130450248718,0.022973040118813515,0.6384472846984863,0.5478906035423279,0.013930374756455421,0.611210823059082,0.5289285182952881,-0.0021678991615772247,0.5890985727310181,0.5165887475013733,-0.013108602724969387,0.6838905811309814,0.6031110286712646,0.01858321949839592,0.6766995787620544,0.5343477725982666,0.01677034981548786,0.6693282127380371,0.48425614833831787,0.006852820049971342,0.6616793274879456,0.44376641511917114,-0.0017462576506659389,0.7074814438819885,0.6116324663162231,0.009075326845049858,0.7073652148246765,0.5418154001235962,0.005467130336910486,0.7085286378860474,0.48493990302085876,9.266430424759164e-05,0.7096086144447327,0.43422800302505493,-0.004520594608038664,0.7299402952194214,0.6320174932479858,-0.0028923347126692533,0.7420558929443359,0.5609315633773804,-0.005266406573355198,0.7510172724723816,0.5107133388519287,-0.005281262099742889,0.7595334053039551,0.4633222818374634,-0.005609686020761728,0.0,0.0,0.0,0.0,0.0,0.0,0.0,0.0,0.0,0.0,0.0,0.0,0.0,0.0,0.0,0.0,0.0,0.0,0.0,0.0,0.0,0.0,0.0,0.0,0.0,0.0,0.0,0.0,0.0,0.0,0.0,0.0,0.0,0.0,0.0,0.0,0.0,0.0,0.0,0.0,0.0,0.0,0.0,0.0,0.0,0.0,0.0,0.0,0.0,0.0,0.0,0.0,0.0,0.0,0.0,0.0,0.0,0.0,0.0,0.0,0.0,0.0,0.0
1784046866.388443,0.6926625370979309,0.823885440826416,2.6127855790036847e-07,0.6461488604545593,0.7723011374473572,-0.012554910965263844,0.6117582321166992,0.6825934648513794,-0.022111402824521065,0.5790272951126099,0.6181647777557373,-0.03454954922199249,0.5557987689971924,0.564836323261261,-0.04579869657754898,0.656432032585144,0.5581982731819153,0.0009136671433225274,0.6232842206954956,0.4910282790660858,-0.022949811071157455,0.5910220742225647,0.5030092597007751,-0.044978056102991104,0.5710286498069763,0.5309146642684937,-0.05657341331243515,0.6864057779312134,0.5375403165817261,-0.0070327771827578545,0.6878443956375122,0.43773138523101807,-0.018921788781881332,0.6826695799827576,0.36492928862571716,-0.02933911234140396,0.6775177121162415,0.30783942341804504,-0.035976942628622055,0.7140140533447266,0.5493124127388,-0.020077750086784363,0.7239513397216797,0.44458073377609253,-0.033050257712602615,0.7258225083351135,0.3670203387737274,-0.03907943144440651,0.725674033164978,0.3029482364654541,-0.04187273234128952,0.7366440296173096,0.5824795365333557,-0.03522706404328346,0.7584679126739502,0.4944855570793152,-0.047764819115400314,0.7715756893157959,0.4266476631164551,-0.04992251470685005,0.7820311188697815,0.36618632078170776,-0.04911667853593826,0.0,0.0,0.0,0.0,0.0,0.0,0.0,0.0,0.0,0.0,0.0,0.0,0.0,0.0,0.0,0.0,0.0,0.0,0.0,0.0,0.0,0.0,0.0,0.0,0.0,0.0,0.0,0.0,0.0,0.0,0.0,0.0,0.0,0.0,0.0,0.0,0.0,0.0,0.0,0.0,0.0,0.0,0.0,0.0,0.0,0.0,0.0,0.0,0.0,0.0,0.0,0.0,0.0,0.0,0.0,0.0,0.0,0.0,0.0,0.0,0.0,0.0,0.0
1784046866.588446,0.6922940015792847,0.8170836567878723,1.9408332718739985e-07,0.6445698738098145,0.768799901008606,-0.014048205688595772,0.6077414751052856,0.6788459420204163,-0.0251410324126482,0.5774925351142883,0.6161646246910095,-0.03829854726791382,0.5553419589996338,0.5575289726257324,-0.05046879127621651,0.6559543609619141,0.5535955429077148,-0.005395487882196903,0.621810793876648,0.48658353090286255,-0.035810697823762894,0.5900984406471252,0.4932686686515808,-0.059672191739082336,0.5726770162582397,0.5194202661514282,-0.07039834558963776,0.6853259801864624,0.5304127931594849,-0.013294798322021961,0.684691846370697,0.41243380308151245,-0.03190712630748749,0.6801969408988953,0.3270508944988251,-0.04243810474872589,0.6781245470046997,0.25995340943336487,-0.0472550205886364,0.7127617597579956,0.5411034822463989,-0.026735341176390648,0.7233268022537231,0.42462995648384094,-0.046394579112529755,0.7220198512077332,0.342206209897995,-0.053497109562158585,0.7190417051315308,0.27305853366851807,-0.05456383898854256,0.7354670763015747,0.5759803056716919,-0.04195871204137802,0.7585026621818542,0.4823349118232727,-0.05710162967443466,0.7725486755371094,0.4103527069091797,-0.059093836694955826,0.7831940650939941,0.34571534395217896,-0.05717935785651207,0.0,0.0,0.0,0.0,0.0,0.0,0.0,0.0,0.0,0.0,0.0,0.0,0.0,0.0,0.0,0.0,0.0,0.0,0.0,0.0,0.0,0.0,0.0,0.0,0.0,0.0,0.0,0.0,0.0,0.0,0.0,0.0,0.0,0.0,0.0,0.0,0.0,0.0,0.0,0.0,0.0,0.0,0.0,0.0,0.0,0.0,0.0,0.0,0.0,0.0,0.0,0.0,0.0,0.0,0.0,0.0,0.0,0.0,0.0,0.0,0.0,0.0,0.0
1784046866.786467,0.6943151950836182,0.8148173689842224,1.2234228563556826e-07,0.6446121335029602,0.7639139890670776,-0.010884523391723633,0.6078755259513855,0.6755619645118713,-0.019963912665843964,0.5775195360183716,0.6147741079330444,-0.03150634467601776,0.5542753338813782,0.5579648017883301,-0.0422411672770977,0.6546821594238281,0.5510371923446655,-0.003619193099439144,0.6191274523735046,0.4883854389190674,-0.03256847336888313,0.5861677527427673,0.49836766719818115,-0.05546845495700836,0.5699599385261536,0.5267499089241028,-0.0660322904586792,0.682988166809082,0.5268059372901917,-0.012629516422748566,0.6805600523948669,0.4061172306537628,-0.031501464545726776,0.6751511693000793,0.32192957401275635,-0.041913315653800964,0.6735074520111084,0.25608521699905396,-0.04668981581926346,0.7101525664329529,0.5365346074104309,-0.02671482227742672,0.7215883731842041,0.4174952507019043,-0.046776920557022095,0.7217652797698975,0.33747604489326477,-0.0536721870303154,0.7209390997886658,0.270802766084671,-0.05445551872253418,0.7332279682159424,0.5703456401824951,-0.042239442467689514,0.7570808529853821,0.47600215673446655,-0.05768395960330963,0.7702096700668335,0.404239296913147,-0.05977702513337135,0.7798623442649841,0.34008485078811646,-0.05806327238678932,0.0,0.0,0.0,0.0,0.0,0.0,0.0,0.0,0.0,0.0,0.0,0.0,0.0,0.0,0.0,0.0,0.0,0.0,0.0,0.0,0.0,0.0,0.0,0.0,0.0,0.0,0.0,0.0,0.0,0.0,0.0,0.0,0.0,0.0,0.0,0.0,0.0,0.0,0.0,0.0,0.0,0.0,0.0,0.0,0.0,0.0,0.0,0.0,0.0,0.0,0.0,0.0,0.0,0.0,0.0,0.0,0.0,0.0,0.0,0.0,0.0,0.0,0.0
1784046866.9830232,0.6957353353500366,0.8156459331512451,1.2463115695027227e-07,0.6458247900009155,0.7642161846160889,-0.01037612184882164,0.6080929040908813,0.6758686900138855,-0.01897982321679592,0.5775685906410217,0.6152164340019226,-0.03039526753127575,0.5549134016036987,0.5580005049705505,-0.040974877774715424,0.6535738110542297,0.5506919026374817,-0.0020359624177217484,0.6178920865058899,0.4857238829135895,-0.03084867261350155,0.5849422216415405,0.49672338366508484,-0.054069407284259796,0.5681984424591064,0.5253453850746155,-0.06484156101942062,0.6821386218070984,0.5257213711738586,-0.010949196293950081,0.6799601316452026,0.4050438404083252,-0.029083464294672012,0.6746022701263428,0.3202653229236603,-0.03997334465384483,0.6727702021598816,0.2523820698261261,-0.04538354277610779,0.7096088528633118,0.5338389873504639,-0.0249036755412817,0.718834638595581,0.4173349142074585,-0.043790481984615326,0.7178460359573364,0.337674617767334,-0.05074816569685936,0.7160957455635071,0.27044832706451416,-0.051900215446949005,0.7335476875305176,0.5655996203422546,-0.040403760969638824,0.7559208869934082,0.47198808193206787,-0.054335299879312515,0.7689478397369385,0.40284860134124756,-0.05567000061273575,0.7787250280380249,0.34161609411239624,-0.05361693724989891,0.0,0.0,0.0,0.0,0.0,0.0,0.0,0.0,0.0,0.0,0.0,0.0,0.0,0.0,0.0,0.0,0.0,0.0,0.0,0.0,0.0,0.0,0.0,0.0,0.0,0.0,0.0,0.0,0.0,0.0,0.0,0.0,0.0,0.0,0.0,0.0,0.0,0.0,0.0,0.0,0.0,0.0,0.0,0.0,0.0,0.0,0.0,0.0,0.0,0.0,0.0,0.0,0.0,0.0,0.0,0.0,0.0,0.0,0.0,0.0,0.0,0.0,0.0
1784046867.185878,0.6946316957473755,0.8147508502006531,1.3979230573113455e-07,0.6448777914047241,0.7648487091064453,-0.011719292029738426,0.6059306263923645,0.6775028705596924,-0.021163655444979668,0.5756673812866211,0.6165279746055603,-0.03309856727719307,0.5522164106369019,0.5592064261436462,-0.044211842119693756,0.6518006324768066,0.5506442785263062,-0.004730799701064825,0.6160084009170532,0.48509296774864197,-0.03305581584572792,0.5837260484695435,0.4988918900489807,-0.055643122643232346,0.5677031874656677,0.529340386390686,-0.06608925014734268,0.6812319159507751,0.5254561901092529,-0.013169764541089535,0.6798123717308044,0.4035714864730835,-0.03110376186668873,0.6748210787773132,0.3192293345928192,-0.042168956249952316,0.673161506652832,0.25082409381866455,-0.04799526929855347,0.7088475823402405,0.5331410765647888,-0.02649841643869877,0.7181605100631714,0.41780000925064087,-0.04553711414337158,0.7169504761695862,0.33846110105514526,-0.053412191569805145,0.714860737323761,0.2713005244731903,-0.05543580278754234,0.7327589988708496,0.5652998089790344,-0.041351985186338425,0.7550395727157593,0.47252851724624634,-0.0552959069609642,0.7680396437644958,0.4037892818450928,-0.056951187551021576,0.7778307795524597,0.3434123396873474,-0.055365633219480515,0.0,0.0,0.0,0.0,0.0,0.0,0.0,0.0,0.0,0.0,0.0,0.0,0.0,0.0,0.0,0.0,0.0,0.0,0.0,0.0,0.0,0.0,0.0,0.0,0.0,0.0,0.0,0.0,0.0,0.0,0.0,0.0,0.0,0.0,0.0,0.0,0.0,0.0,0.0,0.0,0.0,0.0,0.0,0.0,0.0,0.0,0.0,0.0,0.0,0.0,0.0,0.0,0.0,0.0,0.0,0.0,0.0,0.0,0.0,0.0,0.0,0.0,0.0
1784046867.3891442,0.6955382227897644,0.8157545328140259,1.5191081104148907e-07,0.6454042196273804,0.7644708156585693,-0.012075036764144897,0.6063028573989868,0.6776108145713806,-0.02182220295071602,0.5750250816345215,0.6165516376495361,-0.03414425998926163,0.5520509481430054,0.5573614239692688,-0.045453716069459915,0.6521859169006348,0.5506678223609924,-0.002540400018915534,0.6168246269226074,0.48674890398979187,-0.03136982023715973,0.5844510197639465,0.4969490170478821,-0.054712068289518356,0.5681644082069397,0.5254406332969666,-0.06554152071475983,0.6814460754394531,0.5256270170211792,-0.01081245020031929,0.6790288090705872,0.4044145345687866,-0.028629180043935776,0.6746332049369812,0.3195769786834717,-0.03974924609065056,0.6742734313011169,0.2510107457637787,-0.0455525740981102,0.7092654705047607,0.5332545638084412,-0.024300822988152504,0.717562198638916,0.41817161440849304,-0.043292418122291565,0.7163376212120056,0.3391180634498596,-0.05090051516890526,0.714383602142334,0.2718009948730469,-0.05263698101043701,0.7336155772209167,0.5654464960098267,-0.03944279998540878,0.7551743984222412,0.472867488861084,-0.05294115096330643,0.7681586146354675,0.4052751362323761,-0.05404672771692276,0.7779024243354797,0.3454994559288025,-0.05206064134836197,0.0,0.0,0.0,0.0,0.0,0.0,0.0,0.0,0.0,0.0,0.0,0.0,0.0,0.0,0.0,0.0,0.0,0.0,0.0,0.0,0.0,0.0,0.0,0.0,0.0,0.0,0.0,0.0,0.0,0.0,0.0,0.0,0.0,0.0,0.0,0.0,0.0,0.0,0.0,0.0,0.0,0.0,0.0,0.0,0.0,0.0,0.0,0.0,0.0,0.0,0.0,0.0,0.0,0.0,0.0,0.0,0.0,0.0,0.0,0.0,0.0,0.0,0.0
1784046867.607146,0.6960369348526001,0.8148378729820251,1.5669765218717657e-07,0.6458773016929626,0.763648271560669,-0.011417197994887829,0.6077976226806641,0.6759257912635803,-0.020443374291062355,0.5772368311882019,0.6156692504882812,-0.03220139816403389,0.5537513494491577,0.5596145391464233,-0.04305550828576088,0.6518967747688293,0.5506300926208496,-0.0016732917865738273,0.6167951226234436,0.4884585738182068,-0.030264679342508316,0.5849972367286682,0.4971727728843689,-0.05334729328751564,0.568712592124939,0.5242502093315125,-0.06398176401853561,0.6810359954833984,0.5247029066085815,-0.010216478258371353,0.6795017123222351,0.40439820289611816,-0.02784116379916668,0.6754215359687805,0.31953027844429016,-0.03897441178560257,0.6751541495323181,0.252723753452301,-0.044649530202150345,0.708781898021698,0.5321159958839417,-0.023940645158290863,0.7177019715309143,0.41813382506370544,-0.0429188571870327,0.7165724039077759,0.33988696336746216,-0.05038289725780487,0.7145299315452576,0.2741676867008209,-0.05185994133353233,0.7331386804580688,0.5636295676231384,-0.039287809282541275,0.7554232478141785,0.47176799178123474,-0.053486499935388565,0.7687495350837708,0.4039435386657715,-0.05507346987724304,0.7785127758979797,0.34391671419143677,-0.05316353589296341,0.0,0.0,0.0,0.0,0.0,0.0,0.0,0.0,0.0,0.0,0.0,0.0,0.0,0.0,0.0,0.0,0.0,0.0,0.0,0.0,0.0,0.0,0.0,0.0,0.0,0.0,0.0,0.0,0.0,0.0,0.0,0.0,0.0,0.0,0.0,0.0,0.0,0.0,0.0,0.0,0.0,0.0,0.0,0.0,0.0,0.0,0.0,0.0,0.0,0.0,0.0,0.0,0.0,0.0,0.0,0.0,0.0,0.0,0.0,0.0,0.0,0.0,0.0
1784046867.804084,0.6947723627090454,0.812764048576355,1.3926209874171036e-07,0.6455932855606079,0.7633811235427856,-0.011646036989986897,0.6069134473800659,0.6758282780647278,-0.0204421728849411,0.5771191716194153,0.6153047680854797,-0.031524915248155594,0.5532476305961609,0.5590402483940125,-0.04189281538128853,0.6509692668914795,0.5503396987915039,-0.004135046154260635,0.6165181994438171,0.4873836040496826,-0.031721051782369614,0.584944486618042,0.4988071918487549,-0.053945209830999374,0.5688676834106445,0.5271286368370056,-0.06439217925071716,0.6803634762763977,0.5243608951568604,-0.012502241879701614,0.678882896900177,0.4040997624397278,-0.03055698052048683,0.6740573644638062,0.3196074366569519,-0.042398810386657715,0.6726003885269165,0.251583069562912,-0.048971086740493774,0.7079881429672241,0.5316677689552307,-0.025697825476527214,0.717863917350769,0.416409969329834,-0.0456133596599102,0.7166768312454224,0.3375326991081238,-0.05528170242905617,0.7143273949623108,0.27072012424468994,-0.05859369412064552,0.7323058843612671,0.5637900829315186,-0.04020671546459198,0.7548686265945435,0.47101351618766785,-0.05492493882775307,0.7676417231559753,0.40246638655662537,-0.057789385318756104,0.7769009470939636,0.3421539068222046,-0.057289354503154755,0.0,0.0,0.0,0.0,0.0,0.0,0.0,0.0,0.0,0.0,0.0,0.0,0.0,0.0,0.0,0.0,0.0,0.0,0.0,0.0,0.0,0.0,0.0,0.0,0.0,0.0,0.0,0.0,0.0,0.0,0.0,0.0,0.0,0.0,0.0,0.0,0.0,0.0,0.0,0.0,0.0,0.0,0.0,0.0,0.0,0.0,0.0,0.0,0.0,0.0,0.0,0.0,0.0,0.0,0.0,0.0,0.0,0.0,0.0,0.0,0.0,0.0,0.0
1784046868.0034199,0.6948105096817017,0.8131868839263916,1.4045893692582467e-07,0.6456162929534912,0.7634710669517517,-0.011479486711323261,0.606722354888916,0.6756888628005981,-0.02051941677927971,0.5761483907699585,0.614619791507721,-0.03212541714310646,0.5527719855308533,0.5568792223930359,-0.04286998510360718,0.6516075134277344,0.5506881475448608,-0.002990082371979952,0.6168989539146423,0.4879804253578186,-0.0312189981341362,0.5851110219955444,0.4971761703491211,-0.05365341156721115,0.5686593651771545,0.5244951844215393,-0.06397684663534164,0.6802305579185486,0.5247451066970825,-0.011669340543448925,0.6780450344085693,0.40417909622192383,-0.0299331434071064,0.6723836660385132,0.3197927474975586,-0.040952399373054504,0.6701173782348633,0.2525200843811035,-0.046480532735586166,0.7074980735778809,0.531593918800354,-0.02541661262512207,0.7163159847259521,0.41573503613471985,-0.04505905881524086,0.7147198915481567,0.33613866567611694,-0.052966728806495667,0.7120345830917358,0.2693479657173157,-0.05473807081580162,0.7314465045928955,0.5626471042633057,-0.040679678320884705,0.7533726096153259,0.4692309498786926,-0.055061668157577515,0.7660913467407227,0.40020906925201416,-0.056959766894578934,0.7752582430839539,0.3399466872215271,-0.05543505400419235,0.0,0.0,0.0,0.0,0.0,0.0,0.0,0.0,0.0,0.0,0.0,0.0,0.0,0.0,0.0,0.0,0.0,0.0,0.0,0.0,0.0,0.0,0.0,0.0,0.0,0.0,0.0,0.0,0.0,0.0,0.0,0.0,0.0,0.0,0.0,0.0,0.0,0.0,0.0,0.0,0.0,0.0,0.0,0.0,0.0,0.0,0.0,0.0,0.0,0.0,0.0,0.0,0.0,0.0,0.0,0.0,0.0,0.0,0.0,0.0,0.0,0.0,0.0
