ciel274/research-hand-sign/data/raw/hiragana/sign_language_u_3.csv
timestamp,R_joint_0_x,R_joint_0_y,R_joint_0_z,R_joint_1_x,R_joint_1_y,R_joint_1_z,R_joint_2_x,R_joint_2_y,R_joint_2_z,R_joint_3_x,R_joint_3_y,R_joint_3_z,R_joint_4_x,R_joint_4_y,R_joint_4_z,R_joint_5_x,R_joint_5_y,R_joint_5_z,R_joint_6_x,R_joint_6_y,R_joint_6_z,R_joint_7_x,R_joint_7_y,R_joint_7_z,R_joint_8_x,R_joint_8_y,R_joint_8_z,R_joint_9_x,R_joint_9_y,R_joint_9_z,R_joint_10_x,R_joint_10_y,R_joint_10_z,R_joint_11_x,R_joint_11_y,R_joint_11_z,R_joint_12_x,R_joint_12_y,R_joint_12_z,R_joint_13_x,R_joint_13_y,R_joint_13_z,R_joint_14_x,R_joint_14_y,R_joint_14_z,R_joint_15_x,R_joint_15_y,R_joint_15_z,R_joint_16_x,R_joint_16_y,R_joint_16_z,R_joint_17_x,R_joint_17_y,R_joint_17_z,R_joint_18_x,R_joint_18_y,R_joint_18_z,R_joint_19_x,R_joint_19_y,R_joint_19_z,R_joint_20_x,R_joint_20_y,R_joint_20_z,L_joint_0_x,L_joint_0_y,L_joint_0_z,L_joint_1_x,L_joint_1_y,L_joint_1_z,L_joint_2_x,L_joint_2_y,L_joint_2_z,L_joint_3_x,L_joint_3_y,L_joint_3_z,L_joint_4_x,L_joint_4_y,L_joint_4_z,L_joint_5_x,L_joint_5_y,L_joint_5_z,L_joint_6_x,L_joint_6_y,L_joint_6_z,L_joint_7_x,L_joint_7_y,L_joint_7_z,L_joint_8_x,L_joint_8_y,L_joint_8_z,L_joint_9_x,L_joint_9_y,L_joint_9_z,L_joint_10_x,L_joint_10_y,L_joint_10_z,L_joint_11_x,L_joint_11_y,L_joint_11_z,L_joint_12_x,L_joint_12_y,L_joint_12_z,L_joint_13_x,L_joint_13_y,L_joint_13_z,L_joint_14_x,L_joint_14_y,L_joint_14_z,L_joint_15_x,L_joint_15_y,L_joint_15_z,L_joint_16_x,L_joint_16_y,L_joint_16_z,L_joint_17_x,L_joint_17_y,L_joint_17_z,L_joint_18_x,L_joint_18_y,L_joint_18_z,L_joint_19_x,L_joint_19_y,L_joint_19_z,L_joint_20_x,L_joint_20_y,L_joint_20_z
1783345103.1008792,0.6652487516403198,0.8577773571014404,2.6073465164699883e-07,0.6316142678260803,0.8168381452560425,-0.008370395749807358,0.6198899745941162,0.7378703951835632,-0.012202480807900429,0.6344001293182373,0.675184428691864,-0.018479900434613228,0.6571811437606812,0.638363778591156,-0.02461879514157772,0.6273341774940491,0.6721124649047852,-0.0024930958170443773,0.6228412389755249,0.5896082520484924,-0.013635553419589996,0.6224551796913147,0.5416309237480164,-0.02137996442615986,0.6252778768539429,0.5001943111419678,-0.027220550924539566,0.6493214964866638,0.6659044623374939,-0.00795959122478962,0.6434807181358337,0.5703527331352234,-0.02053748443722725,0.6390460729598999,0.5180026292800903,-0.030384505167603493,0.6406359076499939,0.47609567642211914,-0.037069644778966904,0.6709062457084656,0.677478551864624,-0.015047851018607616,0.6698009371757507,0.5892089605331421,-0.03444983810186386,0.6546881794929504,0.6383020877838135,-0.037522993981838226,0.6491773724555969,0.6865911483764648,-0.0350046269595623,0.6903368234634399,0.6994600296020508,-0.02278827875852585,0.6712003946304321,0.6642623543739319,-0.03971610218286514,0.6558836698532104,0.6927059888839722,-0.04196564108133316,0.6512516140937805,0.7214747667312622,-0.04041503369808197,0.0,0.0,0.0,0.0,0.0,0.0,0.0,0.0,0.0,0.0,0.0,0.0,0.0,0.0,0.0,0.0,0.0,0.0,0.0,0.0,0.0,0.0,0.0,0.0,0.0,0.0,0.0,0.0,0.0,0.0,0.0,0.0,0.0,0.0,0.0,0.0,0.0,0.0,0.0,0.0,0.0,0.0,0.0,0.0,0.0,0.0,0.0,0.0,0.0,0.0,0.0,0.0,0.0,0.0,0.0,0.0,0.0,0.0,0.0,0.0,0.0,0.0,0.0
1783345103.27657,0.6651564240455627,0.8584364652633667,2.4470898551953724e-07,0.6316190958023071,0.8177297711372375,-0.008970250375568867,0.6199191808700562,0.737217366695404,-0.012632162310183048,0.634702742099762,0.6741598844528198,-0.018609587103128433,0.6581764817237854,0.6379569172859192,-0.024479473009705544,0.6270204186439514,0.6743550896644592,-0.002243512775748968,0.6220366954803467,0.5925076603889465,-0.013343919068574905,0.6216948628425598,0.5446867942810059,-0.02082817442715168,0.6246379613876343,0.5031112432479858,-0.02645746059715748,0.6490934491157532,0.6673169136047363,-0.007255911361426115,0.6430310010910034,0.5723941326141357,-0.019945139065384865,0.6388508677482605,0.5205689072608948,-0.029540397226810455,0.6404841542243958,0.4791700541973114,-0.035914551466703415,0.6707489490509033,0.6778245568275452,-0.014032615348696709,0.6697700023651123,0.5902280807495117,-0.03419055417180061,0.6551203727722168,0.6397168636322021,-0.03773331269621849,0.6496450304985046,0.6881110668182373,-0.035281598567962646,0.6904135942459106,0.6985070705413818,-0.021467572078108788,0.6710909008979797,0.6655874252319336,-0.03920783847570419,0.6560059785842896,0.6945290565490723,-0.04210878163576126,0.6515473127365112,0.7233930826187134,-0.04090438038110733,0.0,0.0,0.0,0.0,0.0,0.0,0.0,0.0,0.0,0.0,0.0,0.0,0.0,0.0,0.0,0.0,0.0,0.0,0.0,0.0,0.0,0.0,0.0,0.0,0.0,0.0,0.0,0.0,0.0,0.0,0.0,0.0,0.0,0.0,0.0,0.0,0.0,0.0,0.0,0.0,0.0,0.0,0.0,0.0,0.0,0.0,0.0,0.0,0.0,0.0,0.0,0.0,0.0,0.0,0.0,0.0,0.0,0.0,0.0,0.0,0.0,0.0,0.0
1783345103.462734,0.6659061908721924,0.8586058616638184,2.547832878008194e-07,0.6320755481719971,0.8166307210922241,-0.008347214199602604,0.6205717325210571,0.7385053038597107,-0.01192671898752451,0.6352957487106323,0.6764629483222961,-0.017944714054465294,0.6585686802864075,0.6419664025306702,-0.023891286924481392,0.6277050375938416,0.6733894348144531,-0.0019039857434108853,0.6231047511100769,0.5909871459007263,-0.012648988515138626,0.6225521564483643,0.543333113193512,-0.02021743915975094,0.6250852942466736,0.501893937587738,-0.026012293994426727,0.6498464345932007,0.6669220328330994,-0.007157094776630402,0.6437317728996277,0.5713931918144226,-0.019337976351380348,0.6395094394683838,0.5190507173538208,-0.02904142253100872,0.6411592960357666,0.4770473539829254,-0.03571740910410881,0.6715445518493652,0.6782525777816772,-0.014059684239327908,0.6705239415168762,0.5892508029937744,-0.033459216356277466,0.6557234525680542,0.6373957395553589,-0.03704117238521576,0.6502814292907715,0.6856460571289062,-0.034869566559791565,0.6910966634750366,0.7000645399093628,-0.021565625444054604,0.6721614003181458,0.6639614105224609,-0.03864416107535362,0.6570865511894226,0.692598819732666,-0.041255850344896317,0.6527420878410339,0.722149133682251,-0.03998245671391487,0.0,0.0,0.0,0.0,0.0,0.0,0.0,0.0,0.0,0.0,0.0,0.0,0.0,0.0,0.0,0.0,0.0,0.0,0.0,0.0,0.0,0.0,0.0,0.0,0.0,0.0,0.0,0.0,0.0,0.0,0.0,0.0,0.0,0.0,0.0,0.0,0.0,0.0,0.0,0.0,0.0,0.0,0.0,0.0,0.0,0.0,0.0,0.0,0.0,0.0,0.0,0.0,0.0,0.0,0.0,0.0,0.0,0.0,0.0,0.0,0.0,0.0,0.0
1783345103.8627148,0.665621817111969,0.8570926785469055,2.5054021079995437e-07,0.6323732733726501,0.8164077401161194,-0.009626663289964199,0.6205407381057739,0.7368451952934265,-0.013614283874630928,0.6352359652519226,0.6739746928215027,-0.019803747534751892,0.6583609580993652,0.6377221941947937,-0.02576572634279728,0.6274142861366272,0.6737998723983765,-0.0027450555935502052,0.6219504475593567,0.5917552709579468,-0.014021765440702438,0.621088981628418,0.5437925457954407,-0.021683374419808388,0.6234537363052368,0.5019771456718445,-0.027425266802310944,0.649207353591919,0.6664679646492004,-0.007424403913319111,0.6424164175987244,0.571426510810852,-0.02025730162858963,0.6379241943359375,0.5194752216339111,-0.029945364221930504,0.639431357383728,0.47749245166778564,-0.036360591650009155,0.6707088947296143,0.6770561337471008,-0.013917457312345505,0.6698012351989746,0.5903561115264893,-0.033788204193115234,0.6558903455734253,0.6395180225372314,-0.036942802369594574,0.6509794592857361,0.6875302195549011,-0.03424929827451706,0.6905890703201294,0.6983587741851807,-0.02118760533630848,0.6728190779685974,0.6649388670921326,-0.038342226296663284,0.6580828428268433,0.6924917101860046,-0.04080948978662491,0.6534412503242493,0.7203308939933777,-0.03937826678156853,0.0,0.0,0.0,0.0,0.0,0.0,0.0,0.0,0.0,0.0,0.0,0.0,0.0,0.0,0.0,0.0,0.0,0.0,0.0,0.0,0.0,0.0,0.0,0.0,0.0,0.0,0.0,0.0,0.0,0.0,0.0,0.0,0.0,0.0,0.0,0.0,0.0,0.0,0.0,0.0,0.0,0.0,0.0,0.0,0.0,0.0,0.0,0.0,0.0,0.0,0.0,0.0,0.0,0.0,0.0,0.0,0.0,0.0,0.0,0.0,0.0,0.0,0.0
1783345104.050401,0.6654840111732483,0.8550910949707031,2.513964147965453e-07,0.631682276725769,0.8152996897697449,-0.009088348597288132,0.6196713447570801,0.735651969909668,-0.01287923101335764,0.6332133412361145,0.6729617118835449,-0.01908029429614544,0.6547386050224304,0.6350589990615845,-0.025049535557627678,0.6264879107475281,0.6724483966827393,-0.0018724835244938731,0.6206774115562439,0.5909637212753296,-0.013249258510768414,0.6198927760124207,0.5430536270141602,-0.021018093451857567,0.622462272644043,0.5017763376235962,-0.0267619751393795,0.6481010317802429,0.6655843257904053,-0.0070129744708538055,0.6412394642829895,0.5711313486099243,-0.02011653035879135,0.6366406679153442,0.519221305847168,-0.03021124377846718,0.6381421685218811,0.4773438274860382,-0.036845941096544266,0.6693034768104553,0.6763875484466553,-0.013972007669508457,0.6687933802604675,0.590465784072876,-0.03381423279643059,0.6545803546905518,0.6390477418899536,-0.03696103394031525,0.6493183970451355,0.6861670613288879,-0.03428934887051582,0.6887570023536682,0.6975001692771912,-0.02169637754559517,0.6719737648963928,0.6630145907402039,-0.038692913949489594,0.6575483679771423,0.6912825703620911,-0.04093988984823227,0.6528123021125793,0.719976007938385,-0.039350058883428574,0.0,0.0,0.0,0.0,0.0,0.0,0.0,0.0,0.0,0.0,0.0,0.0,0.0,0.0,0.0,0.0,0.0,0.0,0.0,0.0,0.0,0.0,0.0,0.0,0.0,0.0,0.0,0.0,0.0,0.0,0.0,0.0,0.0,0.0,0.0,0.0,0.0,0.0,0.0,0.0,0.0,0.0,0.0,0.0,0.0,0.0,0.0,0.0,0.0,0.0,0.0,0.0,0.0,0.0,0.0,0.0,0.0,0.0,0.0,0.0,0.0,0.0,0.0
1783345104.3079062,0.6655222773551941,0.8532491326332092,2.6350946313868917e-07,0.631926417350769,0.8127269744873047,-0.009031337685883045,0.6193124651908875,0.7358834147453308,-0.013319775462150574,0.6329163908958435,0.6738346219062805,-0.01999548263847828,0.6558718681335449,0.6376533508300781,-0.0264295544475317,0.6260415315628052,0.6685230135917664,-0.0020411850418895483,0.6207754015922546,0.5882020592689514,-0.013165741227567196,0.6204267144203186,0.541269838809967,-0.021138623356819153,0.6234055161476135,0.5005193948745728,-0.02715933322906494,0.6477575898170471,0.6622170209884644,-0.007204791065305471,0.6408218741416931,0.5690817832946777,-0.01973119005560875,0.6363824605941772,0.517559289932251,-0.029754716902971268,0.638306200504303,0.475443959236145,-0.0365990474820137,0.6692061424255371,0.6738131046295166,-0.01414613239467144,0.6680904030799866,0.5883421301841736,-0.03344880789518356,0.6533877849578857,0.6362923979759216,-0.03701435402035713,0.6482372283935547,0.684026837348938,-0.034859657287597656,0.6886475086212158,0.6962292790412903,-0.021836569532752037,0.6707850098609924,0.6619722247123718,-0.03856638818979263,0.6559784412384033,0.6892229318618774,-0.04113437980413437,0.6516209840774536,0.7177407741546631,-0.03988507017493248,0.0,0.0,0.0,0.0,0.0,0.0,0.0,0.0,0.0,0.0,0.0,0.0,0.0,0.0,0.0,0.0,0.0,0.0,0.0,0.0,0.0,0.0,0.0,0.0,0.0,0.0,0.0,0.0,0.0,0.0,0.0,0.0,0.0,0.0,0.0,0.0,0.0,0.0,0.0,0.0,0.0,0.0,0.0,0.0,0.0,0.0,0.0,0.0,0.0,0.0,0.0,0.0,0.0,0.0,0.0,0.0,0.0,0.0,0.0,0.0,0.0,0.0,0.0
1783345104.459359,0.664429783821106,0.851702868938446,2.63748233919614e-07,0.6308884620666504,0.8113027215003967,-0.008824832737445831,0.6185944080352783,0.7344896793365479,-0.013165296986699104,0.6323533654212952,0.6725497245788574,-0.01990111917257309,0.6547680497169495,0.6361445784568787,-0.026412030681967735,0.6254892349243164,0.6664766073226929,-0.002403997117653489,0.62064129114151,0.5861507058143616,-0.013685117475688457,0.6203253865242004,0.5392499566078186,-0.021863551810383797,0.6233637928962708,0.4984520673751831,-0.028033066540956497,0.6473074555397034,0.6606581807136536,-0.007712697144597769,0.6407977938652039,0.5674744248390198,-0.020219745114445686,0.6363667845726013,0.5160530805587769,-0.030232978984713554,0.6381961107254028,0.4741763174533844,-0.03713025152683258,0.6687787771224976,0.6726335883140564,-0.014747273176908493,0.6679015755653381,0.587113082408905,-0.033836640417575836,0.6527426838874817,0.6352577209472656,-0.037142954766750336,0.6471043229103088,0.6831697225570679,-0.03492783010005951,0.6880610585212708,0.6954219937324524,-0.022526642307639122,0.6703556776046753,0.6606324315071106,-0.03902687132358551,0.6553206443786621,0.6877055168151855,-0.04129188135266304,0.6506326198577881,0.7159830927848816,-0.03988499194383621,0.0,0.0,0.0,0.0,0.0,0.0,0.0,0.0,0.0,0.0,0.0,0.0,0.0,0.0,0.0,0.0,0.0,0.0,0.0,0.0,0.0,0.0,0.0,0.0,0.0,0.0,0.0,0.0,0.0,0.0,0.0,0.0,0.0,0.0,0.0,0.0,0.0,0.0,0.0,0.0,0.0,0.0,0.0,0.0,0.0,0.0,0.0,0.0,0.0,0.0,0.0,0.0,0.0,0.0,0.0,0.0,0.0,0.0,0.0,0.0,0.0,0.0,0.0
1783345104.621609,0.6645312905311584,0.852735161781311,2.4805828502394434e-07,0.6304998397827148,0.812325656414032,-0.008390115574002266,0.6184050440788269,0.7346850633621216,-0.011834900826215744,0.6323979496955872,0.6726225018501282,-0.017699163407087326,0.6546410322189331,0.636647641658783,-0.02342098392546177,0.6256537437438965,0.6680918335914612,-0.0010507215047255158,0.6206516623497009,0.5871569514274597,-0.01152469590306282,0.6199753284454346,0.5401493310928345,-0.019167263060808182,0.6225707530975342,0.49923422932624817,-0.0250950176268816,0.6475589275360107,0.661395788192749,-0.006273722276091576,0.641005277633667,0.5680097341537476,-0.01807979866862297,0.6365546584129333,0.5163893699645996,-0.027963513508439064,0.6380921006202698,0.47513067722320557,-0.03494647890329361,0.6689874529838562,0.6722890138626099,-0.01325270440429449,0.6678556203842163,0.584283709526062,-0.03220696374773979,0.6535331010818481,0.6306860446929932,-0.03632006421685219,0.648390531539917,0.6781970858573914,-0.034827981144189835,0.6883487701416016,0.6937814950942993,-0.02088168077170849,0.6696205735206604,0.6593344211578369,-0.03783179447054863,0.6546130776405334,0.687388002872467,-0.04095102474093437,0.6501020193099976,0.7166605591773987,-0.040229760110378265,0.0,0.0,0.0,0.0,0.0,0.0,0.0,0.0,0.0,0.0,0.0,0.0,0.0,0.0,0.0,0.0,0.0,0.0,0.0,0.0,0.0,0.0,0.0,0.0,0.0,0.0,0.0,0.0,0.0,0.0,0.0,0.0,0.0,0.0,0.0,0.0,0.0,0.0,0.0,0.0,0.0,0.0,0.0,0.0,0.0,0.0,0.0,0.0,0.0,0.0,0.0,0.0,0.0,0.0,0.0,0.0,0.0,0.0,0.0,0.0,0.0,0.0,0.0
1783345104.7688792,0.664618730545044,0.8520272970199585,2.57185945429228e-07,0.630722165107727,0.8114715218544006,-0.00923959445208311,0.618293046951294,0.7315483093261719,-0.013280089013278484,0.6322212815284729,0.6677765846252441,-0.019650934264063835,0.6550210118293762,0.6297271251678467,-0.02576286345720291,0.6254633069038391,0.6684024333953857,-0.002167007653042674,0.6198550462722778,0.5871290564537048,-0.013502742163836956,0.6194182634353638,0.539717972278595,-0.021480316296219826,0.6223841905593872,0.4984495937824249,-0.02739565633237362,0.6471573710441589,0.662059485912323,-0.0071171484887599945,0.6402603983879089,0.5675703287124634,-0.019787650555372238,0.6357185244560242,0.5163443088531494,-0.02951066568493843,0.6376447081565857,0.4746014177799225,-0.03599560260772705,0.6684352159500122,0.6732057929039001,-0.0138940941542387,0.6672515273094177,0.5870182514190674,-0.03334315866231918,0.6523436903953552,0.6366405487060547,-0.036103565245866776,0.6473004817962646,0.6850702166557312,-0.03320936858654022,0.6878436207771301,0.6947640776634216,-0.02146827057003975,0.6701522469520569,0.6585458517074585,-0.03808131068944931,0.6554478406906128,0.6865137815475464,-0.03994550183415413,0.6513251066207886,0.7154953479766846,-0.03810684010386467,0.0,0.0,0.0,0.0,0.0,0.0,0.0,0.0,0.0,0.0,0.0,0.0,0.0,0.0,0.0,0.0,0.0,0.0,0.0,0.0,0.0,0.0,0.0,0.0,0.0,0.0,0.0,0.0,0.0,0.0,0.0,0.0,0.0,0.0,0.0,0.0,0.0,0.0,0.0,0.0,0.0,0.0,0.0,0.0,0.0,0.0,0.0,0.0,0.0,0.0,0.0,0.0,0.0,0.0,0.0,0.0,0.0,0.0,0.0,0.0,0.0,0.0,0.0
1783345104.928928,0.66408771276474,0.8517702221870422,2.538136527618917e-07,0.6302828788757324,0.8109957575798035,-0.008349350653588772,0.6179634928703308,0.7313187122344971,-0.01205137837678194,0.631942868232727,0.6680896282196045,-0.01829593814909458,0.6549385190010071,0.6314443349838257,-0.02433350682258606,0.6252579092979431,0.6671428084373474,-0.0015509711811318994,0.6198806166648865,0.5859362483024597,-0.01254466362297535,0.6193852424621582,0.5385270714759827,-0.02036401443183422,0.6222044825553894,0.4976118206977844,-0.0262503232806921,0.6469433307647705,0.6608702540397644,-0.006933607626706362,0.6400428414344788,0.567071259021759,-0.019485102966427803,0.6353150010108948,0.5157811641693115,-0.02937697432935238,0.6368945240974426,0.4741450548171997,-0.03605087101459503,0.6683107018470764,0.6720293760299683,-0.014024254865944386,0.666925847530365,0.5856391191482544,-0.033195119351148605,0.6518221497535706,0.6353461146354675,-0.036111246794462204,0.6464072465896606,0.6839614510536194,-0.033448029309511185,0.687730073928833,0.6935737133026123,-0.021839911118149757,0.6697123646736145,0.6579902768135071,-0.038221441209316254,0.6543974876403809,0.6859273314476013,-0.040211938321590424,0.649556040763855,0.7147830724716187,-0.038543280214071274,0.0,0.0,0.0,0.0,0.0,0.0,0.0,0.0,0.0,0.0,0.0,0.0,0.0,0.0,0.0,0.0,0.0,0.0,0.0,0.0,0.0,0.0,0.0,0.0,0.0,0.0,0.0,0.0,0.0,0.0,0.0,0.0,0.0,0.0,0.0,0.0,0.0,0.0,0.0,0.0,0.0,0.0,0.0,0.0,0.0,0.0,0.0,0.0,0.0,0.0,0.0,0.0,0.0,0.0,0.0,0.0,0.0,0.0,0.0,0.0,0.0,0.0,0.0
1783345105.055886,0.6641769409179688,0.8517109751701355,2.5223536681551195e-07,0.6303837895393372,0.8101269602775574,-0.008073372766375542,0.6179087162017822,0.7308308482170105,-0.011561495251953602,0.6318271160125732,0.6683554649353027,-0.01769418828189373,0.6550281047821045,0.6327341198921204,-0.023642703890800476,0.6253511905670166,0.6663796305656433,-0.0006950455717742443,0.6200609803199768,0.585349977016449,-0.01152324490249157,0.6196193695068359,0.5382909178733826,-0.019290748983621597,0.6224156618118286,0.4974593222141266,-0.02515983022749424,0.6470016837120056,0.6600676774978638,-0.006191808730363846,0.6403413414955139,0.5665838718414307,-0.018489500507712364,0.6357806921005249,0.5154722929000854,-0.028263334184885025,0.6373721361160278,0.4739561676979065,-0.034876447170972824,0.6682860851287842,0.6712239384651184,-0.013459973968565464,0.6668103337287903,0.5847352147102356,-0.03259359300136566,0.6519861817359924,0.6338571310043335,-0.03581876680254936,0.6467977166175842,0.6823030114173889,-0.03338593617081642,0.6876771450042725,0.6927632093429565,-0.02143048867583275,0.6695609092712402,0.6577500700950623,-0.03790976479649544,0.6542807817459106,0.6859657764434814,-0.040188997983932495,0.6495600938796997,0.7151239514350891,-0.038744520395994186,0.0,0.0,0.0,0.0,0.0,0.0,0.0,0.0,0.0,0.0,0.0,0.0,0.0,0.0,0.0,0.0,0.0,0.0,0.0,0.0,0.0,0.0,0.0,0.0,0.0,0.0,0.0,0.0,0.0,0.0,0.0,0.0,0.0,0.0,0.0,0.0,0.0,0.0,0.0,0.0,0.0,0.0,0.0,0.0,0.0,0.0,0.0,0.0,0.0,0.0,0.0,0.0,0.0,0.0,0.0,0.0,0.0,0.0,0.0,0.0,0.0,0.0,0.0
1783345105.1975129,0.6640138030052185,0.851129949092865,2.5254769298044266e-07,0.6303564310073853,0.8103766441345215,-0.008589651435613632,0.6181186437606812,0.730850100517273,-0.012266297824680805,0.63190096616745,0.6672388911247253,-0.01838764362037182,0.6545830965042114,0.6307129263877869,-0.02424306608736515,0.6252570152282715,0.6681365966796875,-0.0014473686460405588,0.6196920871734619,0.5867871046066284,-0.01239063125103712,0.6192474365234375,0.5396220684051514,-0.020184695720672607,0.6222395896911621,0.4987170994281769,-0.026109037920832634,0.6467234492301941,0.6611214876174927,-0.006559156812727451,0.6396514177322388,0.5672614574432373,-0.019063573330640793,0.6351889967918396,0.5155969858169556,-0.028959404677152634,0.637253999710083,0.4738446772098541,-0.03569626435637474,0.667913019657135,0.6716476082801819,-0.013418319635093212,0.6664812564849854,0.5858510136604309,-0.032275643199682236,0.6515340209007263,0.6340901851654053,-0.03517445921897888,0.6462552547454834,0.6821235418319702,-0.032667167484760284,0.6873626708984375,0.6925561428070068,-0.021082527935504913,0.6695484519004822,0.6588687896728516,-0.03740245848894119,0.6545840501785278,0.6856939196586609,-0.039670415222644806,0.6500548720359802,0.7134923934936523,-0.038289688527584076,0.0,0.0,0.0,0.0,0.0,0.0,0.0,0.0,0.0,0.0,0.0,0.0,0.0,0.0,0.0,0.0,0.0,0.0,0.0,0.0,0.0,0.0,0.0,0.0,0.0,0.0,0.0,0.0,0.0,0.0,0.0,0.0,0.0,0.0,0.0,0.0,0.0,0.0,0.0,0.0,0.0,0.0,0.0,0.0,0.0,0.0,0.0,0.0,0.0,0.0,0.0,0.0,0.0,0.0,0.0,0.0,0.0,0.0,0.0,0.0,0.0,0.0,0.0
1783345105.363413,0.6637471914291382,0.8509185314178467,2.557402467573411e-07,0.6300365924835205,0.81071537733078,-0.00873399805277586,0.6177937984466553,0.7309044599533081,-0.012379077263176441,0.6315038204193115,0.6675055027008057,-0.018501315265893936,0.6546571254730225,0.6313815116882324,-0.024421265348792076,0.624722957611084,0.667834460735321,-0.0012831552885472775,0.6189706325531006,0.5865383744239807,-0.012207698076963425,0.6187281012535095,0.5390875935554504,-0.019869115203619003,0.6217468976974487,0.49834707379341125,-0.025566881522536278,0.6464151740074158,0.6610921025276184,-0.006407615263015032,0.6391951441764832,0.5669169425964355,-0.019026072695851326,0.6346460580825806,0.5153847932815552,-0.028823262080550194,0.6364068388938904,0.4741343557834625,-0.03528342768549919,0.667729377746582,0.6717273592948914,-0.013318875804543495,0.6661255955696106,0.5856978893280029,-0.03273093327879906,0.6516561508178711,0.6346795558929443,-0.03578370064496994,0.646669328212738,0.6830024123191833,-0.03305530175566673,0.6870929002761841,0.6925840377807617,-0.020980870351195335,0.6691131591796875,0.6571975946426392,-0.037583302706480026,0.6543026566505432,0.6852930784225464,-0.0396859385073185,0.6497989296913147,0.7146041989326477,-0.03801662102341652,0.0,0.0,0.0,0.0,0.0,0.0,0.0,0.0,0.0,0.0,0.0,0.0,0.0,0.0,0.0,0.0,0.0,0.0,0.0,0.0,0.0,0.0,0.0,0.0,0.0,0.0,0.0,0.0,0.0,0.0,0.0,0.0,0.0,0.0,0.0,0.0,0.0,0.0,0.0,0.0,0.0,0.0,0.0,0.0,0.0,0.0,0.0,0.0,0.0,0.0,0.0,0.0,0.0,0.0,0.0,0.0,0.0,0.0,0.0,0.0,0.0,0.0,0.0
1783345105.496418,0.663807213306427,0.8508002161979675,2.5372784762112133e-07,0.6299560070037842,0.8102944493293762,-0.008359350264072418,0.6171897649765015,0.7295829653739929,-0.01172079611569643,0.6312762498855591,0.6658034920692444,-0.017558202147483826,0.6548907160758972,0.6298080682754517,-0.02318505011498928,0.6249758005142212,0.6669201850891113,-0.001279958407394588,0.6193759441375732,0.5852128267288208,-0.011984813958406448,0.6189396977424622,0.5376597046852112,-0.01958012767136097,0.6216656565666199,0.49670732021331787,-0.025319604203104973,0.6465399861335754,0.6605069041252136,-0.006478607654571533,0.6392553448677063,0.5662798285484314,-0.018745779991149902,0.6347787976264954,0.5146974921226501,-0.02831430360674858,0.6365758180618286,0.4730241596698761,-0.03472509607672691,0.667725682258606,0.6715123653411865,-0.013409518636763096,0.6662334203720093,0.5855799317359924,-0.03248946741223335,0.6514973044395447,0.6350181102752686,-0.035400502383708954,0.6463468074798584,0.6837031245231628,-0.03269760310649872,0.687009871006012,0.6927944421768188,-0.02107042260468006,0.6693456768989563,0.657398521900177,-0.037625618278980255,0.6543172597885132,0.6859288811683655,-0.039732448756694794,0.6496688723564148,0.715485692024231,-0.038107603788375854,0.0,0.0,0.0,0.0,0.0,0.0,0.0,0.0,0.0,0.0,0.0,0.0,0.0,0.0,0.0,0.0,0.0,0.0,0.0,0.0,0.0,0.0,0.0,0.0,0.0,0.0,0.0,0.0,0.0,0.0,0.0,0.0,0.0,0.0,0.0,0.0,0.0,0.0,0.0,0.0,0.0,0.0,0.0,0.0,0.0,0.0,0.0,0.0,0.0,0.0,0.0,0.0,0.0,0.0,0.0,0.0,0.0,0.0,0.0,0.0,0.0,0.0,0.0
1783345105.6559591,0.6639388799667358,0.8517558574676514,2.4976563395284757e-07,0.629797101020813,0.8115130066871643,-0.007947085425257683,0.6171345114707947,0.7302663922309875,-0.010797819122672081,0.6312671303749084,0.6662013530731201,-0.016190042719244957,0.6545017957687378,0.6316565871238708,-0.021398523822426796,0.6250511407852173,0.6676911115646362,-0.0009283135877922177,0.6197075843811035,0.5855738520622253,-0.01123203244060278,0.6190695762634277,0.538114070892334,-0.01871834509074688,0.6213463544845581,0.49702414870262146,-0.02458747662603855,0.6466013789176941,0.6608389616012573,-0.006202465854585171,0.6397298574447632,0.566476583480835,-0.01812976785004139,0.635254442691803,0.5145135521888733,-0.027846328914165497,0.6368942856788635,0.47245651483535767,-0.03459145501255989,0.6676598787307739,0.671685516834259,-0.013132798485457897,0.6660183072090149,0.584441065788269,-0.03163113072514534,0.6513909697532654,0.632843017578125,-0.03473144769668579,0.6463479995727539,0.6810930967330933,-0.03246847540140152,0.6869651079177856,0.6928192377090454,-0.020795460790395737,0.6694613695144653,0.6581324934959412,-0.03714342042803764,0.6544263362884521,0.6861299872398376,-0.039656370878219604,0.6498562097549438,0.715110719203949,-0.03849966078996658,0.0,0.0,0.0,0.0,0.0,0.0,0.0,0.0,0.0,0.0,0.0,0.0,0.0,0.0,0.0,0.0,0.0,0.0,0.0,0.0,0.0,0.0,0.0,0.0,0.0,0.0,0.0,0.0,0.0,0.0,0.0,0.0,0.0,0.0,0.0,0.0,0.0,0.0,0.0,0.0,0.0,0.0,0.0,0.0,0.0,0.0,0.0,0.0,0.0,0.0,0.0,0.0,0.0,0.0,0.0,0.0,0.0,0.0,0.0,0.0,0.0,0.0,0.0
1783345105.835725,0.6642213463783264,0.8504711985588074,2.484203207586688e-07,0.6300435066223145,0.8101291656494141,-0.008131086826324463,0.6172289252281189,0.72978675365448,-0.011361980810761452,0.6311194896697998,0.6659610271453857,-0.017134591937065125,0.6544885635375977,0.6304324269294739,-0.02276081033051014,0.6251618266105652,0.6672280430793762,-0.0013619862729683518,0.6199069619178772,0.5852382183074951,-0.012030127458274364,0.6193357110023499,0.5376845002174377,-0.019568582996726036,0.6217206120491028,0.4964921474456787,-0.025267599150538445,0.6466591954231262,0.6606081128120422,-0.006723689381033182,0.6399217844009399,0.5657861232757568,-0.018918953835964203,0.6352770328521729,0.5139409899711609,-0.028405314311385155,0.6365172266960144,0.47189274430274963,-0.03477252274751663,0.6677688360214233,0.6714462637901306,-0.013771075755357742,0.6661596894264221,0.584973156452179,-0.032849300652742386,0.651637613773346,0.6341968178749084,-0.03586763143539429,0.6465449929237366,0.6824244856834412,-0.033259812742471695,0.6870240569114685,0.6925598978996277,-0.021522028371691704,0.6695529818534851,0.6567323207855225,-0.03799963742494583,0.6541987657546997,0.6853402853012085,-0.04012652114033699,0.6491117477416992,0.7148666381835938,-0.03857662156224251,0.0,0.0,0.0,0.0,0.0,0.0,0.0,0.0,0.0,0.0,0.0,0.0,0.0,0.0,0.0,0.0,0.0,0.0,0.0,0.0,0.0,0.0,0.0,0.0,0.0,0.0,0.0,0.0,0.0,0.0,0.0,0.0,0.0,0.0,0.0,0.0,0.0,0.0,0.0,0.0,0.0,0.0,0.0,0.0,0.0,0.0,0.0,0.0,0.0,0.0,0.0,0.0,0.0,0.0,0.0,0.0,0.0,0.0,0.0,0.0,0.0,0.0,0.0
1783345105.987575,0.6638298034667969,0.8517216444015503,2.52876503736843e-07,0.6302698850631714,0.809472382068634,-0.007799282670021057,0.617591917514801,0.7287402153015137,-0.010913738049566746,0.6319042444229126,0.665549099445343,-0.016564195975661278,0.6556823253631592,0.6303740739822388,-0.022139495238661766,0.6258076429367065,0.6673274636268616,-0.0012920544249936938,0.6210054755210876,0.5847585797309875,-0.011692545376718044,0.6203131079673767,0.5367471575737,-0.019165145233273506,0.6223067045211792,0.49514928460121155,-0.024945000186562538,0.6473991870880127,0.6613031625747681,-0.006794152781367302,0.6409849524497986,0.5666413903236389,-0.018669992685317993,0.6367940902709961,0.5141853094100952,-0.02828196808695793,0.6382697224617004,0.47149401903152466,-0.034902989864349365,0.6686152219772339,0.6724441051483154,-0.013913866132497787,0.6674235463142395,0.5868310332298279,-0.03256063908338547,0.6523847579956055,0.6334447860717773,-0.03616026043891907,0.6463399529457092,0.6803818941116333,-0.034196920692920685,0.6878460645675659,0.6936966776847839,-0.021685121580958366,0.6705390810966492,0.6580857038497925,-0.03795645013451576,0.6549673676490784,0.6855018138885498,-0.04040706157684326,0.649348258972168,0.7143480181694031,-0.03924061730504036,0.0,0.0,0.0,0.0,0.0,0.0,0.0,0.0,0.0,0.0,0.0,0.0,0.0,0.0,0.0,0.0,0.0,0.0,0.0,0.0,0.0,0.0,0.0,0.0,0.0,0.0,0.0,0.0,0.0,0.0,0.0,0.0,0.0,0.0,0.0,0.0,0.0,0.0,0.0,0.0,0.0,0.0,0.0,0.0,0.0,0.0,0.0,0.0,0.0,0.0,0.0,0.0,0.0,0.0,0.0,0.0,0.0,0.0,0.0,0.0,0.0,0.0,0.0
1783345106.135087,0.6639077067375183,0.8497949838638306,2.550072792928404e-07,0.6300875544548035,0.8077237606048584,-0.007867926731705666,0.6176784038543701,0.7278880476951599,-0.011196198873221874,0.6316694617271423,0.6647576689720154,-0.01719828136265278,0.6554494500160217,0.6295202374458313,-0.023085474967956543,0.6256875395774841,0.6663042902946472,-0.0009391844505444169,0.6210080981254578,0.5846724510192871,-0.011783165857195854,0.620812714099884,0.5371579527854919,-0.01944557949900627,0.6234201788902283,0.4959658086299896,-0.025118539109826088,0.6473018527030945,0.6605197191238403,-0.00648548873141408,0.6412240862846375,0.5655547976493835,-0.01883750408887863,0.6370651721954346,0.5135627388954163,-0.028228355571627617,0.6385641694068909,0.4715062379837036,-0.03437148779630661,0.6685000658035278,0.671979546546936,-0.013740800321102142,0.6670933365821838,0.5862107872962952,-0.0330374538898468,0.6522423624992371,0.635746419429779,-0.03585132956504822,0.6467174291610718,0.6840141415596008,-0.03286900371313095,0.6876780986785889,0.6935476660728455,-0.021656064316630363,0.6703304052352905,0.6554596424102783,-0.03798868507146835,0.6548851728439331,0.6843215227127075,-0.039602216333150864,0.6494406461715698,0.7146444320678711,-0.037578266113996506,0.0,0.0,0.0,0.0,0.0,0.0,0.0,0.0,0.0,0.0,0.0,0.0,0.0,0.0,0.0,0.0,0.0,0.0,0.0,0.0,0.0,0.0,0.0,0.0,0.0,0.0,0.0,0.0,0.0,0.0,0.0,0.0,0.0,0.0,0.0,0.0,0.0,0.0,0.0,0.0,0.0,0.0,0.0,0.0,0.0,0.0,0.0,0.0,0.0,0.0,0.0,0.0,0.0,0.0,0.0,0.0,0.0,0.0,0.0,0.0,0.0,0.0,0.0
1783345106.302363,0.6638124585151672,0.850421667098999,2.441832407384936e-07,0.6302957534790039,0.8086433410644531,-0.007550681475549936,0.6178913116455078,0.7283903956413269,-0.010362476110458374,0.6319630146026611,0.6653758883476257,-0.01585298404097557,0.6552508473396301,0.6309160590171814,-0.021304255351424217,0.6264193654060364,0.666819155216217,-0.00041031991713680327,0.6219506859779358,0.5849894285202026,-0.010624266229569912,0.621463418006897,0.5375710725784302,-0.017882954329252243,0.623542845249176,0.4962218999862671,-0.023482942953705788,0.6478583812713623,0.6609253287315369,-0.006018612999469042,0.6419622302055359,0.566729724407196,-0.01782228797674179,0.6376794576644897,0.5147286057472229,-0.02721462771296501,0.6387600302696228,0.47238776087760925,-0.03362346440553665,0.6689765453338623,0.6721305251121521,-0.013308118097484112,0.6678457260131836,0.5856491327285767,-0.032304320484399796,0.6531113982200623,0.6325706243515015,-0.036003708839416504,0.6471296548843384,0.6795823574066162,-0.033952731639146805,0.6882908344268799,0.6935617327690125,-0.02119699865579605,0.6714040040969849,0.6565150618553162,-0.03771007061004639,0.6558802723884583,0.6849893927574158,-0.04015035554766655,0.6500285863876343,0.7152947783470154,-0.03891200199723244,0.0,0.0,0.0,0.0,0.0,0.0,0.0,0.0,0.0,0.0,0.0,0.0,0.0,0.0,0.0,0.0,0.0,0.0,0.0,0.0,0.0,0.0,0.0,0.0,0.0,0.0,0.0,0.0,0.0,0.0,0.0,0.0,0.0,0.0,0.0,0.0,0.0,0.0,0.0,0.0,0.0,0.0,0.0,0.0,0.0,0.0,0.0,0.0,0.0,0.0,0.0,0.0,0.0,0.0,0.0,0.0,0.0,0.0,0.0,0.0,0.0,0.0,0.0
1783345106.4676669,0.6646496057510376,0.850341796875,2.4215941607508285e-07,0.6312559843063354,0.807928740978241,-0.007476449944078922,0.6194681525230408,0.7298451066017151,-0.01048213429749012,0.6332353949546814,0.6684613227844238,-0.01614428125321865,0.6551434993743896,0.634001612663269,-0.021756747737526894,0.6278644800186157,0.6680014729499817,-0.0008246828801929951,0.6233784556388855,0.5862023234367371,-0.011248644441366196,0.6222742795944214,0.538712203502655,-0.018616633489727974,0.6238406300544739,0.4974530041217804,-0.02414262667298317,0.6494305729866028,0.6620175838470459,-0.006429506000131369,0.6438310146331787,0.567905068397522,-0.018363669514656067,0.6391364932060242,0.5153228640556335,-0.027963390573859215,0.6399939656257629,0.4727049767971039,-0.03444397822022438,0.6706465482711792,0.6729099154472351,-0.013632663525640965,0.6695468425750732,0.5884032249450684,-0.03231002762913704,0.6545388698577881,0.633665919303894,-0.0360369011759758,0.6485286355018616,0.6795375347137451,-0.03405104577541351,0.6898185610771179,0.6940100789070129,-0.02143295668065548,0.6729303598403931,0.658689022064209,-0.037101861089468,0.6576197743415833,0.6844425201416016,-0.039183635264635086,0.6522355675697327,0.7121720314025879,-0.03777154162526131,0.0,0.0,0.0,0.0,0.0,0.0,0.0,0.0,0.0,0.0,0.0,0.0,0.0,0.0,0.0,0.0,0.0,0.0,0.0,0.0,0.0,0.0,0.0,0.0,0.0,0.0,0.0,0.0,0.0,0.0,0.0,0.0,0.0,0.0,0.0,0.0,0.0,0.0,0.0,0.0,0.0,0.0,0.0,0.0,0.0,0.0,0.0,0.0,0.0,0.0,0.0,0.0,0.0,0.0,0.0,0.0,0.0,0.0,0.0,0.0,0.0,0.0,0.0
1783345106.616103,0.6645153164863586,0.8486378192901611,2.5776273560040863e-07,0.631262481212616,0.806318461894989,-0.007664617616683245,0.6195639967918396,0.7273090481758118,-0.011046202853322029,0.6328245997428894,0.6655880808830261,-0.017263002693653107,0.6550605297088623,0.6297609806060791,-0.023351382464170456,0.6281536221504211,0.664651095867157,-0.00016982469242066145,0.6229894757270813,0.5836108326911926,-0.011369667947292328,0.622911810874939,0.536049485206604,-0.019108444452285767,0.6258292198181152,0.4949643611907959,-0.024603422731161118,0.6494930386543274,0.6595138311386108,-0.00598815968260169,0.6434977054595947,0.5645545125007629,-0.018801933154463768,0.6391968131065369,0.5128901600837708,-0.028347745537757874,0.6406410932540894,0.4712178111076355,-0.03428374230861664,0.6705024242401123,0.6714896559715271,-0.013574963435530663,0.6686747074127197,0.5862591862678528,-0.03348633274435997,0.65361088514328,0.6360381841659546,-0.036126721650362015,0.6480851173400879,0.6838846802711487,-0.032654281705617905,0.6895188689231873,0.6935372352600098,-0.021770088002085686,0.6722479462623596,0.6541526913642883,-0.03822239488363266,0.6571188569068909,0.6836672425270081,-0.0393245592713356,0.652052104473114,0.7144460678100586,-0.03670339658856392,0.0,0.0,0.0,0.0,0.0,0.0,0.0,0.0,0.0,0.0,0.0,0.0,0.0,0.0,0.0,0.0,0.0,0.0,0.0,0.0,0.0,0.0,0.0,0.0,0.0,0.0,0.0,0.0,0.0,0.0,0.0,0.0,0.0,0.0,0.0,0.0,0.0,0.0,0.0,0.0,0.0,0.0,0.0,0.0,0.0,0.0,0.0,0.0,0.0,0.0,0.0,0.0,0.0,0.0,0.0,0.0,0.0,0.0,0.0,0.0,0.0,0.0,0.0
1783345106.755629,0.6658503413200378,0.8497334718704224,2.3671626081522845e-07,0.6327887773513794,0.8079158663749695,-0.00786903128027916,0.6208173036575317,0.7285861968994141,-0.010984132066369057,0.6355381608009338,0.667049765586853,-0.016602011397480965,0.6593241095542908,0.6352311372756958,-0.02222142368555069,0.6313689351081848,0.664277970790863,-0.001436143764294684,0.6270924806594849,0.5832526087760925,-0.011806264519691467,0.6261655688285828,0.5357570648193359,-0.019258582964539528,0.6279447674751282,0.49447450041770935,-0.025058763101696968,0.6528668999671936,0.6597825884819031,-0.006983201950788498,0.6470281481742859,0.5654839277267456,-0.01887282356619835,0.6426849961280823,0.5132724046707153,-0.028359990566968918,0.6438838243484497,0.4710124731063843,-0.0348917618393898,0.6738200783729553,0.672417163848877,-0.014156769029796124,0.6733362674713135,0.5851904153823853,-0.03329399600625038,0.6578440070152283,0.6306048631668091,-0.03712901100516319,0.6510259509086609,0.6766204833984375,-0.035217251628637314,0.6928334832191467,0.6955241560935974,-0.021892109885811806,0.67548006772995,0.6571597456932068,-0.038489680737257004,0.6600313782691956,0.6842767596244812,-0.04082144796848297,0.654504120349884,0.7132275104522705,-0.039514996111392975,0.0,0.0,0.0,0.0,0.0,0.0,0.0,0.0,0.0,0.0,0.0,0.0,0.0,0.0,0.0,0.0,0.0,0.0,0.0,0.0,0.0,0.0,0.0,0.0,0.0,0.0,0.0,0.0,0.0,0.0,0.0,0.0,0.0,0.0,0.0,0.0,0.0,0.0,0.0,0.0,0.0,0.0,0.0,0.0,0.0,0.0,0.0,0.0,0.0,0.0,0.0,0.0,0.0,0.0,0.0,0.0,0.0,0.0,0.0,0.0,0.0,0.0,0.0
1783345106.899113,0.6660051941871643,0.8502827286720276,2.4646652718729456e-07,0.6339333653450012,0.8080362677574158,-0.008586638607084751,0.6224008202552795,0.7308136820793152,-0.012285219505429268,0.6366482377052307,0.6696911454200745,-0.018452484160661697,0.6595515012741089,0.6362631320953369,-0.024487031623721123,0.6317021250724792,0.6654684543609619,-0.0014534827787429094,0.6273583769798279,0.5833578705787659,-0.012033740058541298,0.6272342801094055,0.5360232591629028,-0.01928972266614437,0.6299655437469482,0.49477317929267883,-0.024718908593058586,0.6529688239097595,0.6598272323608398,-0.0065947286784648895,0.6479092240333557,0.5651415586471558,-0.018525414168834686,0.644201934337616,0.512689471244812,-0.02764931134879589,0.6459516286849976,0.4708195626735687,-0.03374990448355675,0.6738566756248474,0.6718555688858032,-0.013543147593736649,0.6730630397796631,0.5857293009757996,-0.032781705260276794,0.6585367321968079,0.6291217803955078,-0.03690454736351967,0.6529706716537476,0.6747276186943054,-0.03508872538805008,0.6929987668991089,0.6945751309394836,-0.021134259179234505,0.6764349341392517,0.657866895198822,-0.03768041729927063,0.6609137058258057,0.6833559274673462,-0.040447723120450974,0.6553334593772888,0.711968719959259,-0.03943425416946411,0.0,0.0,0.0,0.0,0.0,0.0,0.0,0.0,0.0,0.0,0.0,0.0,0.0,0.0,0.0,0.0,0.0,0.0,0.0,0.0,0.0,0.0,0.0,0.0,0.0,0.0,0.0,0.0,0.0,0.0,0.0,0.0,0.0,0.0,0.0,0.0,0.0,0.0,0.0,0.0,0.0,0.0,0.0,0.0,0.0,0.0,0.0,0.0,0.0,0.0,0.0,0.0,0.0,0.0,0.0,0.0,0.0,0.0,0.0,0.0,0.0,0.0,0.0
1783345107.061337,0.6665815114974976,0.8472913503646851,2.5642282253102167e-07,0.6336694955825806,0.8033739924430847,-0.008746691048145294,0.6226926445960999,0.7258126735687256,-0.012667720206081867,0.6369514465332031,0.6651707887649536,-0.019307371228933334,0.6602962613105774,0.6305350065231323,-0.02577352337539196,0.6311033964157104,0.6644627451896667,-0.0004526922130025923,0.6264243721961975,0.5825197100639343,-0.011816886253654957,0.6265702843666077,0.5347427725791931,-0.01957141049206257,0.6297634840011597,0.49348413944244385,-0.024979153648018837,0.6524885892868042,0.6594587564468384,-0.005757676437497139,0.6470180153846741,0.5652148127555847,-0.018635094165802002,0.6429135203361511,0.5132167339324951,-0.028059037402272224,0.6445438861846924,0.47083380818367004,-0.03389688953757286,0.6733323335647583,0.6713336110115051,-0.013032833114266396,0.6729278564453125,0.5889155864715576,-0.032957710325717926,0.6582489013671875,0.6372247338294983,-0.035790927708148956,0.6527425050735474,0.6839559078216553,-0.03243014216423035,0.6921291947364807,0.693334698677063,-0.021060682833194733,0.6764916777610779,0.654179573059082,-0.03698325902223587,0.6611912846565247,0.6816496849060059,-0.037980012595653534,0.6554173827171326,0.7113584876060486,-0.035447459667921066,0.0,0.0,0.0,0.0,0.0,0.0,0.0,0.0,0.0,0.0,0.0,0.0,0.0,0.0,0.0,0.0,0.0,0.0,0.0,0.0,0.0,0.0,0.0,0.0,0.0,0.0,0.0,0.0,0.0,0.0,0.0,0.0,0.0,0.0,0.0,0.0,0.0,0.0,0.0,0.0,0.0,0.0,0.0,0.0,0.0,0.0,0.0,0.0,0.0,0.0,0.0,0.0,0.0,0.0,0.0,0.0,0.0,0.0,0.0,0.0,0.0,0.0,0.0
1783345107.1916611,0.6678101420402527,0.8458511829376221,2.435031376535335e-07,0.6350363492965698,0.8032941818237305,-0.008115620352327824,0.6236423254013062,0.7256942391395569,-0.011607812717556953,0.6380089521408081,0.6654400825500488,-0.017785821110010147,0.660581648349762,0.6311789155006409,-0.023835675790905952,0.6325876712799072,0.6616963744163513,-0.0005570799694396555,0.6282833218574524,0.5815028548240662,-0.011351915076375008,0.6278867125511169,0.5347127914428711,-0.018950004130601883,0.6301472783088684,0.4938924014568329,-0.024508217349648476,0.6538951396942139,0.657131552696228,-0.006063763052225113,0.6483222842216492,0.5640875697135925,-0.018487516790628433,0.6441323757171631,0.5126943588256836,-0.02808280661702156,0.6453760862350464,0.4701150059700012,-0.03429106995463371,0.6749036908149719,0.6694995760917664,-0.01335099246352911,0.6737961769104004,0.5866751670837402,-0.03293579816818237,0.6590418219566345,0.6344455480575562,-0.036504361778497696,0.653215765953064,0.6810744404792786,-0.03396010026335716,0.6941418647766113,0.6920411586761475,-0.0212718453258276,0.6777392029762268,0.6548576354980469,-0.03737931326031685,0.6616994142532349,0.680483877658844,-0.039235781878232956,0.655124843120575,0.7081738114356995,-0.03746727854013443,0.0,0.0,0.0,0.0,0.0,0.0,0.0,0.0,0.0,0.0,0.0,0.0,0.0,0.0,0.0,0.0,0.0,0.0,0.0,0.0,0.0,0.0,0.0,0.0,0.0,0.0,0.0,0.0,0.0,0.0,0.0,0.0,0.0,0.0,0.0,0.0,0.0,0.0,0.0,0.0,0.0,0.0,0.0,0.0,0.0,0.0,0.0,0.0,0.0,0.0,0.0,0.0,0.0,0.0,0.0,0.0,0.0,0.0,0.0,0.0,0.0,0.0,0.0
1783345107.315698,0.6681694388389587,0.8466315269470215,2.5475500819993613e-07,0.6350882649421692,0.8043240308761597,-0.00894591398537159,0.6237045526504517,0.7237863540649414,-0.012423591688275337,0.6381807923316956,0.6618970632553101,-0.01848185434937477,0.6611425876617432,0.627719521522522,-0.024298060685396194,0.632568895816803,0.6627331972122192,-0.0004049882118124515,0.6276381015777588,0.5818213820457458,-0.01148487813770771,0.6279051303863525,0.5344980955123901,-0.01939278282225132,0.6311675310134888,0.4934108257293701,-0.02517896145582199,0.6537891626358032,0.6578153967857361,-0.005476729944348335,0.6476538181304932,0.5647165179252625,-0.018214687705039978,0.643614649772644,0.512771487236023,-0.027993086725473404,0.645630955696106,0.4702375829219818,-0.03432651236653328,0.6744589805603027,0.669788122177124,-0.01252896711230278,0.6742268800735474,0.586500883102417,-0.032176658511161804,0.6593250632286072,0.6341093182563782,-0.035411935299634933,0.6537004709243774,0.6813194751739502,-0.03262726962566376,0.693356454372406,0.6916047930717468,-0.020397672429680824,0.6779873967170715,0.6540184020996094,-0.036733150482177734,0.6625669002532959,0.6810138821601868,-0.03857613727450371,0.6567755937576294,0.7104306817054749,-0.0367521308362484,0.0,0.0,0.0,0.0,0.0,0.0,0.0,0.0,0.0,0.0,0.0,0.0,0.0,0.0,0.0,0.0,0.0,0.0,0.0,0.0,0.0,0.0,0.0,0.0,0.0,0.0,0.0,0.0,0.0,0.0,0.0,0.0,0.0,0.0,0.0,0.0,0.0,0.0,0.0,0.0,0.0,0.0,0.0,0.0,0.0,0.0,0.0,0.0,0.0,0.0,0.0,0.0,0.0,0.0,0.0,0.0,0.0,0.0,0.0,0.0,0.0,0.0,0.0
1783345107.458584,0.6685091853141785,0.846493124961853,2.5968665795517154e-07,0.6350818276405334,0.8037144541740417,-0.008651980198919773,0.6235305070877075,0.7248587608337402,-0.012361877597868443,0.6377488374710083,0.6637259125709534,-0.018710315227508545,0.6603853106498718,0.6289010643959045,-0.024809429422020912,0.632039487361908,0.661735475063324,-0.00039377453504130244,0.6272781491279602,0.5812995433807373,-0.011792230419814587,0.6277651786804199,0.5338959097862244,-0.019968928769230843,0.6313309669494629,0.49284544587135315,-0.02583943121135235,0.6533278822898865,0.6566802263259888,-0.005667753983289003,0.6469671726226807,0.5636090040206909,-0.018580084666609764,0.6430225372314453,0.5118377804756165,-0.028410794213414192,0.6451302766799927,0.46969738602638245,-0.03467084839940071,0.6742590069770813,0.6687443852424622,-0.012881837785243988,0.6737284064292908,0.5858911871910095,-0.0326911099255085,0.658892810344696,0.6342786550521851,-0.035879947245121,0.6533181667327881,0.6819863319396973,-0.03295353427529335,0.6933269500732422,0.6909599304199219,-0.020860997959971428,0.6773513555526733,0.6540501713752747,-0.03727816045284271,0.6616058945655823,0.6813309788703918,-0.03902512416243553,0.6554213166236877,0.7106447219848633,-0.0370122529566288,0.0,0.0,0.0,0.0,0.0,0.0,0.0,0.0,0.0,0.0,0.0,0.0,0.0,0.0,0.0,0.0,0.0,0.0,0.0,0.0,0.0,0.0,0.0,0.0,0.0,0.0,0.0,0.0,0.0,0.0,0.0,0.0,0.0,0.0,0.0,0.0,0.0,0.0,0.0,0.0,0.0,0.0,0.0,0.0,0.0,0.0,0.0,0.0,0.0,0.0,0.0,0.0,0.0,0.0,0.0,0.0,0.0,0.0,0.0,0.0,0.0,0.0,0.0
