ciel274/research-hand-sign/data/raw/hiragana/sign_language_ki_1.csv
timestamp,R_joint_0_x,R_joint_0_y,R_joint_0_z,R_joint_1_x,R_joint_1_y,R_joint_1_z,R_joint_2_x,R_joint_2_y,R_joint_2_z,R_joint_3_x,R_joint_3_y,R_joint_3_z,R_joint_4_x,R_joint_4_y,R_joint_4_z,R_joint_5_x,R_joint_5_y,R_joint_5_z,R_joint_6_x,R_joint_6_y,R_joint_6_z,R_joint_7_x,R_joint_7_y,R_joint_7_z,R_joint_8_x,R_joint_8_y,R_joint_8_z,R_joint_9_x,R_joint_9_y,R_joint_9_z,R_joint_10_x,R_joint_10_y,R_joint_10_z,R_joint_11_x,R_joint_11_y,R_joint_11_z,R_joint_12_x,R_joint_12_y,R_joint_12_z,R_joint_13_x,R_joint_13_y,R_joint_13_z,R_joint_14_x,R_joint_14_y,R_joint_14_z,R_joint_15_x,R_joint_15_y,R_joint_15_z,R_joint_16_x,R_joint_16_y,R_joint_16_z,R_joint_17_x,R_joint_17_y,R_joint_17_z,R_joint_18_x,R_joint_18_y,R_joint_18_z,R_joint_19_x,R_joint_19_y,R_joint_19_z,R_joint_20_x,R_joint_20_y,R_joint_20_z,L_joint_0_x,L_joint_0_y,L_joint_0_z,L_joint_1_x,L_joint_1_y,L_joint_1_z,L_joint_2_x,L_joint_2_y,L_joint_2_z,L_joint_3_x,L_joint_3_y,L_joint_3_z,L_joint_4_x,L_joint_4_y,L_joint_4_z,L_joint_5_x,L_joint_5_y,L_joint_5_z,L_joint_6_x,L_joint_6_y,L_joint_6_z,L_joint_7_x,L_joint_7_y,L_joint_7_z,L_joint_8_x,L_joint_8_y,L_joint_8_z,L_joint_9_x,L_joint_9_y,L_joint_9_z,L_joint_10_x,L_joint_10_y,L_joint_10_z,L_joint_11_x,L_joint_11_y,L_joint_11_z,L_joint_12_x,L_joint_12_y,L_joint_12_z,L_joint_13_x,L_joint_13_y,L_joint_13_z,L_joint_14_x,L_joint_14_y,L_joint_14_z,L_joint_15_x,L_joint_15_y,L_joint_15_z,L_joint_16_x,L_joint_16_y,L_joint_16_z,L_joint_17_x,L_joint_17_y,L_joint_17_z,L_joint_18_x,L_joint_18_y,L_joint_18_z,L_joint_19_x,L_joint_19_y,L_joint_19_z,L_joint_20_x,L_joint_20_y,L_joint_20_z
1783390524.658389,0.6978856921195984,0.761835515499115,6.877067448840535e-08,0.6586672067642212,0.7368987202644348,-0.020666401833295822,0.63764888048172,0.6699156165122986,-0.032253384590148926,0.6484702229499817,0.6095852851867676,-0.04271892085671425,0.6652735471725464,0.5708772540092468,-0.052083227783441544,0.6273946762084961,0.565227746963501,-0.023939363658428192,0.6015624403953552,0.4763231575489044,-0.04281344264745712,0.587827205657959,0.42341721057891846,-0.055261895060539246,0.5759888291358948,0.3727547824382782,-0.06498251110315323,0.6572217345237732,0.5486595034599304,-0.024850420653820038,0.6475695371627808,0.462422639131546,-0.05900748819112778,0.6493421792984009,0.5164656639099121,-0.07060499489307404,0.6502475142478943,0.5605527758598328,-0.07062721252441406,0.6868193745613098,0.5496671199798584,-0.02781759761273861,0.6844632625579834,0.4977286159992218,-0.058028444647789,0.6774798035621643,0.5671787858009338,-0.05752982571721077,0.6708894371986389,0.6187571287155151,-0.04839569330215454,0.7137802243232727,0.5607441067695618,-0.03273434191942215,0.7243110537528992,0.4794284701347351,-0.054754290729761124,0.7301318049430847,0.42611777782440186,-0.0605827160179615,0.7322907447814941,0.3706023395061493,-0.06057602912187576,0.0,0.0,0.0,0.0,0.0,0.0,0.0,0.0,0.0,0.0,0.0,0.0,0.0,0.0,0.0,0.0,0.0,0.0,0.0,0.0,0.0,0.0,0.0,0.0,0.0,0.0,0.0,0.0,0.0,0.0,0.0,0.0,0.0,0.0,0.0,0.0,0.0,0.0,0.0,0.0,0.0,0.0,0.0,0.0,0.0,0.0,0.0,0.0,0.0,0.0,0.0,0.0,0.0,0.0,0.0,0.0,0.0,0.0,0.0,0.0,0.0,0.0,0.0
1783390524.8974211,0.6977119445800781,0.7579001784324646,8.016182562187169e-08,0.6594430804252625,0.7344983220100403,-0.020847896113991737,0.6380491256713867,0.6723296642303467,-0.03324485570192337,0.649000346660614,0.6167152523994446,-0.04497207701206207,0.6645393371582031,0.5785380005836487,-0.05561152100563049,0.6281938552856445,0.5593843460083008,-0.02301868610084057,0.603236198425293,0.4726998805999756,-0.04167736694216728,0.5891105532646179,0.4205821454524994,-0.05308407545089722,0.5770460367202759,0.3701702058315277,-0.06178511306643486,0.6580206751823425,0.5442104339599609,-0.024744989350438118,0.6508254408836365,0.4591268002986908,-0.0608118437230587,0.6516659259796143,0.5135851502418518,-0.07334543764591217,0.6512659788131714,0.5609487295150757,-0.07309044897556305,0.6875245571136475,0.5470383167266846,-0.028529517352581024,0.6862037181854248,0.4976116120815277,-0.06129743531346321,0.6797383427619934,0.5662794709205627,-0.06196273863315582,0.6732090711593628,0.6171038150787354,-0.05250769108533859,0.7147342562675476,0.5595417022705078,-0.03407447785139084,0.7255567908287048,0.47882774472236633,-0.05678027495741844,0.7315868735313416,0.4261942207813263,-0.0624217763543129,0.7336182594299316,0.3709571957588196,-0.06180541589856148,0.0,0.0,0.0,0.0,0.0,0.0,0.0,0.0,0.0,0.0,0.0,0.0,0.0,0.0,0.0,0.0,0.0,0.0,0.0,0.0,0.0,0.0,0.0,0.0,0.0,0.0,0.0,0.0,0.0,0.0,0.0,0.0,0.0,0.0,0.0,0.0,0.0,0.0,0.0,0.0,0.0,0.0,0.0,0.0,0.0,0.0,0.0,0.0,0.0,0.0,0.0,0.0,0.0,0.0,0.0,0.0,0.0,0.0,0.0,0.0,0.0,0.0,0.0
1783390525.0610838,0.6974745988845825,0.7600560784339905,6.509472427751462e-08,0.6594376564025879,0.736778974533081,-0.02094297483563423,0.6370440125465393,0.6731136441230774,-0.033306095749139786,0.647133469581604,0.616037130355835,-0.04500290006399155,0.6641653180122375,0.5786738991737366,-0.05556704103946686,0.6282060146331787,0.5611136555671692,-0.022701429203152657,0.6029026508331299,0.4745309352874756,-0.041056014597415924,0.588384747505188,0.4230089783668518,-0.05262616276741028,0.5762090086936951,0.3729420602321625,-0.06165645271539688,0.657798171043396,0.5460646748542786,-0.02435990236699581,0.6514955163002014,0.46378836035728455,-0.06031423807144165,0.6524394154548645,0.5199293494224548,-0.07296359539031982,0.651878833770752,0.5671128630638123,-0.07301130145788193,0.6871058940887451,0.5485614538192749,-0.028082115575671196,0.6859055757522583,0.5003340840339661,-0.060474198311567307,0.6792113780975342,0.5705922245979309,-0.06096053868532181,0.6723378896713257,0.6222015023231506,-0.05167701095342636,0.7138996720314026,0.5606250762939453,-0.033613983541727066,0.7250382304191589,0.4804719388484955,-0.05576002225279808,0.7312533259391785,0.427701473236084,-0.06110525503754616,0.7335120439529419,0.37180784344673157,-0.06053938716650009,0.0,0.0,0.0,0.0,0.0,0.0,0.0,0.0,0.0,0.0,0.0,0.0,0.0,0.0,0.0,0.0,0.0,0.0,0.0,0.0,0.0,0.0,0.0,0.0,0.0,0.0,0.0,0.0,0.0,0.0,0.0,0.0,0.0,0.0,0.0,0.0,0.0,0.0,0.0,0.0,0.0,0.0,0.0,0.0,0.0,0.0,0.0,0.0,0.0,0.0,0.0,0.0,0.0,0.0,0.0,0.0,0.0,0.0,0.0,0.0,0.0,0.0,0.0
1783390525.249187,0.6973782181739807,0.7610035538673401,5.896816546169248e-08,0.6596218347549438,0.7397629022598267,-0.021272072568535805,0.6373579502105713,0.677031397819519,-0.033612556755542755,0.6476134657859802,0.6204218864440918,-0.04530111700296402,0.6642405390739441,0.5822994112968445,-0.055812615901231766,0.6280674338340759,0.5634710192680359,-0.023093372583389282,0.6024173498153687,0.4776651859283447,-0.041410814970731735,0.5879528522491455,0.42688462138175964,-0.05210283398628235,0.5763229131698608,0.37722906470298767,-0.06023501604795456,0.6577809453010559,0.5481050610542297,-0.024765601381659508,0.6508018374443054,0.4646874964237213,-0.061419714242219925,0.651715099811554,0.5209121108055115,-0.07381551712751389,0.6516829133033752,0.5688445568084717,-0.07318813353776932,0.6873709559440613,0.5506585240364075,-0.02855883352458477,0.6859582662582397,0.5039041042327881,-0.0622870996594429,0.6793810725212097,0.5753458738327026,-0.06305164098739624,0.6727443337440491,0.6270429491996765,-0.05333555489778519,0.7144922018051147,0.5623864531517029,-0.0340813547372818,0.7250663042068481,0.4819678068161011,-0.056836698204278946,0.7312034964561462,0.4291146397590637,-0.06228029355406761,0.7333003282546997,0.3730473518371582,-0.06154624745249748,0.0,0.0,0.0,0.0,0.0,0.0,0.0,0.0,0.0,0.0,0.0,0.0,0.0,0.0,0.0,0.0,0.0,0.0,0.0,0.0,0.0,0.0,0.0,0.0,0.0,0.0,0.0,0.0,0.0,0.0,0.0,0.0,0.0,0.0,0.0,0.0,0.0,0.0,0.0,0.0,0.0,0.0,0.0,0.0,0.0,0.0,0.0,0.0,0.0,0.0,0.0,0.0,0.0,0.0,0.0,0.0,0.0,0.0,0.0,0.0,0.0,0.0,0.0
1783390525.429294,0.696678638458252,0.7712946534156799,5.4230493873319574e-08,0.6591550707817078,0.7499714493751526,-0.02111375331878662,0.636267900466919,0.6876336932182312,-0.033392731100320816,0.6468401551246643,0.6317574977874756,-0.045027416199445724,0.6658583879470825,0.5950915217399597,-0.05547165870666504,0.6283861994743347,0.5731894373893738,-0.022980010136961937,0.6034382581710815,0.4873237609863281,-0.04184885695576668,0.5887812972068787,0.436408668756485,-0.05365133658051491,0.5763891935348511,0.3865053355693817,-0.06279223412275314,0.6578884720802307,0.5586749315261841,-0.024782687425613403,0.6510444283485413,0.47571873664855957,-0.06142241880297661,0.6522442102432251,0.5315013527870178,-0.07425310462713242,0.652092695236206,0.5791383385658264,-0.0743742361664772,0.687252938747406,0.5618200302124023,-0.028653917834162712,0.6856771111488342,0.512656033039093,-0.06194925680756569,0.6795121431350708,0.5844929814338684,-0.06198030337691307,0.6733558773994446,0.6372825503349304,-0.05217255651950836,0.7136186957359314,0.5745407342910767,-0.034380920231342316,0.7250304222106934,0.4946923851966858,-0.056853994727134705,0.730717658996582,0.44094234704971313,-0.06182178482413292,0.7322565317153931,0.3834794759750366,-0.06096907705068588,0.0,0.0,0.0,0.0,0.0,0.0,0.0,0.0,0.0,0.0,0.0,0.0,0.0,0.0,0.0,0.0,0.0,0.0,0.0,0.0,0.0,0.0,0.0,0.0,0.0,0.0,0.0,0.0,0.0,0.0,0.0,0.0,0.0,0.0,0.0,0.0,0.0,0.0,0.0,0.0,0.0,0.0,0.0,0.0,0.0,0.0,0.0,0.0,0.0,0.0,0.0,0.0,0.0,0.0,0.0,0.0,0.0,0.0,0.0,0.0,0.0,0.0,0.0
1783390525.637367,0.6968450546264648,0.7726151347160339,6.362637350321165e-08,0.6584859490394592,0.7497928142547607,-0.02016919106245041,0.6364945769309998,0.6846187114715576,-0.031911350786685944,0.6474244594573975,0.6268264055252075,-0.0430549718439579,0.6660444140434265,0.5906643271446228,-0.053031522780656815,0.626724362373352,0.5755648016929626,-0.02176719345152378,0.6011443734169006,0.4895143508911133,-0.03981528431177139,0.5864577293395996,0.4376244843006134,-0.05086388811469078,0.5743395090103149,0.38734686374664307,-0.059366580098867416,0.6564021110534668,0.559724748134613,-0.023551136255264282,0.6495952010154724,0.4755745232105255,-0.05938119441270828,0.6505483984947205,0.5306136608123779,-0.07152316719293594,0.6502708196640015,0.5782676339149475,-0.0708402693271637,0.6859614253044128,0.561917245388031,-0.0273298192769289,0.684262216091156,0.513444721698761,-0.059810686856508255,0.6775875091552734,0.5843728184700012,-0.059918276965618134,0.6708318591117859,0.6368474364280701,-0.0499337837100029,0.7130200266838074,0.5734312534332275,-0.03280529007315636,0.7234060168266296,0.49226710200309753,-0.0547342449426651,0.7293168902397156,0.4388633966445923,-0.059676315635442734,0.7312477827072144,0.38272011280059814,-0.05862030014395714,0.0,0.0,0.0,0.0,0.0,0.0,0.0,0.0,0.0,0.0,0.0,0.0,0.0,0.0,0.0,0.0,0.0,0.0,0.0,0.0,0.0,0.0,0.0,0.0,0.0,0.0,0.0,0.0,0.0,0.0,0.0,0.0,0.0,0.0,0.0,0.0,0.0,0.0,0.0,0.0,0.0,0.0,0.0,0.0,0.0,0.0,0.0,0.0,0.0,0.0,0.0,0.0,0.0,0.0,0.0,0.0,0.0,0.0,0.0,0.0,0.0,0.0,0.0
1783390525.838345,0.6945933699607849,0.7758380770683289,6.401095475894181e-08,0.656705379486084,0.7518263459205627,-0.020830731838941574,0.634581983089447,0.6916574835777283,-0.03371238708496094,0.6451224088668823,0.6368799805641174,-0.045828379690647125,0.6618943810462952,0.5987868309020996,-0.056798581033945084,0.6257852911949158,0.5777463912963867,-0.02310985140502453,0.5999763607978821,0.4923636317253113,-0.04158041253685951,0.5857452750205994,0.44128143787384033,-0.053460922092199326,0.5736593008041382,0.3918820023536682,-0.06277909129858017,0.6548696160316467,0.5624117255210876,-0.024667030200362206,0.6472485661506653,0.4810909330844879,-0.05994689092040062,0.6495582461357117,0.5390216112136841,-0.07228583097457886,0.6496330499649048,0.5854792594909668,-0.0725502222776413,0.6838995814323425,0.5644135475158691,-0.02825581096112728,0.6813514828681946,0.5156983137130737,-0.05989987775683403,0.6759922504425049,0.5885728001594543,-0.05946681275963783,0.6701507568359375,0.6412053108215332,-0.04994862899184227,0.7105630040168762,0.5763824582099915,-0.033708617091178894,0.721276581287384,0.4968676269054413,-0.05580265447497368,0.7274612784385681,0.4441271126270294,-0.06096474081277847,0.7294191718101501,0.38718870282173157,-0.06041501462459564,0.0,0.0,0.0,0.0,0.0,0.0,0.0,0.0,0.0,0.0,0.0,0.0,0.0,0.0,0.0,0.0,0.0,0.0,0.0,0.0,0.0,0.0,0.0,0.0,0.0,0.0,0.0,0.0,0.0,0.0,0.0,0.0,0.0,0.0,0.0,0.0,0.0,0.0,0.0,0.0,0.0,0.0,0.0,0.0,0.0,0.0,0.0,0.0,0.0,0.0,0.0,0.0,0.0,0.0,0.0,0.0,0.0,0.0,0.0,0.0,0.0,0.0,0.0
1783390525.9860978,0.6964865326881409,0.7759876847267151,6.49049880507846e-08,0.6581361889839172,0.7536914944648743,-0.020985862240195274,0.6367741823196411,0.6882796287536621,-0.033117830753326416,0.6487589478492737,0.6308148503303528,-0.04469301924109459,0.6666808724403381,0.5934659838676453,-0.05515802651643753,0.6276601552963257,0.5786436796188354,-0.022637182846665382,0.6025019884109497,0.4920068085193634,-0.04124271869659424,0.5887762308120728,0.44004377722740173,-0.05222637951374054,0.5773615837097168,0.3899306356906891,-0.060491371899843216,0.6575390696525574,0.5632823705673218,-0.024389468133449554,0.6497048139572144,0.47941088676452637,-0.061086710542440414,0.6503463387489319,0.5338513851165771,-0.0736890360713005,0.6502748131752014,0.5803768634796143,-0.07319295406341553,0.6871421337127686,0.5656863451004028,-0.028249647468328476,0.6855798363685608,0.5171816349029541,-0.06184559687972069,0.6791533827781677,0.586885929107666,-0.06256405264139175,0.6727653741836548,0.6379838585853577,-0.052763160318136215,0.7141861319541931,0.5775260925292969,-0.03388609737157822,0.7241524457931519,0.4968356192111969,-0.05656350776553154,0.7298846244812012,0.44363635778427124,-0.06199473515152931,0.7317661643028259,0.3879025876522064,-0.06117885187268257,0.0,0.0,0.0,0.0,0.0,0.0,0.0,0.0,0.0,0.0,0.0,0.0,0.0,0.0,0.0,0.0,0.0,0.0,0.0,0.0,0.0,0.0,0.0,0.0,0.0,0.0,0.0,0.0,0.0,0.0,0.0,0.0,0.0,0.0,0.0,0.0,0.0,0.0,0.0,0.0,0.0,0.0,0.0,0.0,0.0,0.0,0.0,0.0,0.0,0.0,0.0,0.0,0.0,0.0,0.0,0.0,0.0,0.0,0.0,0.0,0.0,0.0,0.0
1783390526.1431391,0.6933521628379822,0.7761402130126953,6.256015439021212e-08,0.6560561656951904,0.7518136501312256,-0.020543765276670456,0.6349009871482849,0.6910773515701294,-0.03320813179016113,0.6450601816177368,0.6371468901634216,-0.04509757086634636,0.6619916558265686,0.5997412204742432,-0.05591275915503502,0.6259124279022217,0.5794275999069214,-0.023501014336943626,0.5999757647514343,0.493121474981308,-0.04169943928718567,0.5857495665550232,0.4415188431739807,-0.05360681191086769,0.5736389756202698,0.39150530099868774,-0.06294261664152145,0.6545155048370361,0.5646559000015259,-0.02484036237001419,0.6471044421195984,0.48344236612319946,-0.059132661670446396,0.6492184400558472,0.5382142066955566,-0.07147593796253204,0.6489168405532837,0.5825207829475403,-0.072067990899086,0.6834505200386047,0.5668057799339294,-0.028031717985868454,0.6812806129455566,0.5159460306167603,-0.05873338133096695,0.6762115359306335,0.5879190564155579,-0.05818646028637886,0.670183002948761,0.6402326226234436,-0.048826172947883606,0.7103155851364136,0.5786532759666443,-0.03305487334728241,0.7199052572250366,0.4997631013393402,-0.054538026452064514,0.7258947491645813,0.44765955209732056,-0.05940647050738335,0.7281888723373413,0.3913552165031433,-0.0586843378841877,0.0,0.0,0.0,0.0,0.0,0.0,0.0,0.0,0.0,0.0,0.0,0.0,0.0,0.0,0.0,0.0,0.0,0.0,0.0,0.0,0.0,0.0,0.0,0.0,0.0,0.0,0.0,0.0,0.0,0.0,0.0,0.0,0.0,0.0,0.0,0.0,0.0,0.0,0.0,0.0,0.0,0.0,0.0,0.0,0.0,0.0,0.0,0.0,0.0,0.0,0.0,0.0,0.0,0.0,0.0,0.0,0.0,0.0,0.0,0.0,0.0,0.0,0.0
1783390526.317295,0.694862961769104,0.7753572463989258,6.178436962045453e-08,0.656978189945221,0.7540257573127747,-0.021587321534752846,0.6354553699493408,0.6902269124984741,-0.03399241715669632,0.6455816030502319,0.6315901279449463,-0.04565231129527092,0.6609292030334473,0.591657280921936,-0.05603545159101486,0.6252227425575256,0.5791646242141724,-0.022875281050801277,0.599591851234436,0.49405190348625183,-0.041610222309827805,0.5850452184677124,0.443135142326355,-0.05255081132054329,0.573172390460968,0.393498033285141,-0.060622625052928925,0.6551100611686707,0.5631060004234314,-0.02431527152657509,0.6479802131652832,0.47897252440452576,-0.061360087245702744,0.6486113667488098,0.5342881679534912,-0.07385313510894775,0.6486076712608337,0.5824615955352783,-0.07290172576904297,0.6847110390663147,0.5653554201126099,-0.027936775237321854,0.6828193068504333,0.5181304812431335,-0.06184500455856323,0.6763642430305481,0.5889667272567749,-0.06253568828105927,0.6702202558517456,0.6405507922172546,-0.05241065099835396,0.7117321491241455,0.5768422484397888,-0.033317528665065765,0.7215855717658997,0.49591898918151855,-0.05586962774395943,0.7269521951675415,0.4425157904624939,-0.061132967472076416,0.7284361124038696,0.3863426446914673,-0.060076553374528885,0.0,0.0,0.0,0.0,0.0,0.0,0.0,0.0,0.0,0.0,0.0,0.0,0.0,0.0,0.0,0.0,0.0,0.0,0.0,0.0,0.0,0.0,0.0,0.0,0.0,0.0,0.0,0.0,0.0,0.0,0.0,0.0,0.0,0.0,0.0,0.0,0.0,0.0,0.0,0.0,0.0,0.0,0.0,0.0,0.0,0.0,0.0,0.0,0.0,0.0,0.0,0.0,0.0,0.0,0.0,0.0,0.0,0.0,0.0,0.0,0.0,0.0,0.0
1783390526.490947,0.6970567107200623,0.7767146825790405,5.5815334576436726e-08,0.6588056683540344,0.7544227242469788,-0.021532677114009857,0.6372947096824646,0.690693736076355,-0.03394132852554321,0.6477763056755066,0.6318171620368958,-0.04526025801897049,0.6634649038314819,0.5923769474029541,-0.05545644089579582,0.6274622082710266,0.5813816785812378,-0.024423178285360336,0.6019538640975952,0.4954489767551422,-0.04389173537492752,0.5873629450798035,0.4439554214477539,-0.056512173265218735,0.5746437311172485,0.3936719596385956,-0.06619811803102493,0.6570628881454468,0.5652587413787842,-0.025422008708119392,0.6487973928451538,0.48084554076194763,-0.06083352491259575,0.6504282355308533,0.5368082523345947,-0.07306718826293945,0.6508486866950989,0.5822385549545288,-0.07312248647212982,0.6862283945083618,0.5670894384384155,-0.0285585168749094,0.6841621994972229,0.518631100654602,-0.06023791804909706,0.6776976585388184,0.5889721512794495,-0.06029590964317322,0.6714540719985962,0.6398760080337524,-0.050977617502212524,0.7127906084060669,0.5785031318664551,-0.03359314426779747,0.722342312335968,0.4965951144695282,-0.05558464676141739,0.7275028228759766,0.44344136118888855,-0.060987528413534164,0.7289179563522339,0.3875300884246826,-0.06060327962040901,0.0,0.0,0.0,0.0,0.0,0.0,0.0,0.0,0.0,0.0,0.0,0.0,0.0,0.0,0.0,0.0,0.0,0.0,0.0,0.0,0.0,0.0,0.0,0.0,0.0,0.0,0.0,0.0,0.0,0.0,0.0,0.0,0.0,0.0,0.0,0.0,0.0,0.0,0.0,0.0,0.0,0.0,0.0,0.0,0.0,0.0,0.0,0.0,0.0,0.0,0.0,0.0,0.0,0.0,0.0,0.0,0.0,0.0,0.0,0.0,0.0,0.0,0.0
1783390526.6199481,0.6968274116516113,0.7746104598045349,6.574902045031195e-08,0.6585471034049988,0.7511435747146606,-0.01989361271262169,0.6379401087760925,0.6865569949150085,-0.03161533549427986,0.6498619914054871,0.6293526887893677,-0.04277639836072922,0.6676962971687317,0.5933682918548584,-0.05289118364453316,0.6268323659896851,0.578092634677887,-0.021620573475956917,0.6016867160797119,0.49259859323501587,-0.039710354059934616,0.587246835231781,0.44110342860221863,-0.05080525577068329,0.5748906135559082,0.39121735095977783,-0.05920184403657913,0.6565786600112915,0.562437117099762,-0.02343730814754963,0.6493209600448608,0.4796273112297058,-0.05892551690340042,0.6503257155418396,0.5334547162055969,-0.0710262581706047,0.6502071619033813,0.5794022679328918,-0.07037358731031418,0.6860811114311218,0.5644755959510803,-0.027243470773100853,0.6851716637611389,0.5170544981956482,-0.05946839973330498,0.6787318587303162,0.5874636173248291,-0.059611640870571136,0.6720279455184937,0.6393724083900452,-0.04964105412364006,0.7133105397224426,0.5756523013114929,-0.032750342041254044,0.7224040627479553,0.4936699867248535,-0.05457644537091255,0.7276207804679871,0.43977588415145874,-0.05943673104047775,0.729087769985199,0.3839879035949707,-0.05826285108923912,0.0,0.0,0.0,0.0,0.0,0.0,0.0,0.0,0.0,0.0,0.0,0.0,0.0,0.0,0.0,0.0,0.0,0.0,0.0,0.0,0.0,0.0,0.0,0.0,0.0,0.0,0.0,0.0,0.0,0.0,0.0,0.0,0.0,0.0,0.0,0.0,0.0,0.0,0.0,0.0,0.0,0.0,0.0,0.0,0.0,0.0,0.0,0.0,0.0,0.0,0.0,0.0,0.0,0.0,0.0,0.0,0.0,0.0,0.0,0.0,0.0,0.0,0.0
1783390526.786192,0.6974024772644043,0.7727961540222168,7.223218290164368e-08,0.659721851348877,0.7520992159843445,-0.021830152720212936,0.6384334564208984,0.6892234086990356,-0.034592319279909134,0.6487584710121155,0.6332828402519226,-0.04666366055607796,0.6645163893699646,0.594658374786377,-0.05753597989678383,0.6276435852050781,0.5778055787086487,-0.02345990762114525,0.6024466156959534,0.4918193221092224,-0.04257594048976898,0.587831974029541,0.44023221731185913,-0.05381868779659271,0.5758197903633118,0.3896489143371582,-0.0621456541121006,0.6573045253753662,0.5618005990982056,-0.025076458230614662,0.6506922245025635,0.47680944204330444,-0.06253091245889664,0.6518226861953735,0.5328329801559448,-0.07537984848022461,0.6517491936683655,0.5807533860206604,-0.07464960217475891,0.6866125464439392,0.5641399621963501,-0.028850514441728592,0.6859762668609619,0.5171404480934143,-0.06305582076311111,0.6800941824913025,0.5884731411933899,-0.06381022930145264,0.6736419200897217,0.6399035453796387,-0.05367694050073624,0.7136316895484924,0.5758336186408997,-0.03443145379424095,0.7227186560630798,0.49477261304855347,-0.05715477466583252,0.7280707955360413,0.4414307773113251,-0.06227128580212593,0.729630708694458,0.3857158422470093,-0.06106552481651306,0.0,0.0,0.0,0.0,0.0,0.0,0.0,0.0,0.0,0.0,0.0,0.0,0.0,0.0,0.0,0.0,0.0,0.0,0.0,0.0,0.0,0.0,0.0,0.0,0.0,0.0,0.0,0.0,0.0,0.0,0.0,0.0,0.0,0.0,0.0,0.0,0.0,0.0,0.0,0.0,0.0,0.0,0.0,0.0,0.0,0.0,0.0,0.0,0.0,0.0,0.0,0.0,0.0,0.0,0.0,0.0,0.0,0.0,0.0,0.0,0.0,0.0,0.0
1783390526.955627,0.6967766880989075,0.7714062929153442,8.132779072411722e-08,0.659512996673584,0.7506377696990967,-0.022595005109906197,0.6382414698600769,0.689581036567688,-0.03599086031317711,0.6479595303535461,0.6357988715171814,-0.04855222627520561,0.6633527278900146,0.5957518815994263,-0.05995016545057297,0.6275929808616638,0.5754567384719849,-0.024750318378210068,0.6031971573829651,0.4888747036457062,-0.04434846714138985,0.5888815522193909,0.43656137585639954,-0.056284349411726,0.5767556428909302,0.3857251703739166,-0.0651700496673584,0.6573762893676758,0.5602391958236694,-0.02600005827844143,0.6500751376152039,0.4774138331413269,-0.0632694736123085,0.6513243913650513,0.5327085852622986,-0.07640334218740463,0.6514316201210022,0.5791800618171692,-0.0762772336602211,0.6867591738700867,0.5629174709320068,-0.029481327161192894,0.6855913400650024,0.5172833800315857,-0.06358606368303299,0.6798083186149597,0.5882481336593628,-0.06471360474824905,0.673610270023346,0.6394593715667725,-0.055103398859500885,0.7138222455978394,0.5744759440422058,-0.03481254354119301,0.722812294960022,0.49295133352279663,-0.057838790118694305,0.7280462980270386,0.43949076533317566,-0.06340374797582626,0.7294694781303406,0.3837184011936188,-0.06262478232383728,0.0,0.0,0.0,0.0,0.0,0.0,0.0,0.0,0.0,0.0,0.0,0.0,0.0,0.0,0.0,0.0,0.0,0.0,0.0,0.0,0.0,0.0,0.0,0.0,0.0,0.0,0.0,0.0,0.0,0.0,0.0,0.0,0.0,0.0,0.0,0.0,0.0,0.0,0.0,0.0,0.0,0.0,0.0,0.0,0.0,0.0,0.0,0.0,0.0,0.0,0.0,0.0,0.0,0.0,0.0,0.0,0.0,0.0,0.0,0.0,0.0,0.0,0.0
1783390527.1474,0.6959397196769714,0.7699530720710754,6.297377552755279e-08,0.658412754535675,0.7486772537231445,-0.021934721618890762,0.6375607848167419,0.6854958534240723,-0.03453608974814415,0.6490538716316223,0.6297366619110107,-0.046265870332717896,0.6657270193099976,0.5916904211044312,-0.056802354753017426,0.6271186470985413,0.57401442527771,-0.02377859316766262,0.6026672124862671,0.48770761489868164,-0.04287157580256462,0.5882648825645447,0.43574559688568115,-0.0545266792178154,0.5761565566062927,0.38512495160102844,-0.06331265717744827,0.6569212675094604,0.5588581562042236,-0.02489844150841236,0.6499015688896179,0.4763578474521637,-0.06172934174537659,0.6512218713760376,0.5324596166610718,-0.07418718934059143,0.6513310074806213,0.5794199705123901,-0.073569655418396,0.6863099932670593,0.5615600347518921,-0.0282216127961874,0.6850827932357788,0.5160627365112305,-0.06178933009505272,0.6793509125709534,0.5882867574691772,-0.06206177920103073,0.6731523275375366,0.6400418877601624,-0.05188088119029999,0.7133340239524841,0.5725873112678528,-0.03339230641722679,0.721795380115509,0.4917071759700775,-0.05642532557249069,0.7268795967102051,0.43825528025627136,-0.06187809258699417,0.7282273769378662,0.38178741931915283,-0.06097247079014778,0.0,0.0,0.0,0.0,0.0,0.0,0.0,0.0,0.0,0.0,0.0,0.0,0.0,0.0,0.0,0.0,0.0,0.0,0.0,0.0,0.0,0.0,0.0,0.0,0.0,0.0,0.0,0.0,0.0,0.0,0.0,0.0,0.0,0.0,0.0,0.0,0.0,0.0,0.0,0.0,0.0,0.0,0.0,0.0,0.0,0.0,0.0,0.0,0.0,0.0,0.0,0.0,0.0,0.0,0.0,0.0,0.0,0.0,0.0,0.0,0.0,0.0,0.0
1783390527.3062348,0.6965659260749817,0.7713057994842529,5.841867789513344e-08,0.658424437046051,0.7502232193946838,-0.022303348407149315,0.6371157765388489,0.6872672438621521,-0.03506575524806976,0.6490737795829773,0.6297095417976379,-0.046819623559713364,0.6659913063049316,0.5905011296272278,-0.057328734546899796,0.6272385716438293,0.5763065814971924,-0.02479187212884426,0.6024275422096252,0.48902902007102966,-0.04374637454748154,0.5882994532585144,0.43690988421440125,-0.055234283208847046,0.5764631628990173,0.3861347436904907,-0.06398382037878036,0.6569699645042419,0.56055748462677,-0.025715507566928864,0.6494911313056946,0.48006850481033325,-0.06233803555369377,0.6516054272651672,0.5375919938087463,-0.07448945194482803,0.6525501608848572,0.5854933261871338,-0.07388374954462051,0.6863291263580322,0.5628325343132019,-0.028851035982370377,0.6855857372283936,0.5197072625160217,-0.06238968297839165,0.6792662143707275,0.5928356051445007,-0.06265538185834885,0.6722397208213806,0.6449516415596008,-0.05271289125084877,0.7132412791252136,0.5734749436378479,-0.033851508051157,0.7221635580062866,0.4928777813911438,-0.056832704693078995,0.7276567220687866,0.43988269567489624,-0.06223041191697121,0.7291913032531738,0.38366925716400146,-0.06144629046320915,0.0,0.0,0.0,0.0,0.0,0.0,0.0,0.0,0.0,0.0,0.0,0.0,0.0,0.0,0.0,0.0,0.0,0.0,0.0,0.0,0.0,0.0,0.0,0.0,0.0,0.0,0.0,0.0,0.0,0.0,0.0,0.0,0.0,0.0,0.0,0.0,0.0,0.0,0.0,0.0,0.0,0.0,0.0,0.0,0.0,0.0,0.0,0.0,0.0,0.0,0.0,0.0,0.0,0.0,0.0,0.0,0.0,0.0,0.0,0.0,0.0,0.0,0.0
1783390527.4884648,0.6967503428459167,0.7727997899055481,4.00125621524694e-08,0.6592987775802612,0.7490101456642151,-0.021012013778090477,0.6378785967826843,0.6896827220916748,-0.033790990710258484,0.6481876373291016,0.6354064345359802,-0.04551194608211517,0.6648463010787964,0.5981920957565308,-0.056135717779397964,0.6285421848297119,0.5770621299743652,-0.02591542713344097,0.6041856408119202,0.4894879162311554,-0.04553931951522827,0.5910126566886902,0.43750137090682983,-0.05800006166100502,0.5792465806007385,0.3870936334133148,-0.06762970983982086,0.6579980254173279,0.5630818605422974,-0.026879291981458664,0.6496663093566895,0.4846705198287964,-0.0618264339864254,0.6530703902244568,0.5431267619132996,-0.07304791361093521,0.6543225049972534,0.5877792835235596,-0.07297006994485855,0.6872953176498413,0.5654359459877014,-0.029919885098934174,0.6858572959899902,0.5210861563682556,-0.061633072793483734,0.6806642413139343,0.591732382774353,-0.060969144105911255,0.6745142340660095,0.6416903734207153,-0.05148259177803993,0.7144390344619751,0.575710654258728,-0.03478384390473366,0.7236367464065552,0.4942595660686493,-0.05766339227557182,0.7291281223297119,0.441633403301239,-0.063228540122509,0.7303955554962158,0.3858898878097534,-0.06296395510435104,0.0,0.0,0.0,0.0,0.0,0.0,0.0,0.0,0.0,0.0,0.0,0.0,0.0,0.0,0.0,0.0,0.0,0.0,0.0,0.0,0.0,0.0,0.0,0.0,0.0,0.0,0.0,0.0,0.0,0.0,0.0,0.0,0.0,0.0,0.0,0.0,0.0,0.0,0.0,0.0,0.0,0.0,0.0,0.0,0.0,0.0,0.0,0.0,0.0,0.0,0.0,0.0,0.0,0.0,0.0,0.0,0.0,0.0,0.0,0.0,0.0,0.0,0.0
1783390527.654741,0.6967376470565796,0.772132396697998,5.660113089334118e-08,0.6595328450202942,0.7486392855644226,-0.021753836423158646,0.6386337280273438,0.6878305077552795,-0.03476975858211517,0.649045467376709,0.6343574523925781,-0.04679838567972183,0.6652324795722961,0.5965769290924072,-0.05781525373458862,0.6290063858032227,0.5742449760437012,-0.02499302476644516,0.6051640510559082,0.4866243898868561,-0.04443785175681114,0.5921591520309448,0.43332865834236145,-0.056757424026727676,0.5810355544090271,0.3819945454597473,-0.06618555635213852,0.658249020576477,0.5601489543914795,-0.025853274390101433,0.6501380801200867,0.4787065088748932,-0.06123116984963417,0.6526592373847961,0.5358195304870605,-0.0730946883559227,0.6529738903045654,0.5808789134025574,-0.07296740263700485,0.6873486638069153,0.5629076957702637,-0.028887523338198662,0.6853576302528381,0.5147938132286072,-0.06095709279179573,0.6808701157569885,0.5845784544944763,-0.06102542206645012,0.6752395033836365,0.6348891854286194,-0.0516246035695076,0.7144301533699036,0.5742189288139343,-0.033812716603279114,0.7230859398841858,0.4927670955657959,-0.05665271729230881,0.7283005714416504,0.4406595528125763,-0.06259764730930328,0.729157567024231,0.3857235014438629,-0.062462128698825836,0.0,0.0,0.0,0.0,0.0,0.0,0.0,0.0,0.0,0.0,0.0,0.0,0.0,0.0,0.0,0.0,0.0,0.0,0.0,0.0,0.0,0.0,0.0,0.0,0.0,0.0,0.0,0.0,0.0,0.0,0.0,0.0,0.0,0.0,0.0,0.0,0.0,0.0,0.0,0.0,0.0,0.0,0.0,0.0,0.0,0.0,0.0,0.0,0.0,0.0,0.0,0.0,0.0,0.0,0.0,0.0,0.0,0.0,0.0,0.0,0.0,0.0,0.0
1783390527.794569,0.6964651346206665,0.7729991674423218,5.624470134080184e-08,0.6592416763305664,0.7490368485450745,-0.021743271499872208,0.6384315490722656,0.6870113015174866,-0.034512802958488464,0.6493561863899231,0.6325690746307373,-0.04631231725215912,0.6649726033210754,0.5934816598892212,-0.05708736926317215,0.6285205483436584,0.5734370946884155,-0.024349166080355644,0.605362057685852,0.48529574275016785,-0.043331328779459,0.5928592085838318,0.4319417476654053,-0.055404916405677795,0.5822390913963318,0.3804641664028168,-0.06471685320138931,0.657995879650116,0.5594461560249329,-0.02524462155997753,0.6504985094070435,0.4773404598236084,-0.06043257936835289,0.652679979801178,0.5346633791923523,-0.07230549305677414,0.6526731848716736,0.5804818272590637,-0.07215501368045807,0.6871131062507629,0.562624990940094,-0.028327131643891335,0.6854862570762634,0.513288140296936,-0.06026905030012131,0.6808543801307678,0.5838379859924316,-0.06026410683989525,0.6751330494880676,0.6346229314804077,-0.05080106854438782,0.7140578627586365,0.5745809674263,-0.03332115337252617,0.7228088974952698,0.49317729473114014,-0.05604356899857521,0.7280691862106323,0.4407324194908142,-0.061939749866724014,0.7291877269744873,0.38521671295166016,-0.06178544461727142,0.0,0.0,0.0,0.0,0.0,0.0,0.0,0.0,0.0,0.0,0.0,0.0,0.0,0.0,0.0,0.0,0.0,0.0,0.0,0.0,0.0,0.0,0.0,0.0,0.0,0.0,0.0,0.0,0.0,0.0,0.0,0.0,0.0,0.0,0.0,0.0,0.0,0.0,0.0,0.0,0.0,0.0,0.0,0.0,0.0,0.0,0.0,0.0,0.0,0.0,0.0,0.0,0.0,0.0,0.0,0.0,0.0,0.0,0.0,0.0,0.0,0.0,0.0
1783390528.097085,0.6963444948196411,0.775335967540741,4.154853527893465e-08,0.6594098210334778,0.7513523697853088,-0.022101666778326035,0.6381174325942993,0.6905210018157959,-0.03512558341026306,0.6493047475814819,0.6371458172798157,-0.04718102514743805,0.6662030816078186,0.5984074473381042,-0.058061081916093826,0.6290356516838074,0.575226902961731,-0.024841297417879105,0.6059848070144653,0.4877917170524597,-0.043730102479457855,0.5937171578407288,0.43507125973701477,-0.05509857460856438,0.5834500193595886,0.38418859243392944,-0.0637243390083313,0.658338725566864,0.5623223185539246,-0.025656279176473618,0.6508669257164001,0.48297908902168274,-0.06104877218604088,0.6538383960723877,0.5404926538467407,-0.07260477542877197,0.6546779870986938,0.5862851142883301,-0.07215206325054169,0.6876163482666016,0.5658178925514221,-0.028690580278635025,0.6863254308700562,0.5181259512901306,-0.061430178582668304,0.6825556755065918,0.5884497165679932,-0.06140337511897087,0.6773034334182739,0.6380435824394226,-0.05168106034398079,0.7147674560546875,0.5773066282272339,-0.033588625490665436,0.7235177159309387,0.49672865867614746,-0.05644918978214264,0.7287665605545044,0.44464224576950073,-0.06197715923190117,0.7296193838119507,0.38896870613098145,-0.06146455556154251,0.0,0.0,0.0,0.0,0.0,0.0,0.0,0.0,0.0,0.0,0.0,0.0,0.0,0.0,0.0,0.0,0.0,0.0,0.0,0.0,0.0,0.0,0.0,0.0,0.0,0.0,0.0,0.0,0.0,0.0,0.0,0.0,0.0,0.0,0.0,0.0,0.0,0.0,0.0,0.0,0.0,0.0,0.0,0.0,0.0,0.0,0.0,0.0,0.0,0.0,0.0,0.0,0.0,0.0,0.0,0.0,0.0,0.0,0.0,0.0,0.0,0.0,0.0
1783390528.370704,0.6964820027351379,0.7669432163238525,7.661023460059369e-08,0.6582809090614319,0.7439318299293518,-0.02132820151746273,0.637965202331543,0.6817396283149719,-0.034233205020427704,0.6513011455535889,0.6288914680480957,-0.04660304635763168,0.6706370711326599,0.5928003787994385,-0.05792834609746933,0.6280523538589478,0.5667594075202942,-0.021763185039162636,0.6057013869285583,0.4813998341560364,-0.04016128554940224,0.5931767821311951,0.42894160747528076,-0.0510626882314682,0.583181619644165,0.3786377012729645,-0.05896619334816933,0.6576110124588013,0.5536502003669739,-0.023277370259165764,0.6501181125640869,0.4702622890472412,-0.059728555381298065,0.6524301767349243,0.5241755247116089,-0.07241018861532211,0.653778076171875,0.5710332989692688,-0.07158912718296051,0.6870298385620117,0.5569446682929993,-0.026920586824417114,0.6859130859375,0.5080412030220032,-0.06047047674655914,0.6818870902061462,0.577787458896637,-0.06132734566926956,0.6766633987426758,0.6283893585205078,-0.05112162232398987,0.7147397398948669,0.5690150856971741,-0.03230976685881615,0.7222787737846375,0.4898180067539215,-0.054139118641614914,0.727307140827179,0.43855020403862,-0.05876516178250313,0.7280465960502625,0.38463449478149414,-0.057166844606399536,0.0,0.0,0.0,0.0,0.0,0.0,0.0,0.0,0.0,0.0,0.0,0.0,0.0,0.0,0.0,0.0,0.0,0.0,0.0,0.0,0.0,0.0,0.0,0.0,0.0,0.0,0.0,0.0,0.0,0.0,0.0,0.0,0.0,0.0,0.0,0.0,0.0,0.0,0.0,0.0,0.0,0.0,0.0,0.0,0.0,0.0,0.0,0.0,0.0,0.0,0.0,0.0,0.0,0.0,0.0,0.0,0.0,0.0,0.0,0.0,0.0,0.0,0.0
1783390528.557983,0.69890296459198,0.7745777368545532,5.29994110820553e-08,0.6626649498939514,0.7500944137573242,-0.022118205204606056,0.640781819820404,0.6924781799316406,-0.03614990785717964,0.6496299505233765,0.6415210962295532,-0.04965560883283615,0.6646021008491516,0.6015305519104004,-0.06186998635530472,0.6321372389793396,0.5734636187553406,-0.024361174553632736,0.6080029606819153,0.48522746562957764,-0.04366672784090042,0.5954363346099854,0.4329255223274231,-0.055161792784929276,0.5853840112686157,0.38268986344337463,-0.06354790180921555,0.6606777310371399,0.5622879266738892,-0.02585056982934475,0.6540843844413757,0.4838634431362152,-0.06230630725622177,0.6576710939407349,0.539378821849823,-0.07510174065828323,0.6592525243759155,0.584137499332428,-0.07525032013654709,0.6895777583122253,0.5654714703559875,-0.029512174427509308,0.6885327100753784,0.5157343745231628,-0.06302616000175476,0.6858005523681641,0.5840137600898743,-0.06339333206415176,0.6814787983894348,0.6330905556678772,-0.05364339053630829,0.7165231108665466,0.5773369073867798,-0.035043612122535706,0.7265501022338867,0.4972827136516571,-0.056945040822029114,0.7317667603492737,0.4449459910392761,-0.06133003532886505,0.7320474982261658,0.3894555866718292,-0.059934068471193314,0.0,0.0,0.0,0.0,0.0,0.0,0.0,0.0,0.0,0.0,0.0,0.0,0.0,0.0,0.0,0.0,0.0,0.0,0.0,0.0,0.0,0.0,0.0,0.0,0.0,0.0,0.0,0.0,0.0,0.0,0.0,0.0,0.0,0.0,0.0,0.0,0.0,0.0,0.0,0.0,0.0,0.0,0.0,0.0,0.0,0.0,0.0,0.0,0.0,0.0,0.0,0.0,0.0,0.0,0.0,0.0,0.0,0.0,0.0,0.0,0.0,0.0,0.0
1783390528.6884851,0.7003065943717957,0.7762467265129089,3.474867682484728e-08,0.6628149747848511,0.747361958026886,-0.020542658865451813,0.642469584941864,0.6892256140708923,-0.0336938351392746,0.6526899933815002,0.6373438835144043,-0.04605817422270775,0.6718553304672241,0.5998488068580627,-0.057529106736183167,0.6332492828369141,0.5771180987358093,-0.024501988664269447,0.6094928979873657,0.4889785349369049,-0.04363963380455971,0.5970576405525208,0.4351542592048645,-0.05652390047907829,0.5862657427787781,0.38495537638664246,-0.0664975568652153,0.6624236702919006,0.5653733611106873,-0.025401223450899124,0.6536185145378113,0.4891299903392792,-0.058530207723379135,0.6569920182228088,0.5442816019058228,-0.06990281492471695,0.6579821109771729,0.5849620699882507,-0.07067078351974487,0.6917981505393982,0.5676195025444031,-0.028330883011221886,0.6894526481628418,0.5183806419372559,-0.05788784474134445,0.6854609847068787,0.586286723613739,-0.05703822895884514,0.6801211833953857,0.6355359554290771,-0.04823197424411774,0.7186892032623291,0.5778021216392517,-0.033200155943632126,0.7271470427513123,0.4979972541332245,-0.05460777133703232,0.7319846153259277,0.4459192752838135,-0.05978575348854065,0.7326464653015137,0.39106932282447815,-0.05966310203075409,0.0,0.0,0.0,0.0,0.0,0.0,0.0,0.0,0.0,0.0,0.0,0.0,0.0,0.0,0.0,0.0,0.0,0.0,0.0,0.0,0.0,0.0,0.0,0.0,0.0,0.0,0.0,0.0,0.0,0.0,0.0,0.0,0.0,0.0,0.0,0.0,0.0,0.0,0.0,0.0,0.0,0.0,0.0,0.0,0.0,0.0,0.0,0.0,0.0,0.0,0.0,0.0,0.0,0.0,0.0,0.0,0.0,0.0,0.0,0.0,0.0,0.0,0.0
1783390528.85445,0.6994643807411194,0.7708203792572021,5.391314417124704e-08,0.6617348790168762,0.7458304166793823,-0.020834125578403473,0.6418954730033875,0.6830019354820251,-0.03326667100191116,0.6553575992584229,0.6293533444404602,-0.04502137005329132,0.6736064553260803,0.5919949412345886,-0.055795665830373764,0.6323674321174622,0.5711542367935181,-0.02218990959227085,0.6096698045730591,0.4849122166633606,-0.04046202078461647,0.5967428088188171,0.43204715847969055,-0.05163269117474556,0.5859453678131104,0.3814995586872101,-0.059991493821144104,0.6617289781570435,0.5579318404197693,-0.023484444245696068,0.6539667844772339,0.4747943878173828,-0.058834392577409744,0.656093955039978,0.5306404829025269,-0.07087201625108719,0.6571011543273926,0.577062726020813,-0.07020150125026703,0.6908835768699646,0.5611596703529358,-0.026830168440937996,0.6892985701560974,0.5101034045219421,-0.05898130685091019,0.6853291392326355,0.5792407393455505,-0.059078384190797806,0.6806609630584717,0.6295807361602783,-0.04904841259121895,0.7183007001876831,0.5728728175163269,-0.031956467777490616,0.7258198857307434,0.4922080338001251,-0.05367457866668701,0.7306575775146484,0.44022423028945923,-0.05855848640203476,0.731613039970398,0.3857669234275818,-0.057419124990701675,0.0,0.0,0.0,0.0,0.0,0.0,0.0,0.0,0.0,0.0,0.0,0.0,0.0,0.0,0.0,0.0,0.0,0.0,0.0,0.0,0.0,0.0,0.0,0.0,0.0,0.0,0.0,0.0,0.0,0.0,0.0,0.0,0.0,0.0,0.0,0.0,0.0,0.0,0.0,0.0,0.0,0.0,0.0,0.0,0.0,0.0,0.0,0.0,0.0,0.0,0.0,0.0,0.0,0.0,0.0,0.0,0.0,0.0,0.0,0.0,0.0,0.0,0.0
1783390528.980594,0.6993135809898376,0.7669664025306702,8.529767114850983e-08,0.6620295643806458,0.7449573874473572,-0.020247798413038254,0.6375091075897217,0.6886848211288452,-0.0331043116748333,0.64255291223526,0.638735294342041,-0.04588655009865761,0.6546228528022766,0.5996756553649902,-0.057378970086574554,0.6341301202774048,0.5688020586967468,-0.0218487735837698,0.611203134059906,0.4818841218948364,-0.039382271468639374,0.5985287427902222,0.4291190505027771,-0.049313899129629135,0.588692843914032,0.3793207108974457,-0.056551747024059296,0.6624850630760193,0.5583503246307373,-0.0243351049721241,0.6540720462799072,0.478372722864151,-0.0610831081867218,0.6508114337921143,0.5323479771614075,-0.07358167320489883,0.649321436882019,0.5839720368385315,-0.07278314977884293,0.6913841962814331,0.5632030367851257,-0.028834400698542595,0.685306191444397,0.5191807150840759,-0.06284405291080475,0.6755639314651489,0.5883188247680664,-0.06373940408229828,0.6683138608932495,0.6398880481719971,-0.05385157838463783,0.718254804611206,0.5755623579025269,-0.03489655256271362,0.7284145355224609,0.49768027663230896,-0.05680239945650101,0.7333143949508667,0.4466927647590637,-0.06120093911886215,0.7342332601547241,0.39257001876831055,-0.059608303010463715,0.0,0.0,0.0,0.0,0.0,0.0,0.0,0.0,0.0,0.0,0.0,0.0,0.0,0.0,0.0,0.0,0.0,0.0,0.0,0.0,0.0,0.0,0.0,0.0,0.0,0.0,0.0,0.0,0.0,0.0,0.0,0.0,0.0,0.0,0.0,0.0,0.0,0.0,0.0,0.0,0.0,0.0,0.0,0.0,0.0,0.0,0.0,0.0,0.0,0.0,0.0,0.0,0.0,0.0,0.0,0.0,0.0,0.0,0.0,0.0,0.0,0.0,0.0
1783390529.119282,0.7002246379852295,0.7640179991722107,5.750848686147947e-08,0.6636142730712891,0.7371163368225098,-0.013998420909047127,0.6363924145698547,0.6755762100219727,-0.023379145190119743,0.6349292397499084,0.628638744354248,-0.03374398872256279,0.6428048610687256,0.5895650386810303,-0.04266078770160675,0.6425286531448364,0.5600824356079102,-0.01713201217353344,0.6192094087600708,0.47016066312789917,-0.03315429389476776,0.605431854724884,0.4183628559112549,-0.04080941900610924,0.5950369834899902,0.3697187304496765,-0.04650039225816727,0.6678735017776489,0.5553159117698669,-0.021844927221536636,0.6508747339248657,0.47366446256637573,-0.058080483227968216,0.6409177184104919,0.5298754572868347,-0.06893236935138702,0.6372104287147522,0.5850476026535034,-0.06690528988838196,0.6948749423027039,0.563145101070404,-0.02827041782438755,0.6767634153366089,0.5196983218193054,-0.06208692491054535,0.6600744128227234,0.5873023271560669,-0.06284728646278381,0.6511386036872864,0.6393707990646362,-0.05315418913960457,0.7201844453811646,0.5771662592887878,-0.035729117691516876,0.7322229743003845,0.5005317330360413,-0.058973826467990875,0.7368049025535583,0.44933658838272095,-0.06528432667255402,0.738003134727478,0.39530688524246216,-0.06525319069623947,0.0,0.0,0.0,0.0,0.0,0.0,0.0,0.0,0.0,0.0,0.0,0.0,0.0,0.0,0.0,0.0,0.0,0.0,0.0,0.0,0.0,0.0,0.0,0.0,0.0,0.0,0.0,0.0,0.0,0.0,0.0,0.0,0.0,0.0,0.0,0.0,0.0,0.0,0.0,0.0,0.0,0.0,0.0,0.0,0.0,0.0,0.0,0.0,0.0,0.0,0.0,0.0,0.0,0.0,0.0,0.0,0.0,0.0,0.0,0.0,0.0,0.0,0.0
1783390529.249286,0.7003042101860046,0.7517880201339722,4.7536460101582634e-08,0.6631839871406555,0.7239971160888672,-0.01063560787588358,0.6376103758811951,0.6573216915130615,-0.01847200095653534,0.6318484544754028,0.6127150058746338,-0.02822217531502247,0.6333497166633606,0.5783926248550415,-0.03631119057536125,0.6499953269958496,0.5441811680793762,-0.012337884865701199,0.6287168860435486,0.45251837372779846,-0.027198487892746925,0.6131899952888489,0.4048033058643341,-0.03296327590942383,0.6019421219825745,0.3582390546798706,-0.036958418786525726,0.6728518605232239,0.5438328981399536,-0.01843373477458954,0.6502799987792969,0.46396180987358093,-0.05561397224664688,0.6352699398994446,0.5248219966888428,-0.06668359786272049,0.631183385848999,0.5810073614120483,-0.0637817233800888,0.6967066526412964,0.5541744828224182,-0.026080189272761345,0.6710965037345886,0.5125154852867126,-0.06084562838077545,0.6462059020996094,0.5818210244178772,-0.06300492584705353,0.6339584589004517,0.6328634023666382,-0.05352006480097771,0.7177594304084778,0.5693709850311279,-0.03430221602320671,0.7322752475738525,0.49445682764053345,-0.05689727142453194,0.7369359135627747,0.4438231885433197,-0.06368665397167206,0.7394313216209412,0.3894404172897339,-0.06391680985689163,0.0,0.0,0.0,0.0,0.0,0.0,0.0,0.0,0.0,0.0,0.0,0.0,0.0,0.0,0.0,0.0,0.0,0.0,0.0,0.0,0.0,0.0,0.0,0.0,0.0,0.0,0.0,0.0,0.0,0.0,0.0,0.0,0.0,0.0,0.0,0.0,0.0,0.0,0.0,0.0,0.0,0.0,0.0,0.0,0.0,0.0,0.0,0.0,0.0,0.0,0.0,0.0,0.0,0.0,0.0,0.0,0.0,0.0,0.0,0.0,0.0,0.0,0.0
1783390529.3889222,0.6992329955101013,0.7440486550331116,-1.2087346235034602e-08,0.6620504260063171,0.7103396058082581,-0.006344283930957317,0.6366312503814697,0.6379197239875793,-0.011135166510939598,0.6284896731376648,0.5888360738754272,-0.0187236201018095,0.6278384327888489,0.5536999702453613,-0.0247262641787529,0.6541374921798706,0.5345386862754822,-0.005879951640963554,0.6349626183509827,0.44154730439186096,-0.016729528084397316,0.6193786859512329,0.39542609453201294,-0.0190499909222126,0.6073609590530396,0.35148128867149353,-0.020957035943865776,0.6734670996665955,0.5350374579429626,-0.01261997502297163,0.6469185948371887,0.4624372124671936,-0.04508163034915924,0.6318325996398926,0.5214216709136963,-0.053124912083148956,0.6278386116027832,0.5710754990577698,-0.049114521592855453,0.694464385509491,0.5451452136039734,-0.020713502541184425,0.662678599357605,0.5045478343963623,-0.052196767181158066,0.6396121382713318,0.5731439590454102,-0.052244190126657486,0.6294550895690918,0.6226445436477661,-0.04222899675369263,0.7133581042289734,0.5602689981460571,-0.029201706871390343,0.7269681096076965,0.48910200595855713,-0.05026267468929291,0.7309787273406982,0.4380982518196106,-0.0566617026925087,0.7326341867446899,0.3849903643131256,-0.05713094770908356,0.0,0.0,0.0,0.0,0.0,0.0,0.0,0.0,0.0,0.0,0.0,0.0,0.0,0.0,0.0,0.0,0.0,0.0,0.0,0.0,0.0,0.0,0.0,0.0,0.0,0.0,0.0,0.0,0.0,0.0,0.0,0.0,0.0,0.0,0.0,0.0,0.0,0.0,0.0,0.0,0.0,0.0,0.0,0.0,0.0,0.0,0.0,0.0,0.0,0.0,0.0,0.0,0.0,0.0,0.0,0.0,0.0,0.0,0.0,0.0,0.0,0.0,0.0
1783390529.543235,0.7003164887428284,0.7422834634780884,-3.433227035998243e-08,0.662916362285614,0.7051647305488586,-0.0039196377620100975,0.6373367309570312,0.6300787329673767,-0.007894198410212994,0.6253559589385986,0.5803527235984802,-0.015544465743005276,0.6178051233291626,0.547758936882019,-0.021775053814053535,0.6588661074638367,0.5301840305328369,-0.00228288397192955,0.6413846611976624,0.4357902407646179,-0.012111370451748371,0.6261034607887268,0.3910840153694153,-0.013665804639458656,0.6132900714874268,0.34880226850509644,-0.015137294307351112,0.6754306554794312,0.531135082244873,-0.010541151277720928,0.6453761458396912,0.46334370970726013,-0.040439069271087646,0.6281507015228271,0.519665539264679,-0.047010909765958786,0.6236727833747864,0.5641578435897827,-0.04298447445034981,0.6932851672172546,0.5423131585121155,-0.020287055522203445,0.6583316326141357,0.5019641518592834,-0.04919911175966263,0.6339178085327148,0.5690966844558716,-0.047953736037015915,0.623776912689209,0.616840124130249,-0.038095682859420776,0.7099273800849915,0.5591511726379395,-0.030544716864824295,0.7215383052825928,0.48821038007736206,-0.04971472546458244,0.7227431535720825,0.4376319646835327,-0.055379513651132584,0.7220742106437683,0.3861483931541443,-0.05596956983208656,0.0,0.0,0.0,0.0,0.0,0.0,0.0,0.0,0.0,0.0,0.0,0.0,0.0,0.0,0.0,0.0,0.0,0.0,0.0,0.0,0.0,0.0,0.0,0.0,0.0,0.0,0.0,0.0,0.0,0.0,0.0,0.0,0.0,0.0,0.0,0.0,0.0,0.0,0.0,0.0,0.0,0.0,0.0,0.0,0.0,0.0,0.0,0.0,0.0,0.0,0.0,0.0,0.0,0.0,0.0,0.0,0.0,0.0,0.0,0.0,0.0,0.0,0.0
1783390529.7205,0.7021945714950562,0.737796425819397,-6.992793544213782e-08,0.6613711714744568,0.6941708326339722,0.0004014821315649897,0.6371439099311829,0.6205093264579773,-0.002762329299002886,0.6225953102111816,0.5733752250671387,-0.0106973797082901,0.61507248878479,0.5390358567237854,-0.01740718074142933,0.6618680357933044,0.5256763696670532,0.003278071992099285,0.6459110975265503,0.43162229657173157,-0.006932486314326525,0.630372941493988,0.3874429762363434,-0.00920014176517725,0.6166970133781433,0.3467673361301422,-0.011004230938851833,0.67601478099823,0.5268456935882568,-0.007418727036565542,0.6400014162063599,0.46381518244743347,-0.03592992201447487,0.6225906610488892,0.5238380432128906,-0.04148392379283905,0.620772123336792,0.5712249875068665,-0.03738775476813316,0.690364420413971,0.538432240486145,-0.01970808580517769,0.651656985282898,0.4921357333660126,-0.045751798897981644,0.626059889793396,0.5547072291374207,-0.04263236001133919,0.6164843440055847,0.600437581539154,-0.032861337065696716,0.7039351463317871,0.5554068088531494,-0.03253133222460747,0.7125022411346436,0.4834308326244354,-0.04944014176726341,0.7107518315315247,0.4323369860649109,-0.05385255813598633,0.708820104598999,0.38289687037467957,-0.05419080704450607,0.0,0.0,0.0,0.0,0.0,0.0,0.0,0.0,0.0,0.0,0.0,0.0,0.0,0.0,0.0,0.0,0.0,0.0,0.0,0.0,0.0,0.0,0.0,0.0,0.0,0.0,0.0,0.0,0.0,0.0,0.0,0.0,0.0,0.0,0.0,0.0,0.0,0.0,0.0,0.0,0.0,0.0,0.0,0.0,0.0,0.0,0.0,0.0,0.0,0.0,0.0,0.0,0.0,0.0,0.0,0.0,0.0,0.0,0.0,0.0,0.0,0.0,0.0
1783390529.846452,0.7061036229133606,0.7368688583374023,-1.450166706717937e-07,0.6603509187698364,0.684244692325592,0.014233835972845554,0.6378830075263977,0.6167265176773071,0.01554151438176632,0.6210909485816956,0.5770851969718933,0.009487396106123924,0.6107518672943115,0.54362553358078,0.003909445833414793,0.6684216260910034,0.5220568180084229,0.016101039946079254,0.6480206251144409,0.431917667388916,0.008224108256399632,0.6313907504081726,0.3859981596469879,0.006670074071735144,0.6181217432022095,0.3454902768135071,0.004759633913636208,0.6795405149459839,0.5252841711044312,-0.002099598292261362,0.6348685622215271,0.4582687318325043,-0.028248995542526245,0.617987871170044,0.520134449005127,-0.03232472017407417,0.6190151572227478,0.5709220767021179,-0.027759667485952377,0.6883775591850281,0.5396314859390259,-0.021132076159119606,0.6422532796859741,0.4872959852218628,-0.04346594586968422,0.6202322244644165,0.5500913858413696,-0.0374775193631649,0.6155728697776794,0.5955680012702942,-0.027406886219978333,0.695695161819458,0.5593355298042297,-0.0398983433842659,0.6990554332733154,0.4852577745914459,-0.056787360459566116,0.6946576833724976,0.4335741400718689,-0.06146995350718498,0.6916010975837708,0.38435590267181396,-0.06278763711452484,0.0,0.0,0.0,0.0,0.0,0.0,0.0,0.0,0.0,0.0,0.0,0.0,0.0,0.0,0.0,0.0,0.0,0.0,0.0,0.0,0.0,0.0,0.0,0.0,0.0,0.0,0.0,0.0,0.0,0.0,0.0,0.0,0.0,0.0,0.0,0.0,0.0,0.0,0.0,0.0,0.0,0.0,0.0,0.0,0.0,0.0,0.0,0.0,0.0,0.0,0.0,0.0,0.0,0.0,0.0,0.0,0.0,0.0,0.0,0.0,0.0,0.0,0.0
1783390529.981338,0.7067922949790955,0.7328938245773315,-1.8907091714481794e-07,0.6592356562614441,0.6757239103317261,0.02074057050049305,0.63885897397995,0.611382007598877,0.025896364822983742,0.6223810911178589,0.5762850046157837,0.02340010181069374,0.6133301854133606,0.5412302613258362,0.02108355052769184,0.6703045964241028,0.5148292183876038,0.01996796205639839,0.6494550704956055,0.4297410845756531,0.012296835891902447,0.6344374418258667,0.3842350244522095,0.009731724858283997,0.6218932867050171,0.34422552585601807,0.0065787173807621,0.6810837984085083,0.521023154258728,-0.0003872558008879423,0.6330344676971436,0.4558125436306,-0.02538152039051056,0.6155474185943604,0.5123597383499146,-0.029346585273742676,0.6157447099685669,0.5615332722663879,-0.025951562449336052,0.6863700151443481,0.5395510196685791,-0.021122131496667862,0.639204740524292,0.4849790632724762,-0.0424085333943367,0.6175801157951355,0.5423710942268372,-0.03633416071534157,0.6137623190879822,0.5853858590126038,-0.02733657881617546,0.6881078481674194,0.5628723502159119,-0.04100537672638893,0.6881230473518372,0.4889535903930664,-0.06175534427165985,0.6820537447929382,0.43751707673072815,-0.06978672742843628,0.6784991025924683,0.38860124349594116,-0.0734417662024498,0.0,0.0,0.0,0.0,0.0,0.0,0.0,0.0,0.0,0.0,0.0,0.0,0.0,0.0,0.0,0.0,0.0,0.0,0.0,0.0,0.0,0.0,0.0,0.0,0.0,0.0,0.0,0.0,0.0,0.0,0.0,0.0,0.0,0.0,0.0,0.0,0.0,0.0,0.0,0.0,0.0,0.0,0.0,0.0,0.0,0.0,0.0,0.0,0.0,0.0,0.0,0.0,0.0,0.0,0.0,0.0,0.0,0.0,0.0,0.0,0.0,0.0,0.0
1783390530.152543,0.7098195552825928,0.7278621196746826,-2.7920438583350915e-07,0.660853385925293,0.667465329170227,0.03426400199532509,0.64164137840271,0.6041353344917297,0.04557143151760101,0.625762403011322,0.5683364272117615,0.04676169157028198,0.6149076223373413,0.5326350331306458,0.04713820666074753,0.6739950776100159,0.508981466293335,0.033041175454854965,0.6510832905769348,0.42752301692962646,0.028884172439575195,0.6355715990066528,0.38331153988838196,0.02650001272559166,0.6209927201271057,0.34353315830230713,0.02248775213956833,0.6862602829933167,0.5160579681396484,0.00633535161614418,0.6337605118751526,0.45245853066444397,-0.0148154990747571,0.6136758923530579,0.504436194896698,-0.020456956699490547,0.6111651659011841,0.5532982349395752,-0.019904358312487602,0.6899691820144653,0.5347426533699036,-0.019639890640974045,0.6400097608566284,0.4765833914279938,-0.03784307837486267,0.6169518232345581,0.5302809476852417,-0.033166348934173584,0.6124002933502197,0.5712616443634033,-0.026434721425175667,0.6877813339233398,0.5558062195777893,-0.04351847618818283,0.6816956996917725,0.4778812527656555,-0.06354458630084991,0.6747162342071533,0.4312266409397125,-0.07206331938505173,0.6715747117996216,0.38795000314712524,-0.07660351693630219,0.0,0.0,0.0,0.0,0.0,0.0,0.0,0.0,0.0,0.0,0.0,0.0,0.0,0.0,0.0,0.0,0.0,0.0,0.0,0.0,0.0,0.0,0.0,0.0,0.0,0.0,0.0,0.0,0.0,0.0,0.0,0.0,0.0,0.0,0.0,0.0,0.0,0.0,0.0,0.0,0.0,0.0,0.0,0.0,0.0,0.0,0.0,0.0,0.0,0.0,0.0,0.0,0.0,0.0,0.0,0.0,0.0,0.0,0.0,0.0,0.0,0.0,0.0
1783390530.287952,0.7027358412742615,0.7229840159416199,-1.482507201444605e-07,0.656939685344696,0.6710236072540283,0.013820715248584747,0.634623110294342,0.6064864993095398,0.015349636785686016,0.618834376335144,0.5691725611686707,0.009714261628687382,0.6104153394699097,0.5349310636520386,0.00454227440059185,0.6618170738220215,0.5129749774932861,0.01449742540717125,0.6425051093101501,0.4267819821834564,0.0048804981634020805,0.6275531053543091,0.383090615272522,0.0013813815312460065,0.6154252886772156,0.3422083258628845,-0.001939637353643775,0.6745833158493042,0.5178586840629578,-0.0035072758328169584,0.6291015148162842,0.45454034209251404,-0.0314963236451149,0.6120425462722778,0.5133765339851379,-0.0378972552716732,0.612284243106842,0.5631107687950134,-0.03524669632315636,0.6836289167404175,0.533545732498169,-0.022314580157399178,0.6380314826965332,0.4852566123008728,-0.04720381647348404,0.6169587969779968,0.5464422106742859,-0.043236516416072845,0.6130247116088867,0.5910258889198303,-0.03397124633193016,0.6905539631843567,0.5538262724876404,-0.040665097534656525,0.6925749778747559,0.4796225428581238,-0.060121774673461914,0.6879176497459412,0.4303259253501892,-0.06631069630384445,0.684252917766571,0.3832366466522217,-0.06824656575918198,0.0,0.0,0.0,0.0,0.0,0.0,0.0,0.0,0.0,0.0,0.0,0.0,0.0,0.0,0.0,0.0,0.0,0.0,0.0,0.0,0.0,0.0,0.0,0.0,0.0,0.0,0.0,0.0,0.0,0.0,0.0,0.0,0.0,0.0,0.0,0.0,0.0,0.0,0.0,0.0,0.0,0.0,0.0,0.0,0.0,0.0,0.0,0.0,0.0,0.0,0.0,0.0,0.0,0.0,0.0,0.0,0.0,0.0,0.0,0.0,0.0,0.0,0.0
1783390530.421098,0.7022349238395691,0.725090742111206,-9.302456049908869e-08,0.6592501401901245,0.6813935041427612,0.005549086257815361,0.6339654922485352,0.6127849221229553,0.0033743386156857014,0.61872398853302,0.5692713260650635,-0.004451893735677004,0.6071895956993103,0.5319348573684692,-0.011241060681641102,0.6605889201164246,0.5195636749267578,0.006619787309318781,0.6415783166885376,0.4310491681098938,-0.0020081032998859882,0.6257305145263672,0.3876236379146576,-0.003814881667494774,0.612430214881897,0.3481401801109314,-0.005853718146681786,0.6723229289054871,0.5215950012207031,-0.006857259199023247,0.6297701001167297,0.4641942083835602,-0.032844942063093185,0.6135568022727966,0.5235022902488708,-0.03712280094623566,0.6140328645706177,0.5699613690376282,-0.033322181552648544,0.6830325126647949,0.5340030789375305,-0.021527932956814766,0.6403113603591919,0.4917297959327698,-0.04461594671010971,0.6182684898376465,0.5540107488632202,-0.03980857506394386,0.6127655506134033,0.5997968316078186,-0.030415212735533714,0.6940168142318726,0.5519582629203796,-0.0365012064576149,0.7000048160552979,0.48128798604011536,-0.05207016319036484,0.6958310008049011,0.43167510628700256,-0.05608673021197319,0.6917036175727844,0.3844316899776459,-0.057016294449567795,0.0,0.0,0.0,0.0,0.0,0.0,0.0,0.0,0.0,0.0,0.0,0.0,0.0,0.0,0.0,0.0,0.0,0.0,0.0,0.0,0.0,0.0,0.0,0.0,0.0,0.0,0.0,0.0,0.0,0.0,0.0,0.0,0.0,0.0,0.0,0.0,0.0,0.0,0.0,0.0,0.0,0.0,0.0,0.0,0.0,0.0,0.0,0.0,0.0,0.0,0.0,0.0,0.0,0.0,0.0,0.0,0.0,0.0,0.0,0.0,0.0,0.0,0.0
1783390530.55491,0.7039934396743774,0.7265390157699585,-7.082864783569676e-08,0.6623918414115906,0.6903351545333862,-7.942155934870243e-05,0.6363341808319092,0.6201583743095398,-0.003531354945152998,0.6213098764419556,0.5745067596435547,-0.011407166719436646,0.6085808277130127,0.5392369031906128,-0.01791471615433693,0.6569010019302368,0.5251554846763611,0.0023826260585337877,0.6380062699317932,0.43449732661247253,-0.0077424803748726845,0.6215384602546692,0.3919861912727356,-0.010103216394782066,0.6083352565765381,0.3516820967197418,-0.012046405114233494,0.6703020334243774,0.5259572267532349,-0.007978618144989014,0.6323403716087341,0.463322252035141,-0.03768528625369072,0.6155018210411072,0.5241981148719788,-0.04412905126810074,0.6143372654914856,0.5722755193710327,-0.040196292102336884,0.6840060353279114,0.5360289812088013,-0.019815120846033096,0.6453510522842407,0.4949699342250824,-0.046382125467061996,0.622726559638977,0.5602214932441711,-0.04382586479187012,0.6154119372367859,0.6062296032905579,-0.03413769230246544,0.6979267001152039,0.5511329770088196,-0.032155465334653854,0.7066466808319092,0.4801498353481293,-0.04892471432685852,0.7035043835639954,0.4300863444805145,-0.0536981001496315,0.6989688277244568,0.38140809535980225,-0.054357513785362244,0.0,0.0,0.0,0.0,0.0,0.0,0.0,0.0,0.0,0.0,0.0,0.0,0.0,0.0,0.0,0.0,0.0,0.0,0.0,0.0,0.0,0.0,0.0,0.0,0.0,0.0,0.0,0.0,0.0,0.0,0.0,0.0,0.0,0.0,0.0,0.0,0.0,0.0,0.0,0.0,0.0,0.0,0.0,0.0,0.0,0.0,0.0,0.0,0.0,0.0,0.0,0.0,0.0,0.0,0.0,0.0,0.0,0.0,0.0,0.0,0.0,0.0,0.0
1783390530.721652,0.7029131054878235,0.7292274236679077,-1.9589180055845645e-08,0.6658816933631897,0.7009419202804565,-0.008259515278041363,0.6382932066917419,0.6314941644668579,-0.013856431469321251,0.6289442181587219,0.5812588334083557,-0.022063294425606728,0.6264423727989197,0.5404097437858582,-0.028451180085539818,0.6482821702957153,0.5298641324043274,-0.006064430810511112,0.6259781718254089,0.43918007612228394,-0.01802758499979973,0.6094036102294922,0.393714964389801,-0.021188532933592796,0.5976401567459106,0.3515717387199402,-0.02347310446202755,0.6670411229133606,0.5270663499832153,-0.012560037896037102,0.6397251486778259,0.4531746804714203,-0.04488743469119072,0.6250261068344116,0.5089273452758789,-0.05290331691503525,0.6225016713142395,0.5591341853141785,-0.04913445934653282,0.6885335445404053,0.5338566303253174,-0.020867012441158295,0.6595210433006287,0.4899301826953888,-0.05168337747454643,0.6394637823104858,0.5542547106742859,-0.05164863169193268,0.6317859292030334,0.6028617024421692,-0.04201548919081688,0.7099775671958923,0.5450939536094666,-0.029950808733701706,0.7198175191879272,0.4698086380958557,-0.05042699724435806,0.7202979326248169,0.4187909662723541,-0.05665837228298187,0.7188134789466858,0.36770445108413696,-0.05721361190080643,0.0,0.0,0.0,0.0,0.0,0.0,0.0,0.0,0.0,0.0,0.0,0.0,0.0,0.0,0.0,0.0,0.0,0.0,0.0,0.0,0.0,0.0,0.0,0.0,0.0,0.0,0.0,0.0,0.0,0.0,0.0,0.0,0.0,0.0,0.0,0.0,0.0,0.0,0.0,0.0,0.0,0.0,0.0,0.0,0.0,0.0,0.0,0.0,0.0,0.0,0.0,0.0,0.0,0.0,0.0,0.0,0.0,0.0,0.0,0.0,0.0,0.0,0.0
1783390530.850326,0.7016118168830872,0.7366000413894653,8.362546211060362e-09,0.6647887229919434,0.7102490663528442,-0.011435534805059433,0.6378176808357239,0.6437391638755798,-0.018136577680706978,0.6364225745201111,0.5942168235778809,-0.026391590014100075,0.6443142890930176,0.557989239692688,-0.03313269093632698,0.6456066370010376,0.5342880487442017,-0.011440952308475971,0.6227046847343445,0.44416454434394836,-0.025593513622879982,0.6085093021392822,0.3946405053138733,-0.03214152157306671,0.597949206829071,0.3478659391403198,-0.03720177710056305,0.6687836647033691,0.530097246170044,-0.01659068837761879,0.6486895680427551,0.4474063217639923,-0.05092976242303848,0.6384991407394409,0.5000423789024353,-0.061330005526542664,0.6358410120010376,0.5529919266700745,-0.05931777507066727,0.694294273853302,0.5364900231361389,-0.023461421951651573,0.6726326942443848,0.4860801696777344,-0.05536089837551117,0.6575472950935364,0.5527560710906982,-0.05571558699011803,0.6512680649757385,0.6050626635551453,-0.046165578067302704,0.7186265587806702,0.5473476648330688,-0.03135404735803604,0.7296157479286194,0.4712996780872345,-0.053011324256658554,0.7324885129928589,0.4202391505241394,-0.05939340218901634,0.7322017550468445,0.36614179611206055,-0.05986001342535019,0.0,0.0,0.0,0.0,0.0,0.0,0.0,0.0,0.0,0.0,0.0,0.0,0.0,0.0,0.0,0.0,0.0,0.0,0.0,0.0,0.0,0.0,0.0,0.0,0.0,0.0,0.0,0.0,0.0,0.0,0.0,0.0,0.0,0.0,0.0,0.0,0.0,0.0,0.0,0.0,0.0,0.0,0.0,0.0,0.0,0.0,0.0,0.0,0.0,0.0,0.0,0.0,0.0,0.0,0.0,0.0,0.0,0.0,0.0,0.0,0.0,0.0,0.0
1783390530.9864519,0.7085188031196594,0.7495676875114441,4.7552831006214547e-08,0.6707164645195007,0.7233592867851257,-0.018136076629161835,0.6460434794425964,0.651587724685669,-0.028748592361807823,0.6546888947486877,0.5922834873199463,-0.040148112922906876,0.6744773387908936,0.5559901595115662,-0.05021768435835838,0.6458150744438171,0.5413095951080322,-0.016110282391309738,0.6232743263244629,0.45021864771842957,-0.03330230712890625,0.6114025712013245,0.39698824286460876,-0.043361786752939224,0.6026759147644043,0.34661805629730225,-0.05089002847671509,0.6735827922821045,0.5313999056816101,-0.019397204741835594,0.6634563207626343,0.4504825174808502,-0.055689990520477295,0.660900354385376,0.4972168505191803,-0.0686069205403328,0.6604762673377991,0.5428781509399414,-0.0684245154261589,0.7028841972351074,0.5358521938323975,-0.024871477857232094,0.6957303285598755,0.479276567697525,-0.05823216959834099,0.6873851418495178,0.5484936833381653,-0.058483000844717026,0.6822065114974976,0.6032161116600037,-0.04833025112748146,0.7301504015922546,0.547846794128418,-0.03206741437315941,0.7401449084281921,0.47081321477890015,-0.05345453321933746,0.744515597820282,0.41798830032348633,-0.05817160755395889,0.745642364025116,0.3619803488254547,-0.05709119513630867,0.0,0.0,0.0,0.0,0.0,0.0,0.0,0.0,0.0,0.0,0.0,0.0,0.0,0.0,0.0,0.0,0.0,0.0,0.0,0.0,0.0,0.0,0.0,0.0,0.0,0.0,0.0,0.0,0.0,0.0,0.0,0.0,0.0,0.0,0.0,0.0,0.0,0.0,0.0,0.0,0.0,0.0,0.0,0.0,0.0,0.0,0.0,0.0,0.0,0.0,0.0,0.0,0.0,0.0,0.0,0.0,0.0,0.0,0.0,0.0,0.0,0.0,0.0
1783390531.1214578,0.7122549414634705,0.7536861300468445,4.9965837689569526e-08,0.6735693216323853,0.7254081964492798,-0.022403735667467117,0.6545752882957458,0.6582489013671875,-0.035762276500463486,0.6690434217453003,0.5995968580245972,-0.048753634095191956,0.6893943548202515,0.5575988292694092,-0.060306742787361145,0.6454750299453735,0.5420742034912109,-0.020067157223820686,0.6250939965248108,0.4512462019920349,-0.03806663677096367,0.6134653687477112,0.3962634801864624,-0.047960054129362106,0.6045425534248352,0.344650000333786,-0.054775189608335495,0.6759277582168579,0.5314846634864807,-0.021080492064356804,0.6710511445999146,0.4478461742401123,-0.0578451044857502,0.6758847832679749,0.5026809573173523,-0.07038185000419617,0.6786515116691589,0.5513049960136414,-0.06885407119989395,0.7060935497283936,0.5356725454330444,-0.024329187348484993,0.706018328666687,0.4803711771965027,-0.05879490450024605,0.7049359083175659,0.5503164529800415,-0.05875043943524361,0.7017920613288879,0.6009426712989807,-0.04717734828591347,0.7335978746414185,0.5484772324562073,-0.0293702632188797,0.7415745854377747,0.4700591266155243,-0.0502212792634964,0.7464848160743713,0.4191232919692993,-0.05310295149683952,0.7465805411338806,0.3650040924549103,-0.04991307482123375,0.0,0.0,0.0,0.0,0.0,0.0,0.0,0.0,0.0,0.0,0.0,0.0,0.0,0.0,0.0,0.0,0.0,0.0,0.0,0.0,0.0,0.0,0.0,0.0,0.0,0.0,0.0,0.0,0.0,0.0,0.0,0.0,0.0,0.0,0.0,0.0,0.0,0.0,0.0,0.0,0.0,0.0,0.0,0.0,0.0,0.0,0.0,0.0,0.0,0.0,0.0,0.0,0.0,0.0,0.0,0.0,0.0,0.0,0.0,0.0,0.0,0.0,0.0
1783390531.2720609,0.7086361050605774,0.7646572589874268,5.107087730493731e-08,0.6738852858543396,0.7366971969604492,-0.025264091789722443,0.6580830812454224,0.6695099472999573,-0.03984515368938446,0.6762829422950745,0.6096840500831604,-0.05313275754451752,0.6977134346961975,0.5678173899650574,-0.06496138125658035,0.643683135509491,0.5464998483657837,-0.02421061508357525,0.6250544786453247,0.45182275772094727,-0.04260680824518204,0.6148209571838379,0.3956105411052704,-0.05271833389997482,0.6073091626167297,0.3434826731681824,-0.059495776891708374,0.6753987669944763,0.5359548330307007,-0.023305708542466164,0.6773003339767456,0.4511987864971161,-0.05935503542423248,0.6862182021141052,0.5119495987892151,-0.0703091248869896,0.6895825862884521,0.5586548447608948,-0.06752510368824005,0.7051255702972412,0.540380597114563,-0.024700315669178963,0.7114044427871704,0.4838021993637085,-0.058791451156139374,0.7150734663009644,0.5535336136817932,-0.057770632207393646,0.7137280106544495,0.6016980409622192,-0.04531415179371834,0.7312185168266296,0.552928626537323,-0.02798588201403618,0.7368547320365906,0.47116848826408386,-0.0487680621445179,0.7412007451057434,0.4209991991519928,-0.050653789192438126,0.7407953143119812,0.36708641052246094,-0.04635804891586304,0.0,0.0,0.0,0.0,0.0,0.0,0.0,0.0,0.0,0.0,0.0,0.0,0.0,0.0,0.0,0.0,0.0,0.0,0.0,0.0,0.0,0.0,0.0,0.0,0.0,0.0,0.0,0.0,0.0,0.0,0.0,0.0,0.0,0.0,0.0,0.0,0.0,0.0,0.0,0.0,0.0,0.0,0.0,0.0,0.0,0.0,0.0,0.0,0.0,0.0,0.0,0.0,0.0,0.0,0.0,0.0,0.0,0.0,0.0,0.0,0.0,0.0,0.0
1783390531.4463758,0.7034311294555664,0.7871506810188293,2.397871767811921e-08,0.6725404858589172,0.7517238259315491,-0.02441546320915222,0.664302408695221,0.6808955073356628,-0.03841419890522957,0.6876079440116882,0.6229448318481445,-0.05113706365227699,0.7119261622428894,0.5801787376403809,-0.06274984776973724,0.6498792767524719,0.5568175911903381,-0.022635655477643013,0.6376920342445374,0.4571632742881775,-0.039623670279979706,0.630787193775177,0.3977673351764679,-0.04921039566397667,0.625359296798706,0.34269824624061584,-0.05524412915110588,0.6813054084777832,0.5524092316627502,-0.02140452153980732,0.6904679536819458,0.470446914434433,-0.056223027408123016,0.6998775005340576,0.5345054864883423,-0.06839322298765182,0.7029207944869995,0.5862221121788025,-0.06636809557676315,0.7092781662940979,0.5591320991516113,-0.022005029022693634,0.7195274233818054,0.49401727318763733,-0.05429231747984886,0.7235384583473206,0.5565341114997864,-0.0559028759598732,0.7232989072799683,0.6041342616081238,-0.045580100268125534,0.7328557968139648,0.5735400915145874,-0.02407415769994259,0.740373432636261,0.4909045100212097,-0.04058381915092468,0.7456167936325073,0.44325578212738037,-0.040819477289915085,0.7469216585159302,0.39438116550445557,-0.035908978432416916,0.0,0.0,0.0,0.0,0.0,0.0,0.0,0.0,0.0,0.0,0.0,0.0,0.0,0.0,0.0,0.0,0.0,0.0,0.0,0.0,0.0,0.0,0.0,0.0,0.0,0.0,0.0,0.0,0.0,0.0,0.0,0.0,0.0,0.0,0.0,0.0,0.0,0.0,0.0,0.0,0.0,0.0,0.0,0.0,0.0,0.0,0.0,0.0,0.0,0.0,0.0,0.0,0.0,0.0,0.0,0.0,0.0,0.0,0.0,0.0,0.0,0.0,0.0
1783390531.6891258,0.696030855178833,0.7891126871109009,2.1292851926091316e-08,0.6687469482421875,0.7602600455284119,-0.03352700546383858,0.6668073534965515,0.6954138875007629,-0.05171733722090721,0.693720281124115,0.6404967308044434,-0.06584607064723969,0.7184332013130188,0.5980859994888306,-0.07879427075386047,0.654373049736023,0.561171293258667,-0.03406607359647751,0.6482799649238586,0.4611513912677765,-0.0517970472574234,0.644262969493866,0.39983707666397095,-0.06085342913866043,0.6420505046844482,0.34358030557632446,-0.06693033874034882,0.6866434812545776,0.5585280656814575,-0.029225388541817665,0.7032778859138489,0.4715001881122589,-0.06681495904922485,0.7128667831420898,0.5422914028167725,-0.08101256191730499,0.714566707611084,0.6008825302124023,-0.07980137318372726,0.7151665091514587,0.5656787157058716,-0.026501404121518135,0.731455385684967,0.48472604155540466,-0.059795789420604706,0.7412053942680359,0.5106950998306274,-0.06889169663190842,0.7438692450523376,0.534902036190033,-0.06531128287315369,0.7367020845413208,0.5830309987068176,-0.025172336027026176,0.7460713982582092,0.5015901923179626,-0.040770478546619415,0.7524797916412354,0.4536476731300354,-0.04395803436636925,0.752795398235321,0.4043210744857788,-0.042972490191459656,0.0,0.0,0.0,0.0,0.0,0.0,0.0,0.0,0.0,0.0,0.0,0.0,0.0,0.0,0.0,0.0,0.0,0.0,0.0,0.0,0.0,0.0,0.0,0.0,0.0,0.0,0.0,0.0,0.0,0.0,0.0,0.0,0.0,0.0,0.0,0.0,0.0,0.0,0.0,0.0,0.0,0.0,0.0,0.0,0.0,0.0,0.0,0.0,0.0,0.0,0.0,0.0,0.0,0.0,0.0,0.0,0.0,0.0,0.0,0.0,0.0,0.0,0.0
1783390532.491141,0.6919679045677185,0.7794692516326904,5.099228062022121e-08,0.6668110489845276,0.7499112486839294,-0.03770633041858673,0.6704692840576172,0.6800971031188965,-0.05450819805264473,0.6999102830886841,0.6250379085540771,-0.06439661979675293,0.7232643365859985,0.5812607407569885,-0.07201335579156876,0.6544250845909119,0.553967297077179,-0.035671357065439224,0.6521323323249817,0.454143762588501,-0.05175870284438133,0.6504166126251221,0.3922586441040039,-0.06157989054918289,0.6521597504615784,0.3312734365463257,-0.06951192766427994,0.6872069239616394,0.5495880246162415,-0.02748843841254711,0.7047377824783325,0.4601574242115021,-0.06210261210799217,0.7171721458435059,0.5287794470787048,-0.07628994435071945,0.7237482666969299,0.5874226689338684,-0.07572939246892929,0.7165336608886719,0.5574458837509155,-0.021850287914276123,0.732347309589386,0.4687923789024353,-0.04685690253973007,0.7481799721717834,0.4542984664440155,-0.05564073100686073,0.7562292814254761,0.44222962856292725,-0.05571801960468292,0.7375481128692627,0.5785619616508484,-0.018570110201835632,0.7443796396255493,0.5019757747650146,-0.028782835230231285,0.7495915293693542,0.45763739943504333,-0.03031877987086773,0.7483009099960327,0.4135546088218689,-0.030305270105600357,0.0,0.0,0.0,0.0,0.0,0.0,0.0,0.0,0.0,0.0,0.0,0.0,0.0,0.0,0.0,0.0,0.0,0.0,0.0,0.0,0.0,0.0,0.0,0.0,0.0,0.0,0.0,0.0,0.0,0.0,0.0,0.0,0.0,0.0,0.0,0.0,0.0,0.0,0.0,0.0,0.0,0.0,0.0,0.0,0.0,0.0,0.0,0.0,0.0,0.0,0.0,0.0,0.0,0.0,0.0,0.0,0.0,0.0,0.0,0.0,0.0,0.0,0.0
