ciel274/research-hand-sign/data/raw/hiragana/sign_language_ni_3.csv
timestamp,R_joint_0_x,R_joint_0_y,R_joint_0_z,R_joint_1_x,R_joint_1_y,R_joint_1_z,R_joint_2_x,R_joint_2_y,R_joint_2_z,R_joint_3_x,R_joint_3_y,R_joint_3_z,R_joint_4_x,R_joint_4_y,R_joint_4_z,R_joint_5_x,R_joint_5_y,R_joint_5_z,R_joint_6_x,R_joint_6_y,R_joint_6_z,R_joint_7_x,R_joint_7_y,R_joint_7_z,R_joint_8_x,R_joint_8_y,R_joint_8_z,R_joint_9_x,R_joint_9_y,R_joint_9_z,R_joint_10_x,R_joint_10_y,R_joint_10_z,R_joint_11_x,R_joint_11_y,R_joint_11_z,R_joint_12_x,R_joint_12_y,R_joint_12_z,R_joint_13_x,R_joint_13_y,R_joint_13_z,R_joint_14_x,R_joint_14_y,R_joint_14_z,R_joint_15_x,R_joint_15_y,R_joint_15_z,R_joint_16_x,R_joint_16_y,R_joint_16_z,R_joint_17_x,R_joint_17_y,R_joint_17_z,R_joint_18_x,R_joint_18_y,R_joint_18_z,R_joint_19_x,R_joint_19_y,R_joint_19_z,R_joint_20_x,R_joint_20_y,R_joint_20_z,L_joint_0_x,L_joint_0_y,L_joint_0_z,L_joint_1_x,L_joint_1_y,L_joint_1_z,L_joint_2_x,L_joint_2_y,L_joint_2_z,L_joint_3_x,L_joint_3_y,L_joint_3_z,L_joint_4_x,L_joint_4_y,L_joint_4_z,L_joint_5_x,L_joint_5_y,L_joint_5_z,L_joint_6_x,L_joint_6_y,L_joint_6_z,L_joint_7_x,L_joint_7_y,L_joint_7_z,L_joint_8_x,L_joint_8_y,L_joint_8_z,L_joint_9_x,L_joint_9_y,L_joint_9_z,L_joint_10_x,L_joint_10_y,L_joint_10_z,L_joint_11_x,L_joint_11_y,L_joint_11_z,L_joint_12_x,L_joint_12_y,L_joint_12_z,L_joint_13_x,L_joint_13_y,L_joint_13_z,L_joint_14_x,L_joint_14_y,L_joint_14_z,L_joint_15_x,L_joint_15_y,L_joint_15_z,L_joint_16_x,L_joint_16_y,L_joint_16_z,L_joint_17_x,L_joint_17_y,L_joint_17_z,L_joint_18_x,L_joint_18_y,L_joint_18_z,L_joint_19_x,L_joint_19_y,L_joint_19_z,L_joint_20_x,L_joint_20_y,L_joint_20_z
1784045855.063228,0.8009684681892395,0.690557062625885,5.394723530116607e-07,0.7682569622993469,0.5692785978317261,-0.0013539665378630161,0.6915186643600464,0.5355156064033508,-0.009258495643734932,0.6234769821166992,0.5535317659378052,-0.015425672754645348,0.5760756134986877,0.5873004198074341,-0.02291273884475231,0.6697071194648743,0.5210283994674683,-0.05633237212896347,0.5632426738739014,0.49673330783843994,-0.07283828407526016,0.5043956637382507,0.49107784032821655,-0.07606133818626404,0.45864337682724,0.49121880531311035,-0.07606927305459976,0.6659595370292664,0.614934504032135,-0.06203172355890274,0.5461099147796631,0.6192494630813599,-0.07828153669834137,0.48337262868881226,0.6105145812034607,-0.07674407958984375,0.4378700852394104,0.6079043745994568,-0.07519711554050446,0.666563868522644,0.7033305168151855,-0.06305237859487534,0.5600370764732361,0.6857820153236389,-0.07438512146472931,0.5775765776634216,0.6516749858856201,-0.05765882134437561,0.6066918969154358,0.6432445049285889,-0.04281654581427574,0.6718448996543884,0.7708426713943481,-0.06333942711353302,0.5890318155288696,0.7411143779754639,-0.06750891357660294,0.6017410755157471,0.7121115922927856,-0.049689583480358124,0.6268958449363708,0.7052335143089294,-0.03372402489185333,0.0,0.0,0.0,0.0,0.0,0.0,0.0,0.0,0.0,0.0,0.0,0.0,0.0,0.0,0.0,0.0,0.0,0.0,0.0,0.0,0.0,0.0,0.0,0.0,0.0,0.0,0.0,0.0,0.0,0.0,0.0,0.0,0.0,0.0,0.0,0.0,0.0,0.0,0.0,0.0,0.0,0.0,0.0,0.0,0.0,0.0,0.0,0.0,0.0,0.0,0.0,0.0,0.0,0.0,0.0,0.0,0.0,0.0,0.0,0.0,0.0,0.0,0.0
1784045855.2324312,0.7972098588943481,0.6399573087692261,4.375982030069281e-07,0.7580869197845459,0.5175804495811462,0.003154620062559843,0.6822838187217712,0.4826202392578125,-0.0009666691767051816,0.6191422343254089,0.508155345916748,-0.005089189391583204,0.5799119472503662,0.5534524917602539,-0.010473638772964478,0.6524217128753662,0.4751482605934143,-0.03656155243515968,0.5490288734436035,0.4365467429161072,-0.04767172783613205,0.49335700273513794,0.42250534892082214,-0.049171414226293564,0.45050764083862305,0.41525566577911377,-0.04835611954331398,0.645893394947052,0.5639381408691406,-0.04291737452149391,0.5351424217224121,0.5709673762321472,-0.05552303418517113,0.4754859507083893,0.5692855715751648,-0.05505814775824547,0.43199479579925537,0.5738413333892822,-0.054141201078891754,0.6467576622962952,0.6473894119262695,-0.045240387320518494,0.5490614771842957,0.6346213817596436,-0.055349744856357574,0.5641209483146667,0.5994900465011597,-0.04403417930006981,0.5908122658729553,0.5913764834403992,-0.03248400613665581,0.6533973217010498,0.7118571996688843,-0.04639071226119995,0.5748485326766968,0.6839559078216553,-0.049760352820158005,0.5820819735527039,0.6489554643630981,-0.035178977996110916,0.602781355381012,0.6369829177856445,-0.021346470341086388,0.0,0.0,0.0,0.0,0.0,0.0,0.0,0.0,0.0,0.0,0.0,0.0,0.0,0.0,0.0,0.0,0.0,0.0,0.0,0.0,0.0,0.0,0.0,0.0,0.0,0.0,0.0,0.0,0.0,0.0,0.0,0.0,0.0,0.0,0.0,0.0,0.0,0.0,0.0,0.0,0.0,0.0,0.0,0.0,0.0,0.0,0.0,0.0,0.0,0.0,0.0,0.0,0.0,0.0,0.0,0.0,0.0,0.0,0.0,0.0,0.0,0.0,0.0
1784045855.435052,0.8071081638336182,0.6006481051445007,4.708112442131096e-07,0.7626094818115234,0.47615933418273926,-4.72085321234772e-06,0.6828374266624451,0.43502524495124817,-0.006933749653398991,0.6120260953903198,0.4530235230922699,-0.012154661118984222,0.5669503211975098,0.49498140811920166,-0.018434077501296997,0.6607034206390381,0.42226189374923706,-0.049036722630262375,0.5532017350196838,0.3754737973213196,-0.06488392502069473,0.4940479099750519,0.35582730174064636,-0.0690871924161911,0.44775986671447754,0.34397828578948975,-0.06988011300563812,0.6535780429840088,0.5159335732460022,-0.05414761230349541,0.536460280418396,0.525077760219574,-0.06956464052200317,0.4733927845954895,0.5288817882537842,-0.06944659352302551,0.42694157361984253,0.5374643206596375,-0.0691860169172287,0.653340220451355,0.6064221858978271,-0.05472036823630333,0.5517548322677612,0.5913047194480896,-0.06469320505857468,0.5688837170600891,0.5556809306144714,-0.049427807331085205,0.595700740814209,0.5449326038360596,-0.035901136696338654,0.6582492589950562,0.6795753836631775,-0.05462087690830231,0.578319787979126,0.642507016658783,-0.05720394104719162,0.5881199836730957,0.6079556941986084,-0.039893489331007004,0.6083097457885742,0.5968128442764282,-0.024461207911372185,0.0,0.0,0.0,0.0,0.0,0.0,0.0,0.0,0.0,0.0,0.0,0.0,0.0,0.0,0.0,0.0,0.0,0.0,0.0,0.0,0.0,0.0,0.0,0.0,0.0,0.0,0.0,0.0,0.0,0.0,0.0,0.0,0.0,0.0,0.0,0.0,0.0,0.0,0.0,0.0,0.0,0.0,0.0,0.0,0.0,0.0,0.0,0.0,0.0,0.0,0.0,0.0,0.0,0.0,0.0,0.0,0.0,0.0,0.0,0.0,0.0,0.0,0.0
1784045855.658849,0.8078925609588623,0.5852769613265991,4.5882555355092336e-07,0.7621119022369385,0.4538760781288147,0.004345228895545006,0.6796415448188782,0.4100781977176666,0.0009989223908632994,0.6049397587776184,0.4294145107269287,-0.002010439522564411,0.5577155351638794,0.4716099202632904,-0.00604331586509943,0.651175320148468,0.40737485885620117,-0.03672083094716072,0.5465954542160034,0.3548716902732849,-0.0511956550180912,0.48666900396347046,0.32906025648117065,-0.0575653538107872,0.44049185514450073,0.3089943528175354,-0.06069137901067734,0.6445980668067932,0.5006464123725891,-0.04244724661111832,0.5315361618995667,0.51383376121521,-0.05549987778067589,0.4667106866836548,0.5231135487556458,-0.05681030452251434,0.41874057054519653,0.536048412322998,-0.05866088345646858,0.6469652652740479,0.5920684337615967,-0.04389888048171997,0.5478867888450623,0.5832807421684265,-0.05155603215098381,0.5661715865135193,0.551727294921875,-0.0361243300139904,0.5949841737747192,0.5445182919502258,-0.023087868466973305,0.655945897102356,0.6675524115562439,-0.044562749564647675,0.573807418346405,0.633861243724823,-0.04594692587852478,0.5857576131820679,0.6046399474143982,-0.028652433305978775,0.6099840998649597,0.5962148308753967,-0.013240719214081764,0.0,0.0,0.0,0.0,0.0,0.0,0.0,0.0,0.0,0.0,0.0,0.0,0.0,0.0,0.0,0.0,0.0,0.0,0.0,0.0,0.0,0.0,0.0,0.0,0.0,0.0,0.0,0.0,0.0,0.0,0.0,0.0,0.0,0.0,0.0,0.0,0.0,0.0,0.0,0.0,0.0,0.0,0.0,0.0,0.0,0.0,0.0,0.0,0.0,0.0,0.0,0.0,0.0,0.0,0.0,0.0,0.0,0.0,0.0,0.0,0.0,0.0,0.0
1784045855.855627,0.7994128465652466,0.5840564370155334,4.610045891695336e-07,0.7524486184120178,0.4456215500831604,0.007504651322960854,0.6704010963439941,0.4046696126461029,0.006910049822181463,0.5937735438346863,0.42157208919525146,0.006511305924504995,0.5465153455734253,0.4670884311199188,0.005112307611852884,0.6385719180107117,0.4033220112323761,-0.031137939542531967,0.5315557718276978,0.3467768728733063,-0.0411233976483345,0.47255054116249084,0.3179563283920288,-0.044977813959121704,0.42566901445388794,0.29635047912597656,-0.046902380883693695,0.6308775544166565,0.4981042742729187,-0.036541685461997986,0.5161733627319336,0.5220857262611389,-0.04479523003101349,0.4545286297798157,0.5357937216758728,-0.042761631309986115,0.4097288250923157,0.5514616966247559,-0.04269678145647049,0.633194088935852,0.5894684195518494,-0.03750544786453247,0.5347305536270142,0.5849435925483704,-0.04085182398557663,0.5521567463874817,0.5496609210968018,-0.024628808721899986,0.5808277726173401,0.5387964248657227,-0.012249814346432686,0.6417141556739807,0.6656758785247803,-0.037529513239860535,0.560529887676239,0.6354237794876099,-0.03641239181160927,0.5737745761871338,0.6103693842887878,-0.018663233146071434,0.5980709791183472,0.6022568941116333,-0.0034636198543012142,0.0,0.0,0.0,0.0,0.0,0.0,0.0,0.0,0.0,0.0,0.0,0.0,0.0,0.0,0.0,0.0,0.0,0.0,0.0,0.0,0.0,0.0,0.0,0.0,0.0,0.0,0.0,0.0,0.0,0.0,0.0,0.0,0.0,0.0,0.0,0.0,0.0,0.0,0.0,0.0,0.0,0.0,0.0,0.0,0.0,0.0,0.0,0.0,0.0,0.0,0.0,0.0,0.0,0.0,0.0,0.0,0.0,0.0,0.0,0.0,0.0,0.0,0.0
1784045856.057514,0.7960090637207031,0.5828648209571838,4.4374382923706435e-07,0.746234655380249,0.44556137919425964,0.004573259502649307,0.6634990572929382,0.40267980098724365,0.0013569818111136556,0.5905334949493408,0.42586416006088257,-0.0016990837175399065,0.5447069406509399,0.47359123826026917,-0.005963537376374006,0.6332341432571411,0.40381667017936707,-0.03357381001114845,0.5294374227523804,0.3392317593097687,-0.04628850147128105,0.47108525037765503,0.302206814289093,-0.05171710625290871,0.42607995867729187,0.27547287940979004,-0.054342418909072876,0.6251506209373474,0.4979967474937439,-0.03874385356903076,0.5126835107803345,0.521456778049469,-0.04987867549061775,0.4518500566482544,0.5399134755134583,-0.04948132857680321,0.4084867238998413,0.5635252594947815,-0.05012787505984306,0.6276684403419495,0.5871964693069458,-0.039783574640750885,0.5309646725654602,0.5850052833557129,-0.045682840049266815,0.5495518445968628,0.5466675758361816,-0.03086460568010807,0.5790735483169556,0.5340468287467957,-0.018910640850663185,0.6366364359855652,0.6601277589797974,-0.040137942880392075,0.5589935779571533,0.6308766007423401,-0.04121369495987892,0.5724011659622192,0.6011423468589783,-0.024680403992533684,0.597228467464447,0.5910194516181946,-0.010032648220658302,0.0,0.0,0.0,0.0,0.0,0.0,0.0,0.0,0.0,0.0,0.0,0.0,0.0,0.0,0.0,0.0,0.0,0.0,0.0,0.0,0.0,0.0,0.0,0.0,0.0,0.0,0.0,0.0,0.0,0.0,0.0,0.0,0.0,0.0,0.0,0.0,0.0,0.0,0.0,0.0,0.0,0.0,0.0,0.0,0.0,0.0,0.0,0.0,0.0,0.0,0.0,0.0,0.0,0.0,0.0,0.0,0.0,0.0,0.0,0.0,0.0,0.0,0.0
1784045856.2572448,0.7938370704650879,0.5782294273376465,4.54889118373103e-07,0.7429373860359192,0.4439316391944885,0.0033826371654868126,0.6596735119819641,0.4025590121746063,-0.0006030710646882653,0.5885052680969238,0.4270390570163727,-0.004906092304736376,0.543345034122467,0.4752066135406494,-0.010340648703277111,0.6303588151931763,0.4009803533554077,-0.03245536610484123,0.5282759070396423,0.33665382862091064,-0.04569064825773239,0.47077763080596924,0.29953551292419434,-0.050906796008348465,0.4261091649532318,0.2732957601547241,-0.053091175854206085,0.6219547986984253,0.49573346972465515,-0.038718756288290024,0.5107576251029968,0.5188349485397339,-0.05127802863717079,0.45035073161125183,0.5362342000007629,-0.052000947296619415,0.4072118401527405,0.5590584874153137,-0.05284577235579491,0.6242980360984802,0.5845949649810791,-0.04120367020368576,0.5290790796279907,0.5808348059654236,-0.04944030940532684,0.5491522550582886,0.5437045097351074,-0.0356796458363533,0.5791429281234741,0.5330252647399902,-0.023573951795697212,0.6327028870582581,0.6575198173522949,-0.04309883713722229,0.5554494261741638,0.6284999847412109,-0.045414332300424576,0.5696655511856079,0.599275529384613,-0.02897636964917183,0.5951204299926758,0.5914023518562317,-0.013981541618704796,0.0,0.0,0.0,0.0,0.0,0.0,0.0,0.0,0.0,0.0,0.0,0.0,0.0,0.0,0.0,0.0,0.0,0.0,0.0,0.0,0.0,0.0,0.0,0.0,0.0,0.0,0.0,0.0,0.0,0.0,0.0,0.0,0.0,0.0,0.0,0.0,0.0,0.0,0.0,0.0,0.0,0.0,0.0,0.0,0.0,0.0,0.0,0.0,0.0,0.0,0.0,0.0,0.0,0.0,0.0,0.0,0.0,0.0,0.0,0.0,0.0,0.0,0.0
1784045856.458248,0.7893627882003784,0.5776283740997314,4.537596112186293e-07,0.7394353747367859,0.44273698329925537,0.00736281368881464,0.6587573885917664,0.4032971262931824,0.0054185292683541775,0.5867626070976257,0.42645522952079773,0.0026604963932186365,0.5415176153182983,0.47244974970817566,-0.0012844421435147524,0.6282931566238403,0.39905646443367004,-0.02853109873831272,0.5253936052322388,0.3353896141052246,-0.04075736925005913,0.46724843978881836,0.29971593618392944,-0.045241646468639374,0.4226604700088501,0.2746008336544037,-0.04674379900097847,0.6199616193771362,0.492996484041214,-0.03510218858718872,0.5083900094032288,0.5163483619689941,-0.04710523039102554,0.4478580951690674,0.5352105498313904,-0.04675715044140816,0.40491965413093567,0.5582597851753235,-0.04643819108605385,0.6221827864646912,0.5815204381942749,-0.03754708170890808,0.5273763537406921,0.5798582434654236,-0.04421290010213852,0.5463498830795288,0.5448194742202759,-0.02923470363020897,0.5755226016044617,0.5331645011901855,-0.016154255717992783,0.6309599876403809,0.6553111672401428,-0.03901146352291107,0.5539564490318298,0.6282454133033752,-0.03900128975510597,0.5672398805618286,0.601547122001648,-0.02112484723329544,0.5919682383537292,0.5922571420669556,-0.005048020742833614,0.0,0.0,0.0,0.0,0.0,0.0,0.0,0.0,0.0,0.0,0.0,0.0,0.0,0.0,0.0,0.0,0.0,0.0,0.0,0.0,0.0,0.0,0.0,0.0,0.0,0.0,0.0,0.0,0.0,0.0,0.0,0.0,0.0,0.0,0.0,0.0,0.0,0.0,0.0,0.0,0.0,0.0,0.0,0.0,0.0,0.0,0.0,0.0,0.0,0.0,0.0,0.0,0.0,0.0,0.0,0.0,0.0,0.0,0.0,0.0,0.0,0.0,0.0
1784045856.648299,0.7844539284706116,0.567485511302948,4.701621207914286e-07,0.7328077554702759,0.44055211544036865,-0.0002611750387586653,0.64568692445755,0.3956587314605713,-0.0063496362417936325,0.5691037178039551,0.4107150137424469,-0.011698598973453045,0.5181777477264404,0.4525599777698517,-0.017979541793465614,0.6244666576385498,0.392482191324234,-0.03816112503409386,0.5245072841644287,0.32434436678886414,-0.05337180569767952,0.46877866983413696,0.28450286388397217,-0.05907571688294411,0.42621785402297974,0.25357693433761597,-0.06121203675866127,0.6192454695701599,0.48682594299316406,-0.04325488582253456,0.5076298117637634,0.5134962797164917,-0.05657179653644562,0.44749441742897034,0.5322868824005127,-0.05716999992728233,0.4045848250389099,0.5528532862663269,-0.05837579816579819,0.6234716773033142,0.5768420100212097,-0.04483760893344879,0.5295847058296204,0.5779094696044922,-0.05488957464694977,0.5504422187805176,0.545164167881012,-0.041045814752578735,0.5813438892364502,0.534746527671814,-0.028985412791371346,0.6325021982192993,0.6508136987686157,-0.04596744850277901,0.558330774307251,0.6257755756378174,-0.050242457538843155,0.572992742061615,0.5978830456733704,-0.034745145589113235,0.5978838205337524,0.5893047451972961,-0.020501820370554924,0.0,0.0,0.0,0.0,0.0,0.0,0.0,0.0,0.0,0.0,0.0,0.0,0.0,0.0,0.0,0.0,0.0,0.0,0.0,0.0,0.0,0.0,0.0,0.0,0.0,0.0,0.0,0.0,0.0,0.0,0.0,0.0,0.0,0.0,0.0,0.0,0.0,0.0,0.0,0.0,0.0,0.0,0.0,0.0,0.0,0.0,0.0,0.0,0.0,0.0,0.0,0.0,0.0,0.0,0.0,0.0,0.0,0.0,0.0,0.0,0.0,0.0,0.0
1784045856.825197,0.7841471433639526,0.564032256603241,4.780287667927041e-07,0.7327420115470886,0.43646758794784546,0.0034031809773296118,0.6521929502487183,0.3962825834751129,-0.001795126125216484,0.5813389420509338,0.4176691174507141,-0.007101766765117645,0.536043643951416,0.4636276066303253,-0.013471772894263268,0.6259728670120239,0.3925221562385559,-0.03428339585661888,0.5263941287994385,0.32515764236450195,-0.04949468374252319,0.4714060425758362,0.2839871942996979,-0.05580608919262886,0.4291233420372009,0.2518756091594696,-0.05817190557718277,0.619918942451477,0.48569297790527344,-0.04028454050421715,0.5080764889717102,0.5115610957145691,-0.05384406819939613,0.447279155254364,0.5282154679298401,-0.05502985790371895,0.4034610390663147,0.5472917556762695,-0.05627081170678139,0.6231341361999512,0.5732754468917847,-0.04247589409351349,0.5287960767745972,0.5695738792419434,-0.051347844302654266,0.5466514825820923,0.5334820747375488,-0.03792016580700874,0.5753726959228516,0.5215070843696594,-0.02596401795744896,0.6310063600540161,0.6446571350097656,-0.0439692959189415,0.5550318956375122,0.6153488755226135,-0.04637325555086136,0.5664271712303162,0.5848421454429626,-0.030314026400446892,0.5888842344284058,0.5744088888168335,-0.015622202306985855,0.0,0.0,0.0,0.0,0.0,0.0,0.0,0.0,0.0,0.0,0.0,0.0,0.0,0.0,0.0,0.0,0.0,0.0,0.0,0.0,0.0,0.0,0.0,0.0,0.0,0.0,0.0,0.0,0.0,0.0,0.0,0.0,0.0,0.0,0.0,0.0,0.0,0.0,0.0,0.0,0.0,0.0,0.0,0.0,0.0,0.0,0.0,0.0,0.0,0.0,0.0,0.0,0.0,0.0,0.0,0.0,0.0,0.0,0.0,0.0,0.0,0.0,0.0
1784045857.008427,0.7807760834693909,0.5750153064727783,5.153570441507327e-07,0.7284547090530396,0.44666627049446106,0.0014475061325356364,0.646586537361145,0.4058075249195099,-0.004141478333622217,0.5760128498077393,0.4299657344818115,-0.009281257167458534,0.5315380096435547,0.48052024841308594,-0.015060572884976864,0.6228212118148804,0.4019184410572052,-0.034790147095918655,0.5206143856048584,0.3345666527748108,-0.049576979130506516,0.46274369955062866,0.2983604073524475,-0.0553254708647728,0.4180240035057068,0.27230143547058105,-0.05722396448254585,0.615986168384552,0.4961317479610443,-0.039517372846603394,0.5042019486427307,0.5202691555023193,-0.054132163524627686,0.4429366886615753,0.5411543846130371,-0.05544545128941536,0.3983350098133087,0.5629093050956726,-0.05591104179620743,0.6173683404922485,0.5838214755058289,-0.04057155176997185,0.5230741500854492,0.5794166326522827,-0.05003095418214798,0.5391659736633301,0.5424283742904663,-0.03740239515900612,0.566386342048645,0.52730393409729,-0.025460414588451385,0.6232041120529175,0.6552245616912842,-0.04106524959206581,0.5506750345230103,0.625076413154602,-0.04337562993168831,0.5624303817749023,0.5959855914115906,-0.02790936827659607,0.5841394662857056,0.5841138362884521,-0.01342096645385027,0.0,0.0,0.0,0.0,0.0,0.0,0.0,0.0,0.0,0.0,0.0,0.0,0.0,0.0,0.0,0.0,0.0,0.0,0.0,0.0,0.0,0.0,0.0,0.0,0.0,0.0,0.0,0.0,0.0,0.0,0.0,0.0,0.0,0.0,0.0,0.0,0.0,0.0,0.0,0.0,0.0,0.0,0.0,0.0,0.0,0.0,0.0,0.0,0.0,0.0,0.0,0.0,0.0,0.0,0.0,0.0,0.0,0.0,0.0,0.0,0.0,0.0,0.0
1784045857.185367,0.781997799873352,0.5867217183113098,4.705008791461296e-07,0.7317391037940979,0.45225828886032104,0.0012818666873499751,0.647964358329773,0.4112870991230011,-0.0024836838711053133,0.5744532346725464,0.43732506036758423,-0.005223188083618879,0.5292136073112488,0.4888053238391876,-0.008978432044386864,0.6229640245437622,0.412436306476593,-0.035355307161808014,0.5171383023262024,0.3500954210758209,-0.047720395028591156,0.4571703374385834,0.3179115653038025,-0.052045464515686035,0.41005104780197144,0.2973152995109558,-0.05358763039112091,0.6151794195175171,0.505882740020752,-0.038560789078474045,0.5030921697616577,0.5314594507217407,-0.05078556761145592,0.44261083006858826,0.5520057678222656,-0.05086226388812065,0.3987310528755188,0.5749661326408386,-0.051134590059518814,0.6164069175720215,0.5936995148658752,-0.037814296782016754,0.5219812393188477,0.5906950235366821,-0.04560147970914841,0.5407963991165161,0.5537952184677124,-0.03295383229851723,0.5694168210029602,0.540093719959259,-0.021702444180846214,0.6225013732910156,0.667908251285553,-0.036423955112695694,0.5486229062080383,0.6389258503913879,-0.03902328386902809,0.5640706419944763,0.6118611097335815,-0.024258896708488464,0.5889756083488464,0.6017957925796509,-0.0105020422488451,0.0,0.0,0.0,0.0,0.0,0.0,0.0,0.0,0.0,0.0,0.0,0.0,0.0,0.0,0.0,0.0,0.0,0.0,0.0,0.0,0.0,0.0,0.0,0.0,0.0,0.0,0.0,0.0,0.0,0.0,0.0,0.0,0.0,0.0,0.0,0.0,0.0,0.0,0.0,0.0,0.0,0.0,0.0,0.0,0.0,0.0,0.0,0.0,0.0,0.0,0.0,0.0,0.0,0.0,0.0,0.0,0.0,0.0,0.0,0.0,0.0,0.0,0.0
1784045857.361475,0.7866161465644836,0.5841493606567383,4.3838807073370845e-07,0.7356685400009155,0.4469183385372162,0.004323151893913746,0.6538095474243164,0.40922439098358154,0.002544335788115859,0.5822175145149231,0.4348459839820862,0.0009132532286457717,0.5390679240226746,0.487106055021286,-0.0018731474410742521,0.6231319904327393,0.41291606426239014,-0.02965601347386837,0.517551064491272,0.35473522543907166,-0.04039115086197853,0.45788317918777466,0.3266143202781677,-0.04452186077833176,0.41104811429977417,0.30852675437927246,-0.04629268869757652,0.6153163313865662,0.5078997611999512,-0.033770062029361725,0.5037689208984375,0.5340251326560974,-0.04395119473338127,0.4417361617088318,0.5527916550636292,-0.043718498200178146,0.3973705470561981,0.575269341468811,-0.04418988525867462,0.618476152420044,0.5958449840545654,-0.03394168242812157,0.5245010852813721,0.5938846468925476,-0.03977971524000168,0.544456422328949,0.5569687485694885,-0.02667934074997902,0.5745934844017029,0.5442360639572144,-0.01544047798961401,0.6275894045829773,0.6682422161102295,-0.03335784003138542,0.5522992610931396,0.6394236087799072,-0.034323979169130325,0.5669928789138794,0.6128794550895691,-0.01878305897116661,0.5924457907676697,0.6027809381484985,-0.004677874036133289,0.0,0.0,0.0,0.0,0.0,0.0,0.0,0.0,0.0,0.0,0.0,0.0,0.0,0.0,0.0,0.0,0.0,0.0,0.0,0.0,0.0,0.0,0.0,0.0,0.0,0.0,0.0,0.0,0.0,0.0,0.0,0.0,0.0,0.0,0.0,0.0,0.0,0.0,0.0,0.0,0.0,0.0,0.0,0.0,0.0,0.0,0.0,0.0,0.0,0.0,0.0,0.0,0.0,0.0,0.0,0.0,0.0,0.0,0.0,0.0,0.0,0.0,0.0
1784045857.553548,0.7911220192909241,0.6033432483673096,4.255745409409428e-07,0.7364349365234375,0.4671853482723236,0.006899696309119463,0.6557245850563049,0.43302446603775024,0.005952648352831602,0.587581217288971,0.4607139229774475,0.004330401308834553,0.5460073947906494,0.5083324313163757,0.0014550959458574653,0.623181939125061,0.43320155143737793,-0.02773263119161129,0.5223629474639893,0.37186580896377563,-0.04066675156354904,0.46396374702453613,0.34429556131362915,-0.04796827211976051,0.4171525537967682,0.32831522822380066,-0.05197435989975929,0.6158009767532349,0.5271071195602417,-0.032893698662519455,0.5095910429954529,0.5506317019462585,-0.04305090382695198,0.44866234064102173,0.5670883059501648,-0.044300176203250885,0.40377122163772583,0.5884491205215454,-0.0465574786067009,0.6187158226966858,0.6129136085510254,-0.034109313040971756,0.5276519656181335,0.6078630685806274,-0.03826992213726044,0.5423731207847595,0.5642249584197998,-0.026823850348591805,0.5698522925376892,0.5466580986976624,-0.017819205299019814,0.6268361210823059,0.6829407811164856,-0.03463562950491905,0.5532628893852234,0.6546840667724609,-0.035075679421424866,0.5635667443275452,0.6233234405517578,-0.02120109461247921,0.5867810845375061,0.6081619262695312,-0.00876144040375948,0.0,0.0,0.0,0.0,0.0,0.0,0.0,0.0,0.0,0.0,0.0,0.0,0.0,0.0,0.0,0.0,0.0,0.0,0.0,0.0,0.0,0.0,0.0,0.0,0.0,0.0,0.0,0.0,0.0,0.0,0.0,0.0,0.0,0.0,0.0,0.0,0.0,0.0,0.0,0.0,0.0,0.0,0.0,0.0,0.0,0.0,0.0,0.0,0.0,0.0,0.0,0.0,0.0,0.0,0.0,0.0,0.0,0.0,0.0,0.0,0.0,0.0,0.0
1784045857.736817,0.7923934459686279,0.6036994457244873,4.5443675844580866e-07,0.7394583225250244,0.4661303758621216,0.009715717285871506,0.66190505027771,0.428881973028183,0.010566150769591331,0.5963378548622131,0.45311105251312256,0.010182945989072323,0.5560948848724365,0.500844419002533,0.008856656961143017,0.6277716755867004,0.42970556020736694,-0.020243778824806213,0.5247620344161987,0.370137095451355,-0.030024178326129913,0.46579158306121826,0.34251993894577026,-0.035091329365968704,0.41898250579833984,0.3244880437850952,-0.03770788386464119,0.6182510256767273,0.5263546109199524,-0.025996580719947815,0.5087081789970398,0.5522111654281616,-0.03452662378549576,0.4481251835823059,0.5681125521659851,-0.034785058349370956,0.4034331440925598,0.5866925716400146,-0.03570426627993584,0.6207497119903564,0.6133455634117126,-0.02773120440542698,0.526060938835144,0.6110442280769348,-0.03081579878926277,0.542185366153717,0.5719239711761475,-0.017910564318299294,0.5695203542709351,0.5562159419059753,-0.007211753167212009,0.6298180818557739,0.6809343695640564,-0.028472643345594406,0.5561146140098572,0.6509738564491272,-0.026392338797450066,0.565861165523529,0.6205093264579773,-0.010310475714504719,0.5880054235458374,0.6052854657173157,0.0039996071718633175,0.0,0.0,0.0,0.0,0.0,0.0,0.0,0.0,0.0,0.0,0.0,0.0,0.0,0.0,0.0,0.0,0.0,0.0,0.0,0.0,0.0,0.0,0.0,0.0,0.0,0.0,0.0,0.0,0.0,0.0,0.0,0.0,0.0,0.0,0.0,0.0,0.0,0.0,0.0,0.0,0.0,0.0,0.0,0.0,0.0,0.0,0.0,0.0,0.0,0.0,0.0,0.0,0.0,0.0,0.0,0.0,0.0,0.0,0.0,0.0,0.0,0.0,0.0
1784045857.922087,0.7922355532646179,0.6081532835960388,4.2912390085803054e-07,0.7395123839378357,0.46783775091171265,0.012240616604685783,0.6628127098083496,0.4303148686885834,0.014803783036768436,0.5974469780921936,0.4531310796737671,0.01583404466509819,0.5587832927703857,0.5027979612350464,0.01560222078114748,0.6301485896110535,0.4307642877101898,-0.01797521486878395,0.526269257068634,0.3724440932273865,-0.02713444083929062,0.46638190746307373,0.3471025228500366,-0.03200404718518257,0.4189768433570862,0.33132243156433105,-0.034443069249391556,0.6207361221313477,0.5241197943687439,-0.02433888614177704,0.5121254920959473,0.550234854221344,-0.031366657465696335,0.4522364139556885,0.5635659098625183,-0.03114716336131096,0.4086031913757324,0.5778234004974365,-0.03212762251496315,0.622178316116333,0.6102782487869263,-0.026628511026501656,0.5275882482528687,0.6110423803329468,-0.028241900727152824,0.5426284074783325,0.5733879208564758,-0.01614183746278286,0.5697333216667175,0.556831419467926,-0.006535046733915806,0.6297045350074768,0.6801464557647705,-0.02773548662662506,0.5556910634040833,0.6541280746459961,-0.025077402591705322,0.565037190914154,0.6262397766113281,-0.009887117892503738,0.5866082310676575,0.6110997200012207,0.0034838456194847822,0.0,0.0,0.0,0.0,0.0,0.0,0.0,0.0,0.0,0.0,0.0,0.0,0.0,0.0,0.0,0.0,0.0,0.0,0.0,0.0,0.0,0.0,0.0,0.0,0.0,0.0,0.0,0.0,0.0,0.0,0.0,0.0,0.0,0.0,0.0,0.0,0.0,0.0,0.0,0.0,0.0,0.0,0.0,0.0,0.0,0.0,0.0,0.0,0.0,0.0,0.0,0.0,0.0,0.0,0.0,0.0,0.0,0.0,0.0,0.0,0.0,0.0,0.0
1784045858.1237419,0.7926688194274902,0.6395731568336487,4.0391242350779066e-07,0.7390051484107971,0.5105559229850769,0.004595359321683645,0.6533894538879395,0.47928500175476074,0.0001744329056236893,0.5897216796875,0.5125530362129211,-0.0051262229681015015,0.5518398880958557,0.574194073677063,-0.011732063256204128,0.629863977432251,0.4634843170642853,-0.03278227150440216,0.5244035124778748,0.4211995601654053,-0.045365117490291595,0.466366171836853,0.4048198461532593,-0.050526898354291916,0.4208891987800598,0.394218772649765,-0.053052712231874466,0.6259669065475464,0.5569072961807251,-0.04024915024638176,0.5200992226600647,0.5774453282356262,-0.04933561757206917,0.4618723392486572,0.583677351474762,-0.048852212727069855,0.4218129515647888,0.5919936895370483,-0.050643932074308395,0.6297394037246704,0.6422281861305237,-0.04430055618286133,0.5366601347923279,0.6448633670806885,-0.04824147745966911,0.5504114031791687,0.6110948324203491,-0.0374925471842289,0.5796207189559937,0.5988799333572388,-0.029944781213998795,0.6361836791038513,0.7090901136398315,-0.04799802973866463,0.5630149245262146,0.6878065466880798,-0.04811059311032295,0.5720829963684082,0.658266544342041,-0.03537597507238388,0.5958781242370605,0.646298885345459,-0.025069016963243484,0.0,0.0,0.0,0.0,0.0,0.0,0.0,0.0,0.0,0.0,0.0,0.0,0.0,0.0,0.0,0.0,0.0,0.0,0.0,0.0,0.0,0.0,0.0,0.0,0.0,0.0,0.0,0.0,0.0,0.0,0.0,0.0,0.0,0.0,0.0,0.0,0.0,0.0,0.0,0.0,0.0,0.0,0.0,0.0,0.0,0.0,0.0,0.0,0.0,0.0,0.0,0.0,0.0,0.0,0.0,0.0,0.0,0.0,0.0,0.0,0.0,0.0,0.0
1784045858.3154309,0.0,0.0,0.0,0.0,0.0,0.0,0.0,0.0,0.0,0.0,0.0,0.0,0.0,0.0,0.0,0.0,0.0,0.0,0.0,0.0,0.0,0.0,0.0,0.0,0.0,0.0,0.0,0.0,0.0,0.0,0.0,0.0,0.0,0.0,0.0,0.0,0.0,0.0,0.0,0.0,0.0,0.0,0.0,0.0,0.0,0.0,0.0,0.0,0.0,0.0,0.0,0.0,0.0,0.0,0.0,0.0,0.0,0.0,0.0,0.0,0.0,0.0,0.0,0.0,0.0,0.0,0.0,0.0,0.0,0.0,0.0,0.0,0.0,0.0,0.0,0.0,0.0,0.0,0.0,0.0,0.0,0.0,0.0,0.0,0.0,0.0,0.0,0.0,0.0,0.0,0.0,0.0,0.0,0.0,0.0,0.0,0.0,0.0,0.0,0.0,0.0,0.0,0.0,0.0,0.0,0.0,0.0,0.0,0.0,0.0,0.0,0.0,0.0,0.0,0.0,0.0,0.0,0.0,0.0,0.0,0.0,0.0,0.0,0.0,0.0,0.0
1784045858.440502,0.0,0.0,0.0,0.0,0.0,0.0,0.0,0.0,0.0,0.0,0.0,0.0,0.0,0.0,0.0,0.0,0.0,0.0,0.0,0.0,0.0,0.0,0.0,0.0,0.0,0.0,0.0,0.0,0.0,0.0,0.0,0.0,0.0,0.0,0.0,0.0,0.0,0.0,0.0,0.0,0.0,0.0,0.0,0.0,0.0,0.0,0.0,0.0,0.0,0.0,0.0,0.0,0.0,0.0,0.0,0.0,0.0,0.0,0.0,0.0,0.0,0.0,0.0,0.0,0.0,0.0,0.0,0.0,0.0,0.0,0.0,0.0,0.0,0.0,0.0,0.0,0.0,0.0,0.0,0.0,0.0,0.0,0.0,0.0,0.0,0.0,0.0,0.0,0.0,0.0,0.0,0.0,0.0,0.0,0.0,0.0,0.0,0.0,0.0,0.0,0.0,0.0,0.0,0.0,0.0,0.0,0.0,0.0,0.0,0.0,0.0,0.0,0.0,0.0,0.0,0.0,0.0,0.0,0.0,0.0,0.0,0.0,0.0,0.0,0.0,0.0
1784045858.574035,0.0,0.0,0.0,0.0,0.0,0.0,0.0,0.0,0.0,0.0,0.0,0.0,0.0,0.0,0.0,0.0,0.0,0.0,0.0,0.0,0.0,0.0,0.0,0.0,0.0,0.0,0.0,0.0,0.0,0.0,0.0,0.0,0.0,0.0,0.0,0.0,0.0,0.0,0.0,0.0,0.0,0.0,0.0,0.0,0.0,0.0,0.0,0.0,0.0,0.0,0.0,0.0,0.0,0.0,0.0,0.0,0.0,0.0,0.0,0.0,0.0,0.0,0.0,0.0,0.0,0.0,0.0,0.0,0.0,0.0,0.0,0.0,0.0,0.0,0.0,0.0,0.0,0.0,0.0,0.0,0.0,0.0,0.0,0.0,0.0,0.0,0.0,0.0,0.0,0.0,0.0,0.0,0.0,0.0,0.0,0.0,0.0,0.0,0.0,0.0,0.0,0.0,0.0,0.0,0.0,0.0,0.0,0.0,0.0,0.0,0.0,0.0,0.0,0.0,0.0,0.0,0.0,0.0,0.0,0.0,0.0,0.0,0.0,0.0,0.0,0.0
1784045858.714219,0.0,0.0,0.0,0.0,0.0,0.0,0.0,0.0,0.0,0.0,0.0,0.0,0.0,0.0,0.0,0.0,0.0,0.0,0.0,0.0,0.0,0.0,0.0,0.0,0.0,0.0,0.0,0.0,0.0,0.0,0.0,0.0,0.0,0.0,0.0,0.0,0.0,0.0,0.0,0.0,0.0,0.0,0.0,0.0,0.0,0.0,0.0,0.0,0.0,0.0,0.0,0.0,0.0,0.0,0.0,0.0,0.0,0.0,0.0,0.0,0.0,0.0,0.0,0.0,0.0,0.0,0.0,0.0,0.0,0.0,0.0,0.0,0.0,0.0,0.0,0.0,0.0,0.0,0.0,0.0,0.0,0.0,0.0,0.0,0.0,0.0,0.0,0.0,0.0,0.0,0.0,0.0,0.0,0.0,0.0,0.0,0.0,0.0,0.0,0.0,0.0,0.0,0.0,0.0,0.0,0.0,0.0,0.0,0.0,0.0,0.0,0.0,0.0,0.0,0.0,0.0,0.0,0.0,0.0,0.0,0.0,0.0,0.0,0.0,0.0,0.0
1784045858.842657,0.0,0.0,0.0,0.0,0.0,0.0,0.0,0.0,0.0,0.0,0.0,0.0,0.0,0.0,0.0,0.0,0.0,0.0,0.0,0.0,0.0,0.0,0.0,0.0,0.0,0.0,0.0,0.0,0.0,0.0,0.0,0.0,0.0,0.0,0.0,0.0,0.0,0.0,0.0,0.0,0.0,0.0,0.0,0.0,0.0,0.0,0.0,0.0,0.0,0.0,0.0,0.0,0.0,0.0,0.0,0.0,0.0,0.0,0.0,0.0,0.0,0.0,0.0,0.0,0.0,0.0,0.0,0.0,0.0,0.0,0.0,0.0,0.0,0.0,0.0,0.0,0.0,0.0,0.0,0.0,0.0,0.0,0.0,0.0,0.0,0.0,0.0,0.0,0.0,0.0,0.0,0.0,0.0,0.0,0.0,0.0,0.0,0.0,0.0,0.0,0.0,0.0,0.0,0.0,0.0,0.0,0.0,0.0,0.0,0.0,0.0,0.0,0.0,0.0,0.0,0.0,0.0,0.0,0.0,0.0,0.0,0.0,0.0,0.0,0.0,0.0
