ciel274/research-hand-sign/data/raw/hiragana/sign_language_i_2.csv
timestamp,R_joint_0_x,R_joint_0_y,R_joint_0_z,R_joint_1_x,R_joint_1_y,R_joint_1_z,R_joint_2_x,R_joint_2_y,R_joint_2_z,R_joint_3_x,R_joint_3_y,R_joint_3_z,R_joint_4_x,R_joint_4_y,R_joint_4_z,R_joint_5_x,R_joint_5_y,R_joint_5_z,R_joint_6_x,R_joint_6_y,R_joint_6_z,R_joint_7_x,R_joint_7_y,R_joint_7_z,R_joint_8_x,R_joint_8_y,R_joint_8_z,R_joint_9_x,R_joint_9_y,R_joint_9_z,R_joint_10_x,R_joint_10_y,R_joint_10_z,R_joint_11_x,R_joint_11_y,R_joint_11_z,R_joint_12_x,R_joint_12_y,R_joint_12_z,R_joint_13_x,R_joint_13_y,R_joint_13_z,R_joint_14_x,R_joint_14_y,R_joint_14_z,R_joint_15_x,R_joint_15_y,R_joint_15_z,R_joint_16_x,R_joint_16_y,R_joint_16_z,R_joint_17_x,R_joint_17_y,R_joint_17_z,R_joint_18_x,R_joint_18_y,R_joint_18_z,R_joint_19_x,R_joint_19_y,R_joint_19_z,R_joint_20_x,R_joint_20_y,R_joint_20_z,L_joint_0_x,L_joint_0_y,L_joint_0_z,L_joint_1_x,L_joint_1_y,L_joint_1_z,L_joint_2_x,L_joint_2_y,L_joint_2_z,L_joint_3_x,L_joint_3_y,L_joint_3_z,L_joint_4_x,L_joint_4_y,L_joint_4_z,L_joint_5_x,L_joint_5_y,L_joint_5_z,L_joint_6_x,L_joint_6_y,L_joint_6_z,L_joint_7_x,L_joint_7_y,L_joint_7_z,L_joint_8_x,L_joint_8_y,L_joint_8_z,L_joint_9_x,L_joint_9_y,L_joint_9_z,L_joint_10_x,L_joint_10_y,L_joint_10_z,L_joint_11_x,L_joint_11_y,L_joint_11_z,L_joint_12_x,L_joint_12_y,L_joint_12_z,L_joint_13_x,L_joint_13_y,L_joint_13_z,L_joint_14_x,L_joint_14_y,L_joint_14_z,L_joint_15_x,L_joint_15_y,L_joint_15_z,L_joint_16_x,L_joint_16_y,L_joint_16_z,L_joint_17_x,L_joint_17_y,L_joint_17_z,L_joint_18_x,L_joint_18_y,L_joint_18_z,L_joint_19_x,L_joint_19_y,L_joint_19_z,L_joint_20_x,L_joint_20_y,L_joint_20_z
1783345022.1620018,0.738987147808075,0.7470532655715942,-3.6078711218578974e-07,0.6872876882553101,0.7276012897491455,-0.006726195104420185,0.6482986211776733,0.6483612060546875,-0.008038339205086231,0.65336674451828,0.587783694267273,-0.012083850800991058,0.6830501556396484,0.5799424648284912,-0.013475881889462471,0.668708086013794,0.5672188997268677,0.0009699981310404837,0.6571999788284302,0.494733989238739,-0.017926612868905067,0.6666362285614014,0.547566831111908,-0.02712026610970497,0.6749822497367859,0.5964069366455078,-0.028938811272382736,0.6982439160346985,0.5555926561355591,-0.0027754150796681643,0.6931014060974121,0.49412739276885986,-0.02926468290388584,0.6952608227729797,0.5637733936309814,-0.037964753806591034,0.6959654092788696,0.6170685291290283,-0.03578650951385498,0.7271386981010437,0.5514127016067505,-0.009485763497650623,0.7244371175765991,0.501107931137085,-0.03227708488702774,0.7182660698890686,0.5712416172027588,-0.03341507166624069,0.712367832660675,0.6264650225639343,-0.025693804025650024,0.7544914484024048,0.5490807890892029,-0.017043162137269974,0.7554103136062622,0.4727104902267456,-0.028677545487880707,0.753716230392456,0.4202779233455658,-0.032011449337005615,0.7511377334594727,0.36916494369506836,-0.030968328937888145,0.0,0.0,0.0,0.0,0.0,0.0,0.0,0.0,0.0,0.0,0.0,0.0,0.0,0.0,0.0,0.0,0.0,0.0,0.0,0.0,0.0,0.0,0.0,0.0,0.0,0.0,0.0,0.0,0.0,0.0,0.0,0.0,0.0,0.0,0.0,0.0,0.0,0.0,0.0,0.0,0.0,0.0,0.0,0.0,0.0,0.0,0.0,0.0,0.0,0.0,0.0,0.0,0.0,0.0,0.0,0.0,0.0,0.0,0.0,0.0,0.0,0.0,0.0
1783345022.418066,0.7338199615478516,0.7601929306983948,-3.786230706737115e-07,0.6817308664321899,0.7350515723228455,-0.005656472872942686,0.6451841592788696,0.6568149924278259,-0.006803472992032766,0.6519749164581299,0.5957484841346741,-0.011136945337057114,0.6819939017295837,0.5840381979942322,-0.012964881956577301,0.6665550470352173,0.5735529661178589,0.003591877641156316,0.6557109355926514,0.5052856206893921,-0.013934491202235222,0.6620697379112244,0.5609860420227051,-0.022550472989678383,0.6679518222808838,0.6090642809867859,-0.024401141330599785,0.6954056620597839,0.5634732842445374,-0.0010528741404414177,0.6897020936012268,0.5076233744621277,-0.026358390226960182,0.68901526927948,0.5768150091171265,-0.03584230691194534,0.6881445050239563,0.6291952133178711,-0.03489226475358009,0.7244385480880737,0.5596243739128113,-0.008592979982495308,0.7206641435623169,0.5130925178527832,-0.03136460483074188,0.7122095823287964,0.584926426410675,-0.03368908166885376,0.7050012946128845,0.6409213542938232,-0.02696559578180313,0.7517809867858887,0.557786762714386,-0.016816163435578346,0.7531083226203918,0.48001185059547424,-0.028163811191916466,0.7516619563102722,0.42714276909828186,-0.031562674790620804,0.7484680414199829,0.37560439109802246,-0.030789952725172043,0.0,0.0,0.0,0.0,0.0,0.0,0.0,0.0,0.0,0.0,0.0,0.0,0.0,0.0,0.0,0.0,0.0,0.0,0.0,0.0,0.0,0.0,0.0,0.0,0.0,0.0,0.0,0.0,0.0,0.0,0.0,0.0,0.0,0.0,0.0,0.0,0.0,0.0,0.0,0.0,0.0,0.0,0.0,0.0,0.0,0.0,0.0,0.0,0.0,0.0,0.0,0.0,0.0,0.0,0.0,0.0,0.0,0.0,0.0,0.0,0.0,0.0,0.0
1783345022.6886709,0.7313644886016846,0.7571732997894287,-3.7377628814283526e-07,0.6802015900611877,0.7346147894859314,-0.0058118426240980625,0.6430416703224182,0.6547079682350159,-0.0067591615952551365,0.6467491984367371,0.5938295722007751,-0.010708678513765335,0.674295961856842,0.5843676924705505,-0.012057298794388771,0.6659863591194153,0.5729368925094604,0.0021800710819661617,0.6539716124534607,0.5027090907096863,-0.016356319189071655,0.6616995930671692,0.5572225451469421,-0.025190215557813644,0.6690961718559265,0.606197714805603,-0.02680644951760769,0.695091962814331,0.5632075071334839,-0.0020011153537780046,0.6885442137718201,0.5015976428985596,-0.02854589745402336,0.6885135173797607,0.5724037289619446,-0.037216007709503174,0.6884171366691589,0.627098023891449,-0.03504409268498421,0.7237686514854431,0.5603528618812561,-0.009130418300628662,0.7191834449768066,0.508851170539856,-0.03235100209712982,0.710153341293335,0.5801365375518799,-0.03377074748277664,0.7029619812965393,0.6362857222557068,-0.026178618893027306,0.750721275806427,0.5592927932739258,-0.016991132870316505,0.7526298761367798,0.4818374514579773,-0.02910269796848297,0.7508436441421509,0.42794767022132874,-0.033121507614851,0.7484890818595886,0.37577036023139954,-0.03262932598590851,0.0,0.0,0.0,0.0,0.0,0.0,0.0,0.0,0.0,0.0,0.0,0.0,0.0,0.0,0.0,0.0,0.0,0.0,0.0,0.0,0.0,0.0,0.0,0.0,0.0,0.0,0.0,0.0,0.0,0.0,0.0,0.0,0.0,0.0,0.0,0.0,0.0,0.0,0.0,0.0,0.0,0.0,0.0,0.0,0.0,0.0,0.0,0.0,0.0,0.0,0.0,0.0,0.0,0.0,0.0,0.0,0.0,0.0,0.0,0.0,0.0,0.0,0.0
1783345022.874573,0.7314422130584717,0.7555888295173645,-3.967713269048545e-07,0.6816015243530273,0.735037624835968,-0.0055931140668690205,0.6442819237709045,0.6540312767028809,-0.006161094177514315,0.6482128500938416,0.5927739143371582,-0.00967358611524105,0.6767276525497437,0.5826132893562317,-0.010484359227120876,0.6654801368713379,0.5715117454528809,0.0010524167446419597,0.6539611220359802,0.4999128580093384,-0.01764061115682125,0.6613835692405701,0.5569325685501099,-0.02611425705254078,0.6684574484825134,0.6066153049468994,-0.02755311131477356,0.694854736328125,0.5621934533119202,-0.0033153346739709377,0.6889283061027527,0.4985722005367279,-0.03008737787604332,0.6883468627929688,0.5715753436088562,-0.038081541657447815,0.6874637603759766,0.6263477206230164,-0.03540794178843498,0.7240340113639832,0.5603097677230835,-0.010582860559225082,0.7197855710983276,0.5087915062904358,-0.03391716256737709,0.7104546427726746,0.5812317728996277,-0.03472217917442322,0.702925443649292,0.6373113393783569,-0.026802565902471542,0.7514808177947998,0.5597651600837708,-0.018591077998280525,0.7536181211471558,0.48090943694114685,-0.03144976869225502,0.7520428895950317,0.426748663187027,-0.03573843836784363,0.7497196197509766,0.3743058145046234,-0.03544133901596069,0.0,0.0,0.0,0.0,0.0,0.0,0.0,0.0,0.0,0.0,0.0,0.0,0.0,0.0,0.0,0.0,0.0,0.0,0.0,0.0,0.0,0.0,0.0,0.0,0.0,0.0,0.0,0.0,0.0,0.0,0.0,0.0,0.0,0.0,0.0,0.0,0.0,0.0,0.0,0.0,0.0,0.0,0.0,0.0,0.0,0.0,0.0,0.0,0.0,0.0,0.0,0.0,0.0,0.0,0.0,0.0,0.0,0.0,0.0,0.0,0.0,0.0,0.0
1783345023.010009,0.7325187921524048,0.7552399635314941,-3.9245324501280265e-07,0.6815690994262695,0.7347004413604736,-0.005596156232059002,0.6436906456947327,0.6540570855140686,-0.005887886043637991,0.6481398344039917,0.5933268666267395,-0.009196048602461815,0.6772656440734863,0.5839402675628662,-0.009834874421358109,0.6659541726112366,0.5742413997650146,0.0021232699509710073,0.6545525789260864,0.5011880397796631,-0.015911119058728218,0.6625164151191711,0.557037889957428,-0.0242148507386446,0.6696075797080994,0.6067399978637695,-0.0255972258746624,0.6950710415840149,0.5638265609741211,-0.0019722338765859604,0.6893275380134583,0.5013697743415833,-0.02789008431136608,0.6894835233688354,0.5722557902336121,-0.036229126155376434,0.6889175772666931,0.6263605356216431,-0.034059077501297,0.7240362167358398,0.5600465536117554,-0.008963752537965775,0.7198910117149353,0.5095333456993103,-0.031732942909002304,0.7112821340560913,0.5811516642570496,-0.03305856138467789,0.7040806412696838,0.6371185779571533,-0.02557552047073841,0.7515045404434204,0.5575218796730042,-0.01668153889477253,0.7534600496292114,0.47907620668411255,-0.02885769121348858,0.7520081996917725,0.4249364137649536,-0.03299720212817192,0.7493961453437805,0.3726712763309479,-0.03267828747630119,0.0,0.0,0.0,0.0,0.0,0.0,0.0,0.0,0.0,0.0,0.0,0.0,0.0,0.0,0.0,0.0,0.0,0.0,0.0,0.0,0.0,0.0,0.0,0.0,0.0,0.0,0.0,0.0,0.0,0.0,0.0,0.0,0.0,0.0,0.0,0.0,0.0,0.0,0.0,0.0,0.0,0.0,0.0,0.0,0.0,0.0,0.0,0.0,0.0,0.0,0.0,0.0,0.0,0.0,0.0,0.0,0.0,0.0,0.0,0.0,0.0,0.0,0.0
1783345023.158067,0.7327871918678284,0.7549595236778259,-3.951792848511104e-07,0.6813276410102844,0.7347405552864075,-0.006031244993209839,0.6437903642654419,0.6542481780052185,-0.0066493358463048935,0.6484813690185547,0.5928670167922974,-0.010066477581858635,0.6778264045715332,0.5831225514411926,-0.010674192570149899,0.6656296849250793,0.5736432671546936,0.0009684026590548456,0.6544212102890015,0.5011076331138611,-0.017555970698595047,0.6631023287773132,0.5585166215896606,-0.02597898244857788,0.670345664024353,0.6081951260566711,-0.027425849810242653,0.6951888203620911,0.5633594989776611,-0.0029412242583930492,0.6893683671951294,0.5005829930305481,-0.029116706922650337,0.6901238560676575,0.57326340675354,-0.03696504235267639,0.6896260380744934,0.6269504427909851,-0.03443426266312599,0.7243462204933167,0.5603521466255188,-0.009783909656107426,0.7201218008995056,0.5097802877426147,-0.03270511329174042,0.7120030522346497,0.5820569396018982,-0.03341761976480484,0.7049102783203125,0.6374464631080627,-0.02554912492632866,0.7518755197525024,0.5587425231933594,-0.017393337562680244,0.7535503506660461,0.4803425073623657,-0.029817139729857445,0.7519686222076416,0.4265178442001343,-0.03381218761205673,0.7490729093551636,0.37413156032562256,-0.03334459289908409,0.0,0.0,0.0,0.0,0.0,0.0,0.0,0.0,0.0,0.0,0.0,0.0,0.0,0.0,0.0,0.0,0.0,0.0,0.0,0.0,0.0,0.0,0.0,0.0,0.0,0.0,0.0,0.0,0.0,0.0,0.0,0.0,0.0,0.0,0.0,0.0,0.0,0.0,0.0,0.0,0.0,0.0,0.0,0.0,0.0,0.0,0.0,0.0,0.0,0.0,0.0,0.0,0.0,0.0,0.0,0.0,0.0,0.0,0.0,0.0,0.0,0.0,0.0
1783345023.293525,0.7329137325286865,0.7554059028625488,-3.897987141954218e-07,0.6811344623565674,0.7346314191818237,-0.005694883409887552,0.6437607407569885,0.6556327939033508,-0.006293001119047403,0.648110032081604,0.5945351719856262,-0.009834280237555504,0.6768833994865417,0.584347665309906,-0.010699538514018059,0.6660493016242981,0.5759772062301636,0.0015071991365402937,0.6543989777565002,0.5031079053878784,-0.016825422644615173,0.6626098155975342,0.5587602853775024,-0.0254073366522789,0.6696903109550476,0.6085008978843689,-0.026975836604833603,0.6952410340309143,0.5652322173118591,-0.0026167775504291058,0.6891317367553711,0.5030593872070312,-0.028576640412211418,0.6897392272949219,0.5738743543624878,-0.0368795171380043,0.6894323229789734,0.6276398301124573,-0.03475203737616539,0.7242000102996826,0.5613911747932434,-0.00961737334728241,0.719958484172821,0.5116086006164551,-0.03227918967604637,0.7120051383972168,0.582834005355835,-0.03328441083431244,0.7051504254341125,0.6383081674575806,-0.02566627971827984,0.7516546249389648,0.558990478515625,-0.01738930121064186,0.7530120611190796,0.4806325137615204,-0.029511893168091774,0.751610517501831,0.4268134832382202,-0.03335333615541458,0.7489914894104004,0.3750027120113373,-0.03279663249850273,0.0,0.0,0.0,0.0,0.0,0.0,0.0,0.0,0.0,0.0,0.0,0.0,0.0,0.0,0.0,0.0,0.0,0.0,0.0,0.0,0.0,0.0,0.0,0.0,0.0,0.0,0.0,0.0,0.0,0.0,0.0,0.0,0.0,0.0,0.0,0.0,0.0,0.0,0.0,0.0,0.0,0.0,0.0,0.0,0.0,0.0,0.0,0.0,0.0,0.0,0.0,0.0,0.0,0.0,0.0,0.0,0.0,0.0,0.0,0.0,0.0,0.0,0.0
1783345023.45525,0.7325976490974426,0.7557640075683594,-3.853878638437891e-07,0.680932879447937,0.7347679734230042,-0.005951845087110996,0.6436788439750671,0.6544273495674133,-0.006681721657514572,0.6487440466880798,0.5944046378135681,-0.010333657264709473,0.6781705021858215,0.5863457322120667,-0.011267494410276413,0.6660240888595581,0.5741004943847656,0.0013606298016384244,0.6542004942893982,0.5025964379310608,-0.01697872206568718,0.6622304320335388,0.5602768063545227,-0.025277335196733475,0.6694537401199341,0.609279453754425,-0.02675567753612995,0.6951035857200623,0.5637304186820984,-0.002783464267849922,0.6886600255966187,0.5017110109329224,-0.028933100402355194,0.6888983249664307,0.5742207765579224,-0.03692961856722832,0.6886109709739685,0.6273447275161743,-0.03456224873661995,0.7240879535675049,0.5606704950332642,-0.009890674613416195,0.7196074724197388,0.5113522410392761,-0.03270528465509415,0.711098313331604,0.5834949016571045,-0.03368892893195152,0.7039713263511658,0.6385147571563721,-0.026100289076566696,0.7516646981239319,0.5589682459831238,-0.01779421791434288,0.753677248954773,0.4808676540851593,-0.03001701831817627,0.7523537874221802,0.4273058772087097,-0.03408863767981529,0.7496141791343689,0.37533971667289734,-0.03378986939787865,0.0,0.0,0.0,0.0,0.0,0.0,0.0,0.0,0.0,0.0,0.0,0.0,0.0,0.0,0.0,0.0,0.0,0.0,0.0,0.0,0.0,0.0,0.0,0.0,0.0,0.0,0.0,0.0,0.0,0.0,0.0,0.0,0.0,0.0,0.0,0.0,0.0,0.0,0.0,0.0,0.0,0.0,0.0,0.0,0.0,0.0,0.0,0.0,0.0,0.0,0.0,0.0,0.0,0.0,0.0,0.0,0.0,0.0,0.0,0.0,0.0,0.0,0.0
1783345023.585547,0.731640100479126,0.7546963095664978,-3.7970565358591557e-07,0.68043053150177,0.7333256006240845,-0.006234347820281982,0.6433087587356567,0.6526000499725342,-0.007321440149098635,0.64802086353302,0.5917128324508667,-0.011300002224743366,0.6762802600860596,0.5824472904205322,-0.012677003629505634,0.665678083896637,0.5726495981216431,0.0009114685235545039,0.6533190011978149,0.5020930767059326,-0.01766892522573471,0.6614465117454529,0.5579546093940735,-0.02630019001662731,0.6692492961883545,0.6076205968856812,-0.027822798117995262,0.6945427656173706,0.5620324015617371,-0.0031070318073034286,0.6878441572189331,0.5007860660552979,-0.02937045693397522,0.687961757183075,0.5727244019508362,-0.037419643253088,0.6883891224861145,0.6275332570075989,-0.03499796614050865,0.723371148109436,0.5588169693946838,-0.010110464878380299,0.7183400988578796,0.5080156326293945,-0.03311045467853546,0.7096152305603027,0.5798420310020447,-0.03417396545410156,0.703324019908905,0.6360419988632202,-0.026518339291214943,0.7506906986236572,0.557208776473999,-0.017900049686431885,0.7527509927749634,0.4785928428173065,-0.03008759394288063,0.7510795593261719,0.4244028329849243,-0.03415800631046295,0.74875408411026,0.3721068501472473,-0.03383007273077965,0.0,0.0,0.0,0.0,0.0,0.0,0.0,0.0,0.0,0.0,0.0,0.0,0.0,0.0,0.0,0.0,0.0,0.0,0.0,0.0,0.0,0.0,0.0,0.0,0.0,0.0,0.0,0.0,0.0,0.0,0.0,0.0,0.0,0.0,0.0,0.0,0.0,0.0,0.0,0.0,0.0,0.0,0.0,0.0,0.0,0.0,0.0,0.0,0.0,0.0,0.0,0.0,0.0,0.0,0.0,0.0,0.0,0.0,0.0,0.0,0.0,0.0,0.0
1783345023.7173839,0.7289549112319946,0.7551012635231018,-3.6871963970952493e-07,0.6783056259155273,0.7309548258781433,-0.006511587183922529,0.6422000527381897,0.6504824161529541,-0.00834639836102724,0.6476043462753296,0.588596522808075,-0.013317679986357689,0.6751304864883423,0.5780421495437622,-0.01582231931388378,0.6645238399505615,0.5698164701461792,0.0018338190857321024,0.6521527171134949,0.5033033490180969,-0.01643928326666355,0.6592134237289429,0.560316801071167,-0.025077881291508675,0.6661078333854675,0.6088458895683289,-0.026785332709550858,0.692548930644989,0.5591222643852234,-0.0024970995727926493,0.68474280834198,0.5022767782211304,-0.028374915942549706,0.6840276718139648,0.5737507939338684,-0.03690246120095253,0.6844028234481812,0.6273741126060486,-0.03508177399635315,0.7212880253791809,0.5565328598022461,-0.009917860850691795,0.7150970101356506,0.5091170072555542,-0.03343041613698006,0.7054345607757568,0.5810474157333374,-0.035441089421510696,0.6988963484764099,0.6368923783302307,-0.028345130383968353,0.7488728165626526,0.556036651134491,-0.01808701641857624,0.7515119314193726,0.4769713878631592,-0.030222706496715546,0.749809741973877,0.42307254672050476,-0.03441017121076584,0.7470595836639404,0.37128138542175293,-0.034223318099975586,0.0,0.0,0.0,0.0,0.0,0.0,0.0,0.0,0.0,0.0,0.0,0.0,0.0,0.0,0.0,0.0,0.0,0.0,0.0,0.0,0.0,0.0,0.0,0.0,0.0,0.0,0.0,0.0,0.0,0.0,0.0,0.0,0.0,0.0,0.0,0.0,0.0,0.0,0.0,0.0,0.0,0.0,0.0,0.0,0.0,0.0,0.0,0.0,0.0,0.0,0.0,0.0,0.0,0.0,0.0,0.0,0.0,0.0,0.0,0.0,0.0,0.0,0.0
1783345023.8551302,0.72633957862854,0.7509821057319641,-3.5962338529316185e-07,0.676677405834198,0.7273029685020447,-0.005661836825311184,0.6416289210319519,0.6475393176078796,-0.007432180922478437,0.647684633731842,0.5858229994773865,-0.012641780078411102,0.6743224859237671,0.572338342666626,-0.015581843443214893,0.6618919968605042,0.5676547884941101,0.0025431104004383087,0.6495509743690491,0.5035916566848755,-0.015649225562810898,0.656688928604126,0.5590890645980835,-0.024321312084794044,0.6633554697036743,0.6065325736999512,-0.025991031900048256,0.6896712779998779,0.5566390752792358,-0.0021209639962762594,0.6811597943305969,0.5015831589698792,-0.0277638528496027,0.6805821657180786,0.5712504386901855,-0.036530159413814545,0.6809748411178589,0.6240026950836182,-0.03495832905173302,0.7187283039093018,0.5538168549537659,-0.009759894572198391,0.7105766534805298,0.5066449642181396,-0.03349757567048073,0.7008435130119324,0.5786385536193848,-0.03566303104162216,0.6945759654045105,0.6348645687103271,-0.02857927978038788,0.7466883659362793,0.553192675113678,-0.017987946048378944,0.7490981221199036,0.47485655546188354,-0.03039710223674774,0.7471211552619934,0.42170801758766174,-0.034593842923641205,0.7438133358955383,0.3700001835823059,-0.03433090075850487,0.0,0.0,0.0,0.0,0.0,0.0,0.0,0.0,0.0,0.0,0.0,0.0,0.0,0.0,0.0,0.0,0.0,0.0,0.0,0.0,0.0,0.0,0.0,0.0,0.0,0.0,0.0,0.0,0.0,0.0,0.0,0.0,0.0,0.0,0.0,0.0,0.0,0.0,0.0,0.0,0.0,0.0,0.0,0.0,0.0,0.0,0.0,0.0,0.0,0.0,0.0,0.0,0.0,0.0,0.0,0.0,0.0,0.0,0.0,0.0,0.0,0.0,0.0
1783345024.025141,0.7227336168289185,0.749774694442749,-3.6421801041797153e-07,0.672046959400177,0.7216290831565857,-0.006009180098772049,0.6403558254241943,0.6395411491394043,-0.007750007323920727,0.6485676169395447,0.5755020380020142,-0.0131252221763134,0.6731075048446655,0.5485255122184753,-0.0161848533898592,0.6603050231933594,0.5651370286941528,0.00470552034676075,0.647762656211853,0.5041414499282837,-0.013489415869116783,0.6535273790359497,0.5611158013343811,-0.02201085537672043,0.6596197485923767,0.6076105833053589,-0.023286685347557068,0.6876380443572998,0.5540595054626465,0.00013391567335929722,0.6784433722496033,0.49984028935432434,-0.02575078420341015,0.6761462688446045,0.5711798667907715,-0.03539474308490753,0.6758890748023987,0.6245562434196472,-0.03396546095609665,0.7163536548614502,0.5514215230941772,-0.007614666596055031,0.7068105340003967,0.5077171325683594,-0.03189879655838013,0.695323646068573,0.5793823599815369,-0.0353153795003891,0.6887642741203308,0.6338363289833069,-0.02858959510922432,0.7441619634628296,0.5507363080978394,-0.015912888571619987,0.746776282787323,0.4715404510498047,-0.028393758460879326,0.7442044019699097,0.4188508093357086,-0.03282453492283821,0.7405219078063965,0.368271142244339,-0.03240174055099487,0.0,0.0,0.0,0.0,0.0,0.0,0.0,0.0,0.0,0.0,0.0,0.0,0.0,0.0,0.0,0.0,0.0,0.0,0.0,0.0,0.0,0.0,0.0,0.0,0.0,0.0,0.0,0.0,0.0,0.0,0.0,0.0,0.0,0.0,0.0,0.0,0.0,0.0,0.0,0.0,0.0,0.0,0.0,0.0,0.0,0.0,0.0,0.0,0.0,0.0,0.0,0.0,0.0,0.0,0.0,0.0,0.0,0.0,0.0,0.0,0.0,0.0,0.0
1783345024.204,0.7189289331436157,0.7472260594367981,-4.2278455225641665e-07,0.671188235282898,0.7163313627243042,-0.00448966259136796,0.6442939043045044,0.6337553858757019,-0.0054020569659769535,0.6505711078643799,0.5651324987411499,-0.010312441736459732,0.6672599911689758,0.5231732726097107,-0.012831751257181168,0.663817822933197,0.5630800724029541,0.005985045339912176,0.6489271521568298,0.5021417737007141,-0.013379025273025036,0.6517068147659302,0.5605695247650146,-0.022275637835264206,0.656973659992218,0.6094655394554138,-0.023071974515914917,0.68971186876297,0.5540781617164612,0.0008632346289232373,0.6781114339828491,0.5013786554336548,-0.02615603432059288,0.6733625531196594,0.5740368366241455,-0.03628108277916908,0.6727179884910583,0.6296481490135193,-0.03482170030474663,0.7175416946411133,0.5525733828544617,-0.007427506148815155,0.7052468061447144,0.5104261636734009,-0.03303373605012894,0.690789520740509,0.5814884901046753,-0.036942318081855774,0.6835964918136597,0.6353623270988464,-0.030243445187807083,0.7445908188819885,0.551446259021759,-0.016035456210374832,0.7481524348258972,0.4704948663711548,-0.029967505484819412,0.744581937789917,0.4162752628326416,-0.03518398478627205,0.740176796913147,0.36531034111976624,-0.03498673811554909,0.0,0.0,0.0,0.0,0.0,0.0,0.0,0.0,0.0,0.0,0.0,0.0,0.0,0.0,0.0,0.0,0.0,0.0,0.0,0.0,0.0,0.0,0.0,0.0,0.0,0.0,0.0,0.0,0.0,0.0,0.0,0.0,0.0,0.0,0.0,0.0,0.0,0.0,0.0,0.0,0.0,0.0,0.0,0.0,0.0,0.0,0.0,0.0,0.0,0.0,0.0,0.0,0.0,0.0,0.0,0.0,0.0,0.0,0.0,0.0,0.0,0.0,0.0
1783345024.360277,0.7168093323707581,0.7450198531150818,-4.443108423402009e-07,0.6704408526420593,0.7097086906433105,-0.0028039233293384314,0.6460902690887451,0.6292240619659424,-0.00254049152135849,0.6487724781036377,0.5605962872505188,-0.006462835241109133,0.6598820090293884,0.5141848921775818,-0.008022482506930828,0.6669166088104248,0.5612829327583313,0.009229786694049835,0.6507564783096313,0.5034245252609253,-0.008334980346262455,0.6515527963638306,0.5589978694915771,-0.016277562826871872,0.6558155417442322,0.6057584285736084,-0.016506584361195564,0.6908178329467773,0.5529087781906128,0.0038150364998728037,0.6763806939125061,0.504439651966095,-0.02201545238494873,0.6718069314956665,0.5760258436203003,-0.032063230872154236,0.6717585921287537,0.6318046450614929,-0.030559785664081573,0.7175583839416504,0.5507276058197021,-0.004563001450151205,0.7013736367225647,0.5108091235160828,-0.029832879081368446,0.6858983635902405,0.5794029235839844,-0.03474291041493416,0.678865373134613,0.6323934197425842,-0.02853849157691002,0.7444712519645691,0.5479624271392822,-0.01294745597988367,0.7471509575843811,0.4674952030181885,-0.02683170698583126,0.7435780167579651,0.4132768511772156,-0.03249350190162659,0.7389100193977356,0.36310452222824097,-0.03251739591360092,0.0,0.0,0.0,0.0,0.0,0.0,0.0,0.0,0.0,0.0,0.0,0.0,0.0,0.0,0.0,0.0,0.0,0.0,0.0,0.0,0.0,0.0,0.0,0.0,0.0,0.0,0.0,0.0,0.0,0.0,0.0,0.0,0.0,0.0,0.0,0.0,0.0,0.0,0.0,0.0,0.0,0.0,0.0,0.0,0.0,0.0,0.0,0.0,0.0,0.0,0.0,0.0,0.0,0.0,0.0,0.0,0.0,0.0,0.0,0.0,0.0,0.0,0.0
1783345024.5008461,0.7133883237838745,0.7438809871673584,-4.448013157798414e-07,0.668053925037384,0.7099460959434509,-0.0031759331468492746,0.6438996195793152,0.6284239292144775,-0.002426953986287117,0.6460710167884827,0.5608005523681641,-0.005689186044037342,0.655449390411377,0.5155522227287292,-0.006498928181827068,0.6632097959518433,0.5617504715919495,0.009474682621657848,0.6476972699165344,0.5048928260803223,-0.007994478568434715,0.6492924690246582,0.5599462985992432,-0.01589566096663475,0.6537002325057983,0.6068881750106812,-0.01590600609779358,0.6876640319824219,0.5539884567260742,0.004526984412223101,0.6742376089096069,0.5078707337379456,-0.020800581201910973,0.6699842214584351,0.5798604488372803,-0.030413160100579262,0.6701231002807617,0.6349144577980042,-0.02858015149831772,0.7146359086036682,0.5525829792022705,-0.003481503576040268,0.6992069482803345,0.5144311785697937,-0.028084009885787964,0.6836031079292297,0.5821169018745422,-0.03283688426017761,0.6769219040870667,0.6342572569847107,-0.02652570977807045,0.741828203201294,0.5508084297180176,-0.01161088515073061,0.7439225316047668,0.47075557708740234,-0.025388557463884354,0.7398812770843506,0.4163961708545685,-0.03118295408785343,0.7356088757514954,0.36641332507133484,-0.03116176649928093,0.0,0.0,0.0,0.0,0.0,0.0,0.0,0.0,0.0,0.0,0.0,0.0,0.0,0.0,0.0,0.0,0.0,0.0,0.0,0.0,0.0,0.0,0.0,0.0,0.0,0.0,0.0,0.0,0.0,0.0,0.0,0.0,0.0,0.0,0.0,0.0,0.0,0.0,0.0,0.0,0.0,0.0,0.0,0.0,0.0,0.0,0.0,0.0,0.0,0.0,0.0,0.0,0.0,0.0,0.0,0.0,0.0,0.0,0.0,0.0,0.0,0.0,0.0
1783345024.6530418,0.7121343016624451,0.7419019341468811,-4.5372613044492027e-07,0.6672464609146118,0.7031753063201904,-0.003048083744943142,0.6444830894470215,0.6209116578102112,-0.0021332057658582926,0.645547091960907,0.552913248538971,-0.005421437788754702,0.6509174704551697,0.5051236152648926,-0.006437927950173616,0.6663706302642822,0.557741105556488,0.01071587298065424,0.6496542096138,0.5028350353240967,-0.006982085295021534,0.6489909887313843,0.5585111975669861,-0.015310317277908325,0.6523281335830688,0.606109082698822,-0.015528162941336632,0.6900335550308228,0.5513608455657959,0.005637878552079201,0.6740546226501465,0.5072856545448303,-0.019971584901213646,0.6690030694007874,0.5799901485443115,-0.03021855279803276,0.6695637106895447,0.6352314949035645,-0.028804514557123184,0.7165133953094482,0.5506412386894226,-0.0025733080692589283,0.6984764933586121,0.5110607147216797,-0.027365706861019135,0.6821154356002808,0.5795456767082214,-0.03213616460561752,0.6759329438209534,0.6327178478240967,-0.025755368173122406,0.743273913860321,0.5490743517875671,-0.010909412056207657,0.7448804974555969,0.4677487015724182,-0.024735625833272934,0.7402068376541138,0.413507878780365,-0.030379153788089752,0.7354312539100647,0.3643442392349243,-0.030174177139997482,0.0,0.0,0.0,0.0,0.0,0.0,0.0,0.0,0.0,0.0,0.0,0.0,0.0,0.0,0.0,0.0,0.0,0.0,0.0,0.0,0.0,0.0,0.0,0.0,0.0,0.0,0.0,0.0,0.0,0.0,0.0,0.0,0.0,0.0,0.0,0.0,0.0,0.0,0.0,0.0,0.0,0.0,0.0,0.0,0.0,0.0,0.0,0.0,0.0,0.0,0.0,0.0,0.0,0.0,0.0,0.0,0.0,0.0,0.0,0.0,0.0,0.0,0.0
1783345024.809398,0.7085480093955994,0.7372012734413147,-4.5999283315723005e-07,0.6682500243186951,0.6974985599517822,-0.0022847107611596584,0.6477378606796265,0.6160417199134827,-0.001005280762910843,0.6472053527832031,0.5509838461875916,-0.004219447262585163,0.6489754319190979,0.5060524344444275,-0.005146535113453865,0.6685065627098083,0.5553966760635376,0.010961120016872883,0.6517223715782166,0.4996696412563324,-0.006534072570502758,0.6498619914054871,0.5557196140289307,-0.014130267314612865,0.6530998349189758,0.6015483736991882,-0.01371714100241661,0.6899463534355164,0.5500521063804626,0.005422807764261961,0.6737725734710693,0.504837155342102,-0.020449714735150337,0.667946457862854,0.5763260722160339,-0.030575698241591454,0.6682860851287842,0.6296677589416504,-0.028861787170171738,0.7150598764419556,0.5494358539581299,-0.0031314550433307886,0.695856511592865,0.5111459493637085,-0.02814376726746559,0.6786599159240723,0.578205406665802,-0.03340226784348488,0.6724555492401123,0.6292122006416321,-0.027055945247411728,0.7411428093910217,0.5469450950622559,-0.011744015850126743,0.7422223687171936,0.4645242989063263,-0.025481168180704117,0.7373644709587097,0.40995386242866516,-0.03138776123523712,0.7327888011932373,0.36055147647857666,-0.031285662204027176,0.0,0.0,0.0,0.0,0.0,0.0,0.0,0.0,0.0,0.0,0.0,0.0,0.0,0.0,0.0,0.0,0.0,0.0,0.0,0.0,0.0,0.0,0.0,0.0,0.0,0.0,0.0,0.0,0.0,0.0,0.0,0.0,0.0,0.0,0.0,0.0,0.0,0.0,0.0,0.0,0.0,0.0,0.0,0.0,0.0,0.0,0.0,0.0,0.0,0.0,0.0,0.0,0.0,0.0,0.0,0.0,0.0,0.0,0.0,0.0,0.0,0.0,0.0
1783345024.965465,0.7067843675613403,0.7369260787963867,-4.993237325834343e-07,0.6685216426849365,0.6926265358924866,-0.0007056058966554701,0.6504808068275452,0.6142863035202026,0.0010162353282794356,0.650829553604126,0.551513671875,-0.0021569174714386463,0.65218585729599,0.5083356499671936,-0.0030186825897544622,0.6705042123794556,0.5543575286865234,0.012600253336131573,0.6546342968940735,0.49781447649002075,-0.004692811984568834,0.6497978568077087,0.5533640384674072,-0.012232081964612007,0.6507216691970825,0.6000345349311829,-0.011684583500027657,0.6901448965072632,0.5493576526641846,0.006215855944901705,0.6727805137634277,0.5058389902114868,-0.019684946164488792,0.6666997075080872,0.5759713649749756,-0.030336160212755203,0.6669541001319885,0.6296029090881348,-0.028888000175356865,0.7143667936325073,0.5484756231307983,-0.0029943985864520073,0.6934767961502075,0.5114058256149292,-0.027632439509034157,0.677554190158844,0.5756422281265259,-0.03344079107046127,0.6719371676445007,0.6249651312828064,-0.027508538216352463,0.7405513525009155,0.5458347797393799,-0.012179381214082241,0.7409865856170654,0.46225401759147644,-0.02562648244202137,0.735799252986908,0.4072960317134857,-0.03165315091609955,0.73027104139328,0.3581046462059021,-0.03162457048892975,0.0,0.0,0.0,0.0,0.0,0.0,0.0,0.0,0.0,0.0,0.0,0.0,0.0,0.0,0.0,0.0,0.0,0.0,0.0,0.0,0.0,0.0,0.0,0.0,0.0,0.0,0.0,0.0,0.0,0.0,0.0,0.0,0.0,0.0,0.0,0.0,0.0,0.0,0.0,0.0,0.0,0.0,0.0,0.0,0.0,0.0,0.0,0.0,0.0,0.0,0.0,0.0,0.0,0.0,0.0,0.0,0.0,0.0,0.0,0.0,0.0,0.0,0.0
1783345025.1214972,0.7051596641540527,0.7374864220619202,-5.20583398611052e-07,0.6678414940834045,0.6887738108634949,0.0008770802523940802,0.6512909531593323,0.6098505854606628,0.003342895768582821,0.6508457064628601,0.5484364032745361,0.0004896930186077952,0.6499204039573669,0.5064361095428467,-6.0336573369568214e-05,0.6724610924720764,0.5525261163711548,0.014974217861890793,0.6568619608879089,0.4976731538772583,-0.002497608307749033,0.6507296562194824,0.5544039607048035,-0.01044576894491911,0.6509785652160645,0.6007230281829834,-0.01003916934132576,0.6909047365188599,0.5484285354614258,0.007738032843917608,0.6729606986045837,0.5020050406455994,-0.01836671307682991,0.6649845838546753,0.5726459622383118,-0.029187800362706184,0.6642688512802124,0.6261378526687622,-0.02762201614677906,0.714430034160614,0.5485779643058777,-0.0022365853656083345,0.6924957633018494,0.5097673535346985,-0.026757624000310898,0.6763819456100464,0.5744949579238892,-0.03180980682373047,0.6717097163200378,0.6235730051994324,-0.025132866576313972,0.7403549551963806,0.5475159883499146,-0.012179972603917122,0.7417882084846497,0.4630110561847687,-0.025207635015249252,0.7356303334236145,0.40700358152389526,-0.030474044382572174,0.7289955615997314,0.3572535812854767,-0.029745614156126976,0.0,0.0,0.0,0.0,0.0,0.0,0.0,0.0,0.0,0.0,0.0,0.0,0.0,0.0,0.0,0.0,0.0,0.0,0.0,0.0,0.0,0.0,0.0,0.0,0.0,0.0,0.0,0.0,0.0,0.0,0.0,0.0,0.0,0.0,0.0,0.0,0.0,0.0,0.0,0.0,0.0,0.0,0.0,0.0,0.0,0.0,0.0,0.0,0.0,0.0,0.0,0.0,0.0,0.0,0.0,0.0,0.0,0.0,0.0,0.0,0.0,0.0,0.0
1783345025.2478452,0.7031620144844055,0.7410944104194641,-5.294479592521384e-07,0.6674268841743469,0.6930516958236694,0.0014439907390624285,0.6513757109642029,0.6149319410324097,0.004269566852599382,0.6513177156448364,0.5533995628356934,0.0016812413232401013,0.6521134376525879,0.5112060904502869,0.0014606650220230222,0.6717793345451355,0.559781551361084,0.014241178520023823,0.6544946432113647,0.5037208795547485,-0.0031897833105176687,0.6496637463569641,0.559821605682373,-0.010898410342633724,0.6521259546279907,0.6066930294036865,-0.010024302639067173,0.689053475856781,0.5557990670204163,0.007099380251020193,0.6690912842750549,0.5076811909675598,-0.018254851922392845,0.6626037359237671,0.576423168182373,-0.028310613706707954,0.6638760566711426,0.6286121606826782,-0.026325931772589684,0.7120974063873291,0.555851399898529,-0.002645784756168723,0.6876035928726196,0.5170712471008301,-0.026020819321274757,0.6737566590309143,0.580955445766449,-0.030225003138184547,0.6722883582115173,0.629442036151886,-0.023222224786877632,0.7377059459686279,0.5546496510505676,-0.012422902509570122,0.7391575574874878,0.4693913757801056,-0.02459239959716797,0.7318779230117798,0.4120478928089142,-0.029445208609104156,0.724629819393158,0.3630235195159912,-0.028543129563331604,0.0,0.0,0.0,0.0,0.0,0.0,0.0,0.0,0.0,0.0,0.0,0.0,0.0,0.0,0.0,0.0,0.0,0.0,0.0,0.0,0.0,0.0,0.0,0.0,0.0,0.0,0.0,0.0,0.0,0.0,0.0,0.0,0.0,0.0,0.0,0.0,0.0,0.0,0.0,0.0,0.0,0.0,0.0,0.0,0.0,0.0,0.0,0.0,0.0,0.0,0.0,0.0,0.0,0.0,0.0,0.0,0.0,0.0,0.0,0.0,0.0,0.0,0.0
1783345025.384809,0.7015877366065979,0.7434087991714478,-5.326153313944815e-07,0.6667441725730896,0.6934217214584351,0.0017207689816132188,0.6518189311027527,0.6147305369377136,0.0045973449014127254,0.6513839960098267,0.5542944669723511,0.0019573403988033533,0.6512293219566345,0.513321042060852,0.0017734819557517767,0.6712242960929871,0.5589736700057983,0.015021571889519691,0.6534584164619446,0.5054966807365417,-0.00289378990419209,0.6477411985397339,0.5622756481170654,-0.010755863972008228,0.6499219536781311,0.6084245443344116,-0.009951299987733364,0.6874520778656006,0.555079460144043,0.007673443295061588,0.6659502387046814,0.5071852803230286,-0.018217356875538826,0.6596742868423462,0.577785074710846,-0.02773725613951683,0.6617719531059265,0.6300279498100281,-0.02515939436852932,0.7100863456726074,0.5556066632270813,-0.0023768001701682806,0.6840835213661194,0.5169352889060974,-0.026699377223849297,0.6710264086723328,0.5834174752235413,-0.0303026232868433,0.6705929040908813,0.632929801940918,-0.022498417645692825,0.7361457943916321,0.5550277829170227,-0.012436486780643463,0.7369288206100464,0.4699919521808624,-0.025317028164863586,0.729260265827179,0.4139939844608307,-0.029996125027537346,0.7217147946357727,0.3661118149757385,-0.02874678559601307,0.0,0.0,0.0,0.0,0.0,0.0,0.0,0.0,0.0,0.0,0.0,0.0,0.0,0.0,0.0,0.0,0.0,0.0,0.0,0.0,0.0,0.0,0.0,0.0,0.0,0.0,0.0,0.0,0.0,0.0,0.0,0.0,0.0,0.0,0.0,0.0,0.0,0.0,0.0,0.0,0.0,0.0,0.0,0.0,0.0,0.0,0.0,0.0,0.0,0.0,0.0,0.0,0.0,0.0,0.0,0.0,0.0,0.0,0.0,0.0,0.0,0.0,0.0
1783345025.554396,0.7002431750297546,0.742870569229126,-5.534385536520858e-07,0.6660282611846924,0.6907336115837097,0.003445475595071912,0.6529702544212341,0.612671971321106,0.007086039986461401,0.6517459750175476,0.5533742308616638,0.004808705300092697,0.6497265100479126,0.5132145285606384,0.00488938856869936,0.6725387573242188,0.5588424801826477,0.017614522948861122,0.6526148319244385,0.5059477686882019,-1.3536858205043245e-05,0.6468191742897034,0.5628982782363892,-0.007895822636783123,0.6499179005622864,0.6088597774505615,-0.006954257842153311,0.687542200088501,0.5543891787528992,0.009610611014068127,0.6629548072814941,0.5060433745384216,-0.015922773629426956,0.6571993827819824,0.5779241323471069,-0.025441929697990417,0.6605744957923889,0.6296959519386292,-0.022699277848005295,0.7094246745109558,0.554023265838623,-0.0009181712521240115,0.6804805397987366,0.5152463316917419,-0.02451915666460991,0.6687175631523132,0.5830801129341125,-0.02744598500430584,0.6704622507095337,0.6323535442352295,-0.01910020411014557,0.7353795766830444,0.5532407164573669,-0.011373057961463928,0.734377920627594,0.4670945107936859,-0.02335898019373417,0.7258075475692749,0.4112006425857544,-0.027006354182958603,0.7180060744285583,0.3645702600479126,-0.024872509762644768,0.0,0.0,0.0,0.0,0.0,0.0,0.0,0.0,0.0,0.0,0.0,0.0,0.0,0.0,0.0,0.0,0.0,0.0,0.0,0.0,0.0,0.0,0.0,0.0,0.0,0.0,0.0,0.0,0.0,0.0,0.0,0.0,0.0,0.0,0.0,0.0,0.0,0.0,0.0,0.0,0.0,0.0,0.0,0.0,0.0,0.0,0.0,0.0,0.0,0.0,0.0,0.0,0.0,0.0,0.0,0.0,0.0,0.0,0.0,0.0,0.0,0.0,0.0
1783345025.6875799,0.7006444334983826,0.7438523173332214,-5.69890516999294e-07,0.6677901744842529,0.6893805861473083,0.004864321555942297,0.655991792678833,0.6134769916534424,0.008589518256485462,0.6549041271209717,0.5543854236602783,0.005954975727945566,0.6538689732551575,0.5142931342124939,0.005456607788801193,0.6760419011116028,0.5605239868164062,0.019566362723708153,0.6544919610023499,0.5092601776123047,0.002959109842777252,0.6484873294830322,0.5654730796813965,-0.0050657885149121284,0.6521454453468323,0.6119768619537354,-0.0043161241337656975,0.6900540590286255,0.5559536814689636,0.010765409097075462,0.6627638339996338,0.5105403661727905,-0.013793498277664185,0.657873272895813,0.5813574194908142,-0.024159803986549377,0.6626380085945129,0.6338168382644653,-0.02217654511332512,0.710818350315094,0.5551819801330566,-0.0002827995631378144,0.6792687177658081,0.5176811218261719,-0.022214166820049286,0.6689794659614563,0.5836901664733887,-0.025680622085928917,0.6721137762069702,0.6322599053382874,-0.01803315058350563,0.7351530194282532,0.5547083616256714,-0.011216087266802788,0.7325628399848938,0.4680332541465759,-0.02134757675230503,0.7228938341140747,0.4116891920566559,-0.024242056533694267,0.7139016389846802,0.36629125475883484,-0.021733351051807404,0.0,0.0,0.0,0.0,0.0,0.0,0.0,0.0,0.0,0.0,0.0,0.0,0.0,0.0,0.0,0.0,0.0,0.0,0.0,0.0,0.0,0.0,0.0,0.0,0.0,0.0,0.0,0.0,0.0,0.0,0.0,0.0,0.0,0.0,0.0,0.0,0.0,0.0,0.0,0.0,0.0,0.0,0.0,0.0,0.0,0.0,0.0,0.0,0.0,0.0,0.0,0.0,0.0,0.0,0.0,0.0,0.0,0.0,0.0,0.0,0.0,0.0,0.0
1783345025.847599,0.6999343037605286,0.7405189871788025,-5.856460916220385e-07,0.6674318909645081,0.6839639544487,0.006580802146345377,0.6579108238220215,0.6105354428291321,0.01043031271547079,0.6577169299125671,0.5533680319786072,0.00734527176246047,0.6587437987327576,0.5134485363960266,0.006095061544328928,0.6805979013442993,0.5591402053833008,0.020044878125190735,0.6577078104019165,0.5077030658721924,0.0029928029980510473,0.6496328711509705,0.5620264410972595,-0.005490260664373636,0.6517943143844604,0.6088593006134033,-0.004681483842432499,0.6933693289756775,0.5554975271224976,0.010361887514591217,0.6643307209014893,0.5104525685310364,-0.013995218090713024,0.6579999923706055,0.5785334706306458,-0.024550259113311768,0.6615967750549316,0.6302030682563782,-0.02276814542710781,0.7125932574272156,0.554721474647522,-0.0012857686961069703,0.6785794496536255,0.5180566310882568,-0.02256927452981472,0.6695833206176758,0.5847837328910828,-0.02536371722817421,0.6744414567947388,0.6340017914772034,-0.01727844588458538,0.7358893156051636,0.5542951226234436,-0.012743434868752956,0.7319447994232178,0.465630441904068,-0.02173648588359356,0.7218729853630066,0.4095441997051239,-0.02305583469569683,0.7129518985748291,0.3656272888183594,-0.019297298043966293,0.0,0.0,0.0,0.0,0.0,0.0,0.0,0.0,0.0,0.0,0.0,0.0,0.0,0.0,0.0,0.0,0.0,0.0,0.0,0.0,0.0,0.0,0.0,0.0,0.0,0.0,0.0,0.0,0.0,0.0,0.0,0.0,0.0,0.0,0.0,0.0,0.0,0.0,0.0,0.0,0.0,0.0,0.0,0.0,0.0,0.0,0.0,0.0,0.0,0.0,0.0,0.0,0.0,0.0,0.0,0.0,0.0,0.0,0.0,0.0,0.0,0.0,0.0
1783345025.9853451,0.6996200084686279,0.7370619773864746,-6.105768193265249e-07,0.6670880317687988,0.67987060546875,0.006797752808779478,0.6586042642593384,0.6090303659439087,0.010662522166967392,0.6586026549339294,0.5532019734382629,0.0076503874734044075,0.6592838764190674,0.5131624937057495,0.006436874158680439,0.6825745105743408,0.5582916736602783,0.019178781658411026,0.6595110893249512,0.5066758990287781,0.0021485150791704655,0.651042103767395,0.5619239807128906,-0.0060944948345422745,0.6533123850822449,0.6089996695518494,-0.005023182835429907,0.6947875618934631,0.5551918745040894,0.009297882206737995,0.6657975316047668,0.5094999074935913,-0.015134230256080627,0.6591300964355469,0.5772422552108765,-0.025611598044633865,0.6627609729766846,0.628255307674408,-0.02382572554051876,0.7135722041130066,0.5544393062591553,-0.002479388378560543,0.6798256635665894,0.517689049243927,-0.023535558953881264,0.6714504361152649,0.5839207172393799,-0.026471445336937904,0.6769249439239502,0.6325190663337708,-0.018623342737555504,0.7363508939743042,0.5538125038146973,-0.014061988331377506,0.7327859401702881,0.46440067887306213,-0.0233731921762228,0.7227471470832825,0.4071192145347595,-0.025047220289707184,0.7136481404304504,0.3626750111579895,-0.021560562774538994,0.0,0.0,0.0,0.0,0.0,0.0,0.0,0.0,0.0,0.0,0.0,0.0,0.0,0.0,0.0,0.0,0.0,0.0,0.0,0.0,0.0,0.0,0.0,0.0,0.0,0.0,0.0,0.0,0.0,0.0,0.0,0.0,0.0,0.0,0.0,0.0,0.0,0.0,0.0,0.0,0.0,0.0,0.0,0.0,0.0,0.0,0.0,0.0,0.0,0.0,0.0,0.0,0.0,0.0,0.0,0.0,0.0,0.0,0.0,0.0,0.0,0.0,0.0
1783345026.1261828,0.700430691242218,0.7376376986503601,-6.093127922213171e-07,0.6671930551528931,0.6799256801605225,0.006980191916227341,0.6588056087493896,0.6086519360542297,0.010529949329793453,0.6588988304138184,0.5521094799041748,0.0072488198056817055,0.6593741178512573,0.5117496848106384,0.005603983998298645,0.6846834421157837,0.5566883683204651,0.01871134713292122,0.6616631746292114,0.5052129626274109,0.002038458129391074,0.6522914171218872,0.559339165687561,-0.006617669481784105,0.653474748134613,0.6074374914169312,-0.0060920328833162785,0.6968634128570557,0.5533907413482666,0.008598621934652328,0.6677178144454956,0.5076176524162292,-0.015165738761425018,0.6602094769477844,0.5747071504592896,-0.02594056911766529,0.6631404757499695,0.6270783543586731,-0.024709662422537804,0.7154396176338196,0.5534279942512512,-0.003266971092671156,0.681794285774231,0.5168629884719849,-0.023260096088051796,0.6724944710731506,0.5824342966079712,-0.026111993938684464,0.677183210849762,0.6314533352851868,-0.018724367022514343,0.7378069758415222,0.5544410347938538,-0.014986942522227764,0.7345772385597229,0.46528592705726624,-0.023803096264600754,0.7250109314918518,0.4075033664703369,-0.02527960203588009,0.7163044214248657,0.36202532052993774,-0.021897796541452408,0.0,0.0,0.0,0.0,0.0,0.0,0.0,0.0,0.0,0.0,0.0,0.0,0.0,0.0,0.0,0.0,0.0,0.0,0.0,0.0,0.0,0.0,0.0,0.0,0.0,0.0,0.0,0.0,0.0,0.0,0.0,0.0,0.0,0.0,0.0,0.0,0.0,0.0,0.0,0.0,0.0,0.0,0.0,0.0,0.0,0.0,0.0,0.0,0.0,0.0,0.0,0.0,0.0,0.0,0.0,0.0,0.0,0.0,0.0,0.0,0.0,0.0,0.0
1783345026.285232,0.7016134262084961,0.7350931167602539,-5.952635433459363e-07,0.6677196025848389,0.680406391620636,0.006597193889319897,0.6580589413642883,0.6099893450737,0.009941844269633293,0.6588065028190613,0.553714394569397,0.006446284707635641,0.6608125567436218,0.514378547668457,0.00472450815141201,0.6806497573852539,0.5551654696464539,0.018830740824341774,0.6584410071372986,0.5028059482574463,0.0020418656058609486,0.6518999934196472,0.5583032965660095,-0.006573932711035013,0.6551132798194885,0.6063025593757629,-0.005980342160910368,0.6946565508842468,0.5508226752281189,0.008937743492424488,0.6659834980964661,0.503997802734375,-0.014770261012017727,0.6604505181312561,0.5720755457878113,-0.025173865258693695,0.6648572087287903,0.624699592590332,-0.023597896099090576,0.7150077819824219,0.5505626797676086,-0.002821672474965453,0.6825812458992004,0.5125881433486938,-0.022968728095293045,0.6740485429763794,0.5787571668624878,-0.025740820914506912,0.6790226101875305,0.6284862160682678,-0.01820172742009163,0.7395051717758179,0.5513191223144531,-0.014448435045778751,0.7370636463165283,0.4640515446662903,-0.02314549870789051,0.7282108664512634,0.40795740485191345,-0.024611933156847954,0.7199309468269348,0.36369094252586365,-0.021235736086964607,0.0,0.0,0.0,0.0,0.0,0.0,0.0,0.0,0.0,0.0,0.0,0.0,0.0,0.0,0.0,0.0,0.0,0.0,0.0,0.0,0.0,0.0,0.0,0.0,0.0,0.0,0.0,0.0,0.0,0.0,0.0,0.0,0.0,0.0,0.0,0.0,0.0,0.0,0.0,0.0,0.0,0.0,0.0,0.0,0.0,0.0,0.0,0.0,0.0,0.0,0.0,0.0,0.0,0.0,0.0,0.0,0.0,0.0,0.0,0.0,0.0,0.0,0.0
1783345026.4164212,0.7025001049041748,0.7357048988342285,-5.710895720767439e-07,0.6677107810974121,0.6844820976257324,0.005808173678815365,0.6558822989463806,0.6128872036933899,0.009489183314144611,0.6579559445381165,0.5544962882995605,0.006564793176949024,0.6624029278755188,0.5127831101417542,0.005468076094985008,0.6764641404151917,0.5571995973587036,0.019919071346521378,0.6570608615875244,0.5049377083778381,0.004409113898873329,0.6518688201904297,0.5582053661346436,-0.0036590665113180876,0.6555147171020508,0.6044129729270935,-0.003246590029448271,0.6922184824943542,0.5511485934257507,0.010575640015304089,0.6673290729522705,0.5041751265525818,-0.012053029611706734,0.6621540188789368,0.5721437335014343,-0.02241210825741291,0.6658812761306763,0.6246734857559204,-0.021092591807246208,0.714216411113739,0.5497894883155823,-0.0007687342585995793,0.6849417686462402,0.5108770132064819,-0.020644109696149826,0.6750727891921997,0.5758436918258667,-0.0239035002887249,0.6779628992080688,0.6255620121955872,-0.016929656267166138,0.7394635677337646,0.5495239496231079,-0.0120179308578372,0.7376343011856079,0.4649941325187683,-0.020973246544599533,0.7287777066230774,0.4095965027809143,-0.02324916236102581,0.7202826738357544,0.3645801246166229,-0.020687641575932503,0.0,0.0,0.0,0.0,0.0,0.0,0.0,0.0,0.0,0.0,0.0,0.0,0.0,0.0,0.0,0.0,0.0,0.0,0.0,0.0,0.0,0.0,0.0,0.0,0.0,0.0,0.0,0.0,0.0,0.0,0.0,0.0,0.0,0.0,0.0,0.0,0.0,0.0,0.0,0.0,0.0,0.0,0.0,0.0,0.0,0.0,0.0,0.0,0.0,0.0,0.0,0.0,0.0,0.0,0.0,0.0,0.0,0.0,0.0,0.0,0.0,0.0,0.0
1783345026.601888,0.7028973698616028,0.7342000603675842,-5.351565164346539e-07,0.6674783229827881,0.6868131160736084,0.003915906418114901,0.6528686285018921,0.6150031089782715,0.007154302205890417,0.6538140177726746,0.5563603639602661,0.00425341259688139,0.6559297442436218,0.5165931582450867,0.0033239664044231176,0.6723015904426575,0.557762086391449,0.018633365631103516,0.6552727222442627,0.5052317380905151,0.002606363035738468,0.651598334312439,0.5581945776939392,-0.005698287859559059,0.6553211212158203,0.6033877730369568,-0.0056487745605409145,0.6894332766532898,0.5508530735969543,0.010288492776453495,0.6685022711753845,0.5029475688934326,-0.012997522950172424,0.663166344165802,0.5710844397544861,-0.023481465876102448,0.6657772660255432,0.6234586238861084,-0.022266743704676628,0.712706983089447,0.5488907694816589,-0.00033508954220451415,0.6876927018165588,0.5076781511306763,-0.02147568203508854,0.6756789684295654,0.5715340971946716,-0.02521977201104164,0.6759420037269592,0.6211155652999878,-0.018442081287503242,0.7388993501663208,0.5480847954750061,-0.010930578224360943,0.7387174367904663,0.46582528948783875,-0.020987723022699356,0.7304801344871521,0.4116504192352295,-0.024153588339686394,0.7223384976387024,0.3663199245929718,-0.02227790281176567,0.0,0.0,0.0,0.0,0.0,0.0,0.0,0.0,0.0,0.0,0.0,0.0,0.0,0.0,0.0,0.0,0.0,0.0,0.0,0.0,0.0,0.0,0.0,0.0,0.0,0.0,0.0,0.0,0.0,0.0,0.0,0.0,0.0,0.0,0.0,0.0,0.0,0.0,0.0,0.0,0.0,0.0,0.0,0.0,0.0,0.0,0.0,0.0,0.0,0.0,0.0,0.0,0.0,0.0,0.0,0.0,0.0,0.0,0.0,0.0,0.0,0.0,0.0
1783345026.750011,0.7079989314079285,0.7311791777610779,-4.804018089998863e-07,0.6689916849136353,0.6933005452156067,-0.0006786884623579681,0.6502830386161804,0.6201858520507812,0.0009486539638601243,0.6517767310142517,0.5585202574729919,-0.002518674125894904,0.6546581983566284,0.5159745812416077,-0.0035975438077002764,0.6676837801933289,0.5583188533782959,0.01450117863714695,0.6523584723472595,0.5038675665855408,-0.003159936284646392,0.6525401473045349,0.5579174160957336,-0.012132910080254078,0.6571216583251953,0.6042791604995728,-0.012288773432374,0.6880937814712524,0.5489912629127502,0.008203402161598206,0.6712720990180969,0.500495970249176,-0.016256939619779587,0.6686068773269653,0.5682181119918823,-0.02664310671389103,0.671255886554718,0.6205084919929504,-0.025171853601932526,0.7131216526031494,0.5458763837814331,-0.0009719039662741125,0.6941820979118347,0.505082905292511,-0.023536572232842445,0.6816486120223999,0.5714786052703857,-0.026904113590717316,0.678688645362854,0.6233232021331787,-0.019529661163687706,0.7397614121437073,0.5435682535171509,-0.010443808510899544,0.7394430041313171,0.4651281237602234,-0.021517517045140266,0.7342275381088257,0.41312214732170105,-0.02473832480609417,0.7286713719367981,0.3667798340320587,-0.022731130942702293,0.0,0.0,0.0,0.0,0.0,0.0,0.0,0.0,0.0,0.0,0.0,0.0,0.0,0.0,0.0,0.0,0.0,0.0,0.0,0.0,0.0,0.0,0.0,0.0,0.0,0.0,0.0,0.0,0.0,0.0,0.0,0.0,0.0,0.0,0.0,0.0,0.0,0.0,0.0,0.0,0.0,0.0,0.0,0.0,0.0,0.0,0.0,0.0,0.0,0.0,0.0,0.0,0.0,0.0,0.0,0.0,0.0,0.0,0.0,0.0,0.0,0.0,0.0
1783345026.890026,0.7114887833595276,0.7285950779914856,-4.464243090751552e-07,0.6699873805046082,0.6943058371543884,-0.001483791507780552,0.6483805179595947,0.6226603388786316,-0.0003608666593208909,0.6508212089538574,0.5622055530548096,-0.003979553002864122,0.6567903161048889,0.5222578644752502,-0.0054477062076330185,0.6675015091896057,0.5579178333282471,0.013451403006911278,0.6511656641960144,0.5049583315849304,-0.0036554059479385614,0.6519654393196106,0.5574694871902466,-0.01249771285802126,0.6572596430778503,0.6029003858566284,-0.013027729466557503,0.6894128918647766,0.5484709143638611,0.007632261607795954,0.6727355122566223,0.4995484948158264,-0.016332576051354408,0.6703421473503113,0.5678785443305969,-0.026143798604607582,0.6736052632331848,0.6217868328094482,-0.024467410519719124,0.7148728370666504,0.5442072153091431,-0.0011483225971460342,0.696263313293457,0.5032800436019897,-0.0234523918479681,0.6841282248497009,0.5694690346717834,-0.026890018954873085,0.6816678047180176,0.6217474341392517,-0.019870197400450706,0.7417994737625122,0.540181577205658,-0.010235966183245182,0.7409645318984985,0.4625895619392395,-0.0212965477257967,0.7355338931083679,0.41248199343681335,-0.02474372088909149,0.7298857569694519,0.36705586314201355,-0.0231926292181015,0.0,0.0,0.0,0.0,0.0,0.0,0.0,0.0,0.0,0.0,0.0,0.0,0.0,0.0,0.0,0.0,0.0,0.0,0.0,0.0,0.0,0.0,0.0,0.0,0.0,0.0,0.0,0.0,0.0,0.0,0.0,0.0,0.0,0.0,0.0,0.0,0.0,0.0,0.0,0.0,0.0,0.0,0.0,0.0,0.0,0.0,0.0,0.0,0.0,0.0,0.0,0.0,0.0,0.0,0.0,0.0,0.0,0.0,0.0,0.0,0.0,0.0,0.0
1783345027.014688,0.7173027396202087,0.7207851409912109,-4.10961348507044e-07,0.6720238924026489,0.6950905919075012,-0.0015692461747676134,0.6448219418525696,0.6273239254951477,-0.0010963083477690816,0.6486544013023376,0.5692434906959534,-0.005157602950930595,0.6635318994522095,0.5367723703384399,-0.007339497096836567,0.6651262044906616,0.5584989190101624,0.010381866246461868,0.6502262353897095,0.5025561451911926,-0.006842080503702164,0.6533902287483215,0.5518158078193665,-0.015618463046848774,0.6587920188903809,0.597180187702179,-0.0165355633944273,0.6892964243888855,0.54667729139328,0.004664783366024494,0.6749557852745056,0.49619248509407043,-0.01893371157348156,0.6734492778778076,0.561126708984375,-0.028243212029337883,0.6751875877380371,0.6142516136169434,-0.026847869157791138,0.7160006761550903,0.5411829948425293,-0.003871971508488059,0.7001993060112,0.5008429288864136,-0.02598409354686737,0.6899765729904175,0.5648755431175232,-0.02970363013446331,0.6865463256835938,0.6167615056037903,-0.023469217121601105,0.7432864308357239,0.5368281006813049,-0.012609177269041538,0.7437663078308105,0.4624953866004944,-0.02434028871357441,0.738869845867157,0.4133990406990051,-0.028696512803435326,0.7323963642120361,0.36797064542770386,-0.028119780123233795,0.0,0.0,0.0,0.0,0.0,0.0,0.0,0.0,0.0,0.0,0.0,0.0,0.0,0.0,0.0,0.0,0.0,0.0,0.0,0.0,0.0,0.0,0.0,0.0,0.0,0.0,0.0,0.0,0.0,0.0,0.0,0.0,0.0,0.0,0.0,0.0,0.0,0.0,0.0,0.0,0.0,0.0,0.0,0.0,0.0,0.0,0.0,0.0,0.0,0.0,0.0,0.0,0.0,0.0,0.0,0.0,0.0,0.0,0.0,0.0,0.0,0.0,0.0
1783345027.158036,0.7223713994026184,0.7202706933021545,-3.4196332876490487e-07,0.6749409437179565,0.7000048756599426,-0.0029821216594427824,0.6449832320213318,0.6330907940864563,-0.0032674712128937244,0.6511133313179016,0.5779290795326233,-0.00771726481616497,0.6730493903160095,0.5537625551223755,-0.010568861849606037,0.6642144918441772,0.5611834526062012,0.008945615030825138,0.6493916511535645,0.5045869946479797,-0.008904004469513893,0.6546156406402588,0.5493838787078857,-0.018812205642461777,0.6615994572639465,0.5941410660743713,-0.02069474570453167,0.6894435286521912,0.5476050972938538,0.003391061909496784,0.6763938665390015,0.49439290165901184,-0.020424330607056618,0.6762715578079224,0.5551344752311707,-0.031023142859339714,0.6785814762115479,0.6071706414222717,-0.030614232644438744,0.7164419889450073,0.5410565733909607,-0.005125001072883606,0.7035639882087708,0.4972817897796631,-0.027257125824689865,0.694165825843811,0.5604191422462463,-0.03192697465419769,0.6904441714286804,0.6138402819633484,-0.026408545672893524,0.7439547181129456,0.5364576578140259,-0.01401232648640871,0.7426693439483643,0.4627579152584076,-0.0254350733011961,0.7375885844230652,0.4129258692264557,-0.030111737549304962,0.7314340472221375,0.3663133382797241,-0.02997499518096447,0.0,0.0,0.0,0.0,0.0,0.0,0.0,0.0,0.0,0.0,0.0,0.0,0.0,0.0,0.0,0.0,0.0,0.0,0.0,0.0,0.0,0.0,0.0,0.0,0.0,0.0,0.0,0.0,0.0,0.0,0.0,0.0,0.0,0.0,0.0,0.0,0.0,0.0,0.0,0.0,0.0,0.0,0.0,0.0,0.0,0.0,0.0,0.0,0.0,0.0,0.0,0.0,0.0,0.0,0.0,0.0,0.0,0.0,0.0,0.0,0.0,0.0,0.0
1783345027.3142421,0.7259398102760315,0.7211470603942871,-3.19671983106673e-07,0.676525354385376,0.7025198936462402,-0.0037207927089184523,0.6452698111534119,0.6356794834136963,-0.004147718660533428,0.6528821587562561,0.5801827311515808,-0.008375979028642178,0.6755267381668091,0.55648273229599,-0.010738971643149853,0.6616196632385254,0.5616036653518677,0.009553761221468449,0.6484423279762268,0.5038829445838928,-0.00861745048314333,0.6567612290382385,0.546795666217804,-0.019334133714437485,0.6655895113945007,0.5913488268852234,-0.021869489923119545,0.6883537173271179,0.5477215051651001,0.0045353020541369915,0.6781467199325562,0.4927821159362793,-0.019269537180662155,0.6809506416320801,0.5524457097053528,-0.030113736167550087,0.6837981939315796,0.6037972569465637,-0.030102355405688286,0.7154348492622375,0.5411370396614075,-0.0035889295395463705,0.705922544002533,0.4930010437965393,-0.025389142334461212,0.6998118162155151,0.5574581623077393,-0.02873849868774414,0.6971520781517029,0.6120901703834534,-0.022621912881731987,0.7426398396492004,0.5368043184280396,-0.012276110239326954,0.7404854893684387,0.46502336859703064,-0.02345801517367363,0.7355445623397827,0.41607046127319336,-0.02725052833557129,0.7295228838920593,0.3689824640750885,-0.02657126821577549,0.0,0.0,0.0,0.0,0.0,0.0,0.0,0.0,0.0,0.0,0.0,0.0,0.0,0.0,0.0,0.0,0.0,0.0,0.0,0.0,0.0,0.0,0.0,0.0,0.0,0.0,0.0,0.0,0.0,0.0,0.0,0.0,0.0,0.0,0.0,0.0,0.0,0.0,0.0,0.0,0.0,0.0,0.0,0.0,0.0,0.0,0.0,0.0,0.0,0.0,0.0,0.0,0.0,0.0,0.0,0.0,0.0,0.0,0.0,0.0,0.0,0.0,0.0
1783345027.446351,0.7285885214805603,0.7210831046104431,-3.3750282568689727e-07,0.6798668503761292,0.7052987813949585,-0.004516782704740763,0.6460321545600891,0.6370242238044739,-0.005345706827938557,0.6515117287635803,0.579818069934845,-0.009734763763844967,0.6750231385231018,0.5585187673568726,-0.012071896344423294,0.6634594202041626,0.5606954097747803,0.006797298323363066,0.6495874524116516,0.5018287301063538,-0.010871456936001778,0.658316433429718,0.5486895442008972,-0.02065819688141346,0.6677188277244568,0.5938315987586975,-0.022970296442508698,0.69080650806427,0.5463444590568542,0.002125432249158621,0.680152177810669,0.49234169721603394,-0.022136367857456207,0.6833969354629517,0.5541131496429443,-0.031991153955459595,0.6869680881500244,0.6065348386764526,-0.03130226954817772,0.7183484435081482,0.5389759540557861,-0.005514062475413084,0.7082512974739075,0.48886147141456604,-0.026568803936243057,0.7037394046783447,0.5537024140357971,-0.02835179679095745,0.7018973231315613,0.6088626980781555,-0.02161932736635208,0.7449898719787598,0.5342145562171936,-0.013898872770369053,0.7427242398262024,0.46229803562164307,-0.02465892769396305,0.7372821569442749,0.41298815608024597,-0.028099071234464645,0.7305858135223389,0.3660295009613037,-0.027395935729146004,0.0,0.0,0.0,0.0,0.0,0.0,0.0,0.0,0.0,0.0,0.0,0.0,0.0,0.0,0.0,0.0,0.0,0.0,0.0,0.0,0.0,0.0,0.0,0.0,0.0,0.0,0.0,0.0,0.0,0.0,0.0,0.0,0.0,0.0,0.0,0.0,0.0,0.0,0.0,0.0,0.0,0.0,0.0,0.0,0.0,0.0,0.0,0.0,0.0,0.0,0.0,0.0,0.0,0.0,0.0,0.0,0.0,0.0,0.0,0.0,0.0,0.0,0.0
1783345027.772046,0.7331127524375916,0.7179728746414185,-3.5310446833136666e-07,0.6835381388664246,0.7044670581817627,-0.004035343881696463,0.6474307179450989,0.639225423336029,-0.004471572581678629,0.6522616744041443,0.5844210386276245,-0.008364089764654636,0.6789841055870056,0.5691139101982117,-0.010053161531686783,0.665797233581543,0.5594964027404785,0.00654263561591506,0.6528139710426331,0.4996059834957123,-0.011284063570201397,0.6622043251991272,0.5484619140625,-0.021242350339889526,0.6714804768562317,0.5936239361763,-0.023790044710040092,0.6935446262359619,0.5461981892585754,0.0017830678261816502,0.6839740872383118,0.4899861514568329,-0.023048946633934975,0.6880125403404236,0.554369330406189,-0.032638028264045715,0.691191554069519,0.6078146696090698,-0.03150090202689171,0.7210161089897156,0.5391901135444641,-0.005833960138261318,0.7120797038078308,0.4906232953071594,-0.02660338580608368,0.7081114053726196,0.5563121438026428,-0.02764798328280449,0.706210732460022,0.6111485362052917,-0.020377961918711662,0.7478374242782593,0.5341378450393677,-0.014222919009625912,0.745332658290863,0.4628349840641022,-0.02457004226744175,0.7403331398963928,0.41373902559280396,-0.02747245877981186,0.7343645691871643,0.36676934361457825,-0.02637503109872341,0.0,0.0,0.0,0.0,0.0,0.0,0.0,0.0,0.0,0.0,0.0,0.0,0.0,0.0,0.0,0.0,0.0,0.0,0.0,0.0,0.0,0.0,0.0,0.0,0.0,0.0,0.0,0.0,0.0,0.0,0.0,0.0,0.0,0.0,0.0,0.0,0.0,0.0,0.0,0.0,0.0,0.0,0.0,0.0,0.0,0.0,0.0,0.0,0.0,0.0,0.0,0.0,0.0,0.0,0.0,0.0,0.0,0.0,0.0,0.0,0.0,0.0,0.0
1783345027.952397,0.7526791095733643,0.7144080400466919,-3.4224393630211125e-07,0.7011637687683105,0.6960958242416382,-0.007820462808012962,0.6637654900550842,0.6222651600837708,-0.010160135105252266,0.6718010902404785,0.5668907761573792,-0.014947989024221897,0.6994311213493347,0.5555864572525024,-0.01732681691646576,0.6803387403488159,0.5505245327949524,0.0006340800318866968,0.6703871488571167,0.48313674330711365,-0.018777694553136826,0.683097779750824,0.5323901772499084,-0.029935555532574654,0.6923221945762634,0.5780653357505798,-0.03310288116335869,0.710261881351471,0.5368710160255432,-0.0023189031053334475,0.7070344686508179,0.4794328510761261,-0.028695404529571533,0.7152037620544434,0.5468305945396423,-0.03912082314491272,0.7185218334197998,0.5996570587158203,-0.03790321573615074,0.7381998300552368,0.5297655463218689,-0.00813489593565464,0.7373976707458496,0.47778433561325073,-0.029140960425138474,0.736456573009491,0.5452320575714111,-0.03054344654083252,0.7338300943374634,0.6017462611198425,-0.02298855409026146,0.763482928276062,0.5254356861114502,-0.01490817777812481,0.7597237825393677,0.45576515793800354,-0.02478501759469509,0.7562165260314941,0.4082818329334259,-0.02718525566160679,0.7526299357414246,0.3633836507797241,-0.025232024490833282,0.0,0.0,0.0,0.0,0.0,0.0,0.0,0.0,0.0,0.0,0.0,0.0,0.0,0.0,0.0,0.0,0.0,0.0,0.0,0.0,0.0,0.0,0.0,0.0,0.0,0.0,0.0,0.0,0.0,0.0,0.0,0.0,0.0,0.0,0.0,0.0,0.0,0.0,0.0,0.0,0.0,0.0,0.0,0.0,0.0,0.0,0.0,0.0,0.0,0.0,0.0,0.0,0.0,0.0,0.0,0.0,0.0,0.0,0.0,0.0,0.0,0.0,0.0
1783345028.0817878,0.7631686925888062,0.715619683265686,-3.331722098209866e-07,0.7118712067604065,0.6918725371360779,-0.006910728756338358,0.6755754947662354,0.6155792474746704,-0.008874919265508652,0.682918906211853,0.5596379041671753,-0.01357758417725563,0.709153950214386,0.5457479357719421,-0.015916846692562103,0.6922321915626526,0.5481855869293213,0.0017735923174768686,0.681601881980896,0.4778735339641571,-0.017644627019762993,0.6944785118103027,0.5256770253181458,-0.028566081076860428,0.7040697336196899,0.5726960897445679,-0.031238241121172905,0.7219540476799011,0.5344025492668152,-0.001510981353931129,0.7189350724220276,0.4745458662509918,-0.0275218915194273,0.7274456024169922,0.5385060906410217,-0.037872277200222015,0.7312374711036682,0.5921924710273743,-0.03661276027560234,0.7501850724220276,0.5271256566047668,-0.007585091050714254,0.7497740387916565,0.4747822880744934,-0.028261562809348106,0.7485086917877197,0.5419881343841553,-0.029114127159118652,0.745138943195343,0.5994933843612671,-0.021303310990333557,0.7753328084945679,0.5233810544013977,-0.01453396026045084,0.7727965712547302,0.4542416036128998,-0.023960569873452187,0.7703576683998108,0.4072027802467346,-0.02540828287601471,0.7665610313415527,0.3631269633769989,-0.022829266265034676,0.0,0.0,0.0,0.0,0.0,0.0,0.0,0.0,0.0,0.0,0.0,0.0,0.0,0.0,0.0,0.0,0.0,0.0,0.0,0.0,0.0,0.0,0.0,0.0,0.0,0.0,0.0,0.0,0.0,0.0,0.0,0.0,0.0,0.0,0.0,0.0,0.0,0.0,0.0,0.0,0.0,0.0,0.0,0.0,0.0,0.0,0.0,0.0,0.0,0.0,0.0,0.0,0.0,0.0,0.0,0.0,0.0,0.0,0.0,0.0,0.0,0.0,0.0
1783345028.2188811,0.7714579701423645,0.7154545783996582,-3.131420100999094e-07,0.7188857197761536,0.6927794814109802,-0.010200656950473785,0.6822696924209595,0.6167556643486023,-0.01412620022892952,0.6899449229240417,0.5575109720230103,-0.02024792693555355,0.7192789912223816,0.5439589023590088,-0.023655880242586136,0.7003583908081055,0.5413009524345398,-0.0002469377941451967,0.6922197937965393,0.4723404347896576,-0.021615950390696526,0.7043789029121399,0.522294819355011,-0.03297268599271774,0.7135204672813416,0.5711494088172913,-0.03527449071407318,0.7301764488220215,0.5287972688674927,-0.002256125910207629,0.7285737991333008,0.4690020680427551,-0.03095790557563305,0.7358675003051758,0.5358332991600037,-0.041199274361133575,0.7390308380126953,0.5918997526168823,-0.03871718421578407,0.7578749656677246,0.5230780839920044,-0.007605526130646467,0.7581802010536194,0.47508949041366577,-0.031207861378788948,0.7561758756637573,0.5433949828147888,-0.03263571485877037,0.7523826956748962,0.6009082198143005,-0.02388089708983898,0.7824959754943848,0.5210905075073242,-0.014006640762090683,0.7818339467048645,0.4502173960208893,-0.024679483845829964,0.7802096605300903,0.4020558297634125,-0.026660580188035965,0.7765321135520935,0.3562934100627899,-0.023835839703679085,0.0,0.0,0.0,0.0,0.0,0.0,0.0,0.0,0.0,0.0,0.0,0.0,0.0,0.0,0.0,0.0,0.0,0.0,0.0,0.0,0.0,0.0,0.0,0.0,0.0,0.0,0.0,0.0,0.0,0.0,0.0,0.0,0.0,0.0,0.0,0.0,0.0,0.0,0.0,0.0,0.0,0.0,0.0,0.0,0.0,0.0,0.0,0.0,0.0,0.0,0.0,0.0,0.0,0.0,0.0,0.0,0.0,0.0,0.0,0.0,0.0,0.0,0.0
1783345028.358798,0.7752636075019836,0.71999591588974,-3.1198504757412593e-07,0.7233164310455322,0.6986055374145508,-0.011293888092041016,0.6846606731414795,0.620252788066864,-0.015555663034319878,0.6901147365570068,0.5610964894294739,-0.02188638225197792,0.7202475070953369,0.554355800151825,-0.02561032585799694,0.7044796943664551,0.542532205581665,-0.0013239785330370069,0.6966939568519592,0.46947044134140015,-0.02209595963358879,0.7088062167167664,0.518974244594574,-0.033278971910476685,0.717036783695221,0.568199634552002,-0.03556784614920616,0.7340815663337708,0.531171977519989,-0.0029550185427069664,0.7344236969947815,0.469112753868103,-0.03142927959561348,0.7399097681045532,0.538688600063324,-0.04243757203221321,0.7400773763656616,0.5972238183021545,-0.040493112057447433,0.7616638541221619,0.5256061553955078,-0.00780134554952383,0.7638555765151978,0.47324666380882263,-0.0310997124761343,0.7601860761642456,0.5422417521476746,-0.033592965453863144,0.7537415623664856,0.6010646820068359,-0.02549310214817524,0.7863213419914246,0.5232647061347961,-0.01373743824660778,0.7850446105003357,0.4498886466026306,-0.023176349699497223,0.7831404805183411,0.40125808119773865,-0.024901336058974266,0.779823362827301,0.35628682374954224,-0.02202175185084343,0.0,0.0,0.0,0.0,0.0,0.0,0.0,0.0,0.0,0.0,0.0,0.0,0.0,0.0,0.0,0.0,0.0,0.0,0.0,0.0,0.0,0.0,0.0,0.0,0.0,0.0,0.0,0.0,0.0,0.0,0.0,0.0,0.0,0.0,0.0,0.0,0.0,0.0,0.0,0.0,0.0,0.0,0.0,0.0,0.0,0.0,0.0,0.0,0.0,0.0,0.0,0.0,0.0,0.0,0.0,0.0,0.0,0.0,0.0,0.0,0.0,0.0,0.0
1783345028.536603,0.7758901715278625,0.720798671245575,-3.1553207691104035e-07,0.7234472632408142,0.6991891264915466,-0.011398667469620705,0.6849066615104675,0.6212612986564636,-0.01581457443535328,0.6887837052345276,0.5646931529045105,-0.022383347153663635,0.7175763845443726,0.5584602355957031,-0.026297785341739655,0.7059978246688843,0.5415221452713013,-0.0009578642784617841,0.6983721256256104,0.468241810798645,-0.02162696048617363,0.7101262807846069,0.5189074277877808,-0.03243882954120636,0.7184292078018188,0.5685142874717712,-0.03426462411880493,0.7351659536361694,0.5312249064445496,-0.002487044082954526,0.7364115118980408,0.46958738565444946,-0.03122716024518013,0.7413130402565002,0.5394370555877686,-0.04227730259299278,0.7415825128555298,0.5979906916618347,-0.04008430987596512,0.7626833319664001,0.526522696018219,-0.007247214205563068,0.7662351727485657,0.4766489863395691,-0.03076362982392311,0.7619920372962952,0.545606255531311,-0.03369024768471718,0.7550543546676636,0.6030670404434204,-0.02564511075615883,0.7878704071044922,0.524509847164154,-0.01306185219436884,0.7873784899711609,0.45095139741897583,-0.02242102101445198,0.7858152985572815,0.4017273783683777,-0.02426581270992756,0.7830491065979004,0.3560068607330322,-0.021296320483088493,0.0,0.0,0.0,0.0,0.0,0.0,0.0,0.0,0.0,0.0,0.0,0.0,0.0,0.0,0.0,0.0,0.0,0.0,0.0,0.0,0.0,0.0,0.0,0.0,0.0,0.0,0.0,0.0,0.0,0.0,0.0,0.0,0.0,0.0,0.0,0.0,0.0,0.0,0.0,0.0,0.0,0.0,0.0,0.0,0.0,0.0,0.0,0.0,0.0,0.0,0.0,0.0,0.0,0.0,0.0,0.0,0.0,0.0,0.0,0.0,0.0,0.0,0.0
1783345028.6792839,0.776983916759491,0.7216718196868896,-3.2299087138198956e-07,0.7249220609664917,0.7006586194038391,-0.011041112244129181,0.6857270002365112,0.6216588020324707,-0.014973411336541176,0.6890126466751099,0.5640938878059387,-0.021081512793898582,0.7172834873199463,0.5589457750320435,-0.024524837732315063,0.706882894039154,0.5425806641578674,-0.00047277568955905735,0.6997054815292358,0.4681799113750458,-0.021001335233449936,0.7115930318832397,0.5185374617576599,-0.03166849911212921,0.7199367880821228,0.5683490633964539,-0.03336000442504883,0.7360725998878479,0.5322558283805847,-0.002028239658102393,0.7377310395240784,0.46989694237709045,-0.03067183680832386,0.7429889440536499,0.5395853519439697,-0.04159501940011978,0.7432173490524292,0.5983617305755615,-0.039244674146175385,0.7635911107063293,0.5273333787918091,-0.006794328335672617,0.7676874995231628,0.4768081307411194,-0.0301421657204628,0.7638559341430664,0.544748842716217,-0.03313741087913513,0.7569795250892639,0.6018722057342529,-0.025187741965055466,0.7886585593223572,0.5248858332633972,-0.012577954679727554,0.7884742617607117,0.45155978202819824,-0.021823538467288017,0.7868951559066772,0.4025987386703491,-0.023737406358122826,0.7840969562530518,0.35721781849861145,-0.020860809832811356,0.0,0.0,0.0,0.0,0.0,0.0,0.0,0.0,0.0,0.0,0.0,0.0,0.0,0.0,0.0,0.0,0.0,0.0,0.0,0.0,0.0,0.0,0.0,0.0,0.0,0.0,0.0,0.0,0.0,0.0,0.0,0.0,0.0,0.0,0.0,0.0,0.0,0.0,0.0,0.0,0.0,0.0,0.0,0.0,0.0,0.0,0.0,0.0,0.0,0.0,0.0,0.0,0.0,0.0,0.0,0.0,0.0,0.0,0.0,0.0,0.0,0.0,0.0
1783345028.816378,0.7790877819061279,0.7217980623245239,-3.353636657266179e-07,0.7269850969314575,0.6988064050674438,-0.011889932677149773,0.6887399554252625,0.6176780462265015,-0.016415834426879883,0.6948951482772827,0.559898316860199,-0.022803895175457,0.7245093584060669,0.5547029972076416,-0.02655172348022461,0.7090387940406799,0.5402346253395081,-0.003610459389165044,0.703485369682312,0.4655612111091614,-0.024180088192224503,0.7155689001083374,0.5186989307403564,-0.034686945378780365,0.7230872511863708,0.5696155428886414,-0.03645423799753189,0.7393859624862671,0.5301898717880249,-0.004607528448104858,0.7408967614173889,0.46841490268707275,-0.03251633420586586,0.7475290894508362,0.5405468344688416,-0.042930323630571365,0.7482464909553528,0.598893404006958,-0.040726710110902786,0.7672857642173767,0.5251384973526001,-0.008624383248388767,0.771622359752655,0.47092315554618835,-0.03120698407292366,0.7692385911941528,0.5409121513366699,-0.033269088715314865,0.7625861167907715,0.6000468730926514,-0.02511831931769848,0.7917367219924927,0.5230695605278015,-0.013718421570956707,0.7899584174156189,0.4488310217857361,-0.022448373958468437,0.7890436053276062,0.4011082351207733,-0.023702429607510567,0.7863888740539551,0.35681596398353577,-0.020582666620612144,0.0,0.0,0.0,0.0,0.0,0.0,0.0,0.0,0.0,0.0,0.0,0.0,0.0,0.0,0.0,0.0,0.0,0.0,0.0,0.0,0.0,0.0,0.0,0.0,0.0,0.0,0.0,0.0,0.0,0.0,0.0,0.0,0.0,0.0,0.0,0.0,0.0,0.0,0.0,0.0,0.0,0.0,0.0,0.0,0.0,0.0,0.0,0.0,0.0,0.0,0.0,0.0,0.0,0.0,0.0,0.0,0.0,0.0,0.0,0.0,0.0,0.0,0.0
1783345028.9548988,0.7822653651237488,0.7241422533988953,-3.0542398121724545e-07,0.7287903428077698,0.6978595852851868,-0.013873995281755924,0.6912354826927185,0.6138790845870972,-0.018722431734204292,0.7010198831558228,0.554818868637085,-0.025067808106541634,0.7329232692718506,0.5456071496009827,-0.028373951092362404,0.7103906869888306,0.5397432446479797,-0.002599824918434024,0.7070667743682861,0.46620461344718933,-0.023680686950683594,0.7198378443717957,0.5199503302574158,-0.03458833694458008,0.7278481721878052,0.5706546902656555,-0.03617371991276741,0.7412883043289185,0.528732180595398,-0.0022893487475812435,0.7443606853485107,0.46647974848747253,-0.03049617074429989,0.7531540393829346,0.536493182182312,-0.0409565307199955,0.7556737661361694,0.5943215489387512,-0.03820051625370979,0.7692605257034302,0.5234741568565369,-0.0053797392174601555,0.7749112248420715,0.4708375036716461,-0.028198743239045143,0.7750986814498901,0.541056752204895,-0.030002227053046227,0.770315408706665,0.6005893349647522,-0.021056020632386208,0.7932401299476624,0.5215627551078796,-0.009736965410411358,0.7925565242767334,0.44799742102622986,-0.017765741795301437,0.7921947836875916,0.40042102336883545,-0.0182062778621912,0.7893489003181458,0.3561200797557831,-0.014215687289834023,0.0,0.0,0.0,0.0,0.0,0.0,0.0,0.0,0.0,0.0,0.0,0.0,0.0,0.0,0.0,0.0,0.0,0.0,0.0,0.0,0.0,0.0,0.0,0.0,0.0,0.0,0.0,0.0,0.0,0.0,0.0,0.0,0.0,0.0,0.0,0.0,0.0,0.0,0.0,0.0,0.0,0.0,0.0,0.0,0.0,0.0,0.0,0.0,0.0,0.0,0.0,0.0,0.0,0.0,0.0,0.0,0.0,0.0,0.0,0.0,0.0,0.0,0.0
1783345029.1547992,0.7869613170623779,0.720194935798645,-3.141329329992004e-07,0.73365318775177,0.695780336856842,-0.014241769909858704,0.6962745785713196,0.6100841760635376,-0.017909539863467216,0.7053864002227783,0.5509595274925232,-0.022876430302858353,0.7325908541679382,0.537344217300415,-0.02487756311893463,0.7136393785476685,0.5383739471435547,-0.0018002985743805766,0.7115480899810791,0.4652891755104065,-0.022801661863923073,0.7265564799308777,0.5173023343086243,-0.03382692486047745,0.7354452610015869,0.5674276947975159,-0.03523409739136696,0.7446880340576172,0.5262198448181152,-0.000597411475609988,0.7501838207244873,0.465945303440094,-0.028509363532066345,0.7618765830993652,0.5366379618644714,-0.03905486315488815,0.7646917700767517,0.5933368802070618,-0.03632938861846924,0.7722845077514648,0.5209192633628845,-0.0028626671992242336,0.7801215052604675,0.47146886587142944,-0.025807639583945274,0.7824523448944092,0.542907178401947,-0.027809564024209976,0.7778469324111938,0.6018170714378357,-0.018909506499767303,0.7955119013786316,0.5186427235603333,-0.006314044818282127,0.7954347133636475,0.44538676738739014,-0.014630376361310482,0.796358048915863,0.3977466821670532,-0.015035328455269337,0.7938941717147827,0.3530253469944,-0.010894506238400936,0.0,0.0,0.0,0.0,0.0,0.0,0.0,0.0,0.0,0.0,0.0,0.0,0.0,0.0,0.0,0.0,0.0,0.0,0.0,0.0,0.0,0.0,0.0,0.0,0.0,0.0,0.0,0.0,0.0,0.0,0.0,0.0,0.0,0.0,0.0,0.0,0.0,0.0,0.0,0.0,0.0,0.0,0.0,0.0,0.0,0.0,0.0,0.0,0.0,0.0,0.0,0.0,0.0,0.0,0.0,0.0,0.0,0.0,0.0,0.0,0.0,0.0,0.0
1783345029.353624,0.8044134378433228,0.7191472053527832,-3.4892252642748645e-07,0.7550589442253113,0.6908422708511353,-0.02097955159842968,0.7243742346763611,0.5989367961883545,-0.025791695341467857,0.7368109226226807,0.5280930995941162,-0.030065925791859627,0.7586246728897095,0.49710193276405334,-0.030363453552126884,0.732387363910675,0.530985414981842,-0.00411263620480895,0.7400169372558594,0.45659714937210083,-0.023278221487998962,0.7541697025299072,0.5123972296714783,-0.03192167356610298,0.7588475942611694,0.56077641248703,-0.03159995377063751,0.762485682964325,0.5188493132591248,0.0017518500098958611,0.7748850584030151,0.459917813539505,-0.023253239691257477,0.7857944369316101,0.5346148014068604,-0.03267942741513252,0.7849859595298767,0.5850997567176819,-0.029592709615826607,0.7889610528945923,0.5138245224952698,0.0038076560012996197,0.8006723523139954,0.46637097001075745,-0.019252793863415718,0.8043512105941772,0.5394628047943115,-0.021740613505244255,0.7993044257164001,0.5938078761100769,-0.012862825766205788,0.8114279508590698,0.5114670395851135,0.0045304992236196995,0.8100282549858093,0.4389336109161377,-0.0035348604433238506,0.8130220770835876,0.39404910802841187,-0.003076442051678896,0.8131323456764221,0.35157454013824463,0.0021144389174878597,0.0,0.0,0.0,0.0,0.0,0.0,0.0,0.0,0.0,0.0,0.0,0.0,0.0,0.0,0.0,0.0,0.0,0.0,0.0,0.0,0.0,0.0,0.0,0.0,0.0,0.0,0.0,0.0,0.0,0.0,0.0,0.0,0.0,0.0,0.0,0.0,0.0,0.0,0.0,0.0,0.0,0.0,0.0,0.0,0.0,0.0,0.0,0.0,0.0,0.0,0.0,0.0,0.0,0.0,0.0,0.0,0.0,0.0,0.0,0.0,0.0,0.0,0.0
1783345029.4867818,0.8141892552375793,0.7061977386474609,-3.090049460752198e-07,0.767572820186615,0.6767342686653137,-0.021740233525633812,0.737743616104126,0.585860550403595,-0.028101561591029167,0.7486546635627747,0.5215750336647034,-0.03386794030666351,0.7704623937606812,0.5023484826087952,-0.0357537567615509,0.7435916066169739,0.5178869366645813,-0.006965906824916601,0.7526260614395142,0.4428476393222809,-0.02696581557393074,0.768275260925293,0.5004559755325317,-0.03623752295970917,0.774901270866394,0.5528545379638672,-0.03599603846669197,0.7739025354385376,0.505728006362915,-0.0007608685409650207,0.7874013781547546,0.4461968243122101,-0.02667486108839512,0.8000887036323547,0.5229008793830872,-0.0359857976436615,0.8014163970947266,0.5790583491325378,-0.032341212034225464,0.8005550503730774,0.500777006149292,0.0017810729332268238,0.8135291337966919,0.45291489362716675,-0.020083531737327576,0.8189939856529236,0.5268807411193848,-0.02151736430823803,0.8151168823242188,0.5835657715797424,-0.011960376054048538,0.8224822282791138,0.4999200701713562,0.0027702543884515762,0.8215108513832092,0.4272015690803528,-0.0031309446785598993,0.8251190781593323,0.3840198516845703,-0.0014253230765461922,0.8257631659507751,0.3435331881046295,0.004454354289919138,0.0,0.0,0.0,0.0,0.0,0.0,0.0,0.0,0.0,0.0,0.0,0.0,0.0,0.0,0.0,0.0,0.0,0.0,0.0,0.0,0.0,0.0,0.0,0.0,0.0,0.0,0.0,0.0,0.0,0.0,0.0,0.0,0.0,0.0,0.0,0.0,0.0,0.0,0.0,0.0,0.0,0.0,0.0,0.0,0.0,0.0,0.0,0.0,0.0,0.0,0.0,0.0,0.0,0.0,0.0,0.0,0.0,0.0,0.0,0.0,0.0,0.0,0.0
1783345029.611825,0.8182172775268555,0.6953301429748535,-3.114873550202901e-07,0.7736798524856567,0.6656455397605896,-0.02072206512093544,0.7447776198387146,0.5766417980194092,-0.027248702943325043,0.7553667426109314,0.5109440088272095,-0.03357185050845146,0.7790663242340088,0.4824769198894501,-0.035944852977991104,0.7486582398414612,0.5089722275733948,-0.0067023043520748615,0.7590419054031372,0.43275102972984314,-0.027697181329131126,0.7746325135231018,0.4912028908729553,-0.037450145930051804,0.7821559906005859,0.5430747866630554,-0.0373712033033371,0.7788131237030029,0.4974057376384735,-0.0011618357384577394,0.7928393483161926,0.437490314245224,-0.02843918278813362,0.8052610754966736,0.5162513256072998,-0.03745267912745476,0.8072066903114319,0.5742599368095398,-0.033274151384830475,0.8053596019744873,0.49195483326911926,0.0007082681404426694,0.8179609775543213,0.4400022327899933,-0.021888311952352524,0.8240005970001221,0.515923798084259,-0.021810544654726982,0.8208422064781189,0.575080394744873,-0.011011950671672821,0.8268908858299255,0.4910745918750763,0.001046696212142706,0.8262409567832947,0.41951286792755127,-0.005113270133733749,0.8293038010597229,0.3777579665184021,-0.002688697539269924,0.828991174697876,0.3376593291759491,0.003926778212189674,0.0,0.0,0.0,0.0,0.0,0.0,0.0,0.0,0.0,0.0,0.0,0.0,0.0,0.0,0.0,0.0,0.0,0.0,0.0,0.0,0.0,0.0,0.0,0.0,0.0,0.0,0.0,0.0,0.0,0.0,0.0,0.0,0.0,0.0,0.0,0.0,0.0,0.0,0.0,0.0,0.0,0.0,0.0,0.0,0.0,0.0,0.0,0.0,0.0,0.0,0.0,0.0,0.0,0.0,0.0,0.0,0.0,0.0,0.0,0.0,0.0,0.0,0.0
1783345029.749561,0.8193676471710205,0.6939176321029663,-3.0146651397444657e-07,0.7745825052261353,0.6619711518287659,-0.02284676767885685,0.7471573948860168,0.5689191222190857,-0.029097944498062134,0.7573928833007812,0.4999329149723053,-0.034481480717659,0.7784567475318909,0.4665747880935669,-0.035696033388376236,0.7499449253082275,0.5071242451667786,-0.006906671915203333,0.7608607411384583,0.43197017908096313,-0.027854934334754944,0.7771478295326233,0.48991140723228455,-0.03736494481563568,0.7842111587524414,0.5415827035903931,-0.03684214875102043,0.7807978391647339,0.4951957166194916,0.00037386943586170673,0.7949251532554626,0.4350545406341553,-0.026306604966521263,0.8080049157142639,0.5124567151069641,-0.03529255837202072,0.8094826936721802,0.5696964263916016,-0.03114101104438305,0.8076165318489075,0.49096783995628357,0.0036649464163929224,0.819680392742157,0.4433630704879761,-0.019568393006920815,0.8253787159919739,0.5181890726089478,-0.020566437393426895,0.8214646577835083,0.5765965580940247,-0.010239624418318272,0.8291530013084412,0.4900974631309509,0.005426720250397921,0.8288314342498779,0.417719304561615,-0.0010305108735337853,0.8326265811920166,0.3764936625957489,0.0009068583021871746,0.832146406173706,0.3382757604122162,0.007232502102851868,0.0,0.0,0.0,0.0,0.0,0.0,0.0,0.0,0.0,0.0,0.0,0.0,0.0,0.0,0.0,0.0,0.0,0.0,0.0,0.0,0.0,0.0,0.0,0.0,0.0,0.0,0.0,0.0,0.0,0.0,0.0,0.0,0.0,0.0,0.0,0.0,0.0,0.0,0.0,0.0,0.0,0.0,0.0,0.0,0.0,0.0,0.0,0.0,0.0,0.0,0.0,0.0,0.0,0.0,0.0,0.0,0.0,0.0,0.0,0.0,0.0,0.0,0.0
1783345029.888269,0.8189038038253784,0.6948955059051514,-2.9832725090273016e-07,0.7741997838020325,0.662889838218689,-0.022535348311066628,0.7468417286872864,0.5694888234138489,-0.028219074010849,0.7589699029922485,0.5016976594924927,-0.032911740243434906,0.7834815979003906,0.47462236881256104,-0.03342970460653305,0.7491257190704346,0.5095987915992737,-0.0069910152815282345,0.7601818442344666,0.4329893887042999,-0.026567623019218445,0.7762905359268188,0.49017488956451416,-0.03502054139971733,0.7819388508796692,0.5401103496551514,-0.03413906693458557,0.7804552316665649,0.4977497160434723,0.0004880991473328322,0.7952125668525696,0.43672046065330505,-0.02533559314906597,0.8083755373954773,0.5142267346382141,-0.03402252867817879,0.807868242263794,0.5701422691345215,-0.029801182448863983,0.8078559637069702,0.49313467741012573,0.004197863861918449,0.8197662234306335,0.4464872479438782,-0.018337516114115715,0.8255322575569153,0.5209033489227295,-0.019593989476561546,0.8203092217445374,0.5782296657562256,-0.009595764800906181,0.8299251198768616,0.49127885699272156,0.006463523488491774,0.8295318484306335,0.4193142354488373,0.00034675744245760143,0.8339132070541382,0.3772088885307312,0.001895496970973909,0.833452045917511,0.33852484822273254,0.00778983673080802,0.0,0.0,0.0,0.0,0.0,0.0,0.0,0.0,0.0,0.0,0.0,0.0,0.0,0.0,0.0,0.0,0.0,0.0,0.0,0.0,0.0,0.0,0.0,0.0,0.0,0.0,0.0,0.0,0.0,0.0,0.0,0.0,0.0,0.0,0.0,0.0,0.0,0.0,0.0,0.0,0.0,0.0,0.0,0.0,0.0,0.0,0.0,0.0,0.0,0.0,0.0,0.0,0.0,0.0,0.0,0.0,0.0,0.0,0.0,0.0,0.0,0.0,0.0
1783345030.017986,0.8156633973121643,0.6954900026321411,-2.859089249795943e-07,0.7706323862075806,0.662939190864563,-0.02211552858352661,0.744784414768219,0.5689250826835632,-0.02804633602499962,0.760884165763855,0.49980974197387695,-0.03287686035037041,0.7880048155784607,0.4739428162574768,-0.03338807821273804,0.7453847527503967,0.5100221037864685,-0.006893751677125692,0.7558352947235107,0.43374353647232056,-0.026587020605802536,0.7710489630699158,0.4905432164669037,-0.034901637583971024,0.7766558527946472,0.5402956008911133,-0.033824846148490906,0.77713942527771,0.499929815530777,0.00015220599016174674,0.7912733554840088,0.4359663128852844,-0.025772307068109512,0.8031907677650452,0.513119101524353,-0.03438498452305794,0.802593469619751,0.5693572163581848,-0.02988218516111374,0.804953932762146,0.49545660614967346,0.0034412106033414602,0.8160467147827148,0.44836094975471497,-0.01909046061336994,0.8204792737960815,0.5231314301490784,-0.0205125380307436,0.814609944820404,0.5799458622932434,-0.010513955727219582,0.8272812366485596,0.494015634059906,0.005289627239108086,0.8267898559570312,0.42256230115890503,-0.0009589041001163423,0.8313137292861938,0.38025110960006714,0.00026936273206956685,0.8312402367591858,0.3405682444572449,0.005976690910756588,0.0,0.0,0.0,0.0,0.0,0.0,0.0,0.0,0.0,0.0,0.0,0.0,0.0,0.0,0.0,0.0,0.0,0.0,0.0,0.0,0.0,0.0,0.0,0.0,0.0,0.0,0.0,0.0,0.0,0.0,0.0,0.0,0.0,0.0,0.0,0.0,0.0,0.0,0.0,0.0,0.0,0.0,0.0,0.0,0.0,0.0,0.0,0.0,0.0,0.0,0.0,0.0,0.0,0.0,0.0,0.0,0.0,0.0,0.0,0.0,0.0,0.0,0.0
1783345030.1611362,0.8115496039390564,0.6939775943756104,-2.5897361410898156e-07,0.7628447413444519,0.6667302846908569,-0.018588317558169365,0.7320125102996826,0.5821767449378967,-0.024761520326137543,0.7423014044761658,0.5244626998901367,-0.030479729175567627,0.7640466690063477,0.5122011303901672,-0.03260151296854019,0.7430458068847656,0.5114047527313232,-0.009472465142607689,0.7492521405220032,0.43660762906074524,-0.03016323782503605,0.7645196914672852,0.4880047142505646,-0.03954469785094261,0.772118330001831,0.5386655926704407,-0.039522647857666016,0.7736273407936096,0.501613974571228,-0.005404765252023935,0.7869800329208374,0.43885961174964905,-0.032795995473861694,0.7978395819664001,0.5132143497467041,-0.041168805211782455,0.7982450127601624,0.5732226371765137,-0.03684619441628456,0.800847589969635,0.4980033338069916,-0.004698540084064007,0.8128313422203064,0.4503503739833832,-0.027443695813417435,0.8155537843704224,0.5216913819313049,-0.028627915307879448,0.8103899955749512,0.5791084170341492,-0.019176311790943146,0.8237385153770447,0.4980320930480957,-0.00531931035220623,0.8258602619171143,0.4263659119606018,-0.012844174169003963,0.8295472860336304,0.3817445635795593,-0.012555444613099098,0.829102635383606,0.33969646692276,-0.008003114722669125,0.0,0.0,0.0,0.0,0.0,0.0,0.0,0.0,0.0,0.0,0.0,0.0,0.0,0.0,0.0,0.0,0.0,0.0,0.0,0.0,0.0,0.0,0.0,0.0,0.0,0.0,0.0,0.0,0.0,0.0,0.0,0.0,0.0,0.0,0.0,0.0,0.0,0.0,0.0,0.0,0.0,0.0,0.0,0.0,0.0,0.0,0.0,0.0,0.0,0.0,0.0,0.0,0.0,0.0,0.0,0.0,0.0,0.0,0.0,0.0,0.0,0.0,0.0
1783345030.3194041,0.8089339137077332,0.6983808279037476,-2.758125958735036e-07,0.7567005157470703,0.6718956828117371,-0.01635149121284485,0.7234238386154175,0.5838836431503296,-0.021975597366690636,0.736234724521637,0.5231267213821411,-0.028108682483434677,0.7664613723754883,0.5145824551582336,-0.0310166385024786,0.7400693893432617,0.5141207575798035,-0.006162157282233238,0.7419160008430481,0.439782053232193,-0.026340654119849205,0.7569432258605957,0.49419453740119934,-0.03613996133208275,0.7638465166091919,0.5446102023124695,-0.03693689778447151,0.7716525197029114,0.5030832290649414,-0.004144415725022554,0.7814180254936218,0.4420313835144043,-0.031394969671964645,0.7903408408164978,0.5156406164169312,-0.040893103927373886,0.7885110974311829,0.5742411017417908,-0.03759695589542389,0.7999846339225769,0.4990136921405792,-0.005415298976004124,0.810516357421875,0.44920462369918823,-0.02801588363945484,0.8112879991531372,0.5195206999778748,-0.02992827072739601,0.8037154674530029,0.5772724747657776,-0.021163679659366608,0.8237554430961609,0.4983483552932739,-0.007934745401144028,0.8250367045402527,0.4258899986743927,-0.01515907607972622,0.8275762796401978,0.37998491525650024,-0.01477601658552885,0.8259848952293396,0.3371703028678894,-0.010325287468731403,0.0,0.0,0.0,0.0,0.0,0.0,0.0,0.0,0.0,0.0,0.0,0.0,0.0,0.0,0.0,0.0,0.0,0.0,0.0,0.0,0.0,0.0,0.0,0.0,0.0,0.0,0.0,0.0,0.0,0.0,0.0,0.0,0.0,0.0,0.0,0.0,0.0,0.0,0.0,0.0,0.0,0.0,0.0,0.0,0.0,0.0,0.0,0.0,0.0,0.0,0.0,0.0,0.0,0.0,0.0,0.0,0.0,0.0,0.0,0.0,0.0,0.0,0.0
1783345030.45684,0.8041132092475891,0.6995639801025391,-2.9088772635077476e-07,0.7509523034095764,0.674126923084259,-0.012027621269226074,0.7170576453208923,0.5887130498886108,-0.015557775273919106,0.7253301739692688,0.5303105115890503,-0.020793402567505836,0.7503992915153503,0.5175087451934814,-0.02319982834160328,0.7363202571868896,0.5215882658958435,-0.002665512030944228,0.7337257266044617,0.4450383186340332,-0.022433094680309296,0.7474043965339661,0.49539846181869507,-0.0321207232773304,0.7544881105422974,0.5455617904663086,-0.032861143350601196,0.7671622633934021,0.5093802213668823,-0.0030075288377702236,0.7737115621566772,0.44958293437957764,-0.030239678919315338,0.7803128957748413,0.5196157097816467,-0.04025363177061081,0.7783184051513672,0.5778006911277771,-0.03759760037064552,0.7952640056610107,0.5040285587310791,-0.00637027807533741,0.8037346601486206,0.4539273977279663,-0.02892744354903698,0.8017922043800354,0.522629976272583,-0.030990419909358025,0.793323278427124,0.5796515345573425,-0.0226710457354784,0.8189042806625366,0.5018339157104492,-0.01069822907447815,0.8211566805839539,0.429855614900589,-0.018547477200627327,0.8231499791145325,0.38307616114616394,-0.018490102142095566,0.8215274810791016,0.3396263122558594,-0.014324631541967392,0.0,0.0,0.0,0.0,0.0,0.0,0.0,0.0,0.0,0.0,0.0,0.0,0.0,0.0,0.0,0.0,0.0,0.0,0.0,0.0,0.0,0.0,0.0,0.0,0.0,0.0,0.0,0.0,0.0,0.0,0.0,0.0,0.0,0.0,0.0,0.0,0.0,0.0,0.0,0.0,0.0,0.0,0.0,0.0,0.0,0.0,0.0,0.0,0.0,0.0,0.0,0.0,0.0,0.0,0.0,0.0,0.0,0.0,0.0,0.0,0.0,0.0,0.0
1783345030.593248,0.7963272929191589,0.7002650499343872,-3.2213600320574187e-07,0.744533360004425,0.6761349439620972,-0.009307630360126495,0.709373414516449,0.5940862894058228,-0.011852522380650043,0.7154896259307861,0.5354496240615845,-0.016481908038258553,0.7398825883865356,0.526526689529419,-0.01839400641620159,0.7296335101127625,0.5231376886367798,-0.0008886820869520307,0.7251462340354919,0.45057961344718933,-0.019745007157325745,0.735648512840271,0.5041502714157104,-0.02880249358713627,0.7412611842155457,0.5536643266677856,-0.029828043654561043,0.7592964172363281,0.5113429427146912,-0.0026081616524606943,0.7614961266517639,0.4527856111526489,-0.028159799054265022,0.7662145495414734,0.5208321213722229,-0.03682703152298927,0.7655403017997742,0.5736947655677795,-0.03433845192193985,0.7868301272392273,0.5065430998802185,-0.007224273402243853,0.7912918329238892,0.4541358947753906,-0.028592653572559357,0.7883411645889282,0.5221500992774963,-0.029321175068616867,0.7816311717033386,0.5774409770965576,-0.02116047404706478,0.8107267022132874,0.5053556561470032,-0.012746114283800125,0.8118456602096558,0.4342952370643616,-0.021621499210596085,0.8120219111442566,0.386356383562088,-0.02261028252542019,0.8097671866416931,0.3399242162704468,-0.01970774307847023,0.0,0.0,0.0,0.0,0.0,0.0,0.0,0.0,0.0,0.0,0.0,0.0,0.0,0.0,0.0,0.0,0.0,0.0,0.0,0.0,0.0,0.0,0.0,0.0,0.0,0.0,0.0,0.0,0.0,0.0,0.0,0.0,0.0,0.0,0.0,0.0,0.0,0.0,0.0,0.0,0.0,0.0,0.0,0.0,0.0,0.0,0.0,0.0,0.0,0.0,0.0,0.0,0.0,0.0,0.0,0.0,0.0,0.0,0.0,0.0,0.0,0.0,0.0
1783345030.7531571,0.7803205251693726,0.7081825137138367,-3.123554108697135e-07,0.7290898561477661,0.6817314028739929,-0.008992175571620464,0.6966809034347534,0.606350839138031,-0.01296311430633068,0.7044699192047119,0.5520685911178589,-0.019338931888341904,0.7282177209854126,0.5472192764282227,-0.023433644324541092,0.7175159454345703,0.5270984172821045,7.408842793665826e-05,0.710051953792572,0.4635213017463684,-0.01934986189007759,0.7175938487052917,0.5160074234008789,-0.02974379062652588,0.7234295606613159,0.5636369585990906,-0.03205612301826477,0.7460060715675354,0.5177168846130371,-0.0028682034462690353,0.7430546283721924,0.4633080065250397,-0.02851456217467785,0.7454891204833984,0.5308323502540588,-0.038288362324237823,0.7470890283584595,0.5810506939888,-0.037200476974248886,0.7730568647384644,0.5155366659164429,-0.008952145464718342,0.773116946220398,0.4665547013282776,-0.03117666207253933,0.7657705545425415,0.5337337255477905,-0.03379880264401436,0.7597005367279053,0.5874410271644592,-0.027113987132906914,0.7980558276176453,0.5164524912834167,-0.015959149226546288,0.7971301078796387,0.4416619837284088,-0.025933241471648216,0.7948173880577087,0.3917166292667389,-0.028632255271077156,0.7922778129577637,0.34328749775886536,-0.02721436507999897,0.0,0.0,0.0,0.0,0.0,0.0,0.0,0.0,0.0,0.0,0.0,0.0,0.0,0.0,0.0,0.0,0.0,0.0,0.0,0.0,0.0,0.0,0.0,0.0,0.0,0.0,0.0,0.0,0.0,0.0,0.0,0.0,0.0,0.0,0.0,0.0,0.0,0.0,0.0,0.0,0.0,0.0,0.0,0.0,0.0,0.0,0.0,0.0,0.0,0.0,0.0,0.0,0.0,0.0,0.0,0.0,0.0,0.0,0.0,0.0,0.0,0.0,0.0
1783345030.8913238,0.7717154026031494,0.7113909125328064,-3.09491042571608e-07,0.7194777131080627,0.6829017996788025,-0.008160104975104332,0.686046302318573,0.6058126091957092,-0.011317890137434006,0.6941516995429993,0.548423707485199,-0.01716688461601734,0.7211431860923767,0.5443735122680664,-0.02074047550559044,0.7088786959648132,0.5305007100105286,0.0026603741571307182,0.700248122215271,0.46955811977386475,-0.01626494899392128,0.707207977771759,0.5210819840431213,-0.026388967409729958,0.7129809856414795,0.5659049153327942,-0.028781728819012642,0.7362881898880005,0.520370602607727,-0.0006178997573442757,0.7315527200698853,0.4689229428768158,-0.025584004819393158,0.7330628633499146,0.5360649228096008,-0.034464601427316666,0.7347432971000671,0.584155797958374,-0.032856285572052,0.763241708278656,0.5181171298027039,-0.007173201534897089,0.7609763145446777,0.46836239099502563,-0.02898458018898964,0.7540227770805359,0.5354111194610596,-0.03018777444958687,0.7494207620620728,0.5885840058326721,-0.022591354325413704,0.7889209985733032,0.519779622554779,-0.014736533164978027,0.7892572283744812,0.4464128911495209,-0.024326466023921967,0.7867975234985352,0.39747944474220276,-0.026221882551908493,0.783897876739502,0.34936079382896423,-0.024270543828606606,0.0,0.0,0.0,0.0,0.0,0.0,0.0,0.0,0.0,0.0,0.0,0.0,0.0,0.0,0.0,0.0,0.0,0.0,0.0,0.0,0.0,0.0,0.0,0.0,0.0,0.0,0.0,0.0,0.0,0.0,0.0,0.0,0.0,0.0,0.0,0.0,0.0,0.0,0.0,0.0,0.0,0.0,0.0,0.0,0.0,0.0,0.0,0.0,0.0,0.0,0.0,0.0,0.0,0.0,0.0,0.0,0.0,0.0,0.0,0.0,0.0,0.0,0.0
1783345031.044019,0.764706552028656,0.7098152041435242,-3.197926901066239e-07,0.7149662375450134,0.6841449737548828,-0.006146875210106373,0.6818224191665649,0.6102073788642883,-0.008451040834188461,0.6888906359672546,0.5540322065353394,-0.013861015439033508,0.7155169248580933,0.5484297871589661,-0.01706591248512268,0.703557550907135,0.5343132019042969,0.0045094238594174385,0.6936155557632446,0.47486135363578796,-0.014001475647091866,0.7006534934043884,0.5235967636108398,-0.024048566818237305,0.7076098322868347,0.5673282742500305,-0.026430318132042885,0.7298240661621094,0.5245095491409302,0.0005073503125458956,0.7235293388366699,0.47245779633522034,-0.024126455187797546,0.725680947303772,0.5350643992424011,-0.03314090520143509,0.7287230491638184,0.583434522151947,-0.0317249670624733,0.75621497631073,0.5212349891662598,-0.006544866133481264,0.7530375719070435,0.47098875045776367,-0.027495281770825386,0.747390866279602,0.5355322957038879,-0.028220079839229584,0.7440887093544006,0.5881208777427673,-0.02060893177986145,0.7817586064338684,0.5214457511901855,-0.014538070186972618,0.7818807363510132,0.45113226771354675,-0.023821568116545677,0.7788597345352173,0.40358784794807434,-0.02555026486515999,0.775463879108429,0.35713091492652893,-0.02357468008995056,0.0,0.0,0.0,0.0,0.0,0.0,0.0,0.0,0.0,0.0,0.0,0.0,0.0,0.0,0.0,0.0,0.0,0.0,0.0,0.0,0.0,0.0,0.0,0.0,0.0,0.0,0.0,0.0,0.0,0.0,0.0,0.0,0.0,0.0,0.0,0.0,0.0,0.0,0.0,0.0,0.0,0.0,0.0,0.0,0.0,0.0,0.0,0.0,0.0,0.0,0.0,0.0,0.0,0.0,0.0,0.0,0.0,0.0,0.0,0.0,0.0,0.0,0.0
1783345031.185607,0.7620686888694763,0.7067219614982605,-3.388080074273603e-07,0.7143079042434692,0.6870329976081848,-0.00678329449146986,0.6794221997261047,0.611537754535675,-0.00893490295857191,0.6861148476600647,0.5529455542564392,-0.013807297684252262,0.7136005759239197,0.5442118048667908,-0.016280466690659523,0.7008926868438721,0.5347228646278381,0.0015935898991301656,0.6917283535003662,0.47274771332740784,-0.015902074053883553,0.6989389061927795,0.5247550010681152,-0.02478470839560032,0.7058094143867493,0.5696694850921631,-0.026867588981986046,0.7279103994369507,0.5252512097358704,-0.0020932210609316826,0.7228704690933228,0.4699842929840088,-0.026599563658237457,0.7240426540374756,0.5360766053199768,-0.03475503623485565,0.7253841757774353,0.5863572955131531,-0.03283943608403206,0.754496157169342,0.5226864218711853,-0.008634635247290134,0.7510590553283691,0.4719359278678894,-0.02917461283504963,0.744199812412262,0.5375683903694153,-0.029259974136948586,0.7391319870948792,0.5902568101882935,-0.02165878564119339,0.7800391912460327,0.5230175256729126,-0.016156919300556183,0.7801280617713928,0.45239952206611633,-0.025999324396252632,0.7769848108291626,0.40402352809906006,-0.02822304703295231,0.7736717462539673,0.356680303812027,-0.026825781911611557,0.0,0.0,0.0,0.0,0.0,0.0,0.0,0.0,0.0,0.0,0.0,0.0,0.0,0.0,0.0,0.0,0.0,0.0,0.0,0.0,0.0,0.0,0.0,0.0,0.0,0.0,0.0,0.0,0.0,0.0,0.0,0.0,0.0,0.0,0.0,0.0,0.0,0.0,0.0,0.0,0.0,0.0,0.0,0.0,0.0,0.0,0.0,0.0,0.0,0.0,0.0,0.0,0.0,0.0,0.0,0.0,0.0,0.0,0.0,0.0,0.0,0.0,0.0
1783345031.320677,0.7623007297515869,0.7072330117225647,-3.6274786907597445e-07,0.7146125435829163,0.6883567571640015,-0.005900797434151173,0.6791977882385254,0.6144652962684631,-0.006995225325226784,0.6837186217308044,0.5570787787437439,-0.01056656427681446,0.7110678553581238,0.549087405204773,-0.011619525030255318,0.7009652853012085,0.5369000434875488,0.000975876406300813,0.6909054517745972,0.4719753861427307,-0.016144884750247,0.6989348530769348,0.523696780204773,-0.024464895948767662,0.706100583076477,0.5698063373565674,-0.026189645752310753,0.7282597422599792,0.5271143913269043,-0.0025316609535366297,0.7227156162261963,0.4687013030052185,-0.02650405652821064,0.7243849635124207,0.5360013842582703,-0.03374379873275757,0.7248343229293823,0.5881390571594238,-0.03125496208667755,0.754982590675354,0.5244852304458618,-0.008700302802026272,0.7502920031547546,0.47580838203430176,-0.028801238164305687,0.7440669536590576,0.5414362549781799,-0.028440963476896286,0.7390804290771484,0.5940661430358887,-0.020665111020207405,0.7807767391204834,0.5244487524032593,-0.015726258978247643,0.7808545827865601,0.45308464765548706,-0.026171837002038956,0.7784461975097656,0.4042602777481079,-0.0288302730768919,0.775201678276062,0.3574075996875763,-0.027721639722585678,0.0,0.0,0.0,0.0,0.0,0.0,0.0,0.0,0.0,0.0,0.0,0.0,0.0,0.0,0.0,0.0,0.0,0.0,0.0,0.0,0.0,0.0,0.0,0.0,0.0,0.0,0.0,0.0,0.0,0.0,0.0,0.0,0.0,0.0,0.0,0.0,0.0,0.0,0.0,0.0,0.0,0.0,0.0,0.0,0.0,0.0,0.0,0.0,0.0,0.0,0.0,0.0,0.0,0.0,0.0,0.0,0.0,0.0,0.0,0.0,0.0,0.0,0.0
1783345031.4474618,0.7629406452178955,0.705627977848053,-3.5595829217527353e-07,0.7150292992591858,0.6866467595100403,-0.005854151211678982,0.6793117523193359,0.6125268936157227,-0.007006907369941473,0.6834590435028076,0.5552703142166138,-0.010779155418276787,0.710467517375946,0.5470063090324402,-0.012126957066357136,0.7012657523155212,0.5341852903366089,0.0017682237084954977,0.6911416053771973,0.4705764353275299,-0.015133215114474297,0.6991283297538757,0.5219608545303345,-0.023425474762916565,0.7064844369888306,0.5678162574768066,-0.025112096220254898,0.7285141944885254,0.5241268277168274,-0.001796271768398583,0.7233984470367432,0.4674241542816162,-0.025727394968271255,0.7247492074966431,0.5346311330795288,-0.03326943516731262,0.7250226140022278,0.5873907208442688,-0.030886361375451088,0.7552241683006287,0.5210704207420349,-0.008021683432161808,0.750643789768219,0.4728708863258362,-0.0280926413834095,0.7446073293685913,0.5385519862174988,-0.028098255395889282,0.7398322820663452,0.5914468765258789,-0.02046646922826767,0.7806416153907776,0.5209655165672302,-0.015077201649546623,0.7814638018608093,0.4501393139362335,-0.025292644277215004,0.7794174551963806,0.40164893865585327,-0.027950245887041092,0.7764939069747925,0.35490739345550537,-0.02678891457617283,0.0,0.0,0.0,0.0,0.0,0.0,0.0,0.0,0.0,0.0,0.0,0.0,0.0,0.0,0.0,0.0,0.0,0.0,0.0,0.0,0.0,0.0,0.0,0.0,0.0,0.0,0.0,0.0,0.0,0.0,0.0,0.0,0.0,0.0,0.0,0.0,0.0,0.0,0.0,0.0,0.0,0.0,0.0,0.0,0.0,0.0,0.0,0.0,0.0,0.0,0.0,0.0,0.0,0.0,0.0,0.0,0.0,0.0,0.0,0.0,0.0,0.0,0.0
