ciel274/research-hand-sign/data/raw/hiragana/sign_language_sa_3.csv
timestamp,R_joint_0_x,R_joint_0_y,R_joint_0_z,R_joint_1_x,R_joint_1_y,R_joint_1_z,R_joint_2_x,R_joint_2_y,R_joint_2_z,R_joint_3_x,R_joint_3_y,R_joint_3_z,R_joint_4_x,R_joint_4_y,R_joint_4_z,R_joint_5_x,R_joint_5_y,R_joint_5_z,R_joint_6_x,R_joint_6_y,R_joint_6_z,R_joint_7_x,R_joint_7_y,R_joint_7_z,R_joint_8_x,R_joint_8_y,R_joint_8_z,R_joint_9_x,R_joint_9_y,R_joint_9_z,R_joint_10_x,R_joint_10_y,R_joint_10_z,R_joint_11_x,R_joint_11_y,R_joint_11_z,R_joint_12_x,R_joint_12_y,R_joint_12_z,R_joint_13_x,R_joint_13_y,R_joint_13_z,R_joint_14_x,R_joint_14_y,R_joint_14_z,R_joint_15_x,R_joint_15_y,R_joint_15_z,R_joint_16_x,R_joint_16_y,R_joint_16_z,R_joint_17_x,R_joint_17_y,R_joint_17_z,R_joint_18_x,R_joint_18_y,R_joint_18_z,R_joint_19_x,R_joint_19_y,R_joint_19_z,R_joint_20_x,R_joint_20_y,R_joint_20_z,L_joint_0_x,L_joint_0_y,L_joint_0_z,L_joint_1_x,L_joint_1_y,L_joint_1_z,L_joint_2_x,L_joint_2_y,L_joint_2_z,L_joint_3_x,L_joint_3_y,L_joint_3_z,L_joint_4_x,L_joint_4_y,L_joint_4_z,L_joint_5_x,L_joint_5_y,L_joint_5_z,L_joint_6_x,L_joint_6_y,L_joint_6_z,L_joint_7_x,L_joint_7_y,L_joint_7_z,L_joint_8_x,L_joint_8_y,L_joint_8_z,L_joint_9_x,L_joint_9_y,L_joint_9_z,L_joint_10_x,L_joint_10_y,L_joint_10_z,L_joint_11_x,L_joint_11_y,L_joint_11_z,L_joint_12_x,L_joint_12_y,L_joint_12_z,L_joint_13_x,L_joint_13_y,L_joint_13_z,L_joint_14_x,L_joint_14_y,L_joint_14_z,L_joint_15_x,L_joint_15_y,L_joint_15_z,L_joint_16_x,L_joint_16_y,L_joint_16_z,L_joint_17_x,L_joint_17_y,L_joint_17_z,L_joint_18_x,L_joint_18_y,L_joint_18_z,L_joint_19_x,L_joint_19_y,L_joint_19_z,L_joint_20_x,L_joint_20_y,L_joint_20_z
1783390664.766667,0.7321158051490784,0.636555552482605,-3.604520486533147e-07,0.6899346709251404,0.6149388551712036,-0.021229509264230728,0.648068904876709,0.555300772190094,-0.029486028477549553,0.6310389637947083,0.47923365235328674,-0.038288626819849014,0.6466208696365356,0.42066052556037903,-0.04090588539838791,0.6453901529312134,0.4614286720752716,0.009342791512608528,0.6348562240600586,0.4071679711341858,-0.018127620220184326,0.6493903398513794,0.4701024889945984,-0.030306493863463402,0.654627799987793,0.4817546606063843,-0.03422640264034271,0.6735970377922058,0.44839775562286377,0.009403456002473831,0.6672044396400452,0.3983738422393799,-0.018993614241480827,0.6787998080253601,0.48261958360671997,-0.02212204411625862,0.6764546632766724,0.48011910915374756,-0.015503226779401302,0.70304936170578,0.4453011751174927,0.0023777044843882322,0.699614942073822,0.40080726146698,-0.02644520439207554,0.7057431936264038,0.4794914722442627,-0.01746542379260063,0.7040067911148071,0.47902995347976685,-0.0024388881865888834,0.7332747578620911,0.44665542244911194,-0.007031446322798729,0.7275224328041077,0.416464239358902,-0.019405892118811607,0.7285411953926086,0.4707071781158447,-0.010098908096551895,0.7288565635681152,0.47752708196640015,0.0016691538039594889,0.0,0.0,0.0,0.0,0.0,0.0,0.0,0.0,0.0,0.0,0.0,0.0,0.0,0.0,0.0,0.0,0.0,0.0,0.0,0.0,0.0,0.0,0.0,0.0,0.0,0.0,0.0,0.0,0.0,0.0,0.0,0.0,0.0,0.0,0.0,0.0,0.0,0.0,0.0,0.0,0.0,0.0,0.0,0.0,0.0,0.0,0.0,0.0,0.0,0.0,0.0,0.0,0.0,0.0,0.0,0.0,0.0,0.0,0.0,0.0,0.0,0.0,0.0
1783390664.935652,0.7321991324424744,0.633124828338623,-3.6577316109287494e-07,0.6898050308227539,0.608678936958313,-0.020351409912109375,0.6480208039283752,0.5491060614585876,-0.027416642755270004,0.631705105304718,0.47389623522758484,-0.035270825028419495,0.649703860282898,0.4165043830871582,-0.03702583536505699,0.6477367281913757,0.456214040517807,0.012385246343910694,0.6370739340782166,0.404575914144516,-0.0142306387424469,0.6499713659286499,0.4664376974105835,-0.02621934376657009,0.6551830768585205,0.4774763286113739,-0.030034834519028664,0.6754999756813049,0.4438555836677551,0.012202510610222816,0.6682633757591248,0.39612099528312683,-0.015080343931913376,0.6786112785339355,0.4789288341999054,-0.017631035298109055,0.6779803037643433,0.4745696187019348,-0.010753716342151165,0.704667329788208,0.441647469997406,0.004705742001533508,0.7005931735038757,0.39786407351493835,-0.02354336902499199,0.7053634524345398,0.4754275977611542,-0.01485789567232132,0.7048065066337585,0.47405335307121277,-5.3754007240058854e-05,0.7353182435035706,0.44377583265304565,-0.00517312390729785,0.7287383675575256,0.41233402490615845,-0.017084404826164246,0.7281263470649719,0.46615174412727356,-0.00796509999781847,0.7287812829017639,0.4729733467102051,0.00360003300011158,0.0,0.0,0.0,0.0,0.0,0.0,0.0,0.0,0.0,0.0,0.0,0.0,0.0,0.0,0.0,0.0,0.0,0.0,0.0,0.0,0.0,0.0,0.0,0.0,0.0,0.0,0.0,0.0,0.0,0.0,0.0,0.0,0.0,0.0,0.0,0.0,0.0,0.0,0.0,0.0,0.0,0.0,0.0,0.0,0.0,0.0,0.0,0.0,0.0,0.0,0.0,0.0,0.0,0.0,0.0,0.0,0.0,0.0,0.0,0.0,0.0,0.0,0.0
1783390665.095714,0.7327017784118652,0.6302727460861206,-3.620544930527103e-07,0.6906589865684509,0.6066268086433411,-0.02046167477965355,0.648285984992981,0.5470827221870422,-0.027831608429551125,0.631803572177887,0.4698832631111145,-0.035961806774139404,0.6504201292991638,0.41101348400115967,-0.03786522150039673,0.647928774356842,0.4525603652000427,0.0124739408493042,0.6372232437133789,0.39986371994018555,-0.014221835881471634,0.6508409380912781,0.4637593626976013,-0.026274023577570915,0.656120777130127,0.4732235372066498,-0.030198661610484123,0.6760785579681396,0.4407554864883423,0.012555660679936409,0.6693972945213318,0.3928101658821106,-0.014719182625412941,0.6794289946556091,0.476238489151001,-0.017577489838004112,0.6780164241790771,0.47089406847953796,-0.01095624826848507,0.7052450776100159,0.4390728771686554,0.005337235052138567,0.7016463875770569,0.3942573368549347,-0.022728629410266876,0.705970048904419,0.47267982363700867,-0.014470400288701057,0.7052661776542664,0.470649391412735,-1.1837279316750937e-06,0.7358854413032532,0.4407912492752075,-0.004224191885441542,0.7299582362174988,0.40882885456085205,-0.01590695232152939,0.7289571166038513,0.46306225657463074,-0.007169008255004883,0.7294391989707947,0.46991485357284546,0.004092425107955933,0.0,0.0,0.0,0.0,0.0,0.0,0.0,0.0,0.0,0.0,0.0,0.0,0.0,0.0,0.0,0.0,0.0,0.0,0.0,0.0,0.0,0.0,0.0,0.0,0.0,0.0,0.0,0.0,0.0,0.0,0.0,0.0,0.0,0.0,0.0,0.0,0.0,0.0,0.0,0.0,0.0,0.0,0.0,0.0,0.0,0.0,0.0,0.0,0.0,0.0,0.0,0.0,0.0,0.0,0.0,0.0,0.0,0.0,0.0,0.0,0.0,0.0,0.0
1783390665.2413282,0.7325536012649536,0.6285697221755981,-3.642797707925638e-07,0.6905712485313416,0.6056125164031982,-0.020569318905472755,0.6486040353775024,0.5471160411834717,-0.028324002400040627,0.6318028569221497,0.47097817063331604,-0.036766815930604935,0.6495661735534668,0.4128369390964508,-0.0391642190515995,0.6472621560096741,0.45416054129600525,0.010685078799724579,0.6365352869033813,0.3999585509300232,-0.01580650918185711,0.6502970457077026,0.4635509252548218,-0.027633432298898697,0.655728280544281,0.47492700815200806,-0.031550366431474686,0.6750421524047852,0.4418175220489502,0.01055542565882206,0.6687616109848022,0.3918827772140503,-0.01698755845427513,0.6792132258415222,0.47565194964408875,-0.019990798085927963,0.6776533126831055,0.47365838289260864,-0.01351617369800806,0.7039854526519775,0.43938273191452026,0.003347467165440321,0.7015995979309082,0.39379405975341797,-0.02487935684621334,0.7063062787055969,0.47265875339508057,-0.016598070040345192,0.7046008110046387,0.4731813669204712,-0.002216001506894827,0.7343141436576843,0.44131937623023987,-0.006177355069667101,0.7296397089958191,0.40914711356163025,-0.01825323887169361,0.7294496297836304,0.46362391114234924,-0.009485346265137196,0.7291280627250671,0.4716985821723938,0.0017255413113161922,0.0,0.0,0.0,0.0,0.0,0.0,0.0,0.0,0.0,0.0,0.0,0.0,0.0,0.0,0.0,0.0,0.0,0.0,0.0,0.0,0.0,0.0,0.0,0.0,0.0,0.0,0.0,0.0,0.0,0.0,0.0,0.0,0.0,0.0,0.0,0.0,0.0,0.0,0.0,0.0,0.0,0.0,0.0,0.0,0.0,0.0,0.0,0.0,0.0,0.0,0.0,0.0,0.0,0.0,0.0,0.0,0.0,0.0,0.0,0.0,0.0,0.0,0.0
1783390665.397001,0.7320950031280518,0.6330803632736206,-3.522790734677983e-07,0.6902748346328735,0.6092883944511414,-0.020785639062523842,0.6483200192451477,0.5505132675170898,-0.02888191118836403,0.6320621967315674,0.4739852249622345,-0.037762098014354706,0.6495389938354492,0.4157997667789459,-0.040679484605789185,0.6482594013214111,0.456650972366333,0.01084162387996912,0.636206865310669,0.4051734507083893,-0.015512089245021343,0.649526059627533,0.4656315743923187,-0.027084065601229668,0.6562758088111877,0.47639042139053345,-0.030721798539161682,0.6754109263420105,0.44402778148651123,0.010740606114268303,0.6680077314376831,0.3957996368408203,-0.01652628369629383,0.6786015629768372,0.4791569411754608,-0.01867731101810932,0.6786006093025208,0.4760315716266632,-0.011486702598631382,0.7040687203407288,0.4418351948261261,0.0034198113717138767,0.7007298469543457,0.3960922956466675,-0.02459821291267872,0.7050963640213013,0.47492337226867676,-0.015609444119036198,0.7046273350715637,0.47559112310409546,-0.0006754128262400627,0.734307050704956,0.44471630454063416,-0.006340248975902796,0.7288215160369873,0.4133349359035492,-0.01833418570458889,0.7280865907669067,0.46691828966140747,-0.009498292580246925,0.7285603284835815,0.4739915728569031,0.0018294582841917872,0.0,0.0,0.0,0.0,0.0,0.0,0.0,0.0,0.0,0.0,0.0,0.0,0.0,0.0,0.0,0.0,0.0,0.0,0.0,0.0,0.0,0.0,0.0,0.0,0.0,0.0,0.0,0.0,0.0,0.0,0.0,0.0,0.0,0.0,0.0,0.0,0.0,0.0,0.0,0.0,0.0,0.0,0.0,0.0,0.0,0.0,0.0,0.0,0.0,0.0,0.0,0.0,0.0,0.0,0.0,0.0,0.0,0.0,0.0,0.0,0.0,0.0,0.0
1783390665.53557,0.7314833998680115,0.6326955556869507,-3.609729049003363e-07,0.6892057657241821,0.6117392778396606,-0.02121277153491974,0.6472905278205872,0.5518079400062561,-0.029138188809156418,0.6307357549667358,0.475370854139328,-0.03752223774790764,0.6481863260269165,0.4162867069244385,-0.03975077345967293,0.6460382342338562,0.4565792381763458,0.01000914815813303,0.6355476975440979,0.4043619930744171,-0.016452034935355186,0.6491008400917053,0.46734121441841125,-0.028124762699007988,0.6546218395233154,0.47743725776672363,-0.031988706439733505,0.6739981174468994,0.4439549148082733,0.010322242975234985,0.6674259901046753,0.3950870633125305,-0.017520472407341003,0.6780608892440796,0.4798404574394226,-0.02051052823662758,0.6769710183143616,0.4771575629711151,-0.013808845542371273,0.7031210660934448,0.4414452910423279,0.003567213425412774,0.6996640563011169,0.3973388075828552,-0.02498437650501728,0.7048138976097107,0.4772181808948517,-0.01638582907617092,0.7040711641311646,0.4767967164516449,-0.0015562048647552729,0.7337384223937988,0.44272133708000183,-0.005518617574125528,0.7274550199508667,0.4121471643447876,-0.01774011179804802,0.727516770362854,0.46714988350868225,-0.008733532391488552,0.7281182408332825,0.47386234998703003,0.0028248021844774485,0.0,0.0,0.0,0.0,0.0,0.0,0.0,0.0,0.0,0.0,0.0,0.0,0.0,0.0,0.0,0.0,0.0,0.0,0.0,0.0,0.0,0.0,0.0,0.0,0.0,0.0,0.0,0.0,0.0,0.0,0.0,0.0,0.0,0.0,0.0,0.0,0.0,0.0,0.0,0.0,0.0,0.0,0.0,0.0,0.0,0.0,0.0,0.0,0.0,0.0,0.0,0.0,0.0,0.0,0.0,0.0,0.0,0.0,0.0,0.0,0.0,0.0,0.0
1783390665.686068,0.7307801842689514,0.6330320835113525,-3.385487161722267e-07,0.6893783807754517,0.607821524143219,-0.021734904497861862,0.6474977135658264,0.5478120446205139,-0.030201753601431847,0.6299729943275452,0.4718436300754547,-0.03932611644268036,0.6472123861312866,0.41268160939216614,-0.04233049973845482,0.6447094678878784,0.4549499452114105,0.011504052206873894,0.6349947452545166,0.40321359038352966,-0.015533916652202606,0.6488525867462158,0.4641657769680023,-0.02759571373462677,0.6541591286659241,0.474708616733551,-0.03134789690375328,0.6726646423339844,0.44197872281074524,0.012033320963382721,0.6665754318237305,0.3936556875705719,-0.015500419773161411,0.6776970624923706,0.4769546389579773,-0.01798109896481037,0.6759774684906006,0.47282591462135315,-0.010837102308869362,0.7020503282546997,0.4397929012775421,0.005130406003445387,0.6995906829833984,0.395785391330719,-0.023337790742516518,0.7046452164649963,0.47344833612442017,-0.014794799499213696,0.7032814621925354,0.47288843989372253,6.892321835039183e-05,0.7324768304824829,0.44206833839416504,-0.004225576296448708,0.7275758981704712,0.4105507731437683,-0.016214940696954727,0.7274037003517151,0.4637817144393921,-0.0073369648307561874,0.7274109721183777,0.4711156189441681,0.00414550444111228,0.0,0.0,0.0,0.0,0.0,0.0,0.0,0.0,0.0,0.0,0.0,0.0,0.0,0.0,0.0,0.0,0.0,0.0,0.0,0.0,0.0,0.0,0.0,0.0,0.0,0.0,0.0,0.0,0.0,0.0,0.0,0.0,0.0,0.0,0.0,0.0,0.0,0.0,0.0,0.0,0.0,0.0,0.0,0.0,0.0,0.0,0.0,0.0,0.0,0.0,0.0,0.0,0.0,0.0,0.0,0.0,0.0,0.0,0.0,0.0,0.0,0.0,0.0
1783390665.839177,0.7303410768508911,0.6301196813583374,-3.3377295949321706e-07,0.6887598037719727,0.6066136360168457,-0.02103274129331112,0.64677494764328,0.5466852188110352,-0.029529796913266182,0.629675567150116,0.4695045053958893,-0.03900593891739845,0.6470398306846619,0.4115467667579651,-0.0425155907869339,0.6444926261901855,0.4529280960559845,0.01192679163068533,0.6345532536506653,0.40115949511528015,-0.015751490369439125,0.6482774615287781,0.4595557749271393,-0.02807130478322506,0.6540111899375916,0.47117045521736145,-0.0317489318549633,0.6724998354911804,0.4403184950351715,0.011670762673020363,0.6659696102142334,0.3902103304862976,-0.016397874802350998,0.6772122383117676,0.4737473130226135,-0.018842296674847603,0.6754812598228455,0.47065526247024536,-0.011400040239095688,0.7018792033195496,0.4379069209098816,0.003951405640691519,0.6990766525268555,0.3922521770000458,-0.025035003200173378,0.7044732570648193,0.4702548086643219,-0.016136016696691513,0.7029218673706055,0.4703090190887451,-0.0008122490835376084,0.7323887944221497,0.4400882422924042,-0.006213918328285217,0.7278467416763306,0.40715402364730835,-0.018681000918149948,0.7279433012008667,0.46069255471229553,-0.009610878303647041,0.7278473377227783,0.4688049256801605,0.002164986450225115,0.0,0.0,0.0,0.0,0.0,0.0,0.0,0.0,0.0,0.0,0.0,0.0,0.0,0.0,0.0,0.0,0.0,0.0,0.0,0.0,0.0,0.0,0.0,0.0,0.0,0.0,0.0,0.0,0.0,0.0,0.0,0.0,0.0,0.0,0.0,0.0,0.0,0.0,0.0,0.0,0.0,0.0,0.0,0.0,0.0,0.0,0.0,0.0,0.0,0.0,0.0,0.0,0.0,0.0,0.0,0.0,0.0,0.0,0.0,0.0,0.0,0.0,0.0
1783390666.005298,0.7312793731689453,0.6290899515151978,-3.465139570835163e-07,0.6899818181991577,0.6051372289657593,-0.021485470235347748,0.647721529006958,0.5463670492172241,-0.029660647734999657,0.6303083300590515,0.47104015946388245,-0.03843960538506508,0.6476527452468872,0.41155368089675903,-0.041090112179517746,0.6450451016426086,0.45098787546157837,0.01134767197072506,0.6352673768997192,0.3984258472919464,-0.015906142070889473,0.6493507623672485,0.45909348130226135,-0.028226476162672043,0.6546469926834106,0.47109290957450867,-0.032105524092912674,0.6725611090660095,0.43863096833229065,0.011799037456512451,0.6668367385864258,0.3898288607597351,-0.01587611623108387,0.6780203580856323,0.47319844365119934,-0.018726563081145287,0.6755682229995728,0.47042325139045715,-0.011935459449887276,0.7016229033470154,0.4362282156944275,0.0048445044085383415,0.6999300122261047,0.391978919506073,-0.023959998041391373,0.7051072120666504,0.4704073965549469,-0.015794698148965836,0.702610194683075,0.4706531763076782,-0.0011938575189560652,0.7319764494895935,0.43851959705352783,-0.004505309276282787,0.727791965007782,0.4068102240562439,-0.01710580661892891,0.7281229496002197,0.46096271276474,-0.008582936599850655,0.7273271679878235,0.46861785650253296,0.0027012438513338566,0.0,0.0,0.0,0.0,0.0,0.0,0.0,0.0,0.0,0.0,0.0,0.0,0.0,0.0,0.0,0.0,0.0,0.0,0.0,0.0,0.0,0.0,0.0,0.0,0.0,0.0,0.0,0.0,0.0,0.0,0.0,0.0,0.0,0.0,0.0,0.0,0.0,0.0,0.0,0.0,0.0,0.0,0.0,0.0,0.0,0.0,0.0,0.0,0.0,0.0,0.0,0.0,0.0,0.0,0.0,0.0,0.0,0.0,0.0,0.0,0.0,0.0,0.0
1783390666.1560152,0.7318224310874939,0.6301275491714478,-3.6755497490048583e-07,0.6900729537010193,0.6064067482948303,-0.020344724878668785,0.6477094888687134,0.5453931093215942,-0.027096891775727272,0.6310727596282959,0.4690108299255371,-0.03449277579784393,0.6485477089881897,0.41059476137161255,-0.03582882881164551,0.645684540271759,0.4522953927516937,0.011890815570950508,0.6352324485778809,0.3988417983055115,-0.01406824216246605,0.6492257714271545,0.4610031843185425,-0.02590644359588623,0.6545257568359375,0.47350823879241943,-0.02982107549905777,0.6730695962905884,0.4394915699958801,0.012102937325835228,0.6673898696899414,0.3905007839202881,-0.014521945267915726,0.6781051754951477,0.47310081124305725,-0.017546670511364937,0.6761428117752075,0.4713309109210968,-0.011318688280880451,0.7019791007041931,0.437094509601593,0.005187313072383404,0.7002940773963928,0.3922603726387024,-0.022313809022307396,0.7049131393432617,0.46997180581092834,-0.01437834370881319,0.7027057409286499,0.4707498848438263,-0.000454573193565011,0.7323009371757507,0.4393714964389801,-0.004067305475473404,0.7279762625694275,0.40803372859954834,-0.015952853485941887,0.7279397249221802,0.46164411306381226,-0.007569822482764721,0.7272794246673584,0.4690561890602112,0.0033035411033779383,0.0,0.0,0.0,0.0,0.0,0.0,0.0,0.0,0.0,0.0,0.0,0.0,0.0,0.0,0.0,0.0,0.0,0.0,0.0,0.0,0.0,0.0,0.0,0.0,0.0,0.0,0.0,0.0,0.0,0.0,0.0,0.0,0.0,0.0,0.0,0.0,0.0,0.0,0.0,0.0,0.0,0.0,0.0,0.0,0.0,0.0,0.0,0.0,0.0,0.0,0.0,0.0,0.0,0.0,0.0,0.0,0.0,0.0,0.0,0.0,0.0,0.0,0.0
1783390666.3029609,0.7322386503219604,0.6285082697868347,-3.5596943348537025e-07,0.6899493932723999,0.6036818027496338,-0.020858364179730415,0.6475334167480469,0.5428255796432495,-0.02819286659359932,0.6307113170623779,0.465722918510437,-0.03630191087722778,0.649893581867218,0.4077386260032654,-0.03836177662014961,0.6471213102340698,0.4482838213443756,0.013129624538123608,0.6369262933731079,0.39654892683029175,-0.013055338524281979,0.6500860452651978,0.4588305950164795,-0.025045158341526985,0.6554321050643921,0.4705728590488434,-0.028960252180695534,0.6746322512626648,0.4360417425632477,0.01339791901409626,0.6682561039924622,0.38877493143081665,-0.013336585834622383,0.6784372329711914,0.47169578075408936,-0.016064107418060303,0.6771921515464783,0.46779385209083557,-0.009434198960661888,0.7035714983940125,0.4345773756504059,0.00627127243205905,0.7006911039352417,0.39042896032333374,-0.021512098610401154,0.7049363851547241,0.46840667724609375,-0.013399370945990086,0.7037363052368164,0.46809062361717224,0.0008688227389939129,0.7339761257171631,0.43754225969314575,-0.0032753238920122385,0.7284428477287292,0.40617650747299194,-0.014972656965255737,0.7277539372444153,0.45995503664016724,-0.006390321999788284,0.7278578877449036,0.46701017022132874,0.004686613101512194,0.0,0.0,0.0,0.0,0.0,0.0,0.0,0.0,0.0,0.0,0.0,0.0,0.0,0.0,0.0,0.0,0.0,0.0,0.0,0.0,0.0,0.0,0.0,0.0,0.0,0.0,0.0,0.0,0.0,0.0,0.0,0.0,0.0,0.0,0.0,0.0,0.0,0.0,0.0,0.0,0.0,0.0,0.0,0.0,0.0,0.0,0.0,0.0,0.0,0.0,0.0,0.0,0.0,0.0,0.0,0.0,0.0,0.0,0.0,0.0,0.0,0.0,0.0
1783390666.431747,0.7337237000465393,0.6269292235374451,-3.681420253087708e-07,0.6917788982391357,0.6021857261657715,-0.02062712050974369,0.6489568948745728,0.5395182371139526,-0.027228355407714844,0.6325846314430237,0.4619191586971283,-0.034541983157396317,0.6525205373764038,0.4048243761062622,-0.03558574244379997,0.6488329768180847,0.44617965817451477,0.01367415115237236,0.6388396620750427,0.3941606283187866,-0.012359901331365108,0.6525130271911621,0.4570312798023224,-0.023924607783555984,0.6571933627128601,0.4669187366962433,-0.027516277506947517,0.6761502027511597,0.43421483039855957,0.013962212018668652,0.6701456904411316,0.3864251673221588,-0.01256854459643364,0.6807702779769897,0.47007644176483154,-0.01475558616220951,0.678612470626831,0.4650290608406067,-0.007703858427703381,0.7050517797470093,0.4324271082878113,0.006781258154660463,0.7022751569747925,0.38825473189353943,-0.02091488242149353,0.707237720489502,0.4667380154132843,-0.01247358974069357,0.705415666103363,0.46546486020088196,0.0020283684134483337,0.7353954911231995,0.4345147907733917,-0.002816359745338559,0.729871392250061,0.40327534079551697,-0.014265982434153557,0.7297106385231018,0.45762214064598083,-0.005462446715682745,0.7295545935630798,0.464348703622818,0.005739051382988691,0.0,0.0,0.0,0.0,0.0,0.0,0.0,0.0,0.0,0.0,0.0,0.0,0.0,0.0,0.0,0.0,0.0,0.0,0.0,0.0,0.0,0.0,0.0,0.0,0.0,0.0,0.0,0.0,0.0,0.0,0.0,0.0,0.0,0.0,0.0,0.0,0.0,0.0,0.0,0.0,0.0,0.0,0.0,0.0,0.0,0.0,0.0,0.0,0.0,0.0,0.0,0.0,0.0,0.0,0.0,0.0,0.0,0.0,0.0,0.0,0.0,0.0,0.0
1783390666.570951,0.7343624234199524,0.6260642409324646,-3.664639507405809e-07,0.6926073431968689,0.6020330190658569,-0.020274702459573746,0.6497162580490112,0.5405705571174622,-0.02695663832128048,0.633773684501648,0.4620409607887268,-0.034395623952150345,0.653297483921051,0.40484604239463806,-0.03575026988983154,0.6489121317863464,0.446684867143631,0.012595023959875107,0.6386393904685974,0.3932119905948639,-0.013051507994532585,0.6521533727645874,0.4558154344558716,-0.0244209636002779,0.6570702195167542,0.46719226241111755,-0.028064750134944916,0.6762762069702148,0.43428194522857666,0.012648222036659718,0.6707825660705566,0.38572463393211365,-0.01364965457469225,0.6808657646179199,0.46865513920783997,-0.016140589490532875,0.678467869758606,0.4651588201522827,-0.009521718136966228,0.7050775289535522,0.43215513229370117,0.005482042673975229,0.7033669948577881,0.38809260725975037,-0.021876953542232513,0.7077617645263672,0.46598365902900696,-0.013740681111812592,0.7055745124816895,0.465597927570343,0.00032789469696581364,0.7354247570037842,0.43452391028404236,-0.0040581184439361095,0.7309160828590393,0.40399816632270813,-0.01565978117287159,0.73077791929245,0.4578950107097626,-0.0071418131701648235,0.7303014397621155,0.4649725556373596,0.003790047951042652,0.0,0.0,0.0,0.0,0.0,0.0,0.0,0.0,0.0,0.0,0.0,0.0,0.0,0.0,0.0,0.0,0.0,0.0,0.0,0.0,0.0,0.0,0.0,0.0,0.0,0.0,0.0,0.0,0.0,0.0,0.0,0.0,0.0,0.0,0.0,0.0,0.0,0.0,0.0,0.0,0.0,0.0,0.0,0.0,0.0,0.0,0.0,0.0,0.0,0.0,0.0,0.0,0.0,0.0,0.0,0.0,0.0,0.0,0.0,0.0,0.0,0.0,0.0
1783390666.734687,0.7343736886978149,0.6272129416465759,-3.73163203448712e-07,0.6926382184028625,0.6042048931121826,-0.020464329048991203,0.6497379541397095,0.5419397354125977,-0.027005216106772423,0.6334896683692932,0.4631642699241638,-0.03415139019489288,0.6531431674957275,0.4070886969566345,-0.03522629663348198,0.6487610340118408,0.4489636719226837,0.011653194203972816,0.6377541422843933,0.39556801319122314,-0.01378889475017786,0.6516485810279846,0.4582102298736572,-0.025013919919729233,0.6568341255187988,0.46981480717658997,-0.028730738908052444,0.6759898066520691,0.43588870763778687,0.011787354946136475,0.6697823405265808,0.3871023952960968,-0.014732345938682556,0.6806104183197021,0.47034764289855957,-0.01720200665295124,0.6787713170051575,0.4682820737361908,-0.01055856142193079,0.7048646807670593,0.4333408772945404,0.004813527222722769,0.7025123834609985,0.38869205117225647,-0.022456755861639977,0.7075148224830627,0.4669746458530426,-0.013930467888712883,0.7056041359901428,0.4675602316856384,0.00033188617089763284,0.7353854775428772,0.4355515241622925,-0.004578449297696352,0.7303974628448486,0.4059891402721405,-0.016223758459091187,0.730771005153656,0.4597577452659607,-0.007617569994181395,0.7304840683937073,0.46625158190727234,0.0033258881885558367,0.0,0.0,0.0,0.0,0.0,0.0,0.0,0.0,0.0,0.0,0.0,0.0,0.0,0.0,0.0,0.0,0.0,0.0,0.0,0.0,0.0,0.0,0.0,0.0,0.0,0.0,0.0,0.0,0.0,0.0,0.0,0.0,0.0,0.0,0.0,0.0,0.0,0.0,0.0,0.0,0.0,0.0,0.0,0.0,0.0,0.0,0.0,0.0,0.0,0.0,0.0,0.0,0.0,0.0,0.0,0.0,0.0,0.0,0.0,0.0,0.0,0.0,0.0
1783390666.86831,0.7329368591308594,0.624725878238678,-3.5497498629410984e-07,0.6912514567375183,0.6011586785316467,-0.021593594923615456,0.6493966579437256,0.5407083034515381,-0.029640845954418182,0.6330664157867432,0.4631080627441406,-0.03822348639369011,0.6508188843727112,0.4038439393043518,-0.04073334112763405,0.6473855376243591,0.44682490825653076,0.010764067992568016,0.6370181441307068,0.39289969205856323,-0.016381993889808655,0.6511576175689697,0.455849289894104,-0.02858528308570385,0.6566904187202454,0.46701619029045105,-0.032522909343242645,0.6750755310058594,0.4342784881591797,0.011243036016821861,0.6691418886184692,0.38493460416793823,-0.01643257588148117,0.6797663569450378,0.46850666403770447,-0.019387586042284966,0.6775851845741272,0.4647256135940552,-0.012814708054065704,0.7040514945983887,0.43191438913345337,0.004379237070679665,0.7017868161201477,0.38766393065452576,-0.024266842752695084,0.7066094279289246,0.4665834903717041,-0.01615413837134838,0.7046020030975342,0.4654812216758728,-0.0017612561350688338,0.7341761589050293,0.43334296345710754,-0.004884160589426756,0.729127049446106,0.40312647819519043,-0.017080051824450493,0.7293456196784973,0.45779189467430115,-0.008421082980930805,0.7292328476905823,0.46452534198760986,0.002771049505099654,0.0,0.0,0.0,0.0,0.0,0.0,0.0,0.0,0.0,0.0,0.0,0.0,0.0,0.0,0.0,0.0,0.0,0.0,0.0,0.0,0.0,0.0,0.0,0.0,0.0,0.0,0.0,0.0,0.0,0.0,0.0,0.0,0.0,0.0,0.0,0.0,0.0,0.0,0.0,0.0,0.0,0.0,0.0,0.0,0.0,0.0,0.0,0.0,0.0,0.0,0.0,0.0,0.0,0.0,0.0,0.0,0.0,0.0,0.0,0.0,0.0,0.0,0.0
1783390667.0556118,0.7327528595924377,0.6244612336158752,-3.5302846868034976e-07,0.6912664771080017,0.6001695394515991,-0.021417934447526932,0.6494096517562866,0.5385916233062744,-0.028934724628925323,0.6330640316009521,0.4613988697528839,-0.037112388759851456,0.6506078839302063,0.4024597406387329,-0.039233218878507614,0.6477395296096802,0.44488441944122314,0.012278901413083076,0.6376349329948425,0.3916259706020355,-0.01419884618371725,0.6513550877571106,0.4528871178627014,-0.026126671582460403,0.6568754315376282,0.4649147391319275,-0.029887111857533455,0.6748803853988647,0.43230217695236206,0.012775245122611523,0.6691746711730957,0.38331180810928345,-0.01449991762638092,0.6796464920043945,0.4664802849292755,-0.017312441021203995,0.6777368187904358,0.46327176690101624,-0.010581291280686855,0.7036892175674438,0.4303879737854004,0.005849422886967659,0.7019475102424622,0.3861401379108429,-0.02266216278076172,0.7062923908233643,0.464584082365036,-0.014588064514100552,0.7040737867355347,0.4646965563297272,-0.00017488702724222094,0.7338375449180603,0.4329895079135895,-0.00350163783878088,0.729313313961029,0.40217700600624084,-0.015886101871728897,0.72902512550354,0.45628395676612854,-0.007413724437355995,0.7283823490142822,0.4634726941585541,0.003713369369506836,0.0,0.0,0.0,0.0,0.0,0.0,0.0,0.0,0.0,0.0,0.0,0.0,0.0,0.0,0.0,0.0,0.0,0.0,0.0,0.0,0.0,0.0,0.0,0.0,0.0,0.0,0.0,0.0,0.0,0.0,0.0,0.0,0.0,0.0,0.0,0.0,0.0,0.0,0.0,0.0,0.0,0.0,0.0,0.0,0.0,0.0,0.0,0.0,0.0,0.0,0.0,0.0,0.0,0.0,0.0,0.0,0.0,0.0,0.0,0.0,0.0,0.0,0.0
1783390667.286419,0.7332409024238586,0.6242973208427429,-3.474749235010677e-07,0.6916319131851196,0.5992555618286133,-0.02106439135968685,0.6495665907859802,0.5370636582374573,-0.028567064553499222,0.6335780620574951,0.45878010988235474,-0.036937907338142395,0.652742862701416,0.4019390046596527,-0.03928280994296074,0.6490299701690674,0.44279953837394714,0.013417210429906845,0.6391009092330933,0.39069682359695435,-0.012858257628977299,0.6522579789161682,0.4513498544692993,-0.024596067145466805,0.6579137444496155,0.462058424949646,-0.02822188287973404,0.6761729121208191,0.430742084980011,0.013683647848665714,0.6705320477485657,0.3826192021369934,-0.013085116632282734,0.680213212966919,0.46589985489845276,-0.015369266271591187,0.6781980395317078,0.4606437683105469,-0.008281582966446877,0.7047136425971985,0.42913615703582764,0.006410997826606035,0.7028259634971619,0.3848121464252472,-0.021487237885594368,0.7065498232841492,0.4628121554851532,-0.01323489099740982,0.7046293616294861,0.46177801489830017,0.0011783628724515438,0.7346494197845459,0.4320356547832489,-0.003350303042680025,0.7302972674369812,0.4010179042816162,-0.015079610049724579,0.7293916344642639,0.4545959234237671,-0.00658841198310256,0.7288968563079834,0.4612988233566284,0.004429188556969166,0.0,0.0,0.0,0.0,0.0,0.0,0.0,0.0,0.0,0.0,0.0,0.0,0.0,0.0,0.0,0.0,0.0,0.0,0.0,0.0,0.0,0.0,0.0,0.0,0.0,0.0,0.0,0.0,0.0,0.0,0.0,0.0,0.0,0.0,0.0,0.0,0.0,0.0,0.0,0.0,0.0,0.0,0.0,0.0,0.0,0.0,0.0,0.0,0.0,0.0,0.0,0.0,0.0,0.0,0.0,0.0,0.0,0.0,0.0,0.0,0.0,0.0,0.0
1783390667.47696,0.7337340712547302,0.620347261428833,-3.591088386656338e-07,0.6924604773521423,0.596561074256897,-0.021097153425216675,0.649868369102478,0.5333160758018494,-0.028524475172162056,0.6338286399841309,0.45386597514152527,-0.03671455755829811,0.6544641256332397,0.3980712890625,-0.03877880796790123,0.6489084362983704,0.43891215324401855,0.01247452199459076,0.6394228935241699,0.38703039288520813,-0.013989217579364777,0.6529517769813538,0.4495896100997925,-0.025524895638227463,0.6574995517730713,0.4589885175228119,-0.02912556566298008,0.6764316558837891,0.426969438791275,0.012593944557011127,0.6711163520812988,0.3787551522254944,-0.014461606740951538,0.6809369325637817,0.46363702416419983,-0.01658995822072029,0.6775651574134827,0.457807719707489,-0.009359216317534447,0.7052329778671265,0.4253390431404114,0.005235034506767988,0.7038999795913696,0.38190463185310364,-0.023006949573755264,0.7078980207443237,0.4611636996269226,-0.014724806882441044,0.7050173282623291,0.4588688910007477,-0.00026678762515075505,0.7353866100311279,0.42761924862861633,-0.004574492573738098,0.7315078973770142,0.3977612555027008,-0.016424687579274178,0.7309000492095947,0.4522830843925476,-0.0078843729570508,0.7297974228858948,0.45859667658805847,0.0031324324663728476,0.0,0.0,0.0,0.0,0.0,0.0,0.0,0.0,0.0,0.0,0.0,0.0,0.0,0.0,0.0,0.0,0.0,0.0,0.0,0.0,0.0,0.0,0.0,0.0,0.0,0.0,0.0,0.0,0.0,0.0,0.0,0.0,0.0,0.0,0.0,0.0,0.0,0.0,0.0,0.0,0.0,0.0,0.0,0.0,0.0,0.0,0.0,0.0,0.0,0.0,0.0,0.0,0.0,0.0,0.0,0.0,0.0,0.0,0.0,0.0,0.0,0.0,0.0
1783390667.633125,0.7340118885040283,0.6189994215965271,-3.573326239347807e-07,0.6917675137519836,0.5945441126823425,-0.02041691355407238,0.6500824093818665,0.5334278345108032,-0.02747623436152935,0.6349827647209167,0.45557159185409546,-0.03528081253170967,0.6538029909133911,0.3986896872520447,-0.03706086426973343,0.6496564745903015,0.4408954381942749,0.012418655678629875,0.6391919255256653,0.38702842593193054,-0.01399120781570673,0.6529037952423096,0.44859009981155396,-0.026006082072854042,0.6586004495620728,0.4605499505996704,-0.029865147545933723,0.6770015358924866,0.4282584488391876,0.012418833561241627,0.670875608921051,0.3787643015384674,-0.014787725172936916,0.6813012957572937,0.4615176320075989,-0.01780123822391033,0.6795936822891235,0.45868030190467834,-0.01123919989913702,0.7056961059570312,0.42563045024871826,0.005159406457096338,0.7033176422119141,0.38170331716537476,-0.022801406681537628,0.7080088257789612,0.45934486389160156,-0.014662859961390495,0.7062458992004395,0.4588017463684082,-0.00033282054937444627,0.7358371019363403,0.427386999130249,-0.004478807561099529,0.73074871301651,0.39781519770622253,-0.01614321768283844,0.7308163046836853,0.4513516128063202,-0.007356308400630951,0.7307337522506714,0.45777085423469543,0.0038622827269136906,0.0,0.0,0.0,0.0,0.0,0.0,0.0,0.0,0.0,0.0,0.0,0.0,0.0,0.0,0.0,0.0,0.0,0.0,0.0,0.0,0.0,0.0,0.0,0.0,0.0,0.0,0.0,0.0,0.0,0.0,0.0,0.0,0.0,0.0,0.0,0.0,0.0,0.0,0.0,0.0,0.0,0.0,0.0,0.0,0.0,0.0,0.0,0.0,0.0,0.0,0.0,0.0,0.0,0.0,0.0,0.0,0.0,0.0,0.0,0.0,0.0,0.0,0.0
1783390667.767434,0.7297211289405823,0.631592869758606,-3.8497125842695823e-07,0.6888267397880554,0.6135700941085815,-0.021395273506641388,0.6439407467842102,0.5455708503723145,-0.02693065255880356,0.628197968006134,0.4647808074951172,-0.03257198631763458,0.6493434906005859,0.4116974472999573,-0.03172236680984497,0.6432970762252808,0.4531463384628296,0.009469518437981606,0.6307636499404907,0.39982983469963074,-0.014431334100663662,0.6454296112060547,0.46347567439079285,-0.023861898109316826,0.6501049995422363,0.4709188938140869,-0.026926390826702118,0.6707227230072021,0.4384538233280182,0.010098401457071304,0.665692150592804,0.38969194889068604,-0.015352634713053703,0.6767745614051819,0.4730304479598999,-0.01619095169007778,0.6743046641349792,0.46891674399375916,-0.008773482404649258,0.6996220946311951,0.43622368574142456,0.0036589140072464943,0.6972816586494446,0.39198413491249084,-0.02209612727165222,0.702897310256958,0.469908207654953,-0.012133773416280746,0.701002836227417,0.4675980806350708,0.002463008277118206,0.7304583191871643,0.43833476305007935,-0.005481567699462175,0.7254661917686462,0.4101104140281677,-0.01618042215704918,0.726479172706604,0.4630926251411438,-0.007272024638950825,0.7264197468757629,0.46727970242500305,0.003427706891670823,0.0,0.0,0.0,0.0,0.0,0.0,0.0,0.0,0.0,0.0,0.0,0.0,0.0,0.0,0.0,0.0,0.0,0.0,0.0,0.0,0.0,0.0,0.0,0.0,0.0,0.0,0.0,0.0,0.0,0.0,0.0,0.0,0.0,0.0,0.0,0.0,0.0,0.0,0.0,0.0,0.0,0.0,0.0,0.0,0.0,0.0,0.0,0.0,0.0,0.0,0.0,0.0,0.0,0.0,0.0,0.0,0.0,0.0,0.0,0.0,0.0,0.0,0.0
1783390667.901772,0.7261467576026917,0.631547212600708,-3.5988924196317384e-07,0.6842009425163269,0.6084606647491455,-0.02158367447555065,0.6419373750686646,0.5492965579032898,-0.02988460287451744,0.624756932258606,0.47275325655937195,-0.03869925066828728,0.6426411867141724,0.4157705307006836,-0.04141468554735184,0.6391060948371887,0.45516517758369446,0.009301433339715004,0.6277942061424255,0.3999868333339691,-0.017415931448340416,0.6421152353286743,0.46271246671676636,-0.028998853638768196,0.6472806930541992,0.4752059280872345,-0.032594360411167145,0.6669993996620178,0.44132116436958313,0.009535001590847969,0.6607187986373901,0.39202749729156494,-0.018222888931632042,0.6723431944847107,0.47557151317596436,-0.020829642191529274,0.6701104044914246,0.4744052588939667,-0.013969815336167812,0.6962738633155823,0.43833985924720764,0.00265479669906199,0.6930928230285645,0.39506566524505615,-0.025743793696165085,0.6994727849960327,0.47379571199417114,-0.01679191179573536,0.6976974606513977,0.4749024212360382,-0.001821773941628635,0.7265562415122986,0.44091251492500305,-0.006660872139036655,0.7208718657493591,0.4121549427509308,-0.018812650814652443,0.7223387956619263,0.4659639894962311,-0.009703394956886768,0.7225365042686462,0.4731215238571167,0.0018443743465468287,0.0,0.0,0.0,0.0,0.0,0.0,0.0,0.0,0.0,0.0,0.0,0.0,0.0,0.0,0.0,0.0,0.0,0.0,0.0,0.0,0.0,0.0,0.0,0.0,0.0,0.0,0.0,0.0,0.0,0.0,0.0,0.0,0.0,0.0,0.0,0.0,0.0,0.0,0.0,0.0,0.0,0.0,0.0,0.0,0.0,0.0,0.0,0.0,0.0,0.0,0.0,0.0,0.0,0.0,0.0,0.0,0.0,0.0,0.0,0.0,0.0,0.0,0.0
1783390668.065505,0.7245720624923706,0.626221239566803,-3.6093894095756696e-07,0.6821219325065613,0.6034637689590454,-0.02030906267464161,0.6385536789894104,0.5397266745567322,-0.02774510160088539,0.62137371301651,0.4601137638092041,-0.036178797483444214,0.6430280208587646,0.4066466987133026,-0.0385381244122982,0.6379691958427429,0.44583943486213684,0.012427939102053642,0.6273561120033264,0.3930054306983948,-0.014717341400682926,0.641285240650177,0.45704492926597595,-0.026759477332234383,0.6466031670570374,0.46934396028518677,-0.03051813319325447,0.6659786701202393,0.43406370282173157,0.011930547654628754,0.6585499048233032,0.38471850752830505,-0.015499426983296871,0.669421374797821,0.4689303934574127,-0.01788657158613205,0.6678472757339478,0.464508593082428,-0.010727872140705585,0.6953699588775635,0.4325374662876129,0.00407732417806983,0.6912454962730408,0.388385146856308,-0.02383415214717388,0.6964932680130005,0.4669056832790375,-0.01490737497806549,0.6956565380096436,0.4648594856262207,1.0062356523121707e-05,0.7262028455734253,0.43425512313842773,-0.0062047019600868225,0.7196745872497559,0.4032100737094879,-0.017295653000473976,0.7199206352233887,0.4574073851108551,-0.007825447246432304,0.7207813262939453,0.46402090787887573,0.003822977188974619,0.0,0.0,0.0,0.0,0.0,0.0,0.0,0.0,0.0,0.0,0.0,0.0,0.0,0.0,0.0,0.0,0.0,0.0,0.0,0.0,0.0,0.0,0.0,0.0,0.0,0.0,0.0,0.0,0.0,0.0,0.0,0.0,0.0,0.0,0.0,0.0,0.0,0.0,0.0,0.0,0.0,0.0,0.0,0.0,0.0,0.0,0.0,0.0,0.0,0.0,0.0,0.0,0.0,0.0,0.0,0.0,0.0,0.0,0.0,0.0,0.0,0.0,0.0
1783390668.2396219,0.7321919202804565,0.6271396279335022,-3.972828324094735e-07,0.6886346340179443,0.6031624674797058,-0.020080409944057465,0.6441786885261536,0.5395427346229553,-0.02549763210117817,0.6288716197013855,0.46221476793289185,-0.031433090567588806,0.6509351134300232,0.40865543484687805,-0.030980344861745834,0.6454772353172302,0.44385024905204773,0.013000662438571453,0.6346863508224487,0.3919565975666046,-0.01231371145695448,0.6491982340812683,0.4590091109275818,-0.023891163989901543,0.6534075736999512,0.4675753116607666,-0.02805066667497158,0.6726728081703186,0.432575523853302,0.013049812987446785,0.6659761667251587,0.3840230107307434,-0.013840857893228531,0.6769193410873413,0.46643102169036865,-0.01715174689888954,0.6754029989242554,0.46225711703300476,-0.011206362396478653,0.7014831900596619,0.43163079023361206,0.005935758352279663,0.6980224847793579,0.3871223032474518,-0.021287376061081886,0.7030177116394043,0.46503177285194397,-0.013624217361211777,0.7012078762054443,0.4633084833621979,-2.8400194423738867e-05,0.7324329018592834,0.4339650273323059,-0.0035534058697521687,0.7259877920150757,0.4028305113315582,-0.014155476354062557,0.7259714603424072,0.4569793939590454,-0.0055386037565767765,0.7261481285095215,0.46232953667640686,0.005107129458338022,0.0,0.0,0.0,0.0,0.0,0.0,0.0,0.0,0.0,0.0,0.0,0.0,0.0,0.0,0.0,0.0,0.0,0.0,0.0,0.0,0.0,0.0,0.0,0.0,0.0,0.0,0.0,0.0,0.0,0.0,0.0,0.0,0.0,0.0,0.0,0.0,0.0,0.0,0.0,0.0,0.0,0.0,0.0,0.0,0.0,0.0,0.0,0.0,0.0,0.0,0.0,0.0,0.0,0.0,0.0,0.0,0.0,0.0,0.0,0.0,0.0,0.0,0.0
1783390668.402029,0.7343927025794983,0.6292102336883545,-3.784655007166293e-07,0.6915242671966553,0.6042275428771973,-0.02110610157251358,0.6477007865905762,0.5423446893692017,-0.027566365897655487,0.6315297484397888,0.4644978642463684,-0.03455186262726784,0.6528248190879822,0.4099045693874359,-0.035202477127313614,0.6493483185768127,0.44708338379859924,0.0119212307035923,0.6364802122116089,0.3959665596485138,-0.013613542541861534,0.6516062021255493,0.45974498987197876,-0.02485569566488266,0.6578370332717896,0.4674282968044281,-0.028658254072070122,0.6763111352920532,0.4350987374782562,0.012154797092080116,0.6691041588783264,0.3872033655643463,-0.01482312846928835,0.6799798011779785,0.4706547260284424,-0.01713304966688156,0.6790688633918762,0.4650175869464874,-0.010289494879543781,0.7047354578971863,0.4340801239013672,0.005037863738834858,0.7017796635627747,0.39041370153427124,-0.022581912577152252,0.7061564922332764,0.46885553002357483,-0.014253543689846992,0.7047588229179382,0.46615704894065857,-1.10296987259062e-05,0.7351419925689697,0.43722718954086304,-0.004613832104951143,0.7296737432479858,0.40735921263694763,-0.015802230685949326,0.7289450168609619,0.461054265499115,-0.007243194617331028,0.7289552688598633,0.46601203083992004,0.0035549639724195004,0.0,0.0,0.0,0.0,0.0,0.0,0.0,0.0,0.0,0.0,0.0,0.0,0.0,0.0,0.0,0.0,0.0,0.0,0.0,0.0,0.0,0.0,0.0,0.0,0.0,0.0,0.0,0.0,0.0,0.0,0.0,0.0,0.0,0.0,0.0,0.0,0.0,0.0,0.0,0.0,0.0,0.0,0.0,0.0,0.0,0.0,0.0,0.0,0.0,0.0,0.0,0.0,0.0,0.0,0.0,0.0,0.0,0.0,0.0,0.0,0.0,0.0,0.0
1783390668.528548,0.7324985265731812,0.6260731220245361,-3.5272248055662203e-07,0.6907768845558167,0.6022104024887085,-0.021654978394508362,0.6478533148765564,0.5396478772163391,-0.02989344485104084,0.6309613585472107,0.4600432217121124,-0.03884980082511902,0.6526301503181458,0.40470635890960693,-0.041734665632247925,0.6474617123603821,0.4445357620716095,0.011593418195843697,0.6376378536224365,0.3908853530883789,-0.01577754318714142,0.6508455872535706,0.4541637599468231,-0.027741720899939537,0.6559067368507385,0.4652778208255768,-0.03134367987513542,0.6752199530601501,0.43296390771865845,0.011919813230633736,0.6690658330917358,0.38397976756095886,-0.015699340030550957,0.6791033744812012,0.46859046816825867,-0.017759591341018677,0.6768469214439392,0.46306705474853516,-0.010273776948451996,0.704219400882721,0.43151745200157166,0.004694278351962566,0.7011759281158447,0.38795602321624756,-0.023778874427080154,0.705507755279541,0.4671105146408081,-0.01528389286249876,0.703898549079895,0.46459436416625977,-0.0004926308174617589,0.7345192432403564,0.433674693107605,-0.0050048609264194965,0.7286688685417175,0.4036252200603485,-0.016541151329874992,0.7285277843475342,0.45809876918792725,-0.007586979307234287,0.7289418578147888,0.46409082412719727,0.003791211871430278,0.0,0.0,0.0,0.0,0.0,0.0,0.0,0.0,0.0,0.0,0.0,0.0,0.0,0.0,0.0,0.0,0.0,0.0,0.0,0.0,0.0,0.0,0.0,0.0,0.0,0.0,0.0,0.0,0.0,0.0,0.0,0.0,0.0,0.0,0.0,0.0,0.0,0.0,0.0,0.0,0.0,0.0,0.0,0.0,0.0,0.0,0.0,0.0,0.0,0.0,0.0,0.0,0.0,0.0,0.0,0.0,0.0,0.0,0.0,0.0,0.0,0.0,0.0
1783390668.6950521,0.7322506904602051,0.6231677532196045,-3.6651388768405013e-07,0.6903855204582214,0.5979510545730591,-0.019944658502936363,0.6482589244842529,0.5359950065612793,-0.026723692193627357,0.6333838105201721,0.4579387605190277,-0.03439043089747429,0.6542030572891235,0.40351152420043945,-0.03601619228720665,0.6487533450126648,0.4429768919944763,0.012122830376029015,0.6376473307609558,0.39014729857444763,-0.013960465788841248,0.6512957811355591,0.4527307152748108,-0.025490736588835716,0.6569707989692688,0.4625195264816284,-0.02920081466436386,0.6760263442993164,0.4317285418510437,0.011824455112218857,0.6696330904960632,0.3827725946903229,-0.014839686453342438,0.6792348623275757,0.4664086103439331,-0.017042968422174454,0.6775587201118469,0.46127787232398987,-0.010199149139225483,0.7045829892158508,0.430382639169693,0.004311189521104097,0.7019251585006714,0.3851594924926758,-0.023285679519176483,0.7057925462722778,0.4642045795917511,-0.014576953835785389,0.7045124173164368,0.46313002705574036,-7.451810961356387e-05,0.7346053719520569,0.4331118166446686,-0.005595831666141748,0.7293325066566467,0.4017975330352783,-0.016948234289884567,0.728467583656311,0.4560331404209137,-0.007932079955935478,0.7285360097885132,0.4626704752445221,0.003292110515758395,0.0,0.0,0.0,0.0,0.0,0.0,0.0,0.0,0.0,0.0,0.0,0.0,0.0,0.0,0.0,0.0,0.0,0.0,0.0,0.0,0.0,0.0,0.0,0.0,0.0,0.0,0.0,0.0,0.0,0.0,0.0,0.0,0.0,0.0,0.0,0.0,0.0,0.0,0.0,0.0,0.0,0.0,0.0,0.0,0.0,0.0,0.0,0.0,0.0,0.0,0.0,0.0,0.0,0.0,0.0,0.0,0.0,0.0,0.0,0.0,0.0,0.0,0.0
1783390668.837482,0.732626736164093,0.6217566728591919,-3.690537937472982e-07,0.6910662055015564,0.5991801619529724,-0.02073044516146183,0.6481696367263794,0.5375490188598633,-0.027620691806077957,0.6326483488082886,0.4595201015472412,-0.03503568097949028,0.652671217918396,0.40376660227775574,-0.03639333322644234,0.6482795476913452,0.4428997039794922,0.010963854379951954,0.6379997730255127,0.38961610198020935,-0.01472494751214981,0.6514581441879272,0.45355069637298584,-0.026175163686275482,0.6564235091209412,0.4644888639450073,-0.030069081112742424,0.6754181385040283,0.43118709325790405,0.01107106264680624,0.6696879267692566,0.38220298290252686,-0.01573520340025425,0.6796491146087646,0.4656054675579071,-0.018466642126441002,0.6777954697608948,0.46251779794692993,-0.012036334723234177,0.7040852904319763,0.4297787845134735,0.00406547449529171,0.7020752429962158,0.38509848713874817,-0.023628950119018555,0.7063432931900024,0.46383926272392273,-0.015461120754480362,0.7043880224227905,0.463541716337204,-0.0014018802903592587,0.7343602180480957,0.4325098693370819,-0.0053176130168139935,0.7293589115142822,0.40217283368110657,-0.017147602513432503,0.7292015552520752,0.4564565420150757,-0.008588919416069984,0.7288947701454163,0.46294966340065,0.0022940568160265684,0.0,0.0,0.0,0.0,0.0,0.0,0.0,0.0,0.0,0.0,0.0,0.0,0.0,0.0,0.0,0.0,0.0,0.0,0.0,0.0,0.0,0.0,0.0,0.0,0.0,0.0,0.0,0.0,0.0,0.0,0.0,0.0,0.0,0.0,0.0,0.0,0.0,0.0,0.0,0.0,0.0,0.0,0.0,0.0,0.0,0.0,0.0,0.0,0.0,0.0,0.0,0.0,0.0,0.0,0.0,0.0,0.0,0.0,0.0,0.0,0.0,0.0,0.0
1783390668.968914,0.7320761680603027,0.6229749321937561,-3.5793198094324907e-07,0.6904168725013733,0.5997464656829834,-0.020822742953896523,0.6480460166931152,0.539056122303009,-0.028172692283988,0.6320630311965942,0.46180039644241333,-0.03609338775277138,0.6515424251556396,0.40693530440330505,-0.03807119280099869,0.6476807594299316,0.4443984627723694,0.010577674023807049,0.6370301246643066,0.3914080560207367,-0.015579338185489178,0.6510189771652222,0.45343348383903503,-0.027451680973172188,0.656665027141571,0.4661749601364136,-0.03139447793364525,0.6747422218322754,0.43190377950668335,0.010684993118047714,0.6680836081504822,0.3835829496383667,-0.0164052601903677,0.6789892315864563,0.4661712050437927,-0.019157467409968376,0.6780734062194824,0.4648045301437378,-0.012528345920145512,0.7034811973571777,0.4301425516605377,0.0036688423715531826,0.7006247639656067,0.3861565887928009,-0.023971369490027428,0.7054231762886047,0.4637051522731781,-0.015673266723752022,0.7039429545402527,0.46442529559135437,-0.0013805904891341925,0.7337337136268616,0.433331698179245,-0.005763707682490349,0.7282415628433228,0.4041726887226105,-0.017491750419139862,0.7283737659454346,0.45710447430610657,-0.008907274343073368,0.7282958030700684,0.46319088339805603,0.002100766636431217,0.0,0.0,0.0,0.0,0.0,0.0,0.0,0.0,0.0,0.0,0.0,0.0,0.0,0.0,0.0,0.0,0.0,0.0,0.0,0.0,0.0,0.0,0.0,0.0,0.0,0.0,0.0,0.0,0.0,0.0,0.0,0.0,0.0,0.0,0.0,0.0,0.0,0.0,0.0,0.0,0.0,0.0,0.0,0.0,0.0,0.0,0.0,0.0,0.0,0.0,0.0,0.0,0.0,0.0,0.0,0.0,0.0,0.0,0.0,0.0,0.0,0.0,0.0
1783390669.102802,0.7325040698051453,0.6229191422462463,-3.5794212749351573e-07,0.691018283367157,0.5994812250137329,-0.021322039887309074,0.6480871438980103,0.5380125045776367,-0.02863718755543232,0.6323980093002319,0.46033138036727905,-0.03652322292327881,0.6520338654518127,0.40437912940979004,-0.03828511759638786,0.6479039192199707,0.4422410726547241,0.011446237564086914,0.6376936435699463,0.3906364142894745,-0.014719787985086441,0.6510441303253174,0.45282119512557983,-0.026234064251184464,0.6561965942382812,0.4632064998149872,-0.029883336275815964,0.6750850081443787,0.43086570501327515,0.011831425130367279,0.6693540215492249,0.3834713101387024,-0.015015065670013428,0.6792328357696533,0.4671538174152374,-0.017180081456899643,0.6771401166915894,0.4617786407470703,-0.010137917473912239,0.7036917805671692,0.42961132526397705,0.004823444411158562,0.701752245426178,0.3864505887031555,-0.023119060322642326,0.7056567072868347,0.46491649746894836,-0.014776676893234253,0.7035310864448547,0.4633614718914032,-0.00039975246181711555,0.7337244749069214,0.43252599239349365,-0.004661260172724724,0.7289447784423828,0.4033045470714569,-0.016614357009530067,0.7283303141593933,0.45706906914711,-0.008184444159269333,0.7278570532798767,0.46277081966400146,0.002754588844254613,0.0,0.0,0.0,0.0,0.0,0.0,0.0,0.0,0.0,0.0,0.0,0.0,0.0,0.0,0.0,0.0,0.0,0.0,0.0,0.0,0.0,0.0,0.0,0.0,0.0,0.0,0.0,0.0,0.0,0.0,0.0,0.0,0.0,0.0,0.0,0.0,0.0,0.0,0.0,0.0,0.0,0.0,0.0,0.0,0.0,0.0,0.0,0.0,0.0,0.0,0.0,0.0,0.0,0.0,0.0,0.0,0.0,0.0,0.0,0.0,0.0,0.0,0.0
1783390669.269311,0.734289824962616,0.6236568689346313,-3.645170068011794e-07,0.6924886107444763,0.6000096201896667,-0.02050066366791725,0.6489260196685791,0.5368944406509399,-0.026716655120253563,0.6333913803100586,0.4583970606327057,-0.033627092838287354,0.6547063589096069,0.40418797731399536,-0.03435913100838661,0.6494465470314026,0.4426696300506592,0.013080567121505737,0.6388769745826721,0.39090582728385925,-0.012391151860356331,0.6521902084350586,0.4528824985027313,-0.023654673248529434,0.6572521328926086,0.46329057216644287,-0.027272706851363182,0.6765176057815552,0.4307743310928345,0.013195767067372799,0.6708343029022217,0.38387003540992737,-0.012884282507002354,0.6806485652923584,0.46651074290275574,-0.014956938102841377,0.6785131692886353,0.4613839089870453,-0.008060360327363014,0.7051665782928467,0.42957019805908203,0.005916317459195852,0.7033059000968933,0.38636156916618347,-0.021183978766202927,0.7071950435638428,0.46396905183792114,-0.013027113862335682,0.7048355340957642,0.4624437391757965,0.000940551923122257,0.7354850172996521,0.43280866742134094,-0.0038510640151798725,0.7309948205947876,0.4041421413421631,-0.015276492573320866,0.7302817702293396,0.4573989510536194,-0.007094630505889654,0.7295808792114258,0.4628041684627533,0.0034633204340934753,0.0,0.0,0.0,0.0,0.0,0.0,0.0,0.0,0.0,0.0,0.0,0.0,0.0,0.0,0.0,0.0,0.0,0.0,0.0,0.0,0.0,0.0,0.0,0.0,0.0,0.0,0.0,0.0,0.0,0.0,0.0,0.0,0.0,0.0,0.0,0.0,0.0,0.0,0.0,0.0,0.0,0.0,0.0,0.0,0.0,0.0,0.0,0.0,0.0,0.0,0.0,0.0,0.0,0.0,0.0,0.0,0.0,0.0,0.0,0.0,0.0,0.0,0.0
1783390669.4004962,0.7338001728057861,0.6227958798408508,-3.4656974889912817e-07,0.6924382448196411,0.5982748866081238,-0.02083987556397915,0.6500545740127563,0.5359928011894226,-0.02829025313258171,0.6342521905899048,0.4575095772743225,-0.03663145378232002,0.6541444659233093,0.4013642966747284,-0.03902053460478783,0.6499775052070618,0.44206681847572327,0.012884126976132393,0.6398530006408691,0.3897615671157837,-0.013281848281621933,0.6524378061294556,0.4500770568847656,-0.0246720127761364,0.6582685708999634,0.46161338686943054,-0.028050586581230164,0.6770883202552795,0.42989179491996765,0.012928277254104614,0.6710972785949707,0.3813419044017792,-0.013733217492699623,0.6804818511009216,0.4646644592285156,-0.015583387576043606,0.6790636777877808,0.4598329961299896,-0.008131112903356552,0.7056599259376526,0.4284990429878235,0.005481635220348835,0.7034053802490234,0.38465169072151184,-0.022428782656788826,0.7069907188415527,0.4629421532154083,-0.014027847908437252,0.7054447531700134,0.46170666813850403,0.000532253528945148,0.7357882857322693,0.43135085701942444,-0.004418778698891401,0.7308311462402344,0.4008415937423706,-0.01617971621453762,0.7298622131347656,0.45471417903900146,-0.007596620358526707,0.7296817898750305,0.4612220823764801,0.003499683691188693,0.0,0.0,0.0,0.0,0.0,0.0,0.0,0.0,0.0,0.0,0.0,0.0,0.0,0.0,0.0,0.0,0.0,0.0,0.0,0.0,0.0,0.0,0.0,0.0,0.0,0.0,0.0,0.0,0.0,0.0,0.0,0.0,0.0,0.0,0.0,0.0,0.0,0.0,0.0,0.0,0.0,0.0,0.0,0.0,0.0,0.0,0.0,0.0,0.0,0.0,0.0,0.0,0.0,0.0,0.0,0.0,0.0,0.0,0.0,0.0,0.0,0.0,0.0
1783390669.5360482,0.733366847038269,0.6208084225654602,-3.636048688804294e-07,0.6918851137161255,0.5970043540000916,-0.020999502390623093,0.6498705148696899,0.5355886220932007,-0.028305979445576668,0.6346153020858765,0.45781204104423523,-0.03614204004406929,0.6532473564147949,0.3999968469142914,-0.037803035229444504,0.6485957503318787,0.441346675157547,0.01121534314006567,0.638224184513092,0.38771122694015503,-0.015321224927902222,0.6520489454269409,0.45141518115997314,-0.027414266020059586,0.6571781039237976,0.46138036251068115,-0.03157650679349899,0.676289439201355,0.42918622493743896,0.011418497189879417,0.6706389784812927,0.38013505935668945,-0.01595289818942547,0.680525004863739,0.4638943672180176,-0.019146006554365158,0.6781126260757446,0.4599665403366089,-0.012943671084940434,0.7051131725311279,0.427461713552475,0.004395325668156147,0.7031610608100891,0.38338297605514526,-0.02376233972609043,0.7074500322341919,0.46206310391426086,-0.015592649579048157,0.7054347991943359,0.460704505443573,-0.0013863681815564632,0.7353190183639526,0.4297501742839813,-0.0050336215645074844,0.7305262684822083,0.39975032210350037,-0.017000960186123848,0.7302945256233215,0.4541047513484955,-0.008309027180075645,0.7299376726150513,0.4605388641357422,0.0027830314356833696,0.0,0.0,0.0,0.0,0.0,0.0,0.0,0.0,0.0,0.0,0.0,0.0,0.0,0.0,0.0,0.0,0.0,0.0,0.0,0.0,0.0,0.0,0.0,0.0,0.0,0.0,0.0,0.0,0.0,0.0,0.0,0.0,0.0,0.0,0.0,0.0,0.0,0.0,0.0,0.0,0.0,0.0,0.0,0.0,0.0,0.0,0.0,0.0,0.0,0.0,0.0,0.0,0.0,0.0,0.0,0.0,0.0,0.0,0.0,0.0,0.0,0.0,0.0
1783390669.67117,0.7333857417106628,0.6218262314796448,-3.6216167131897237e-07,0.691512405872345,0.5971793532371521,-0.020925937220454216,0.6493346095085144,0.5351313948631287,-0.02802519127726555,0.6336761116981506,0.4572092890739441,-0.03574991598725319,0.6535477638244629,0.40141761302948,-0.037414927035570145,0.6496289372444153,0.4419485628604889,0.011884398758411407,0.6382244825363159,0.3888116478919983,-0.01381013635545969,0.6515368819236755,0.45263996720314026,-0.025309883058071136,0.657634437084198,0.4637623727321625,-0.029116081073880196,0.6768093109130859,0.42955589294433594,0.01218430232256651,0.6700999140739441,0.3810768723487854,-0.014536114409565926,0.6797378063201904,0.4642088711261749,-0.017167091369628906,0.6790778040885925,0.46096712350845337,-0.010557360015809536,0.7053591012954712,0.42814719676971436,0.005252205301076174,0.702608048915863,0.3833550214767456,-0.022136203944683075,0.7063160538673401,0.46173155307769775,-0.01386068295687437,0.705498993396759,0.4616641104221344,0.00031766548636369407,0.7355183959007263,0.43106207251548767,-0.004136369097977877,0.7301772236824036,0.40099337697029114,-0.015548612922430038,0.7294399738311768,0.45466211438179016,-0.006982660852372646,0.729820191860199,0.4609314501285553,0.003916547168046236,0.0,0.0,0.0,0.0,0.0,0.0,0.0,0.0,0.0,0.0,0.0,0.0,0.0,0.0,0.0,0.0,0.0,0.0,0.0,0.0,0.0,0.0,0.0,0.0,0.0,0.0,0.0,0.0,0.0,0.0,0.0,0.0,0.0,0.0,0.0,0.0,0.0,0.0,0.0,0.0,0.0,0.0,0.0,0.0,0.0,0.0,0.0,0.0,0.0,0.0,0.0,0.0,0.0,0.0,0.0,0.0,0.0,0.0,0.0,0.0,0.0,0.0,0.0
1783390669.8361962,0.7332786917686462,0.6216306090354919,-3.693096459755907e-07,0.691609263420105,0.598171591758728,-0.020680075511336327,0.6495298147201538,0.5356698036193848,-0.027734890580177307,0.6334311962127686,0.4585031569004059,-0.035346753895282745,0.6513428688049316,0.4008137881755829,-0.036835525184869766,0.6484385132789612,0.44185832142829895,0.011354216374456882,0.6377705335617065,0.38765019178390503,-0.014678108505904675,0.6513350605964661,0.45175838470458984,-0.02644142508506775,0.6566980481147766,0.4632039964199066,-0.030393050983548164,0.6758698225021362,0.4292086958885193,0.011584898456931114,0.6694051027297974,0.3803567588329315,-0.015282387845218182,0.6794389486312866,0.4635429084300995,-0.018294483423233032,0.6779577732086182,0.46060702204704285,-0.012015958316624165,0.7047731876373291,0.42736494541168213,0.004699121229350567,0.7017311453819275,0.3836364150047302,-0.02291194535791874,0.706305742263794,0.4620010554790497,-0.014589114114642143,0.7051879167556763,0.461413711309433,-0.0003800948616117239,0.7350882291793823,0.42951804399490356,-0.0045454115606844425,0.7288936972618103,0.399428129196167,-0.016139721497893333,0.7289832830429077,0.45359084010124207,-0.007219070568680763,0.7295859456062317,0.45997846126556396,0.003987400326877832,0.0,0.0,0.0,0.0,0.0,0.0,0.0,0.0,0.0,0.0,0.0,0.0,0.0,0.0,0.0,0.0,0.0,0.0,0.0,0.0,0.0,0.0,0.0,0.0,0.0,0.0,0.0,0.0,0.0,0.0,0.0,0.0,0.0,0.0,0.0,0.0,0.0,0.0,0.0,0.0,0.0,0.0,0.0,0.0,0.0,0.0,0.0,0.0,0.0,0.0,0.0,0.0,0.0,0.0,0.0,0.0,0.0,0.0,0.0,0.0,0.0,0.0,0.0
1783390670.0834088,0.7327808737754822,0.6202793717384338,-3.644756247922487e-07,0.6911042928695679,0.5955561995506287,-0.020673343911767006,0.6490399241447449,0.533635139465332,-0.027848031371831894,0.6330363154411316,0.45636752247810364,-0.03569594770669937,0.6516993641853333,0.3990945816040039,-0.03750351071357727,0.6484135985374451,0.4406340718269348,0.011736581102013588,0.6379587650299072,0.38707390427589417,-0.014149577356874943,0.6513309478759766,0.4499887228012085,-0.02572600170969963,0.6566771864891052,0.4611777663230896,-0.0295688658952713,0.6756623983383179,0.42805546522140503,0.011835642158985138,0.6693671941757202,0.37959572672843933,-0.014947963878512383,0.6793821454048157,0.4623406231403351,-0.017666835337877274,0.6778313517570496,0.45865944027900696,-0.011163298040628433,0.7044209837913513,0.4261345863342285,0.004737435840070248,0.7017428874969482,0.3824336528778076,-0.02291037328541279,0.7061166167259216,0.4601749777793884,-0.01462565828114748,0.7046099901199341,0.4593141973018646,-0.00043845962500199676,0.7346676588058472,0.4285642206668854,-0.004759113769978285,0.7290728092193604,0.39867937564849854,-0.016439776867628098,0.7288351655006409,0.45241591334342957,-0.007743185851722956,0.7289237976074219,0.4588826298713684,0.003282671794295311,0.0,0.0,0.0,0.0,0.0,0.0,0.0,0.0,0.0,0.0,0.0,0.0,0.0,0.0,0.0,0.0,0.0,0.0,0.0,0.0,0.0,0.0,0.0,0.0,0.0,0.0,0.0,0.0,0.0,0.0,0.0,0.0,0.0,0.0,0.0,0.0,0.0,0.0,0.0,0.0,0.0,0.0,0.0,0.0,0.0,0.0,0.0,0.0,0.0,0.0,0.0,0.0,0.0,0.0,0.0,0.0,0.0,0.0,0.0,0.0,0.0,0.0,0.0
1783390670.387696,0.7326496243476868,0.6210183501243591,-3.5205783888159203e-07,0.691139280796051,0.5960801243782043,-0.021021872758865356,0.6488586068153381,0.5333076119422913,-0.028254132717847824,0.6327293515205383,0.4555637836456299,-0.03613990917801857,0.6530190110206604,0.3998655676841736,-0.03797649219632149,0.6483709812164307,0.44009968638420105,0.012542367912828922,0.6382266283035278,0.38698509335517883,-0.013505257666110992,0.6513363122940063,0.4492970407009125,-0.02543226070702076,0.65671306848526,0.4609564244747162,-0.029423026368021965,0.6756430864334106,0.42757731676101685,0.012781337834894657,0.6696991324424744,0.3788961172103882,-0.01418981235474348,0.6795331835746765,0.4613761603832245,-0.017119817435741425,0.678026556968689,0.458396852016449,-0.01054859347641468,0.7043878436088562,0.4261024296283722,0.0056784190237522125,0.7020168900489807,0.38230735063552856,-0.021932972595095634,0.7060521245002747,0.4594457149505615,-0.014039294794201851,0.7043173909187317,0.4589463174343109,1.4801223642280092e-06,0.7347122430801392,0.42896413803100586,-0.0038862971123307943,0.7294611930847168,0.39892682433128357,-0.015320013277232647,0.7289381623268127,0.45215699076652527,-0.006836833897978067,0.7287469506263733,0.4584828317165375,0.004038825631141663,0.0,0.0,0.0,0.0,0.0,0.0,0.0,0.0,0.0,0.0,0.0,0.0,0.0,0.0,0.0,0.0,0.0,0.0,0.0,0.0,0.0,0.0,0.0,0.0,0.0,0.0,0.0,0.0,0.0,0.0,0.0,0.0,0.0,0.0,0.0,0.0,0.0,0.0,0.0,0.0,0.0,0.0,0.0,0.0,0.0,0.0,0.0,0.0,0.0,0.0,0.0,0.0,0.0,0.0,0.0,0.0,0.0,0.0,0.0,0.0,0.0,0.0,0.0
1783390670.544259,0.7334709763526917,0.6227694153785706,-3.6144365367363207e-07,0.6920978426933289,0.598106324672699,-0.020203405991196632,0.6491684913635254,0.5345726013183594,-0.02686472237110138,0.633903980255127,0.4558658003807068,-0.03437885642051697,0.6557806730270386,0.40198227763175964,-0.035974569618701935,0.649631679058075,0.442149817943573,0.012446894310414791,0.6383270025253296,0.39001989364624023,-0.012843343429267406,0.6515419483184814,0.4519381523132324,-0.023992368951439857,0.6577656269073486,0.46253782510757446,-0.027618667110800743,0.6765870451927185,0.42983707785606384,0.01227498333901167,0.6704660654067993,0.3817955255508423,-0.013825630769133568,0.6799572110176086,0.46408629417419434,-0.015873996540904045,0.6788439750671387,0.4604068100452423,-0.008948775939643383,0.7052146196365356,0.4286304712295532,0.004883478861302137,0.7028343677520752,0.3831571340560913,-0.022028904408216476,0.706514835357666,0.4611119031906128,-0.01358435396105051,0.7052590847015381,0.4613712430000305,0.0005543168517760932,0.7356013059616089,0.4322067201137543,-0.004963887855410576,0.7304894924163818,0.4013460874557495,-0.016286730766296387,0.7297086715698242,0.45480480790138245,-0.007795050740242004,0.7298002243041992,0.4612985849380493,0.002967613749206066,0.0,0.0,0.0,0.0,0.0,0.0,0.0,0.0,0.0,0.0,0.0,0.0,0.0,0.0,0.0,0.0,0.0,0.0,0.0,0.0,0.0,0.0,0.0,0.0,0.0,0.0,0.0,0.0,0.0,0.0,0.0,0.0,0.0,0.0,0.0,0.0,0.0,0.0,0.0,0.0,0.0,0.0,0.0,0.0,0.0,0.0,0.0,0.0,0.0,0.0,0.0,0.0,0.0,0.0,0.0,0.0,0.0,0.0,0.0,0.0,0.0,0.0,0.0
1783390670.848772,0.7332297563552856,0.621173620223999,-3.594302881992917e-07,0.6921479105949402,0.5963810086250305,-0.0207554679363966,0.6505227088928223,0.5340045094490051,-0.028066791594028473,0.6349037289619446,0.45678776502609253,-0.036107808351516724,0.6529814600944519,0.3992677330970764,-0.0380706824362278,0.649387538433075,0.4409750699996948,0.011856109835207462,0.6393766403198242,0.3882709741592407,-0.01427336037158966,0.6525126099586487,0.45044955611228943,-0.02575400285422802,0.6577985882759094,0.4608537554740906,-0.02937508001923561,0.6766656041145325,0.4287409484386444,0.011924554593861103,0.6708883047103882,0.3804176449775696,-0.014886869117617607,0.6804247498512268,0.4635004699230194,-0.017317146062850952,0.6783412098884583,0.4584101140499115,-0.010515272617340088,0.7053520083427429,0.42696890234947205,0.004703983664512634,0.7031977772712708,0.38306450843811035,-0.023229410871863365,0.7072152495384216,0.461186021566391,-0.014829490333795547,0.705462634563446,0.45982545614242554,-0.0004561985842883587,0.735388457775116,0.4293920397758484,-0.004929537884891033,0.73048996925354,0.399472177028656,-0.016894575208425522,0.7298949360847473,0.4533146619796753,-0.008250167593359947,0.729665219783783,0.4597240388393402,0.002841569483280182,0.0,0.0,0.0,0.0,0.0,0.0,0.0,0.0,0.0,0.0,0.0,0.0,0.0,0.0,0.0,0.0,0.0,0.0,0.0,0.0,0.0,0.0,0.0,0.0,0.0,0.0,0.0,0.0,0.0,0.0,0.0,0.0,0.0,0.0,0.0,0.0,0.0,0.0,0.0,0.0,0.0,0.0,0.0,0.0,0.0,0.0,0.0,0.0,0.0,0.0,0.0,0.0,0.0,0.0,0.0,0.0,0.0,0.0,0.0,0.0,0.0,0.0,0.0
1783390671.019409,0.7335181832313538,0.6206979751586914,-3.6759024624188896e-07,0.6915571689605713,0.5968066453933716,-0.020007172599434853,0.6498644948005676,0.5354123115539551,-0.02675585448741913,0.6351486444473267,0.45761939883232117,-0.034232184290885925,0.6535959243774414,0.40071532130241394,-0.035692740231752396,0.6489468812942505,0.44179239869117737,0.011993205174803734,0.6381036043167114,0.3879433870315552,-0.01411353051662445,0.6517080068588257,0.45156142115592957,-0.02605471760034561,0.6573227643966675,0.4632580578327179,-0.030034277588129044,0.6764428615570068,0.42981284856796265,0.011877918615937233,0.6704408526420593,0.38047730922698975,-0.015072816982865334,0.6803030371665955,0.4636498987674713,-0.01823512278497219,0.6787204742431641,0.461482435464859,-0.011980295181274414,0.7052066326141357,0.4280566871166229,0.004671390168368816,0.7029005885124207,0.38364943861961365,-0.02299211360514164,0.7072094082832336,0.462109237909317,-0.014922676607966423,0.7057839035987854,0.46235695481300354,-0.0007826552609913051,0.7354106903076172,0.43053051829338074,-0.004855916369706392,0.7303344011306763,0.40029653906822205,-0.0165421050041914,0.7301826477050781,0.4543597400188446,-0.007831386290490627,0.7302806377410889,0.46127626299858093,0.003312767017632723,0.0,0.0,0.0,0.0,0.0,0.0,0.0,0.0,0.0,0.0,0.0,0.0,0.0,0.0,0.0,0.0,0.0,0.0,0.0,0.0,0.0,0.0,0.0,0.0,0.0,0.0,0.0,0.0,0.0,0.0,0.0,0.0,0.0,0.0,0.0,0.0,0.0,0.0,0.0,0.0,0.0,0.0,0.0,0.0,0.0,0.0,0.0,0.0,0.0,0.0,0.0,0.0,0.0,0.0,0.0,0.0,0.0,0.0,0.0,0.0,0.0,0.0,0.0
1783390671.1783612,0.7330055236816406,0.6206418871879578,-3.5990393598694936e-07,0.6918968558311462,0.5953693985939026,-0.020569320768117905,0.6494556665420532,0.5322946310043335,-0.027465052902698517,0.6336241960525513,0.45382168889045715,-0.03510171175003052,0.6551013588905334,0.39953431487083435,-0.0367228165268898,0.6495885848999023,0.44045090675354004,0.012089327909052372,0.6386544108390808,0.3872118890285492,-0.013597317039966583,0.6521110534667969,0.45008811354637146,-0.025011567398905754,0.657669186592102,0.46039506793022156,-0.028772413730621338,0.6768428087234497,0.4284546375274658,0.012140647508203983,0.6704514026641846,0.37941211462020874,-0.01436570007354021,0.6801506280899048,0.4624740183353424,-0.016721544787287712,0.678728461265564,0.45817986130714417,-0.009947136044502258,0.7054358124732971,0.4272201359272003,0.004961773287504911,0.7027638554573059,0.3818281888961792,-0.022357523441314697,0.7067622542381287,0.4600556492805481,-0.013910830952227116,0.705721914768219,0.4594614505767822,0.0003947267250623554,0.7355697154998779,0.430115282535553,-0.004658231046050787,0.7302325963973999,0.3988827168941498,-0.015874840319156647,0.7295480370521545,0.4526461958885193,-0.007059542927891016,0.7297638058662415,0.4595637917518616,0.0039925831370055676,0.0,0.0,0.0,0.0,0.0,0.0,0.0,0.0,0.0,0.0,0.0,0.0,0.0,0.0,0.0,0.0,0.0,0.0,0.0,0.0,0.0,0.0,0.0,0.0,0.0,0.0,0.0,0.0,0.0,0.0,0.0,0.0,0.0,0.0,0.0,0.0,0.0,0.0,0.0,0.0,0.0,0.0,0.0,0.0,0.0,0.0,0.0,0.0,0.0,0.0,0.0,0.0,0.0,0.0,0.0,0.0,0.0,0.0,0.0,0.0,0.0,0.0,0.0
1783390671.362456,0.7332932353019714,0.619327962398529,-3.6119084256824863e-07,0.691444456577301,0.5949719548225403,-0.020609568804502487,0.6494510173797607,0.5331004858016968,-0.027798959985375404,0.634446918964386,0.45496153831481934,-0.035666655749082565,0.6541814804077148,0.39856573939323425,-0.03751170262694359,0.649286687374115,0.4392141103744507,0.011822253465652466,0.6388006210327148,0.38617295026779175,-0.014485985971987247,0.65239417552948,0.44903552532196045,-0.026502350345253944,0.6580020189285278,0.46000009775161743,-0.03053579293191433,0.6766461133956909,0.4273752272129059,0.011878948658704758,0.6708312630653381,0.3784591257572174,-0.015111253596842289,0.6806752681732178,0.46134424209594727,-0.017995793372392654,0.6788004040718079,0.4579874873161316,-0.01155214011669159,0.7053663730621338,0.42593616247177124,0.004698070231825113,0.7033379673957825,0.38171064853668213,-0.023080138489603996,0.7074015140533447,0.45964983105659485,-0.01498072687536478,0.705442488193512,0.45918330550193787,-0.0008582861628383398,0.7355786561965942,0.4286282956600189,-0.004882274195551872,0.7306613326072693,0.39829006791114807,-0.01657797023653984,0.7301863431930542,0.45227867364883423,-0.007969796657562256,0.7297335267066956,0.4591388702392578,0.0030127596110105515,0.0,0.0,0.0,0.0,0.0,0.0,0.0,0.0,0.0,0.0,0.0,0.0,0.0,0.0,0.0,0.0,0.0,0.0,0.0,0.0,0.0,0.0,0.0,0.0,0.0,0.0,0.0,0.0,0.0,0.0,0.0,0.0,0.0,0.0,0.0,0.0,0.0,0.0,0.0,0.0,0.0,0.0,0.0,0.0,0.0,0.0,0.0,0.0,0.0,0.0,0.0,0.0,0.0,0.0,0.0,0.0,0.0,0.0,0.0,0.0,0.0,0.0,0.0
1783390671.506264,0.7327873110771179,0.6188650131225586,-3.7021123944214196e-07,0.6906940937042236,0.5953536033630371,-0.02043132297694683,0.6488292813301086,0.5336726903915405,-0.027432553470134735,0.6342615485191345,0.45523032546043396,-0.03504324331879616,0.6545011401176453,0.39998647570610046,-0.03662971779704094,0.6487073302268982,0.43998703360557556,0.011325933039188385,0.6379900574684143,0.38649213314056396,-0.014645393937826157,0.6516082882881165,0.45127880573272705,-0.02645975537598133,0.6569534540176392,0.46247512102127075,-0.03052898868918419,0.6761811375617981,0.4280760586261749,0.0112877506762743,0.6701668500900269,0.37935593724250793,-0.015674693509936333,0.6799787878990173,0.4626346826553345,-0.018707238137722015,0.6782568693161011,0.46019473671913147,-0.012477007694542408,0.704849123954773,0.42659273743629456,0.004156176000833511,0.7026634812355042,0.38211509585380554,-0.023330083116889,0.7067813277244568,0.4607146680355072,-0.01515131164342165,0.7050140500068665,0.4608269929885864,-0.001127317431382835,0.7349956035614014,0.4293578863143921,-0.0053647421300411224,0.7300524115562439,0.3994182348251343,-0.016903547570109367,0.729844868183136,0.45370081067085266,-0.008269297890365124,0.7296972274780273,0.46031302213668823,0.002635281765833497,0.0,0.0,0.0,0.0,0.0,0.0,0.0,0.0,0.0,0.0,0.0,0.0,0.0,0.0,0.0,0.0,0.0,0.0,0.0,0.0,0.0,0.0,0.0,0.0,0.0,0.0,0.0,0.0,0.0,0.0,0.0,0.0,0.0,0.0,0.0,0.0,0.0,0.0,0.0,0.0,0.0,0.0,0.0,0.0,0.0,0.0,0.0,0.0,0.0,0.0,0.0,0.0,0.0,0.0,0.0,0.0,0.0,0.0,0.0,0.0,0.0,0.0,0.0
1783390671.671461,0.7332465648651123,0.6217186450958252,-3.6236423284208286e-07,0.6911815404891968,0.5964683294296265,-0.021057691425085068,0.6492576599121094,0.5352628827095032,-0.028193561360239983,0.6340636610984802,0.4582735300064087,-0.03583491966128349,0.6538152098655701,0.40288272500038147,-0.03733430430293083,0.6493343114852905,0.44122716784477234,0.011224200949072838,0.6376211047172546,0.38967165350914,-0.014724030159413815,0.6516776084899902,0.4525929391384125,-0.026653964072465897,0.6576517224311829,0.4616409242153168,-0.03085203655064106,0.6763074994087219,0.4295138120651245,0.011553626507520676,0.6702865362167358,0.3817351162433624,-0.015396209433674812,0.6800346970558167,0.4642047584056854,-0.01839214377105236,0.6783257126808167,0.46033522486686707,-0.012209533713757992,0.7046551704406738,0.428303062915802,0.004687644075602293,0.7028076648712158,0.38331466913223267,-0.022670745849609375,0.7064172625541687,0.46128061413764954,-0.014546389691531658,0.7045285105705261,0.4609237015247345,-0.0006390220951288939,0.7346236705780029,0.4316054582595825,-0.004689060617238283,0.730363130569458,0.40122678875923157,-0.016186103224754333,0.7295565009117126,0.4546658992767334,-0.007822984829545021,0.7290719747543335,0.46087363362312317,0.0028590289875864983,0.0,0.0,0.0,0.0,0.0,0.0,0.0,0.0,0.0,0.0,0.0,0.0,0.0,0.0,0.0,0.0,0.0,0.0,0.0,0.0,0.0,0.0,0.0,0.0,0.0,0.0,0.0,0.0,0.0,0.0,0.0,0.0,0.0,0.0,0.0,0.0,0.0,0.0,0.0,0.0,0.0,0.0,0.0,0.0,0.0,0.0,0.0,0.0,0.0,0.0,0.0,0.0,0.0,0.0,0.0,0.0,0.0,0.0,0.0,0.0,0.0,0.0,0.0
1783390671.8090181,0.7332881093025208,0.6235939860343933,-3.6894064692205575e-07,0.6915631890296936,0.6001335978507996,-0.020446287468075752,0.6490712761878967,0.5380734801292419,-0.02732277661561966,0.6337279081344604,0.4598110616207123,-0.03481991961598396,0.6541013121604919,0.4049820303916931,-0.03631921112537384,0.6492022275924683,0.4437631666660309,0.010975462384521961,0.6372391581535339,0.39158377051353455,-0.014812150970101357,0.6515907645225525,0.4542916715145111,-0.026536766439676285,0.6580421924591064,0.4653835892677307,-0.0305496696382761,0.6761599183082581,0.4316619336605072,0.010977143421769142,0.6696387529373169,0.3842278718948364,-0.01566275767982006,0.6801499724388123,0.46624258160591125,-0.018287772312760353,0.6792890429496765,0.4642731845378876,-0.011852765455842018,0.7046331763267517,0.43043509125709534,0.0038918962236493826,0.7021576166152954,0.38563957810401917,-0.02330753393471241,0.706599771976471,0.46365293860435486,-0.014809202402830124,0.7053959369659424,0.4647546708583832,-0.0006439607823267579,0.7348425984382629,0.4340653419494629,-0.005645939614623785,0.7298087477684021,0.4038427770137787,-0.017245043069124222,0.7296550273895264,0.4575001895427704,-0.008681008592247963,0.7296426892280579,0.4643438458442688,0.0021894858218729496,0.0,0.0,0.0,0.0,0.0,0.0,0.0,0.0,0.0,0.0,0.0,0.0,0.0,0.0,0.0,0.0,0.0,0.0,0.0,0.0,0.0,0.0,0.0,0.0,0.0,0.0,0.0,0.0,0.0,0.0,0.0,0.0,0.0,0.0,0.0,0.0,0.0,0.0,0.0,0.0,0.0,0.0,0.0,0.0,0.0,0.0,0.0,0.0,0.0,0.0,0.0,0.0,0.0,0.0,0.0,0.0,0.0,0.0,0.0,0.0,0.0,0.0,0.0
1783390671.974293,0.7329820990562439,0.6228336095809937,-3.5221725624978717e-07,0.6915341019630432,0.59832763671875,-0.020758910104632378,0.6495997905731201,0.5374242663383484,-0.02844034880399704,0.6341227293014526,0.4593929946422577,-0.03688884526491165,0.6517649292945862,0.4005845785140991,-0.03936304524540901,0.6489824056625366,0.44391483068466187,0.011761106550693512,0.6385989189147949,0.3900659680366516,-0.014710714109241962,0.6516196727752686,0.4512433409690857,-0.026530645787715912,0.6573401689529419,0.46335747838020325,-0.030202165246009827,0.6761350631713867,0.4320312738418579,0.011835405603051186,0.6697455048561096,0.3830361068248749,-0.01509840227663517,0.6795713901519775,0.46535730361938477,-0.01763227954506874,0.6782543659210205,0.4612681269645691,-0.010835409164428711,0.7047238349914551,0.4302749037742615,0.004607463721185923,0.7022708654403687,0.38545313477516174,-0.02335766889154911,0.7063108086585999,0.46305155754089355,-0.014975052326917648,0.7048431038856506,0.4625459909439087,-0.0005592578090727329,0.7347694635391235,0.4328579008579254,-0.005026872269809246,0.7295933365821838,0.4022376239299774,-0.01701943203806877,0.7291346192359924,0.4558210074901581,-0.008358835242688656,0.729157567024231,0.46264344453811646,0.002787768840789795,0.0,0.0,0.0,0.0,0.0,0.0,0.0,0.0,0.0,0.0,0.0,0.0,0.0,0.0,0.0,0.0,0.0,0.0,0.0,0.0,0.0,0.0,0.0,0.0,0.0,0.0,0.0,0.0,0.0,0.0,0.0,0.0,0.0,0.0,0.0,0.0,0.0,0.0,0.0,0.0,0.0,0.0,0.0,0.0,0.0,0.0,0.0,0.0,0.0,0.0,0.0,0.0,0.0,0.0,0.0,0.0,0.0,0.0,0.0,0.0,0.0,0.0,0.0
1783390672.157326,0.7327592372894287,0.6218872666358948,-3.55489078174287e-07,0.6916866302490234,0.5977503061294556,-0.020401958376169205,0.6497547626495361,0.5361363291740417,-0.02767551690340042,0.6342967748641968,0.4583173990249634,-0.03577061742544174,0.6530041694641113,0.40127187967300415,-0.037890657782554626,0.649217963218689,0.4432733356952667,0.011914445087313652,0.6385546326637268,0.38926124572753906,-0.014722407795488834,0.6519066095352173,0.4501844346523285,-0.02672666870057583,0.657826840877533,0.46226632595062256,-0.030532771721482277,0.676381528377533,0.4311407804489136,0.011803989298641682,0.6700206995010376,0.38187554478645325,-0.015425536781549454,0.6800422668457031,0.46428096294403076,-0.018092243000864983,0.6786974668502808,0.460789293050766,-0.011315999552607536,0.7049515843391418,0.4293126165866852,0.004415213130414486,0.7023112773895264,0.38464298844337463,-0.023645032197237015,0.7065593004226685,0.46223604679107666,-0.015248323790729046,0.7051411867141724,0.4618018865585327,-0.0007709141937084496,0.7349730134010315,0.4317620098590851,-0.0053694769740104675,0.72976154088974,0.40150579810142517,-0.017298555001616478,0.7293396592140198,0.4550263285636902,-0.00858320202678442,0.7293116450309753,0.4616445302963257,0.0025948137044906616,0.0,0.0,0.0,0.0,0.0,0.0,0.0,0.0,0.0,0.0,0.0,0.0,0.0,0.0,0.0,0.0,0.0,0.0,0.0,0.0,0.0,0.0,0.0,0.0,0.0,0.0,0.0,0.0,0.0,0.0,0.0,0.0,0.0,0.0,0.0,0.0,0.0,0.0,0.0,0.0,0.0,0.0,0.0,0.0,0.0,0.0,0.0,0.0,0.0,0.0,0.0,0.0,0.0,0.0,0.0,0.0,0.0,0.0,0.0,0.0,0.0,0.0,0.0
