ciel274/research-hand-sign/data/raw/hiragana/sign_language_i_3.csv
timestamp,R_joint_0_x,R_joint_0_y,R_joint_0_z,R_joint_1_x,R_joint_1_y,R_joint_1_z,R_joint_2_x,R_joint_2_y,R_joint_2_z,R_joint_3_x,R_joint_3_y,R_joint_3_z,R_joint_4_x,R_joint_4_y,R_joint_4_z,R_joint_5_x,R_joint_5_y,R_joint_5_z,R_joint_6_x,R_joint_6_y,R_joint_6_z,R_joint_7_x,R_joint_7_y,R_joint_7_z,R_joint_8_x,R_joint_8_y,R_joint_8_z,R_joint_9_x,R_joint_9_y,R_joint_9_z,R_joint_10_x,R_joint_10_y,R_joint_10_z,R_joint_11_x,R_joint_11_y,R_joint_11_z,R_joint_12_x,R_joint_12_y,R_joint_12_z,R_joint_13_x,R_joint_13_y,R_joint_13_z,R_joint_14_x,R_joint_14_y,R_joint_14_z,R_joint_15_x,R_joint_15_y,R_joint_15_z,R_joint_16_x,R_joint_16_y,R_joint_16_z,R_joint_17_x,R_joint_17_y,R_joint_17_z,R_joint_18_x,R_joint_18_y,R_joint_18_z,R_joint_19_x,R_joint_19_y,R_joint_19_z,R_joint_20_x,R_joint_20_y,R_joint_20_z,L_joint_0_x,L_joint_0_y,L_joint_0_z,L_joint_1_x,L_joint_1_y,L_joint_1_z,L_joint_2_x,L_joint_2_y,L_joint_2_z,L_joint_3_x,L_joint_3_y,L_joint_3_z,L_joint_4_x,L_joint_4_y,L_joint_4_z,L_joint_5_x,L_joint_5_y,L_joint_5_z,L_joint_6_x,L_joint_6_y,L_joint_6_z,L_joint_7_x,L_joint_7_y,L_joint_7_z,L_joint_8_x,L_joint_8_y,L_joint_8_z,L_joint_9_x,L_joint_9_y,L_joint_9_z,L_joint_10_x,L_joint_10_y,L_joint_10_z,L_joint_11_x,L_joint_11_y,L_joint_11_z,L_joint_12_x,L_joint_12_y,L_joint_12_z,L_joint_13_x,L_joint_13_y,L_joint_13_z,L_joint_14_x,L_joint_14_y,L_joint_14_z,L_joint_15_x,L_joint_15_y,L_joint_15_z,L_joint_16_x,L_joint_16_y,L_joint_16_z,L_joint_17_x,L_joint_17_y,L_joint_17_z,L_joint_18_x,L_joint_18_y,L_joint_18_z,L_joint_19_x,L_joint_19_y,L_joint_19_z,L_joint_20_x,L_joint_20_y,L_joint_20_z
1783345039.7531168,0.6907608509063721,0.7540395855903625,-4.6813596554784453e-07,0.6407998204231262,0.7290996313095093,-0.009090395644307137,0.6108883023262024,0.6453399062156677,-0.011235898360610008,0.6173533201217651,0.5801740288734436,-0.016053996980190277,0.6368677616119385,0.5526706576347351,-0.018379103392362595,0.6295379996299744,0.555395245552063,-0.0015130165265873075,0.6191881895065308,0.5131911039352417,-0.021565493196249008,0.6284277439117432,0.5813590288162231,-0.030731268227100372,0.6362574100494385,0.6381546258926392,-0.03163304924964905,0.6616457104682922,0.5457499623298645,-0.004781672731041908,0.6541051268577576,0.5087290406227112,-0.03288155794143677,0.6549588441848755,0.5926020741462708,-0.04149775579571724,0.65412437915802,0.6559021472930908,-0.038741353899240494,0.6931251287460327,0.5463038682937622,-0.011281285434961319,0.6874075531959534,0.5069571137428284,-0.03795246779918671,0.6797846555709839,0.5874001383781433,-0.04007157310843468,0.6739118695259094,0.6499919295310974,-0.03160122409462929,0.7218142747879028,0.5490919947624207,-0.018477533012628555,0.7218781113624573,0.4644390344619751,-0.03390856459736824,0.7212671637535095,0.4071434438228607,-0.03879301995038986,0.7204337120056152,0.352593332529068,-0.037808943539857864,0.0,0.0,0.0,0.0,0.0,0.0,0.0,0.0,0.0,0.0,0.0,0.0,0.0,0.0,0.0,0.0,0.0,0.0,0.0,0.0,0.0,0.0,0.0,0.0,0.0,0.0,0.0,0.0,0.0,0.0,0.0,0.0,0.0,0.0,0.0,0.0,0.0,0.0,0.0,0.0,0.0,0.0,0.0,0.0,0.0,0.0,0.0,0.0,0.0,0.0,0.0,0.0,0.0,0.0,0.0,0.0,0.0,0.0,0.0,0.0,0.0,0.0,0.0
1783345039.921619,0.6914796829223633,0.755341649055481,-4.688259878093959e-07,0.6425652503967285,0.7319868803024292,-0.009015992283821106,0.6122534275054932,0.6509762406349182,-0.011137858033180237,0.6170448064804077,0.5863903760910034,-0.015874644741415977,0.635802149772644,0.5603480935096741,-0.01809057779610157,0.6303704380989075,0.5585973858833313,-0.0016015516594052315,0.6199931502342224,0.5169665217399597,-0.02165307104587555,0.629764199256897,0.5839189887046814,-0.030816031619906425,0.6377707123756409,0.6404314041137695,-0.0316874124109745,0.6620714664459229,0.5489537119865417,-0.00502107385545969,0.6552069187164307,0.5107898116111755,-0.03318748623132706,0.6564955711364746,0.593338668346405,-0.0419144332408905,0.6556496024131775,0.6565078496932983,-0.03921469300985336,0.6934070587158203,0.5492269992828369,-0.011651932261884212,0.6887825727462769,0.5104108452796936,-0.038425859063863754,0.6815621852874756,0.5898985266685486,-0.04079465568065643,0.675626814365387,0.6518495678901672,-0.032508037984371185,0.7221454381942749,0.551496684551239,-0.018966879695653915,0.7224723100662231,0.46699994802474976,-0.03449823334813118,0.7219119071960449,0.4093098044395447,-0.03950263932347298,0.721028745174408,0.35463106632232666,-0.03864307329058647,0.0,0.0,0.0,0.0,0.0,0.0,0.0,0.0,0.0,0.0,0.0,0.0,0.0,0.0,0.0,0.0,0.0,0.0,0.0,0.0,0.0,0.0,0.0,0.0,0.0,0.0,0.0,0.0,0.0,0.0,0.0,0.0,0.0,0.0,0.0,0.0,0.0,0.0,0.0,0.0,0.0,0.0,0.0,0.0,0.0,0.0,0.0,0.0,0.0,0.0,0.0,0.0,0.0,0.0,0.0,0.0,0.0,0.0,0.0,0.0,0.0,0.0,0.0
1783345040.2985752,0.6917875409126282,0.7550093531608582,-4.5257556280375866e-07,0.641708254814148,0.730789065361023,-0.009731072932481766,0.6106227040290833,0.6489116549491882,-0.01222877949476242,0.6162298917770386,0.5851637125015259,-0.01711326651275158,0.6373555660247803,0.5631600618362427,-0.01948719099164009,0.6302899718284607,0.5568915009498596,-0.0025144359096884727,0.6206757426261902,0.5158261656761169,-0.02259105257689953,0.6300497055053711,0.5837097764015198,-0.03171994537115097,0.6380639672279358,0.6412033438682556,-0.03267378732562065,0.662375271320343,0.5470681190490723,-0.005518363788723946,0.655189037322998,0.5084942579269409,-0.03384217992424965,0.6565382480621338,0.5922832489013672,-0.042366813868284225,0.6562185287475586,0.6565321683883667,-0.03943191468715668,0.6937859654426575,0.5478482246398926,-0.011758387088775635,0.6885192394256592,0.5076805949211121,-0.038474924862384796,0.6814643740653992,0.5876187682151794,-0.040726616978645325,0.6758095026016235,0.6506832838058472,-0.032269518822431564,0.7223953008651733,0.5513632893562317,-0.01875363104045391,0.7219646573066711,0.46708452701568604,-0.0343279205262661,0.7211312651634216,0.40990936756134033,-0.0395035482943058,0.7200042009353638,0.3557424247264862,-0.038715846836566925,0.0,0.0,0.0,0.0,0.0,0.0,0.0,0.0,0.0,0.0,0.0,0.0,0.0,0.0,0.0,0.0,0.0,0.0,0.0,0.0,0.0,0.0,0.0,0.0,0.0,0.0,0.0,0.0,0.0,0.0,0.0,0.0,0.0,0.0,0.0,0.0,0.0,0.0,0.0,0.0,0.0,0.0,0.0,0.0,0.0,0.0,0.0,0.0,0.0,0.0,0.0,0.0,0.0,0.0,0.0,0.0,0.0,0.0,0.0,0.0,0.0,0.0,0.0
1783345040.551327,0.6940208673477173,0.7542007565498352,-4.5202062892713e-07,0.6423867344856262,0.7303248047828674,-0.00838418584316969,0.6115628480911255,0.650981068611145,-0.009899015538394451,0.6165740489959717,0.5886629819869995,-0.013941344805061817,0.6360592842102051,0.5661597847938538,-0.015472900122404099,0.6303226947784424,0.5621591210365295,-0.0003355787193868309,0.6202763319015503,0.5160501599311829,-0.020311888307332993,0.6298025846481323,0.5794946551322937,-0.02978326380252838,0.6378536224365234,0.636428713798523,-0.030778618529438972,0.6615839004516602,0.5502771139144897,-0.0034646326676011086,0.6540763974189758,0.5075097680091858,-0.030952801927924156,0.6561536192893982,0.5882093906402588,-0.03931513428688049,0.6560950875282288,0.6511504054069519,-0.03630451858043671,0.6918681859970093,0.5491923689842224,-0.009796546772122383,0.6864612102508545,0.5046147704124451,-0.035281214863061905,0.6805865168571472,0.5806904435157776,-0.0369456522166729,0.6758745908737183,0.6421404480934143,-0.02832832746207714,0.7193452715873718,0.5515331625938416,-0.01687423139810562,0.7179543972015381,0.469166100025177,-0.03174127638339996,0.7161270976066589,0.41479218006134033,-0.03629777580499649,0.7139711380004883,0.3638862669467926,-0.03503741696476936,0.0,0.0,0.0,0.0,0.0,0.0,0.0,0.0,0.0,0.0,0.0,0.0,0.0,0.0,0.0,0.0,0.0,0.0,0.0,0.0,0.0,0.0,0.0,0.0,0.0,0.0,0.0,0.0,0.0,0.0,0.0,0.0,0.0,0.0,0.0,0.0,0.0,0.0,0.0,0.0,0.0,0.0,0.0,0.0,0.0,0.0,0.0,0.0,0.0,0.0,0.0,0.0,0.0,0.0,0.0,0.0,0.0,0.0,0.0,0.0,0.0,0.0,0.0
1783345040.727683,0.697022557258606,0.7512377500534058,-4.3418867790023796e-07,0.6452289819717407,0.7309824228286743,-0.008527941070497036,0.6122767925262451,0.652357280254364,-0.010243833996355534,0.6148291230201721,0.5886358022689819,-0.014269799925386906,0.6327607035636902,0.5645536184310913,-0.015597307123243809,0.6312885880470276,0.5662160515785217,-0.0013220706023275852,0.6222127676010132,0.5115637183189392,-0.022302089259028435,0.631307065486908,0.5737689137458801,-0.03279498592019081,0.639299213886261,0.6305189728736877,-0.03455697000026703,0.6615027189254761,0.5528449416160583,-0.00475333584472537,0.6568496227264404,0.5002468824386597,-0.033342424780130386,0.6582339406013489,0.5785753130912781,-0.041956257075071335,0.657321572303772,0.6418237686157227,-0.038896095007658005,0.6909918189048767,0.5503722429275513,-0.011443199589848518,0.6885796785354614,0.5018269419670105,-0.03690889850258827,0.6825293302536011,0.5776639580726624,-0.03753216564655304,0.6770869493484497,0.6397824883460999,-0.028355859220027924,0.717982828617096,0.5513526797294617,-0.01902780495584011,0.7169091701507568,0.47110193967819214,-0.03389172628521919,0.7141406536102295,0.4171023666858673,-0.037912189960479736,0.7110397815704346,0.3674147129058838,-0.03636045753955841,0.0,0.0,0.0,0.0,0.0,0.0,0.0,0.0,0.0,0.0,0.0,0.0,0.0,0.0,0.0,0.0,0.0,0.0,0.0,0.0,0.0,0.0,0.0,0.0,0.0,0.0,0.0,0.0,0.0,0.0,0.0,0.0,0.0,0.0,0.0,0.0,0.0,0.0,0.0,0.0,0.0,0.0,0.0,0.0,0.0,0.0,0.0,0.0,0.0,0.0,0.0,0.0,0.0,0.0,0.0,0.0,0.0,0.0,0.0,0.0,0.0,0.0,0.0
1783345040.889196,0.6968281865119934,0.7471084594726562,-4.269867019957019e-07,0.6451732516288757,0.7265645265579224,-0.00887524988502264,0.6118707060813904,0.6460731625556946,-0.010812832973897457,0.6159628629684448,0.5822732448577881,-0.014897262677550316,0.6354612708091736,0.5582993626594543,-0.016250085085630417,0.6319546699523926,0.5638336539268494,-0.0021858520340174437,0.6222987771034241,0.5065058469772339,-0.02225043810904026,0.631813645362854,0.5691177845001221,-0.03206145390868187,0.6400564312934875,0.6246828436851501,-0.03365534916520119,0.6620306968688965,0.5496621131896973,-0.005332217086106539,0.6574084758758545,0.4964766204357147,-0.03278680145740509,0.6591508388519287,0.5743447542190552,-0.04073120281100273,0.6588435769081116,0.6363263130187988,-0.03755539655685425,0.6912083029747009,0.5467993021011353,-0.011661943048238754,0.6888094544410706,0.495290607213974,-0.03532612323760986,0.6832483410835266,0.5695939660072327,-0.03504158556461334,0.6778514981269836,0.6302918791770935,-0.0259822029620409,0.7175321578979492,0.5483438372612,-0.019010769203305244,0.7162327766418457,0.4702892601490021,-0.032058849930763245,0.7124107480049133,0.41782552003860474,-0.03501850366592407,0.7078750729560852,0.36883461475372314,-0.03321772813796997,0.0,0.0,0.0,0.0,0.0,0.0,0.0,0.0,0.0,0.0,0.0,0.0,0.0,0.0,0.0,0.0,0.0,0.0,0.0,0.0,0.0,0.0,0.0,0.0,0.0,0.0,0.0,0.0,0.0,0.0,0.0,0.0,0.0,0.0,0.0,0.0,0.0,0.0,0.0,0.0,0.0,0.0,0.0,0.0,0.0,0.0,0.0,0.0,0.0,0.0,0.0,0.0,0.0,0.0,0.0,0.0,0.0,0.0,0.0,0.0,0.0,0.0,0.0
1783345041.026221,0.6973633170127869,0.74466872215271,-4.3036803276663704e-07,0.6465474963188171,0.7262704372406006,-0.007724579889327288,0.6122686266899109,0.6478283405303955,-0.009281544014811516,0.6151713728904724,0.5846437811851501,-0.013394036330282688,0.6345849633216858,0.563994288444519,-0.014878830872476101,0.631525456905365,0.5652686953544617,-0.0003306166036054492,0.6216397285461426,0.5057070255279541,-0.020360838621854782,0.6312757134437561,0.5672021508216858,-0.03058423474431038,0.6394516229629517,0.6216683387756348,-0.03260168805718422,0.6613921523094177,0.5507561564445496,-0.004099898971617222,0.6562678217887878,0.49613818526268005,-0.031361326575279236,0.658597469329834,0.5723889470100403,-0.03964614123106003,0.6587811708450317,0.63316810131073,-0.03685217723250389,0.6904142498970032,0.5468435883522034,-0.011015750467777252,0.6873337626457214,0.49361494183540344,-0.034373410046100616,0.6826539635658264,0.5675652623176575,-0.03399696201086044,0.6779826879501343,0.6281943321228027,-0.025008313357830048,0.7167858481407166,0.5467875599861145,-0.018906865268945694,0.7147491574287415,0.4692682921886444,-0.0314161479473114,0.7111802697181702,0.4178183674812317,-0.03399983420968056,0.7069764137268066,0.3694773018360138,-0.03209993243217468,0.0,0.0,0.0,0.0,0.0,0.0,0.0,0.0,0.0,0.0,0.0,0.0,0.0,0.0,0.0,0.0,0.0,0.0,0.0,0.0,0.0,0.0,0.0,0.0,0.0,0.0,0.0,0.0,0.0,0.0,0.0,0.0,0.0,0.0,0.0,0.0,0.0,0.0,0.0,0.0,0.0,0.0,0.0,0.0,0.0,0.0,0.0,0.0,0.0,0.0,0.0,0.0,0.0,0.0,0.0,0.0,0.0,0.0,0.0,0.0,0.0,0.0,0.0
1783345041.173572,0.697584867477417,0.7452811598777771,-4.2655673837543873e-07,0.6467574238777161,0.7270410656929016,-0.007886076346039772,0.6117013096809387,0.6483665108680725,-0.009572259150445461,0.6152378916740417,0.5853303670883179,-0.013752911239862442,0.6368537545204163,0.5659400820732117,-0.015247253701090813,0.6312294006347656,0.5662586092948914,-0.00033050941419787705,0.6220212578773499,0.5045637488365173,-0.01999485492706299,0.6319389939308167,0.5659497380256653,-0.029944047331809998,0.6399250030517578,0.619905948638916,-0.031971078366041183,0.6612786650657654,0.5520521998405457,-0.004015924874693155,0.6566643714904785,0.49631360173225403,-0.031025024130940437,0.6592202186584473,0.5730490684509277,-0.039221882820129395,0.6592090129852295,0.633642315864563,-0.03639809787273407,0.6903137564659119,0.5481752157211304,-0.010825790464878082,0.6872850060462952,0.49504515528678894,-0.033678773790597916,0.6830754280090332,0.5689712166786194,-0.033128440380096436,0.6784223318099976,0.6290162205696106,-0.024135272949934006,0.716510534286499,0.5478371381759644,-0.018658671528100967,0.7142680287361145,0.4706858992576599,-0.030704090371727943,0.71077960729599,0.419404000043869,-0.033083587884902954,0.7064444422721863,0.37114232778549194,-0.031112434342503548,0.0,0.0,0.0,0.0,0.0,0.0,0.0,0.0,0.0,0.0,0.0,0.0,0.0,0.0,0.0,0.0,0.0,0.0,0.0,0.0,0.0,0.0,0.0,0.0,0.0,0.0,0.0,0.0,0.0,0.0,0.0,0.0,0.0,0.0,0.0,0.0,0.0,0.0,0.0,0.0,0.0,0.0,0.0,0.0,0.0,0.0,0.0,0.0,0.0,0.0,0.0,0.0,0.0,0.0,0.0,0.0,0.0,0.0,0.0,0.0,0.0,0.0,0.0
1783345041.3071392,0.6965556740760803,0.7451853156089783,-4.222212055537966e-07,0.6466507315635681,0.7274779677391052,-0.008135195821523666,0.6116734147071838,0.6494253873825073,-0.010121826082468033,0.6158157587051392,0.5873100757598877,-0.014632636681199074,0.6381846070289612,0.5699463486671448,-0.016572855412960052,0.6307561993598938,0.5671791434288025,-0.0006555735017172992,0.6213478446006775,0.5052635669708252,-0.020263545215129852,0.6310244798660278,0.5664684176445007,-0.03025086410343647,0.6390912532806396,0.6205924153327942,-0.032394684851169586,0.6606231331825256,0.5528149008750916,-0.004243260249495506,0.6559969186782837,0.4972080588340759,-0.031121134757995605,0.6584849953651428,0.5730952024459839,-0.039363883435726166,0.6587109565734863,0.6332119703292847,-0.03671330213546753,0.6896569728851318,0.5488604307174683,-0.010957843624055386,0.6867260336875916,0.4956382215023041,-0.03370417654514313,0.6825152039527893,0.5688976049423218,-0.03327703848481178,0.6778984069824219,0.6284886002540588,-0.024484336376190186,0.7158057689666748,0.5483672618865967,-0.018727850168943405,0.713932454586029,0.47121426463127136,-0.030796216800808907,0.7105526328086853,0.420001745223999,-0.03333583101630211,0.7062214612960815,0.3715968430042267,-0.03155255317687988,0.0,0.0,0.0,0.0,0.0,0.0,0.0,0.0,0.0,0.0,0.0,0.0,0.0,0.0,0.0,0.0,0.0,0.0,0.0,0.0,0.0,0.0,0.0,0.0,0.0,0.0,0.0,0.0,0.0,0.0,0.0,0.0,0.0,0.0,0.0,0.0,0.0,0.0,0.0,0.0,0.0,0.0,0.0,0.0,0.0,0.0,0.0,0.0,0.0,0.0,0.0,0.0,0.0,0.0,0.0,0.0,0.0,0.0,0.0,0.0,0.0,0.0,0.0
1783345041.441521,0.6961992383003235,0.7451018691062927,-4.234445896145189e-07,0.646464467048645,0.7272112965583801,-0.007925717160105705,0.6112595796585083,0.6485654711723328,-0.009794803336262703,0.6153314113616943,0.5867641568183899,-0.014255769550800323,0.6379424333572388,0.570443332195282,-0.01618853211402893,0.6310082674026489,0.5666133761405945,-0.00021817399829160422,0.6213904023170471,0.5053417086601257,-0.019791092723608017,0.6309279799461365,0.5668274164199829,-0.02988523058593273,0.6390631794929504,0.6209483742713928,-0.032131440937519073,0.6608525514602661,0.5525886416435242,-0.003914607223123312,0.6561398506164551,0.4970170855522156,-0.030861299484968185,0.658284068107605,0.5735057592391968,-0.03916499763727188,0.658441960811615,0.6341285705566406,-0.03647109121084213,0.6898468732833862,0.5489600896835327,-0.010730394162237644,0.6867940425872803,0.4957934021949768,-0.03332124277949333,0.6822766065597534,0.5694590210914612,-0.03284922242164612,0.6776169538497925,0.6292843222618103,-0.024025019258260727,0.7160122990608215,0.5488069653511047,-0.018603727221488953,0.7141383290290833,0.4720025062561035,-0.03042376972734928,0.7107337117195129,0.42099618911743164,-0.03286284580826759,0.706522524356842,0.37261977791786194,-0.031035983934998512,0.0,0.0,0.0,0.0,0.0,0.0,0.0,0.0,0.0,0.0,0.0,0.0,0.0,0.0,0.0,0.0,0.0,0.0,0.0,0.0,0.0,0.0,0.0,0.0,0.0,0.0,0.0,0.0,0.0,0.0,0.0,0.0,0.0,0.0,0.0,0.0,0.0,0.0,0.0,0.0,0.0,0.0,0.0,0.0,0.0,0.0,0.0,0.0,0.0,0.0,0.0,0.0,0.0,0.0,0.0,0.0,0.0,0.0,0.0,0.0,0.0,0.0,0.0
1783345041.584034,0.6967170238494873,0.7454738020896912,-4.2964740032402915e-07,0.6465888619422913,0.7269935607910156,-0.007476504892110825,0.612281858921051,0.6478729248046875,-0.008771020919084549,0.6160168051719666,0.5849608778953552,-0.012615812942385674,0.6371327042579651,0.5666460990905762,-0.01386234536767006,0.6296272277832031,0.5657703280448914,0.0006790451589040458,0.6195966005325317,0.5062797665596008,-0.01898958347737789,0.6301043033599854,0.5669010281562805,-0.02906426601111889,0.6388652324676514,0.6213808655738831,-0.031080298125743866,0.6598168611526489,0.5511471629142761,-0.0030723975505679846,0.6544421911239624,0.4963262379169464,-0.030102098360657692,0.6573982834815979,0.5724313259124756,-0.03834595903754234,0.6579029560089111,0.6334081292152405,-0.03546142578125,0.6891694664955139,0.5472719669342041,-0.009984565898776054,0.6857215762138367,0.4954310655593872,-0.03298923745751381,0.6814791560173035,0.5693845152854919,-0.03267529234290123,0.6768466830253601,0.6296494007110596,-0.02377421222627163,0.7157514691352844,0.5471420288085938,-0.01787049137055874,0.7132729291915894,0.4708755612373352,-0.030253080651164055,0.7098322510719299,0.4202108085155487,-0.03294898569583893,0.7054306268692017,0.37236377596855164,-0.031163085252046585,0.0,0.0,0.0,0.0,0.0,0.0,0.0,0.0,0.0,0.0,0.0,0.0,0.0,0.0,0.0,0.0,0.0,0.0,0.0,0.0,0.0,0.0,0.0,0.0,0.0,0.0,0.0,0.0,0.0,0.0,0.0,0.0,0.0,0.0,0.0,0.0,0.0,0.0,0.0,0.0,0.0,0.0,0.0,0.0,0.0,0.0,0.0,0.0,0.0,0.0,0.0,0.0,0.0,0.0,0.0,0.0,0.0,0.0,0.0,0.0,0.0,0.0,0.0
1783345041.7292879,0.6932456493377686,0.7457175254821777,-4.2551391743472777e-07,0.6421566009521484,0.7251278758049011,-0.007826363667845726,0.6096174120903015,0.6457170248031616,-0.009881868027150631,0.6147094964981079,0.5801658630371094,-0.014732807874679565,0.6339384913444519,0.5519012808799744,-0.017010444775223732,0.6248095631599426,0.5643918514251709,0.001443301560357213,0.6147319674491882,0.5096365809440613,-0.018276376649737358,0.624545693397522,0.5683164596557617,-0.028011221438646317,0.6328204274177551,0.6217607855796814,-0.029395708814263344,0.6547245979309082,0.5499745607376099,-0.002092471346259117,0.6476755738258362,0.5015522241592407,-0.0285850428044796,0.6504120230674744,0.5776069164276123,-0.03670326620340347,0.6518034934997559,0.6370427012443542,-0.03377484530210495,0.6842058897018433,0.5458213686943054,-0.00888906605541706,0.6788887977600098,0.49549978971481323,-0.032373640686273575,0.6758573651313782,0.569244921207428,-0.03213057294487953,0.6735754013061523,0.6286500096321106,-0.022950654849410057,0.7115449905395508,0.545730710029602,-0.016609041020274162,0.7083718776702881,0.46962258219718933,-0.028649765998125076,0.7041012048721313,0.4198347330093384,-0.03075270727276802,0.699194610118866,0.37192678451538086,-0.02830560877919197,0.0,0.0,0.0,0.0,0.0,0.0,0.0,0.0,0.0,0.0,0.0,0.0,0.0,0.0,0.0,0.0,0.0,0.0,0.0,0.0,0.0,0.0,0.0,0.0,0.0,0.0,0.0,0.0,0.0,0.0,0.0,0.0,0.0,0.0,0.0,0.0,0.0,0.0,0.0,0.0,0.0,0.0,0.0,0.0,0.0,0.0,0.0,0.0,0.0,0.0,0.0,0.0,0.0,0.0,0.0,0.0,0.0,0.0,0.0,0.0,0.0,0.0,0.0
1783345041.8766348,0.6894440054893494,0.7353941798210144,-3.985040564202791e-07,0.6378049850463867,0.7134684324264526,-0.006796791683882475,0.6051506996154785,0.6368734836578369,-0.008749611675739288,0.6077565550804138,0.5740765333175659,-0.01409006305038929,0.6219046711921692,0.5441176891326904,-0.017455577850341797,0.623829185962677,0.5577641725540161,0.0031863499898463488,0.611269474029541,0.504888653755188,-0.016709038987755775,0.6192579865455627,0.5630761981010437,-0.02726372517645359,0.6269649267196655,0.6152164936065674,-0.029198456555604935,0.6517693400382996,0.5427902936935425,-0.0010252067586407065,0.6426747441291809,0.4945773780345917,-0.027146562933921814,0.6433200240135193,0.5677246451377869,-0.036668844521045685,0.6443948149681091,0.6263877153396606,-0.03503526747226715,0.6805855631828308,0.5379288792610168,-0.00844211969524622,0.6725127696990967,0.4873884618282318,-0.03176621347665787,0.6672747135162354,0.55906742811203,-0.033254049718379974,0.6645722985267639,0.6179124712944031,-0.025361960753798485,0.7076656818389893,0.5376924276351929,-0.01663338765501976,0.704708993434906,0.4617195427417755,-0.028453322127461433,0.7000622749328613,0.41242948174476624,-0.031164277344942093,0.6951630115509033,0.3656776547431946,-0.029189802706241608,0.0,0.0,0.0,0.0,0.0,0.0,0.0,0.0,0.0,0.0,0.0,0.0,0.0,0.0,0.0,0.0,0.0,0.0,0.0,0.0,0.0,0.0,0.0,0.0,0.0,0.0,0.0,0.0,0.0,0.0,0.0,0.0,0.0,0.0,0.0,0.0,0.0,0.0,0.0,0.0,0.0,0.0,0.0,0.0,0.0,0.0,0.0,0.0,0.0,0.0,0.0,0.0,0.0,0.0,0.0,0.0,0.0,0.0,0.0,0.0,0.0,0.0,0.0
1783345042.026148,0.6820699572563171,0.7368438839912415,-4.1748350554371427e-07,0.6310452222824097,0.7091187834739685,-0.00425519747659564,0.6009774804115295,0.6314892768859863,-0.005053437314927578,0.6028867959976196,0.5703211426734924,-0.009847552515566349,0.6139292120933533,0.5360558032989502,-0.012643520720303059,0.6195622682571411,0.5564437508583069,0.006016944535076618,0.6064158082008362,0.5064035654067993,-0.01404272299259901,0.6132659316062927,0.5656762719154358,-0.02438417263329029,0.6208803653717041,0.6171127557754517,-0.025990208610892296,0.6468148827552795,0.5433744192123413,0.0004395077412482351,0.6350003480911255,0.4956095814704895,-0.026369357481598854,0.6352648138999939,0.5698221325874329,-0.035720840096473694,0.6381558179855347,0.6282473206520081,-0.03350942209362984,0.6758148074150085,0.5398631691932678,-0.008377986960113049,0.6651926040649414,0.492817223072052,-0.03291231021285057,0.6583837866783142,0.563341498374939,-0.035068441182374954,0.656704306602478,0.619727611541748,-0.027103792876005173,0.7043011784553528,0.5401345491409302,-0.017696505412459373,0.7033472061157227,0.46171101927757263,-0.03050941787660122,0.697917103767395,0.41099491715431213,-0.03410070762038231,0.6922156810760498,0.36422863602638245,-0.03257252275943756,0.0,0.0,0.0,0.0,0.0,0.0,0.0,0.0,0.0,0.0,0.0,0.0,0.0,0.0,0.0,0.0,0.0,0.0,0.0,0.0,0.0,0.0,0.0,0.0,0.0,0.0,0.0,0.0,0.0,0.0,0.0,0.0,0.0,0.0,0.0,0.0,0.0,0.0,0.0,0.0,0.0,0.0,0.0,0.0,0.0,0.0,0.0,0.0,0.0,0.0,0.0,0.0,0.0,0.0,0.0,0.0,0.0,0.0,0.0,0.0,0.0,0.0,0.0
1783345042.157707,0.6807398200035095,0.7347071170806885,-4.1898991298694455e-07,0.6318895220756531,0.704526424407959,-0.005209452006965876,0.6042844653129578,0.6269606947898865,-0.0065297577530145645,0.6060625314712524,0.5640427470207214,-0.011748803779482841,0.6152041554450989,0.5244855880737305,-0.014933973550796509,0.6226658225059509,0.5541425347328186,0.005599061958491802,0.607930064201355,0.505929708480835,-0.014656994491815567,0.6133013963699341,0.5646316409111023,-0.025423696264624596,0.6203500628471375,0.6154441833496094,-0.02735629864037037,0.6487045884132385,0.5422741174697876,0.000471200211904943,0.6350075006484985,0.4953591227531433,-0.02614889293909073,0.6347746253013611,0.5674223303794861,-0.036049310117959976,0.6376546621322632,0.6251015663146973,-0.03452296182513237,0.6770187020301819,0.5390386581420898,-0.007951060310006142,0.6643509864807129,0.491021990776062,-0.03204283118247986,0.656577467918396,0.5606820583343506,-0.034280385822057724,0.6545761823654175,0.6174578666687012,-0.026705365628004074,0.7052250504493713,0.5386718511581421,-0.01703992858529091,0.7043339014053345,0.4602765738964081,-0.029805190861225128,0.6992350220680237,0.4090365171432495,-0.03365897014737129,0.6935799717903137,0.36169424653053284,-0.03247480466961861,0.0,0.0,0.0,0.0,0.0,0.0,0.0,0.0,0.0,0.0,0.0,0.0,0.0,0.0,0.0,0.0,0.0,0.0,0.0,0.0,0.0,0.0,0.0,0.0,0.0,0.0,0.0,0.0,0.0,0.0,0.0,0.0,0.0,0.0,0.0,0.0,0.0,0.0,0.0,0.0,0.0,0.0,0.0,0.0,0.0,0.0,0.0,0.0,0.0,0.0,0.0,0.0,0.0,0.0,0.0,0.0,0.0,0.0,0.0,0.0,0.0,0.0,0.0
1783345042.323493,0.6779070496559143,0.7257676720619202,-3.9805308915674686e-07,0.6305821537971497,0.6927970051765442,-0.004212932661175728,0.6055134534835815,0.6162391901016235,-0.005105271004140377,0.6089432835578918,0.556161105632782,-0.010235868394374847,0.6190372109413147,0.5204859972000122,-0.013714110478758812,0.6254235506057739,0.5450570583343506,0.007513250224292278,0.6114486455917358,0.49752140045166016,-0.01217365451157093,0.6139799952507019,0.5547549724578857,-0.022949397563934326,0.6188993453979492,0.6058708429336548,-0.024922790005803108,0.650685727596283,0.5349120497703552,0.0019011347321793437,0.6370322108268738,0.48738935589790344,-0.024678722023963928,0.6338602304458618,0.5590288043022156,-0.03557174280285835,0.6353005766868591,0.6179823279380798,-0.03460104018449783,0.6782363057136536,0.5322734713554382,-0.0069001889787614346,0.6651503443717957,0.48421257734298706,-0.03113129362463951,0.6544201374053955,0.5540675520896912,-0.03479535132646561,0.6511604189872742,0.6119530200958252,-0.02788117341697216,0.7058067321777344,0.5318827033042908,-0.016236696392297745,0.7064496874809265,0.45266103744506836,-0.028977936133742332,0.7026945352554321,0.4012904167175293,-0.03344639763236046,0.6989424824714661,0.3536674380302429,-0.03263049200177193,0.0,0.0,0.0,0.0,0.0,0.0,0.0,0.0,0.0,0.0,0.0,0.0,0.0,0.0,0.0,0.0,0.0,0.0,0.0,0.0,0.0,0.0,0.0,0.0,0.0,0.0,0.0,0.0,0.0,0.0,0.0,0.0,0.0,0.0,0.0,0.0,0.0,0.0,0.0,0.0,0.0,0.0,0.0,0.0,0.0,0.0,0.0,0.0,0.0,0.0,0.0,0.0,0.0,0.0,0.0,0.0,0.0,0.0,0.0,0.0,0.0,0.0,0.0
1783345042.4852438,0.6717878580093384,0.7230637669563293,-4.340383270573511e-07,0.6308681964874268,0.6832698583602905,-0.0021864427253603935,0.6101768612861633,0.6051813960075378,-0.0015167888486757874,0.6101846694946289,0.5461161136627197,-0.005370238795876503,0.6141797304153442,0.5077186226844788,-0.0074030086398124695,0.6298866868019104,0.5391245484352112,0.010266144759953022,0.614936113357544,0.49288055300712585,-0.008121258579194546,0.6139103770256042,0.5498378872871399,-0.017632780596613884,0.6170312166213989,0.5981788635253906,-0.01886593922972679,0.6527137160301208,0.5306920409202576,0.004065522458404303,0.635754406452179,0.48123759031295776,-0.02200104482471943,0.6308898329734802,0.5541930198669434,-0.03224274516105652,0.6324955821037292,0.6130039095878601,-0.030523136258125305,0.6789940595626831,0.529717743396759,-0.005129266995936632,0.6616125702857971,0.485756516456604,-0.02922103740274906,0.6491778492927551,0.5549606680870056,-0.0330100916326046,0.6460577845573425,0.6101216673851013,-0.025917431339621544,0.7063423991203308,0.5301706790924072,-0.014675105921924114,0.7088319659233093,0.44986939430236816,-0.02758224494755268,0.7050929069519043,0.3976594805717468,-0.03264579549431801,0.7006682753562927,0.3503466546535492,-0.0321875624358654,0.0,0.0,0.0,0.0,0.0,0.0,0.0,0.0,0.0,0.0,0.0,0.0,0.0,0.0,0.0,0.0,0.0,0.0,0.0,0.0,0.0,0.0,0.0,0.0,0.0,0.0,0.0,0.0,0.0,0.0,0.0,0.0,0.0,0.0,0.0,0.0,0.0,0.0,0.0,0.0,0.0,0.0,0.0,0.0,0.0,0.0,0.0,0.0,0.0,0.0,0.0,0.0,0.0,0.0,0.0,0.0,0.0,0.0,0.0,0.0,0.0,0.0,0.0
1783345042.631495,0.6704118251800537,0.7177572250366211,-4.6213631321734283e-07,0.631156325340271,0.6729565262794495,-0.0012232610024511814,0.6133295893669128,0.5964592695236206,-0.00023924025299493223,0.6127116084098816,0.5367114543914795,-0.004428778309375048,0.6138841509819031,0.49487796425819397,-0.006542856339365244,0.6335936188697815,0.537312388420105,0.014762028120458126,0.6177595853805542,0.4875653386116028,-0.0036883288994431496,0.6150680184364319,0.5427359342575073,-0.013583843596279621,0.6181814074516296,0.5909501910209656,-0.014576070941984653,0.6545124650001526,0.5300390720367432,0.008214371278882027,0.6364620923995972,0.4795989692211151,-0.018040472641587257,0.6311966180801392,0.5522755980491638,-0.028827790170907974,0.6337653398513794,0.6108978986740112,-0.027151841670274734,0.6796245574951172,0.527736485004425,-0.0014691342366859317,0.6609787940979004,0.4797085225582123,-0.025362692773342133,0.6482896208763123,0.5472682118415833,-0.028780905529856682,0.646754801273346,0.6020616888999939,-0.02104465290904045,0.7063257098197937,0.5260216593742371,-0.01155808288604021,0.7100135087966919,0.445128858089447,-0.023065006360411644,0.7062826752662659,0.39352157711982727,-0.026740778237581253,0.7018842101097107,0.3478902280330658,-0.02510315552353859,0.0,0.0,0.0,0.0,0.0,0.0,0.0,0.0,0.0,0.0,0.0,0.0,0.0,0.0,0.0,0.0,0.0,0.0,0.0,0.0,0.0,0.0,0.0,0.0,0.0,0.0,0.0,0.0,0.0,0.0,0.0,0.0,0.0,0.0,0.0,0.0,0.0,0.0,0.0,0.0,0.0,0.0,0.0,0.0,0.0,0.0,0.0,0.0,0.0,0.0,0.0,0.0,0.0,0.0,0.0,0.0,0.0,0.0,0.0,0.0,0.0,0.0,0.0
1783345042.788057,0.6691345572471619,0.7159419655799866,-4.677847300627036e-07,0.6315205693244934,0.6682370901107788,0.0007977534551173449,0.6165022253990173,0.5933970808982849,0.0029278164729475975,0.6165366172790527,0.5339044332504272,-0.0006401219288818538,0.6173030138015747,0.4922260046005249,-0.002205540193244815,0.6365363001823425,0.5355778932571411,0.019888564944267273,0.6209089756011963,0.4860776960849762,0.0035623556468635798,0.616705596446991,0.5379646420478821,-0.005759310908615589,0.6192845106124878,0.5844265818595886,-0.0065421233884990215,0.6555289030075073,0.5289673209190369,0.0127670643851161,0.6369614601135254,0.4824293553829193,-0.011876900680363178,0.6321716904640198,0.552616536617279,-0.02334950491786003,0.6354280710220337,0.609008252620697,-0.022263241931796074,0.6796577572822571,0.5258546471595764,0.002741836244240403,0.660038948059082,0.4779227674007416,-0.019602740183472633,0.6476606726646423,0.544059157371521,-0.023018598556518555,0.6467462778091431,0.5984789133071899,-0.015403098426759243,0.705672025680542,0.5226750373840332,-0.007557701785117388,0.7085055708885193,0.44222941994667053,-0.01743965968489647,0.7053905129432678,0.39062175154685974,-0.020130028948187828,0.7018701434135437,0.34503617882728577,-0.0177726149559021,0.0,0.0,0.0,0.0,0.0,0.0,0.0,0.0,0.0,0.0,0.0,0.0,0.0,0.0,0.0,0.0,0.0,0.0,0.0,0.0,0.0,0.0,0.0,0.0,0.0,0.0,0.0,0.0,0.0,0.0,0.0,0.0,0.0,0.0,0.0,0.0,0.0,0.0,0.0,0.0,0.0,0.0,0.0,0.0,0.0,0.0,0.0,0.0,0.0,0.0,0.0,0.0,0.0,0.0,0.0,0.0,0.0,0.0,0.0,0.0,0.0,0.0,0.0
1783345042.918134,0.6657571196556091,0.7138494253158569,-4.805535809282446e-07,0.6303843259811401,0.663341760635376,0.0027249236591160297,0.616521418094635,0.5907179713249207,0.00513504957780242,0.6148272156715393,0.5354751944541931,0.0015614116564393044,0.613741397857666,0.4964577555656433,0.00011981954594375566,0.6361340284347534,0.5333707332611084,0.020398970693349838,0.6206804513931274,0.4839164614677429,0.004372899420559406,0.6164044141769409,0.5373234748840332,-0.004766424186527729,0.6200551390647888,0.58477383852005,-0.005410177633166313,0.6530249714851379,0.5274727940559387,0.012579400092363358,0.6341390013694763,0.4791201651096344,-0.011218549683690071,0.6293796300888062,0.5497335195541382,-0.021863089874386787,0.6335561275482178,0.6054266095161438,-0.020443741232156754,0.676185667514801,0.5248937010765076,0.002105372492223978,0.6544211506843567,0.47736406326293945,-0.018749769777059555,0.6429548859596252,0.5417046546936035,-0.021739237010478973,0.6444072127342224,0.5938483476638794,-0.01429755985736847,0.7024312019348145,0.5226089358329773,-0.008589169941842556,0.7065672874450684,0.44134899973869324,-0.01761440932750702,0.7026318907737732,0.3879096210002899,-0.02043347992002964,0.6985012292861938,0.34176453948020935,-0.018435224890708923,0.0,0.0,0.0,0.0,0.0,0.0,0.0,0.0,0.0,0.0,0.0,0.0,0.0,0.0,0.0,0.0,0.0,0.0,0.0,0.0,0.0,0.0,0.0,0.0,0.0,0.0,0.0,0.0,0.0,0.0,0.0,0.0,0.0,0.0,0.0,0.0,0.0,0.0,0.0,0.0,0.0,0.0,0.0,0.0,0.0,0.0,0.0,0.0,0.0,0.0,0.0,0.0,0.0,0.0,0.0,0.0,0.0,0.0,0.0,0.0,0.0,0.0,0.0
1783345043.056968,0.6627432703971863,0.7118144035339355,-4.984591441825614e-07,0.6287590861320496,0.654327929019928,0.00472740363329649,0.6171305179595947,0.583724856376648,0.007494802586734295,0.6150108575820923,0.5302798748016357,0.004000785294920206,0.6136379837989807,0.4903542399406433,0.002604337176308036,0.6385669112205505,0.5280565619468689,0.020388880744576454,0.6193211078643799,0.4776627719402313,0.0042470041662454605,0.6130267977714539,0.5307052731513977,-0.004649333655834198,0.6158531308174133,0.5780443549156189,-0.0048453896306455135,0.6535578966140747,0.5243337750434875,0.0118024293333292,0.6296443343162537,0.47599321603775024,-0.011837275698781013,0.6249180436134338,0.5462521910667419,-0.022343812510371208,0.6300888657569885,0.6012173295021057,-0.020815761759877205,0.6750572919845581,0.5222569108009338,0.0009089300292544067,0.6483447551727295,0.47725710272789,-0.0197051502764225,0.6371362209320068,0.5408021807670593,-0.02302713692188263,0.6398085355758667,0.5916351675987244,-0.01575949415564537,0.700886607170105,0.5199196934700012,-0.009972228668630123,0.7033869028091431,0.4350665509700775,-0.018766975030303,0.6979277729988098,0.38071122765541077,-0.021403061226010323,0.6925054788589478,0.33612003922462463,-0.019132666289806366,0.0,0.0,0.0,0.0,0.0,0.0,0.0,0.0,0.0,0.0,0.0,0.0,0.0,0.0,0.0,0.0,0.0,0.0,0.0,0.0,0.0,0.0,0.0,0.0,0.0,0.0,0.0,0.0,0.0,0.0,0.0,0.0,0.0,0.0,0.0,0.0,0.0,0.0,0.0,0.0,0.0,0.0,0.0,0.0,0.0,0.0,0.0,0.0,0.0,0.0,0.0,0.0,0.0,0.0,0.0,0.0,0.0,0.0,0.0,0.0,0.0,0.0,0.0
1783345043.191683,0.6603557467460632,0.7099958658218384,-5.497427650880127e-07,0.6272066831588745,0.6489138007164001,0.008256223984062672,0.6200507879257202,0.580315351486206,0.011838910169899464,0.6215742230415344,0.5288791656494141,0.008265499956905842,0.6256676912307739,0.49210411310195923,0.00656958157196641,0.6456477642059326,0.5250523090362549,0.023380158469080925,0.6232031583786011,0.47645115852355957,0.0073070041835308075,0.6141924858093262,0.529052734375,-0.003014870686456561,0.615504801273346,0.578498363494873,-0.004031999967992306,0.6567923426628113,0.5219845175743103,0.013118507340550423,0.6275137662887573,0.4745834171772003,-0.009310217574238777,0.6223384141921997,0.5436974167823792,-0.02111549861729145,0.6277797818183899,0.5991207361221313,-0.020949289202690125,0.6754544973373413,0.5200541615486145,0.0010639677057042718,0.6429471969604492,0.47716715931892395,-0.017147891223430634,0.6336370706558228,0.542661726474762,-0.02029704488813877,0.6391920447349548,0.5945873260498047,-0.013473951257765293,0.6990793943405151,0.5175268054008484,-0.010869377292692661,0.6987356543540955,0.4302501678466797,-0.016766661778092384,0.6924294829368591,0.3759971857070923,-0.017287272959947586,0.6869912147521973,0.3325453996658325,-0.013753443025052547,0.0,0.0,0.0,0.0,0.0,0.0,0.0,0.0,0.0,0.0,0.0,0.0,0.0,0.0,0.0,0.0,0.0,0.0,0.0,0.0,0.0,0.0,0.0,0.0,0.0,0.0,0.0,0.0,0.0,0.0,0.0,0.0,0.0,0.0,0.0,0.0,0.0,0.0,0.0,0.0,0.0,0.0,0.0,0.0,0.0,0.0,0.0,0.0,0.0,0.0,0.0,0.0,0.0,0.0,0.0,0.0,0.0,0.0,0.0,0.0,0.0,0.0,0.0
1783345043.317983,0.6617968082427979,0.7102025151252747,-6.155725600365258e-07,0.6277024149894714,0.646507978439331,0.00992604624480009,0.6225637793540955,0.5812820792198181,0.014035360887646675,0.6228556036949158,0.5289846062660217,0.010709095746278763,0.6257208585739136,0.48964568972587585,0.009261528961360455,0.653207540512085,0.5248359441757202,0.025244252756237984,0.6294804215431213,0.4773350656032562,0.00840479601174593,0.6191357374191284,0.5289136171340942,-0.0028005631174892187,0.619635283946991,0.5793716311454773,-0.0041984799318015575,0.6622477173805237,0.5234007835388184,0.013355890288949013,0.6281826496124268,0.47590434551239014,-0.009631000459194183,0.6219418048858643,0.5412644743919373,-0.021861068904399872,0.6259713768959045,0.5941460132598877,-0.022222567349672318,0.6775795221328735,0.5220260620117188,-0.00038333990960381925,0.6394714713096619,0.47686275839805603,-0.018736347556114197,0.6342689990997314,0.5419461727142334,-0.020642178133130074,0.6433793902397156,0.5937750339508057,-0.013222605921328068,0.6978101134300232,0.5201560854911804,-0.014071887359023094,0.6925503015518188,0.4304169714450836,-0.02061495929956436,0.6861324906349182,0.3737572431564331,-0.02025303989648819,0.6816840767860413,0.32858365774154663,-0.016067303717136383,0.0,0.0,0.0,0.0,0.0,0.0,0.0,0.0,0.0,0.0,0.0,0.0,0.0,0.0,0.0,0.0,0.0,0.0,0.0,0.0,0.0,0.0,0.0,0.0,0.0,0.0,0.0,0.0,0.0,0.0,0.0,0.0,0.0,0.0,0.0,0.0,0.0,0.0,0.0,0.0,0.0,0.0,0.0,0.0,0.0,0.0,0.0,0.0,0.0,0.0,0.0,0.0,0.0,0.0,0.0,0.0,0.0,0.0,0.0,0.0,0.0,0.0,0.0
1783345043.458745,0.6658987998962402,0.7109350562095642,-6.431283736674231e-07,0.6304105520248413,0.6477046608924866,0.010582276619970798,0.6265950798988342,0.585944652557373,0.01480734720826149,0.6271882057189941,0.5362580418586731,0.012098093517124653,0.6300457715988159,0.5016719102859497,0.011358524672687054,0.6596691608428955,0.5256312489509583,0.02310449443757534,0.6316086649894714,0.4813770651817322,0.005993064027279615,0.6214310526847839,0.530878484249115,-0.004950088448822498,0.623383104801178,0.5792580246925354,-0.00633768318220973,0.6674140095710754,0.5248427987098694,0.011022907681763172,0.6282288432121277,0.47933369874954224,-0.012706851586699486,0.6230751872062683,0.5444700121879578,-0.023886486887931824,0.6267602443695068,0.5960476398468018,-0.023648453876376152,0.6799660921096802,0.523690402507782,-0.0027603080961853266,0.6364718675613403,0.4762062430381775,-0.02172454074025154,0.6328853964805603,0.5421674251556396,-0.02236996218562126,0.6426370739936829,0.5933164954185486,-0.01428231317549944,0.6960309147834778,0.5220393538475037,-0.016452334821224213,0.6866994500160217,0.4323224723339081,-0.024934424087405205,0.681530237197876,0.37652134895324707,-0.025163691490888596,0.6783215999603271,0.3305514454841614,-0.021320372819900513,0.0,0.0,0.0,0.0,0.0,0.0,0.0,0.0,0.0,0.0,0.0,0.0,0.0,0.0,0.0,0.0,0.0,0.0,0.0,0.0,0.0,0.0,0.0,0.0,0.0,0.0,0.0,0.0,0.0,0.0,0.0,0.0,0.0,0.0,0.0,0.0,0.0,0.0,0.0,0.0,0.0,0.0,0.0,0.0,0.0,0.0,0.0,0.0,0.0,0.0,0.0,0.0,0.0,0.0,0.0,0.0,0.0,0.0,0.0,0.0,0.0,0.0,0.0
1783345043.627587,0.6721478700637817,0.7124033570289612,-7.03266664459079e-07,0.6322262287139893,0.6375178694725037,0.025859791785478592,0.632786750793457,0.5830879807472229,0.03617733716964722,0.6323221921920776,0.5357400178909302,0.03650659695267677,0.6349440217018127,0.501167893409729,0.03773236274719238,0.6765662431716919,0.5233234763145447,0.04007420688867569,0.6394641995429993,0.4818085730075836,0.028194278478622437,0.6256579756736755,0.5216392874717712,0.02062474563717842,0.6249751448631287,0.5609704256057739,0.020372629165649414,0.6856315732002258,0.521173357963562,0.019709840416908264,0.6292627453804016,0.4863194227218628,-0.0007909341948106885,0.6251481771469116,0.549107551574707,-0.008481153286993504,0.6315463185310364,0.5973167419433594,-0.00661778450012207,0.6921315789222717,0.5207896828651428,-0.0018886951729655266,0.63341224193573,0.48115986585617065,-0.019111262634396553,0.6316543221473694,0.5473647117614746,-0.01640855334699154,0.644213080406189,0.5966774821281433,-0.007206774316728115,0.6973395943641663,0.5195695757865906,-0.0222474355250597,0.6796942949295044,0.42795366048812866,-0.0332377664744854,0.6760081052780151,0.374899685382843,-0.03369846194982529,0.6761072278022766,0.3290093243122101,-0.03019094467163086,0.0,0.0,0.0,0.0,0.0,0.0,0.0,0.0,0.0,0.0,0.0,0.0,0.0,0.0,0.0,0.0,0.0,0.0,0.0,0.0,0.0,0.0,0.0,0.0,0.0,0.0,0.0,0.0,0.0,0.0,0.0,0.0,0.0,0.0,0.0,0.0,0.0,0.0,0.0,0.0,0.0,0.0,0.0,0.0,0.0,0.0,0.0,0.0,0.0,0.0,0.0,0.0,0.0,0.0,0.0,0.0,0.0,0.0,0.0,0.0,0.0,0.0,0.0
1783345043.7856011,0.6774632930755615,0.7137950658798218,-6.708472142236133e-07,0.6394393444061279,0.637059211730957,0.044305797666311264,0.6392395496368408,0.5850178599357605,0.06249868497252464,0.6372787356376648,0.5410187244415283,0.06636875122785568,0.6396863460540771,0.5068047046661377,0.06976774334907532,0.6939810514450073,0.5245401263237,0.0687640905380249,0.6552830934524536,0.4774278700351715,0.06555445492267609,0.6356934309005737,0.49760347604751587,0.05906574800610542,0.6286805868148804,0.5134966373443604,0.05795485898852348,0.7007541656494141,0.5208737850189209,0.03915005922317505,0.635755717754364,0.4862923324108124,0.02694682404398918,0.6293835043907166,0.5484107136726379,0.017258744686841965,0.6370264887809753,0.5943806171417236,0.016122665256261826,0.7007981538772583,0.5163419246673584,0.009220932610332966,0.6358472108840942,0.48044466972351074,-8.285859803436324e-05,0.6319341063499451,0.5483943819999695,0.0013538042549043894,0.6444653272628784,0.5941540598869324,0.007385304197669029,0.6959962844848633,0.5070237517356873,-0.018057039007544518,0.6760830879211426,0.41823551058769226,-0.020308269187808037,0.6711558699607849,0.37454625964164734,-0.016417283564805984,0.6712933778762817,0.33299434185028076,-0.011465241201221943,0.0,0.0,0.0,0.0,0.0,0.0,0.0,0.0,0.0,0.0,0.0,0.0,0.0,0.0,0.0,0.0,0.0,0.0,0.0,0.0,0.0,0.0,0.0,0.0,0.0,0.0,0.0,0.0,0.0,0.0,0.0,0.0,0.0,0.0,0.0,0.0,0.0,0.0,0.0,0.0,0.0,0.0,0.0,0.0,0.0,0.0,0.0,0.0,0.0,0.0,0.0,0.0,0.0,0.0,0.0,0.0,0.0,0.0,0.0,0.0,0.0,0.0,0.0
1783345043.916532,0.6839385032653809,0.7141224145889282,-6.628521873608406e-07,0.6485564708709717,0.6391845345497131,0.04747733473777771,0.645394504070282,0.5871175527572632,0.06741825491189957,0.6412448287010193,0.5469745993614197,0.07326367497444153,0.6402039527893066,0.5189824104309082,0.07812890410423279,0.703743040561676,0.5148316621780396,0.06719683110713959,0.6653934121131897,0.4596560597419739,0.06775502115488052,0.6458620429039001,0.467153936624527,0.06426232308149338,0.6386622190475464,0.4751535952091217,0.06400153785943985,0.7084100246429443,0.5121027231216431,0.03691199794411659,0.6420827507972717,0.484287828207016,0.028641993179917336,0.6340555548667908,0.5461540818214417,0.020951127633452415,0.6417112946510315,0.5915749073028564,0.019491704180836678,0.7036816477775574,0.5119578242301941,0.007154237013310194,0.6397438645362854,0.4820985496044159,-7.495372119592503e-05,0.6335674524307251,0.5464738011360168,0.0010628063464537263,0.6442482471466064,0.5882176160812378,0.0052137188613414764,0.6925467848777771,0.5049260258674622,-0.01941749081015587,0.6749888062477112,0.4207974672317505,-0.022614454850554466,0.6693658828735352,0.3783658444881439,-0.020120348781347275,0.668064534664154,0.3363170027732849,-0.016887571662664413,0.0,0.0,0.0,0.0,0.0,0.0,0.0,0.0,0.0,0.0,0.0,0.0,0.0,0.0,0.0,0.0,0.0,0.0,0.0,0.0,0.0,0.0,0.0,0.0,0.0,0.0,0.0,0.0,0.0,0.0,0.0,0.0,0.0,0.0,0.0,0.0,0.0,0.0,0.0,0.0,0.0,0.0,0.0,0.0,0.0,0.0,0.0,0.0,0.0,0.0,0.0,0.0,0.0,0.0,0.0,0.0,0.0,0.0,0.0,0.0,0.0,0.0,0.0
1783345044.059476,0.6866035461425781,0.7080617547035217,-7.532028689638537e-07,0.6568036675453186,0.6354142427444458,0.04560629650950432,0.6537269949913025,0.5886045098304749,0.06405425816774368,0.6476369500160217,0.5540888905525208,0.06917376071214676,0.6445518732070923,0.5294002294540405,0.07415880262851715,0.7121291160583496,0.5112579464912415,0.059060268104076385,0.6648178100585938,0.46669450402259827,0.0555349737405777,0.6492841243743896,0.5086614489555359,0.05165025219321251,0.6491832733154297,0.5470843315124512,0.052970413118600845,0.7134129405021667,0.5099359154701233,0.030092665925621986,0.6466044783592224,0.4794682264328003,0.021707450971007347,0.6398991942405701,0.5408067107200623,0.016875064000487328,0.6470768451690674,0.5843559503555298,0.017407367005944252,0.7058078646659851,0.5103840231895447,0.0014609233476221561,0.6418989896774292,0.4795345962047577,-0.005489516071975231,0.6378695964813232,0.5463972091674805,-0.00324063329026103,0.6497319340705872,0.5871931910514832,0.0015400501433759928,0.6922948360443115,0.505484402179718,-0.023978974670171738,0.6727527976036072,0.41831591725349426,-0.028291964903473854,0.664669930934906,0.37651267647743225,-0.026511874049901962,0.6614232659339905,0.33496546745300293,-0.02330651879310608,0.0,0.0,0.0,0.0,0.0,0.0,0.0,0.0,0.0,0.0,0.0,0.0,0.0,0.0,0.0,0.0,0.0,0.0,0.0,0.0,0.0,0.0,0.0,0.0,0.0,0.0,0.0,0.0,0.0,0.0,0.0,0.0,0.0,0.0,0.0,0.0,0.0,0.0,0.0,0.0,0.0,0.0,0.0,0.0,0.0,0.0,0.0,0.0,0.0,0.0,0.0,0.0,0.0,0.0,0.0,0.0,0.0,0.0,0.0,0.0,0.0,0.0,0.0
1783345044.22109,0.6873511672019958,0.6999715566635132,-7.698897661612136e-07,0.6742532253265381,0.6367564797401428,0.06599743664264679,0.6702789068222046,0.5877644419670105,0.09492499381303787,0.6616784334182739,0.5515021085739136,0.10811060667037964,0.6510133147239685,0.5284336805343628,0.1198711171746254,0.7164581418037415,0.5089372396469116,0.08054136484861374,0.6618841886520386,0.478797048330307,0.08749966323375702,0.6512331962585449,0.5303636193275452,0.08314035087823868,0.6547617316246033,0.5659986734390259,0.08217205852270126,0.7136554718017578,0.5075201392173767,0.04542252793908119,0.6471303701400757,0.4810607135295868,0.052648045122623444,0.6436665654182434,0.5436767935752869,0.045505091547966,0.6514036059379578,0.5847132205963135,0.04077192395925522,0.7030563354492188,0.5036477446556091,0.013346039690077305,0.6399951577186584,0.47935619950294495,0.023915983736515045,0.6375558972358704,0.5487872958183289,0.024292968213558197,0.6505320072174072,0.5903257131576538,0.022927196696400642,0.6870595216751099,0.49022966623306274,-0.013805174268782139,0.6683169007301331,0.40854790806770325,-0.0047315130941569805,0.6591869592666626,0.37228238582611084,0.0005170580698177218,0.6545408368110657,0.3347765803337097,0.003521206323057413,0.0,0.0,0.0,0.0,0.0,0.0,0.0,0.0,0.0,0.0,0.0,0.0,0.0,0.0,0.0,0.0,0.0,0.0,0.0,0.0,0.0,0.0,0.0,0.0,0.0,0.0,0.0,0.0,0.0,0.0,0.0,0.0,0.0,0.0,0.0,0.0,0.0,0.0,0.0,0.0,0.0,0.0,0.0,0.0,0.0,0.0,0.0,0.0,0.0,0.0,0.0,0.0,0.0,0.0,0.0,0.0,0.0,0.0,0.0,0.0,0.0,0.0,0.0
1783345044.3491268,0.6868423819541931,0.6965206861495972,-7.466110218956601e-07,0.6908707022666931,0.6352468132972717,0.06032383069396019,0.6898261308670044,0.5862287282943726,0.08578626066446304,0.6793885827064514,0.549798309803009,0.09726066887378693,0.6638754606246948,0.5321469306945801,0.10757848620414734,0.7267487645149231,0.5085040330886841,0.0698455274105072,0.6678882241249084,0.48316851258277893,0.07591648399829865,0.6563336849212646,0.5340847969055176,0.07017358392477036,0.6603231430053711,0.5656123161315918,0.06804408878087997,0.7188208103179932,0.5045711398124695,0.038735806941986084,0.6507861018180847,0.4818461835384369,0.047884222120046616,0.6463668346405029,0.5413252115249634,0.04058605805039406,0.6544771790504456,0.5800886154174805,0.03443480283021927,0.7043094038963318,0.5003616809844971,0.011231980286538601,0.641434371471405,0.4752669632434845,0.024808479472994804,0.6374096870422363,0.5431503057479858,0.02502465806901455,0.6496132016181946,0.583861768245697,0.022410355508327484,0.6859045028686523,0.4891654849052429,-0.011656411923468113,0.6693357825279236,0.40758541226387024,0.0014562391443178058,0.6604362726211548,0.3720407485961914,0.008387069217860699,0.6549451947212219,0.33450326323509216,0.011916653253138065,0.0,0.0,0.0,0.0,0.0,0.0,0.0,0.0,0.0,0.0,0.0,0.0,0.0,0.0,0.0,0.0,0.0,0.0,0.0,0.0,0.0,0.0,0.0,0.0,0.0,0.0,0.0,0.0,0.0,0.0,0.0,0.0,0.0,0.0,0.0,0.0,0.0,0.0,0.0,0.0,0.0,0.0,0.0,0.0,0.0,0.0,0.0,0.0,0.0,0.0,0.0,0.0,0.0,0.0,0.0,0.0,0.0,0.0,0.0,0.0,0.0,0.0,0.0
1783345044.477251,0.6909893751144409,0.6915196776390076,-7.146950906644634e-07,0.6957127451896667,0.6284201145172119,0.055251456797122955,0.6923965811729431,0.5746259689331055,0.07846806943416595,0.6777775883674622,0.5328819751739502,0.08947663009166718,0.6579106450080872,0.5130826830863953,0.09974265843629837,0.7362674474716187,0.5034181475639343,0.05988685414195061,0.6783908605575562,0.471157968044281,0.06753711402416229,0.6657248139381409,0.5221650004386902,0.06407524645328522,0.668663740158081,0.5530929565429688,0.0624944232404232,0.7266653776168823,0.4999444782733917,0.03166778385639191,0.6599107384681702,0.47329217195510864,0.041970256716012955,0.6545074582099915,0.530023455619812,0.037217698991298676,0.6622827649116516,0.5658710598945618,0.031851135194301605,0.7092131972312927,0.49703872203826904,0.007178072351962328,0.6500399112701416,0.4707864224910736,0.020964358001947403,0.6438423991203308,0.5343542098999023,0.022108089178800583,0.6542534828186035,0.5730240345001221,0.019165297970175743,0.6871890425682068,0.4864793121814728,-0.01303858682513237,0.6718136072158813,0.4044114053249359,-0.0021044432651251554,0.6618393659591675,0.3653657138347626,0.0031629521399736404,0.6559858322143555,0.3244662284851074,0.005131245125085115,0.0,0.0,0.0,0.0,0.0,0.0,0.0,0.0,0.0,0.0,0.0,0.0,0.0,0.0,0.0,0.0,0.0,0.0,0.0,0.0,0.0,0.0,0.0,0.0,0.0,0.0,0.0,0.0,0.0,0.0,0.0,0.0,0.0,0.0,0.0,0.0,0.0,0.0,0.0,0.0,0.0,0.0,0.0,0.0,0.0,0.0,0.0,0.0,0.0,0.0,0.0,0.0,0.0,0.0,0.0,0.0,0.0,0.0,0.0,0.0,0.0,0.0,0.0
1783345044.6207411,0.6940447688102722,0.6896305680274963,-6.552893978550856e-07,0.7042713761329651,0.6223645806312561,0.03636510670185089,0.6994606256484985,0.5630611777305603,0.04894968122243881,0.6802036762237549,0.514731764793396,0.05314350128173828,0.6570642590522766,0.49393919110298157,0.057914238423109055,0.7434360980987549,0.49750062823295593,0.03340999782085419,0.6848443150520325,0.4646287262439728,0.03425798565149307,0.6721503138542175,0.5122665166854858,0.030856821686029434,0.6756359338760376,0.5419037938117981,0.029869474470615387,0.7331189513206482,0.4933500587940216,0.0124886529520154,0.6684877872467041,0.47061604261398315,0.014457335695624352,0.6618650555610657,0.5255251526832581,0.011885982938110828,0.6700134873390198,0.5584395527839661,0.009359925054013729,0.7135602831840515,0.49367570877075195,-0.0057720402255654335,0.6578612327575684,0.46654316782951355,-0.000943488790653646,0.6491861939430237,0.5236719250679016,0.0017188307829201221,0.6586899161338806,0.557837724685669,0.0017817686311900616,0.6883760094642639,0.4901999235153198,-0.02112823911011219,0.6712740659713745,0.40716204047203064,-0.01722864806652069,0.6593273878097534,0.3646543622016907,-0.013753874227404594,0.6541820764541626,0.3206452429294586,-0.011681058444082737,0.0,0.0,0.0,0.0,0.0,0.0,0.0,0.0,0.0,0.0,0.0,0.0,0.0,0.0,0.0,0.0,0.0,0.0,0.0,0.0,0.0,0.0,0.0,0.0,0.0,0.0,0.0,0.0,0.0,0.0,0.0,0.0,0.0,0.0,0.0,0.0,0.0,0.0,0.0,0.0,0.0,0.0,0.0,0.0,0.0,0.0,0.0,0.0,0.0,0.0,0.0,0.0,0.0,0.0,0.0,0.0,0.0,0.0,0.0,0.0,0.0,0.0,0.0
1783345044.767425,0.6983098983764648,0.6873259544372559,-6.035920705471653e-07,0.7166630029678345,0.6237077713012695,0.03863437473773956,0.7130439281463623,0.5591182708740234,0.05227097123861313,0.6930256485939026,0.5115751624107361,0.057465195655822754,0.6659308075904846,0.49258410930633545,0.062227945774793625,0.747536301612854,0.49146851897239685,0.0328565277159214,0.6885703206062317,0.4562232494354248,0.03952402621507645,0.6752530932426453,0.5049818754196167,0.0393952913582325,0.6785324215888977,0.5398126840591431,0.039402544498443604,0.7326713800430298,0.486431747674942,0.011062802746891975,0.6695724129676819,0.47117987275123596,0.019700579345226288,0.6634200811386108,0.5227397680282593,0.018315475434064865,0.672282338142395,0.5562425255775452,0.01460016518831253,0.7097347378730774,0.4887576699256897,-0.006991033907979727,0.6569980382919312,0.46829283237457275,0.0027462674770504236,0.6483275890350342,0.5199695229530334,0.005215650424361229,0.6565033793449402,0.5536515116691589,0.0032240264117717743,0.6827800869941711,0.4883405864238739,-0.021944275125861168,0.6655988693237305,0.4055556356906891,-0.01648862473666668,0.6540568470954895,0.36144497990608215,-0.01252657175064087,0.6482012867927551,0.31832796335220337,-0.011007944121956825,0.0,0.0,0.0,0.0,0.0,0.0,0.0,0.0,0.0,0.0,0.0,0.0,0.0,0.0,0.0,0.0,0.0,0.0,0.0,0.0,0.0,0.0,0.0,0.0,0.0,0.0,0.0,0.0,0.0,0.0,0.0,0.0,0.0,0.0,0.0,0.0,0.0,0.0,0.0,0.0,0.0,0.0,0.0,0.0,0.0,0.0,0.0,0.0,0.0,0.0,0.0,0.0,0.0,0.0,0.0,0.0,0.0,0.0,0.0,0.0,0.0,0.0,0.0
1783345044.921375,0.7009456157684326,0.6858851313591003,-5.217210627961322e-07,0.7234288454055786,0.6123374104499817,0.03652012720704079,0.7213314175605774,0.5447436571121216,0.04835668206214905,0.6990882754325867,0.4981175661087036,0.05247955396771431,0.6702727675437927,0.48296067118644714,0.05537017807364464,0.7463361620903015,0.4859651029109955,0.025176547467708588,0.6929566264152527,0.447998046875,0.03639673441648483,0.6814620494842529,0.4937272369861603,0.04188443720340729,0.6838740706443787,0.5249807238578796,0.04414089024066925,0.7294569611549377,0.4795575737953186,0.004336985293775797,0.6748200058937073,0.46452799439430237,0.014819730073213577,0.6690897941589355,0.5104209780693054,0.016025513410568237,0.6768195629119873,0.5411168336868286,0.013156048022210598,0.7049131393432617,0.48426827788352966,-0.011985874734818935,0.6604245901107788,0.4634723365306854,-0.0014407145790755749,0.6523393392562866,0.5068950057029724,0.0019220734247937799,0.658024787902832,0.5355388522148132,-0.0005948893376626074,0.6771137714385986,0.48843154311180115,-0.02522626332938671,0.6602349281311035,0.4089064598083496,-0.02080296352505684,0.6499765515327454,0.36290526390075684,-0.01786702498793602,0.643740713596344,0.31882917881011963,-0.017876777797937393,0.0,0.0,0.0,0.0,0.0,0.0,0.0,0.0,0.0,0.0,0.0,0.0,0.0,0.0,0.0,0.0,0.0,0.0,0.0,0.0,0.0,0.0,0.0,0.0,0.0,0.0,0.0,0.0,0.0,0.0,0.0,0.0,0.0,0.0,0.0,0.0,0.0,0.0,0.0,0.0,0.0,0.0,0.0,0.0,0.0,0.0,0.0,0.0,0.0,0.0,0.0,0.0,0.0,0.0,0.0,0.0,0.0,0.0,0.0,0.0,0.0,0.0,0.0
1783345045.0538712,0.7001848220825195,0.6865984201431274,-4.81867175494699e-07,0.7260432839393616,0.6125510334968567,0.03428886458277702,0.7271225452423096,0.5444896817207336,0.04568317160010338,0.7087202072143555,0.4992062747478485,0.049969665706157684,0.6820839047431946,0.4886389970779419,0.052956875413656235,0.7451370358467102,0.48366671800613403,0.022483021020889282,0.6922053098678589,0.44403284788131714,0.03356264904141426,0.6825231313705444,0.4879038631916046,0.04031289741396904,0.6867084503173828,0.5179310441017151,0.04395861551165581,0.7271689176559448,0.4778386950492859,0.003309486201032996,0.6760432124137878,0.4573719799518585,0.01480503473430872,0.6702187657356262,0.5010736584663391,0.017835939303040504,0.677699625492096,0.5303546786308289,0.016461709514260292,0.7017716765403748,0.48356637358665466,-0.011545820161700249,0.66051185131073,0.45961323380470276,-1.6522828445886262e-05,0.6532313823699951,0.5020268559455872,0.004084134940057993,0.6595930457115173,0.5291816592216492,0.002115122973918915,0.6733114123344421,0.49027732014656067,-0.023473160341382027,0.6571090221405029,0.4111897051334381,-0.018035776913166046,0.6472924947738647,0.3658545911312103,-0.014720844104886055,0.6413244009017944,0.3224363625049591,-0.014380390755832195,0.0,0.0,0.0,0.0,0.0,0.0,0.0,0.0,0.0,0.0,0.0,0.0,0.0,0.0,0.0,0.0,0.0,0.0,0.0,0.0,0.0,0.0,0.0,0.0,0.0,0.0,0.0,0.0,0.0,0.0,0.0,0.0,0.0,0.0,0.0,0.0,0.0,0.0,0.0,0.0,0.0,0.0,0.0,0.0,0.0,0.0,0.0,0.0,0.0,0.0,0.0,0.0,0.0,0.0,0.0,0.0,0.0,0.0,0.0,0.0,0.0,0.0,0.0
1783345045.1810088,0.7022885084152222,0.6848951578140259,-4.852500978813623e-07,0.7291250228881836,0.6101641654968262,0.03679712489247322,0.7311358451843262,0.5418336391448975,0.05092305317521095,0.7165316939353943,0.49694594740867615,0.05765140429139137,0.691828191280365,0.4855941832065582,0.06241055205464363,0.7442933917045593,0.48032864928245544,0.026544203981757164,0.69538414478302,0.44216760993003845,0.04069945216178894,0.6848068833351135,0.481766939163208,0.05047432705760002,0.6864749789237976,0.5141134858131409,0.05630984902381897,0.7249455451965332,0.47429904341697693,0.0076401615515351295,0.6801801323890686,0.4497087597846985,0.022846819832921028,0.6713289618492126,0.48899805545806885,0.028744766488671303,0.6747877597808838,0.5183254480361938,0.029401671141386032,0.6986694931983948,0.4806799292564392,-0.006840711459517479,0.6619441509246826,0.44992148876190186,0.005203499924391508,0.6541761755943298,0.48786675930023193,0.00959021970629692,0.6589451432228088,0.5146583318710327,0.00831365492194891,0.6694838404655457,0.48947712779045105,-0.01783415861427784,0.6514543294906616,0.4071447253227234,-0.013966448605060577,0.6410902142524719,0.3617137670516968,-0.011087669059634209,0.6345032453536987,0.3214896619319916,-0.010416524484753609,0.0,0.0,0.0,0.0,0.0,0.0,0.0,0.0,0.0,0.0,0.0,0.0,0.0,0.0,0.0,0.0,0.0,0.0,0.0,0.0,0.0,0.0,0.0,0.0,0.0,0.0,0.0,0.0,0.0,0.0,0.0,0.0,0.0,0.0,0.0,0.0,0.0,0.0,0.0,0.0,0.0,0.0,0.0,0.0,0.0,0.0,0.0,0.0,0.0,0.0,0.0,0.0,0.0,0.0,0.0,0.0,0.0,0.0,0.0,0.0,0.0,0.0,0.0
1783345045.342245,0.7023410201072693,0.680679202079773,-4.987977604287153e-07,0.7309386730194092,0.6086593866348267,0.038324568420648575,0.7351999282836914,0.5435502529144287,0.05500031262636185,0.7260828018188477,0.4980632960796356,0.06497424840927124,0.7062528729438782,0.48467785120010376,0.07249343395233154,0.7400592565536499,0.47568076848983765,0.025802375748753548,0.6981102824211121,0.4371446669101715,0.04103326424956322,0.6886451840400696,0.4728260636329651,0.0515618771314621,0.6902302503585815,0.5030086636543274,0.0579155758023262,0.7181577086448669,0.4704950749874115,0.008473723195493221,0.6813552975654602,0.44060152769088745,0.02589726448059082,0.6722139120101929,0.4787759482860565,0.03386595845222473,0.6744748950004578,0.508317232131958,0.03594626858830452,0.6909914016723633,0.4794209897518158,-0.004015413112938404,0.6615625023841858,0.4452040493488312,0.009124812670052052,0.6546186804771423,0.48152074217796326,0.014628885313868523,0.658494770526886,0.5084450840950012,0.014343516901135445,0.662489116191864,0.49164339900016785,-0.012500637210905552,0.6472020149230957,0.4062560796737671,-0.009626412764191628,0.63826584815979,0.36230212450027466,-0.0065317885018885136,0.6323443055152893,0.32525137066841125,-0.004977837670594454,0.0,0.0,0.0,0.0,0.0,0.0,0.0,0.0,0.0,0.0,0.0,0.0,0.0,0.0,0.0,0.0,0.0,0.0,0.0,0.0,0.0,0.0,0.0,0.0,0.0,0.0,0.0,0.0,0.0,0.0,0.0,0.0,0.0,0.0,0.0,0.0,0.0,0.0,0.0,0.0,0.0,0.0,0.0,0.0,0.0,0.0,0.0,0.0,0.0,0.0,0.0,0.0,0.0,0.0,0.0,0.0,0.0,0.0,0.0,0.0,0.0,0.0,0.0
1783345045.5225759,0.6996362805366516,0.67550128698349,-4.869604026680463e-07,0.7312279343605042,0.606449544429779,0.03999471291899681,0.7366430759429932,0.5400874018669128,0.059137653559446335,0.7283788323402405,0.48962661623954773,0.07230699062347412,0.7079567909240723,0.4752941131591797,0.08282327651977539,0.734279453754425,0.46789392828941345,0.027609808370471,0.6962223052978516,0.4330845773220062,0.04671673849225044,0.6887149214744568,0.468762069940567,0.05777133256196976,0.6904038190841675,0.4963999092578888,0.0636633038520813,0.710273265838623,0.46351996064186096,0.012090560048818588,0.6771363615989685,0.4343397915363312,0.035732202231884,0.6695294380187988,0.47214630246162415,0.044238146394491196,0.6722646951675415,0.49962928891181946,0.04495774582028389,0.6822621822357178,0.4749848246574402,0.0021425532177090645,0.6564212441444397,0.4392513036727905,0.021240873262286186,0.6509861350059509,0.4742640256881714,0.02685183472931385,0.655400276184082,0.5013688802719116,0.024826280772686005,0.6537722945213318,0.49035343527793884,-0.0035143662244081497,0.6401700973510742,0.4052775800228119,0.0037428955547511578,0.6306108832359314,0.36340266466140747,0.008358635008335114,0.6236198544502258,0.3290576636791229,0.010091494768857956,0.0,0.0,0.0,0.0,0.0,0.0,0.0,0.0,0.0,0.0,0.0,0.0,0.0,0.0,0.0,0.0,0.0,0.0,0.0,0.0,0.0,0.0,0.0,0.0,0.0,0.0,0.0,0.0,0.0,0.0,0.0,0.0,0.0,0.0,0.0,0.0,0.0,0.0,0.0,0.0,0.0,0.0,0.0,0.0,0.0,0.0,0.0,0.0,0.0,0.0,0.0,0.0,0.0,0.0,0.0,0.0,0.0,0.0,0.0,0.0,0.0,0.0,0.0
1783345045.7006369,0.6978432536125183,0.6738962531089783,-4.490673006785073e-07,0.7306824326515198,0.6102573275566101,0.03750446066260338,0.7401512861251831,0.5440794229507446,0.05676843598484993,0.7354949712753296,0.48736459016799927,0.07121147960424423,0.7172420620918274,0.46654024720191956,0.08355163782835007,0.7304760217666626,0.4662478566169739,0.027689147740602493,0.6995541453361511,0.4302058815956116,0.047133516520261765,0.6929193139076233,0.4599516689777374,0.0580616369843483,0.6947694420814514,0.48475080728530884,0.06400997191667557,0.7048764824867249,0.4626261591911316,0.014709705486893654,0.6777243614196777,0.43085581064224243,0.03930136561393738,0.670552134513855,0.4651561975479126,0.0484180673956871,0.6729349493980408,0.4900834262371063,0.04964020475745201,0.6764721870422363,0.4740349352359772,0.006958615500479937,0.6556864380836487,0.4350786507129669,0.026688486337661743,0.6510761380195618,0.46667197346687317,0.03314824774861336,0.6548839807510376,0.49305102229118347,0.0318707637488842,0.6486039757728577,0.4904930591583252,0.0033259722404181957,0.6382119059562683,0.4067579507827759,0.011794325895607471,0.6297211050987244,0.3658398985862732,0.017269335687160492,0.6234626770019531,0.3326210081577301,0.019727569073438644,0.0,0.0,0.0,0.0,0.0,0.0,0.0,0.0,0.0,0.0,0.0,0.0,0.0,0.0,0.0,0.0,0.0,0.0,0.0,0.0,0.0,0.0,0.0,0.0,0.0,0.0,0.0,0.0,0.0,0.0,0.0,0.0,0.0,0.0,0.0,0.0,0.0,0.0,0.0,0.0,0.0,0.0,0.0,0.0,0.0,0.0,0.0,0.0,0.0,0.0,0.0,0.0,0.0,0.0,0.0,0.0,0.0,0.0,0.0,0.0,0.0,0.0,0.0
1783345045.962183,0.6947322487831116,0.6698616147041321,-4.0109091514750617e-07,0.730975866317749,0.609592854976654,0.03382696583867073,0.7427459955215454,0.5451499819755554,0.05330681428313255,0.7368391156196594,0.49037477374076843,0.06957873702049255,0.7172266244888306,0.47388988733291626,0.08427421748638153,0.7270108461380005,0.4654884934425354,0.024537770077586174,0.7065539956092834,0.426784485578537,0.044014111161231995,0.7010919451713562,0.45199277997016907,0.0556628555059433,0.7015867829322815,0.4772734045982361,0.062199365347623825,0.6988047957420349,0.462522953748703,0.014587664045393467,0.6804065704345703,0.43066340684890747,0.03953054919838905,0.674569845199585,0.46120956540107727,0.04931792989373207,0.6758473515510559,0.48390454053878784,0.050915397703647614,0.6697217226028442,0.475067675113678,0.009545125998556614,0.6560563445091248,0.43570753931999207,0.02859819494187832,0.6530876755714417,0.4624275267124176,0.03459015488624573,0.655890703201294,0.48835912346839905,0.03326575085520744,0.6431986689567566,0.49195873737335205,0.008537424728274345,0.6351537108421326,0.4084572196006775,0.015433336608111858,0.6284539699554443,0.3667955994606018,0.019543267786502838,0.6238202452659607,0.3349962830543518,0.021263882517814636,0.0,0.0,0.0,0.0,0.0,0.0,0.0,0.0,0.0,0.0,0.0,0.0,0.0,0.0,0.0,0.0,0.0,0.0,0.0,0.0,0.0,0.0,0.0,0.0,0.0,0.0,0.0,0.0,0.0,0.0,0.0,0.0,0.0,0.0,0.0,0.0,0.0,0.0,0.0,0.0,0.0,0.0,0.0,0.0,0.0,0.0,0.0,0.0,0.0,0.0,0.0,0.0,0.0,0.0,0.0,0.0,0.0,0.0,0.0,0.0,0.0,0.0,0.0
1783345046.155128,0.6913267374038696,0.6673516035079956,-3.8336602870003844e-07,0.7298399806022644,0.6119136214256287,0.03239428624510765,0.7435179352760315,0.5502891540527344,0.051763635128736496,0.7393606305122375,0.49998584389686584,0.06865686178207397,0.7218351364135742,0.4890793263912201,0.08432971686124802,0.7226272821426392,0.45934823155403137,0.02472778782248497,0.7037802934646606,0.4228801429271698,0.04310541972517967,0.70002681016922,0.45122143626213074,0.05152100324630737,0.702124834060669,0.47801271080970764,0.05552225559949875,0.6945078372955322,0.45819729566574097,0.016327498480677605,0.676618754863739,0.430325984954834,0.04206341877579689,0.6721179485321045,0.4636227488517761,0.050681475549936295,0.6749914288520813,0.48654359579086304,0.05074162036180496,0.6651260256767273,0.4730076491832733,0.012612385675311089,0.6513946056365967,0.43831002712249756,0.03342163562774658,0.64934241771698,0.4664379954338074,0.03919639810919762,0.6543117761611938,0.4936940670013428,0.03699750825762749,0.6386107206344604,0.492464154958725,0.012662763707339764,0.6315873265266418,0.41340401768684387,0.021227644756436348,0.6253505349159241,0.37365588545799255,0.025635339319705963,0.6220359802246094,0.3425653576850891,0.027010755613446236,0.0,0.0,0.0,0.0,0.0,0.0,0.0,0.0,0.0,0.0,0.0,0.0,0.0,0.0,0.0,0.0,0.0,0.0,0.0,0.0,0.0,0.0,0.0,0.0,0.0,0.0,0.0,0.0,0.0,0.0,0.0,0.0,0.0,0.0,0.0,0.0,0.0,0.0,0.0,0.0,0.0,0.0,0.0,0.0,0.0,0.0,0.0,0.0,0.0,0.0,0.0,0.0,0.0,0.0,0.0,0.0,0.0,0.0,0.0,0.0,0.0,0.0,0.0
1783345046.326816,0.6893754005432129,0.6663804650306702,-3.6344917475616967e-07,0.7289887070655823,0.6122528910636902,0.031027505174279213,0.7441853284835815,0.5505122542381287,0.050149958580732346,0.7406538128852844,0.5004420280456543,0.06752636283636093,0.7228406071662903,0.4917873740196228,0.08400966227054596,0.7205516695976257,0.46175432205200195,0.02224276214838028,0.7055686712265015,0.42271849513053894,0.04086846485733986,0.7028123736381531,0.4489511251449585,0.049738362431526184,0.7044396996498108,0.4747704863548279,0.05372306704521179,0.691684365272522,0.46083036065101624,0.015003270469605923,0.6769846081733704,0.4310031831264496,0.0410061776638031,0.6737672686576843,0.4640441834926605,0.05053417384624481,0.6758622527122498,0.4861176311969757,0.05101980268955231,0.6621739864349365,0.4752020239830017,0.012378228828310966,0.6517007946968079,0.4363425374031067,0.033861614763736725,0.6506627202033997,0.4627171754837036,0.040552910417318344,0.6550868153572083,0.49007102847099304,0.03866720572113991,0.6362396478652954,0.49398958683013916,0.013403268530964851,0.6295921206474304,0.412467360496521,0.02133515290915966,0.6249468922615051,0.3712618350982666,0.024947453290224075,0.6230827569961548,0.3386740982532501,0.025674838572740555,0.0,0.0,0.0,0.0,0.0,0.0,0.0,0.0,0.0,0.0,0.0,0.0,0.0,0.0,0.0,0.0,0.0,0.0,0.0,0.0,0.0,0.0,0.0,0.0,0.0,0.0,0.0,0.0,0.0,0.0,0.0,0.0,0.0,0.0,0.0,0.0,0.0,0.0,0.0,0.0,0.0,0.0,0.0,0.0,0.0,0.0,0.0,0.0,0.0,0.0,0.0,0.0,0.0,0.0,0.0,0.0,0.0,0.0,0.0,0.0,0.0,0.0,0.0
1783345046.5233521,0.6884986162185669,0.6663781404495239,-3.458241053522215e-07,0.7287110090255737,0.614863932132721,0.02778046950697899,0.7453761100769043,0.5521032214164734,0.04544621333479881,0.7419686317443848,0.5007836222648621,0.06150764599442482,0.7233660221099854,0.49249762296676636,0.07677922397851944,0.7208105325698853,0.4610704779624939,0.02043857052922249,0.7074863314628601,0.4222276210784912,0.037486638873815536,0.7040435075759888,0.44749370217323303,0.0458676777780056,0.7053292989730835,0.4741668701171875,0.05003901571035385,0.6916739344596863,0.4587787389755249,0.013923888094723225,0.6780754923820496,0.4321066737174988,0.03768283501267433,0.6740974187850952,0.4641309678554535,0.04576239734888077,0.6764678955078125,0.4866095781326294,0.04597444087266922,0.6624722480773926,0.47228407859802246,0.01170442346483469,0.6518353819847107,0.4376128315925598,0.03051185980439186,0.650124192237854,0.46481287479400635,0.03542235493659973,0.6543500423431396,0.49196451902389526,0.03336070105433464,0.6362897753715515,0.49044910073280334,0.012951349839568138,0.6304818391799927,0.4109296500682831,0.020329350605607033,0.6262208819389343,0.37001484632492065,0.023879459127783775,0.6251609325408936,0.33755022287368774,0.02496711164712906,0.0,0.0,0.0,0.0,0.0,0.0,0.0,0.0,0.0,0.0,0.0,0.0,0.0,0.0,0.0,0.0,0.0,0.0,0.0,0.0,0.0,0.0,0.0,0.0,0.0,0.0,0.0,0.0,0.0,0.0,0.0,0.0,0.0,0.0,0.0,0.0,0.0,0.0,0.0,0.0,0.0,0.0,0.0,0.0,0.0,0.0,0.0,0.0,0.0,0.0,0.0,0.0,0.0,0.0,0.0,0.0,0.0,0.0,0.0,0.0,0.0,0.0,0.0
1783345046.7018318,0.6881721615791321,0.6661412715911865,-3.1158657520791166e-07,0.7296086549758911,0.6118552684783936,0.02269005961716175,0.7459043264389038,0.5451672077178955,0.03772779926657677,0.7396208047866821,0.4921471178531647,0.05213601514697075,0.7177908420562744,0.48488160967826843,0.06585831940174103,0.7187915444374084,0.45983707904815674,0.013800693675875664,0.7091566324234009,0.4210602939128876,0.029331855475902557,0.7076683044433594,0.4475746750831604,0.03618210181593895,0.7090622782707214,0.4738439917564392,0.03885998949408531,0.6885711550712585,0.458468496799469,0.009090087376534939,0.6804260611534119,0.4313150644302368,0.03173757717013359,0.6784730553627014,0.4638351798057556,0.03938283026218414,0.6803865432739258,0.4859440326690674,0.0389169380068779,0.6597272157669067,0.4729783833026886,0.008365205489099026,0.6544042229652405,0.4363785684108734,0.026003219187259674,0.6545897722244263,0.46253278851509094,0.03038381226360798,0.6582732796669006,0.4896329641342163,0.027784891426563263,0.6347839832305908,0.49178001284599304,0.010710441507399082,0.6298324465751648,0.4094148874282837,0.01718805357813835,0.6264055967330933,0.36787956953048706,0.02020256035029888,0.6258165240287781,0.3358800411224365,0.020676108077168465,0.0,0.0,0.0,0.0,0.0,0.0,0.0,0.0,0.0,0.0,0.0,0.0,0.0,0.0,0.0,0.0,0.0,0.0,0.0,0.0,0.0,0.0,0.0,0.0,0.0,0.0,0.0,0.0,0.0,0.0,0.0,0.0,0.0,0.0,0.0,0.0,0.0,0.0,0.0,0.0,0.0,0.0,0.0,0.0,0.0,0.0,0.0,0.0,0.0,0.0,0.0,0.0,0.0,0.0,0.0,0.0,0.0,0.0,0.0,0.0,0.0,0.0,0.0
1783345046.837767,0.6881253719329834,0.6664016246795654,-2.9536008128161484e-07,0.7299726009368896,0.6119500994682312,0.02095007337629795,0.7462029457092285,0.5431773066520691,0.03434829041361809,0.740235447883606,0.4893523156642914,0.04697354510426521,0.7182797789573669,0.48273128271102905,0.05889400839805603,0.7183099389076233,0.4589803218841553,0.012274970300495625,0.7107425332069397,0.41997313499450684,0.026290886104106903,0.7090287804603577,0.44680699706077576,0.032098203897476196,0.7096282243728638,0.4732760787010193,0.034513894468545914,0.6879334449768066,0.4569989740848541,0.007448681630194187,0.6823251843452454,0.43110913038253784,0.029065724462270737,0.6805570125579834,0.4631788730621338,0.03576889634132385,0.682277500629425,0.4855305850505829,0.0349690243601799,0.6592190265655518,0.4717752933502197,0.006515021435916424,0.6566163301467896,0.43686601519584656,0.023165512830018997,0.6570233702659607,0.4639175236225128,0.027467064559459686,0.6600642204284668,0.49187034368515015,0.02534697763621807,0.6349004507064819,0.4914296269416809,0.008448231033980846,0.6304740309715271,0.4080805480480194,0.01633400097489357,0.6277477741241455,0.3671390414237976,0.021421119570732117,0.6279231905937195,0.33678221702575684,0.023504026234149933,0.0,0.0,0.0,0.0,0.0,0.0,0.0,0.0,0.0,0.0,0.0,0.0,0.0,0.0,0.0,0.0,0.0,0.0,0.0,0.0,0.0,0.0,0.0,0.0,0.0,0.0,0.0,0.0,0.0,0.0,0.0,0.0,0.0,0.0,0.0,0.0,0.0,0.0,0.0,0.0,0.0,0.0,0.0,0.0,0.0,0.0,0.0,0.0,0.0,0.0,0.0,0.0,0.0,0.0,0.0,0.0,0.0,0.0,0.0,0.0,0.0,0.0,0.0
1783345046.981448,0.6886813640594482,0.6672828793525696,-3.39098278345773e-07,0.7293260097503662,0.6142818927764893,0.02510373294353485,0.7453936338424683,0.5481966137886047,0.04125536233186722,0.7410170435905457,0.49499163031578064,0.05615413933992386,0.7216737270355225,0.48795461654663086,0.07027150690555573,0.7198299169540405,0.45878368616104126,0.017258107662200928,0.7096405029296875,0.4213050901889801,0.033418502658605576,0.7072250247001648,0.44790902733802795,0.04070374369621277,0.7077245712280273,0.4734666645526886,0.043992750346660614,0.6900970935821533,0.45661813020706177,0.011348005384206772,0.6819369196891785,0.43053746223449707,0.0347336120903492,0.6793631315231323,0.4630906283855438,0.04231672361493111,0.6809121370315552,0.4843040108680725,0.04208232834935188,0.6612350940704346,0.4711458384990692,0.009652301669120789,0.6563628911972046,0.4359232187271118,0.027650926262140274,0.6559162139892578,0.46316593885421753,0.0321807935833931,0.6587543487548828,0.4895607829093933,0.030024919658899307,0.6362674832344055,0.49048617482185364,0.011218822561204433,0.6311088800430298,0.4074710011482239,0.018969422206282616,0.6284019947052002,0.36723563075065613,0.023587577044963837,0.628675639629364,0.33680984377861023,0.025455374270677567,0.0,0.0,0.0,0.0,0.0,0.0,0.0,0.0,0.0,0.0,0.0,0.0,0.0,0.0,0.0,0.0,0.0,0.0,0.0,0.0,0.0,0.0,0.0,0.0,0.0,0.0,0.0,0.0,0.0,0.0,0.0,0.0,0.0,0.0,0.0,0.0,0.0,0.0,0.0,0.0,0.0,0.0,0.0,0.0,0.0,0.0,0.0,0.0,0.0,0.0,0.0,0.0,0.0,0.0,0.0,0.0,0.0,0.0,0.0,0.0,0.0,0.0,0.0
1783345047.117874,0.6886388659477234,0.6666184067726135,-3.611940826431237e-07,0.7292606234550476,0.6131448745727539,0.02622176520526409,0.7450873851776123,0.5492559671401978,0.042662400752305984,0.7413822412490845,0.4964352250099182,0.05754190683364868,0.7227226495742798,0.4876480996608734,0.07157596945762634,0.7211901545524597,0.45809581875801086,0.017216714099049568,0.7084474563598633,0.4213237762451172,0.03280152007937431,0.705639660358429,0.44858792424201965,0.040102943778038025,0.7063013315200806,0.47436290979385376,0.043299973011016846,0.6922046542167664,0.4561568796634674,0.010457844473421574,0.6812090277671814,0.4286037087440491,0.03264855220913887,0.6777094006538391,0.4614483118057251,0.04059218615293503,0.6792486906051636,0.4832574129104614,0.04066573083400726,0.6630879640579224,0.47069472074508667,0.007885590195655823,0.6558146476745605,0.43397706747055054,0.024776408448815346,0.6545060873031616,0.46137329936027527,0.029889432713389397,0.6575545072555542,0.4881439805030823,0.028135312721133232,0.6374339461326599,0.48982441425323486,0.00861558597534895,0.6319248676300049,0.40749043226242065,0.014409815892577171,0.6278150677680969,0.3667465150356293,0.017990292981266975,0.6266575455665588,0.3350766599178314,0.019196368753910065,0.0,0.0,0.0,0.0,0.0,0.0,0.0,0.0,0.0,0.0,0.0,0.0,0.0,0.0,0.0,0.0,0.0,0.0,0.0,0.0,0.0,0.0,0.0,0.0,0.0,0.0,0.0,0.0,0.0,0.0,0.0,0.0,0.0,0.0,0.0,0.0,0.0,0.0,0.0,0.0,0.0,0.0,0.0,0.0,0.0,0.0,0.0,0.0,0.0,0.0,0.0,0.0,0.0,0.0,0.0,0.0,0.0,0.0,0.0,0.0,0.0,0.0,0.0
1783345047.270263,0.6892462372779846,0.6660540103912354,-3.7829138932465867e-07,0.7283850312232971,0.6111294627189636,0.031010471284389496,0.7426097989082336,0.5480520725250244,0.04909691587090492,0.7378160357475281,0.4951440095901489,0.06489646434783936,0.7185286283493042,0.48414331674575806,0.07956413179636002,0.7231676578521729,0.46149954199790955,0.020525408908724785,0.7057346701622009,0.42406919598579407,0.03800924867391586,0.7019494771957397,0.45099517703056335,0.04705505818128586,0.7030752897262573,0.47697561979293823,0.05144273489713669,0.6942124962806702,0.45869603753089905,0.012277473695576191,0.6788947582244873,0.42866554856300354,0.03659342601895332,0.6741358041763306,0.4610777795314789,0.045963793992996216,0.6756824254989624,0.4834631085395813,0.04670082405209541,0.6647363305091858,0.47186729311943054,0.0087228799238801,0.6533911824226379,0.4314620792865753,0.028184344992041588,0.6513177156448364,0.458316445350647,0.03462301567196846,0.6550716161727905,0.48487502336502075,0.03299091383814812,0.6383507251739502,0.4898896813392639,0.008868168108165264,0.6328504681587219,0.4086686670780182,0.01645774394273758,0.6284961700439453,0.3686571419239044,0.020649559795856476,0.6267070770263672,0.33699899911880493,0.021877598017454147,0.0,0.0,0.0,0.0,0.0,0.0,0.0,0.0,0.0,0.0,0.0,0.0,0.0,0.0,0.0,0.0,0.0,0.0,0.0,0.0,0.0,0.0,0.0,0.0,0.0,0.0,0.0,0.0,0.0,0.0,0.0,0.0,0.0,0.0,0.0,0.0,0.0,0.0,0.0,0.0,0.0,0.0,0.0,0.0,0.0,0.0,0.0,0.0,0.0,0.0,0.0,0.0,0.0,0.0,0.0,0.0,0.0,0.0,0.0,0.0,0.0,0.0,0.0
1783345047.422388,0.6918556690216064,0.6709357500076294,-3.9086970105017826e-07,0.7258678078651428,0.6116117835044861,0.030300065875053406,0.7368919849395752,0.5469844937324524,0.04516768828034401,0.7320918440818787,0.49012821912765503,0.056484684348106384,0.7141038775444031,0.47032567858695984,0.06598281115293503,0.7269303798675537,0.46311643719673157,0.020163899287581444,0.6942057013511658,0.43442994356155396,0.038224078714847565,0.6880947947502136,0.46762245893478394,0.04819190502166748,0.6906242966651917,0.491336852312088,0.05345381796360016,0.7007748484611511,0.45901450514793396,0.00954920332878828,0.6729918718338013,0.4390052556991577,0.03185417130589485,0.666200578212738,0.4722882807254791,0.038304951041936874,0.6687785387039185,0.4979836940765381,0.0378868468105793,0.6721948981285095,0.4717988967895508,0.0040143742226064205,0.6495888233184814,0.4423082768917084,0.021384550258517265,0.6451300978660583,0.4731346070766449,0.025167299434542656,0.6493675112724304,0.4990006685256958,0.022637922316789627,0.6442753076553345,0.48971492052078247,0.0021369648166000843,0.6353551745414734,0.41299426555633545,0.011841547675430775,0.6287222504615784,0.3749215602874756,0.01793564483523369,0.6241145730018616,0.3438630700111389,0.020659049972891808,0.0,0.0,0.0,0.0,0.0,0.0,0.0,0.0,0.0,0.0,0.0,0.0,0.0,0.0,0.0,0.0,0.0,0.0,0.0,0.0,0.0,0.0,0.0,0.0,0.0,0.0,0.0,0.0,0.0,0.0,0.0,0.0,0.0,0.0,0.0,0.0,0.0,0.0,0.0,0.0,0.0,0.0,0.0,0.0,0.0,0.0,0.0,0.0,0.0,0.0,0.0,0.0,0.0,0.0,0.0,0.0,0.0,0.0,0.0,0.0,0.0,0.0,0.0
1783345047.550255,0.6931325793266296,0.6762464642524719,-4.3321318798916764e-07,0.7232365608215332,0.6079911589622498,0.033898647874593735,0.7263935208320618,0.5410242676734924,0.049410466104745865,0.7132961750030518,0.49925124645233154,0.05892636626958847,0.6906399726867676,0.4896446466445923,0.06649971008300781,0.7327863574028015,0.47154292464256287,0.0277160182595253,0.6918491721153259,0.44279006123542786,0.04577029496431351,0.6822016835212708,0.4789097011089325,0.0564354732632637,0.6840493679046631,0.5034540295600891,0.062097493559122086,0.7095651626586914,0.46424299478530884,0.01290802750736475,0.6739746928215027,0.4471032917499542,0.03285173699259758,0.6649766564369202,0.4840462803840637,0.038674525916576385,0.6683091521263123,0.510531485080719,0.03870652988553047,0.6820254921913147,0.4730263948440552,0.0027400502003729343,0.6525275707244873,0.44571465253829956,0.018203500658273697,0.6451186537742615,0.48152080178260803,0.02081214264035225,0.6483843326568604,0.5062628388404846,0.018097782507538795,0.653559148311615,0.4859248995780945,-0.003811092348769307,0.640329897403717,0.41054198145866394,0.004308691713958979,0.6300579905509949,0.37531861662864685,0.009075469337403774,0.6216217875480652,0.345560759305954,0.010992691852152348,0.0,0.0,0.0,0.0,0.0,0.0,0.0,0.0,0.0,0.0,0.0,0.0,0.0,0.0,0.0,0.0,0.0,0.0,0.0,0.0,0.0,0.0,0.0,0.0,0.0,0.0,0.0,0.0,0.0,0.0,0.0,0.0,0.0,0.0,0.0,0.0,0.0,0.0,0.0,0.0,0.0,0.0,0.0,0.0,0.0,0.0,0.0,0.0,0.0,0.0,0.0,0.0,0.0,0.0,0.0,0.0,0.0,0.0,0.0,0.0,0.0,0.0,0.0
1783345047.687289,0.6894379258155823,0.6767148971557617,-4.68912304540936e-07,0.7141857147216797,0.6041324734687805,0.03308742493391037,0.7126091718673706,0.5334246754646301,0.044637713581323624,0.6929031014442444,0.4884576201438904,0.05004425346851349,0.6656352281570435,0.47919735312461853,0.05364783853292465,0.7300240397453308,0.4822268784046173,0.01837538368999958,0.6824584007263184,0.4474610388278961,0.03196104243397713,0.6720079779624939,0.4849051535129547,0.041346270591020584,0.6723897457122803,0.5101303458213806,0.046507105231285095,0.7091343402862549,0.4736640751361847,0.0017188027268275619,0.665662407875061,0.45277151465415955,0.016177983954548836,0.6571716666221619,0.4934786856174469,0.02170288935303688,0.6606183648109436,0.5229319334030151,0.02199910208582878,0.6832725405693054,0.47871556878089905,-0.010049037635326385,0.6470639705657959,0.44661909341812134,0.0033019513357430696,0.638902485370636,0.4852086305618286,0.007934262976050377,0.642270028591156,0.5112773180007935,0.006240708753466606,0.6554208397865295,0.4860982596874237,-0.018516147509217262,0.6393292546272278,0.41308343410491943,-0.011229156516492367,0.6290849447250366,0.3785509467124939,-0.006202868651598692,0.6207609176635742,0.3446216881275177,-0.004576286766678095,0.0,0.0,0.0,0.0,0.0,0.0,0.0,0.0,0.0,0.0,0.0,0.0,0.0,0.0,0.0,0.0,0.0,0.0,0.0,0.0,0.0,0.0,0.0,0.0,0.0,0.0,0.0,0.0,0.0,0.0,0.0,0.0,0.0,0.0,0.0,0.0,0.0,0.0,0.0,0.0,0.0,0.0,0.0,0.0,0.0,0.0,0.0,0.0,0.0,0.0,0.0,0.0,0.0,0.0,0.0,0.0,0.0,0.0,0.0,0.0,0.0,0.0,0.0
1783345047.817528,0.6833243370056152,0.678979218006134,-5.187436613596219e-07,0.700223445892334,0.6152679920196533,0.028581824153661728,0.6977012753486633,0.5477810502052307,0.03826197609305382,0.6773136854171753,0.500604510307312,0.04241877794265747,0.6537872552871704,0.4825183153152466,0.04624800384044647,0.7262219190597534,0.4916633367538452,0.017667250707745552,0.6742914319038391,0.4530714750289917,0.027362298220396042,0.6627855896949768,0.49719661474227905,0.033375028520822525,0.6654022336006165,0.5287424325942993,0.037052568048238754,0.7125649452209473,0.48075953125953674,0.00230615446344018,0.6597430109977722,0.46484375,0.012020711787045002,0.6521109938621521,0.508965790271759,0.015013014897704124,0.659363329410553,0.5409378409385681,0.014219483360648155,0.6901137232780457,0.4814133942127228,-0.009177742525935173,0.645920991897583,0.4593615233898163,0.0002480469411239028,0.6382551789283752,0.5020771026611328,0.004350675269961357,0.6445706486701965,0.5316941142082214,0.0032536135986447334,0.6637141704559326,0.48178309202194214,-0.017980776727199554,0.6444783210754395,0.41122329235076904,-0.012632728554308414,0.6313038468360901,0.37307009100914,-0.00864532869309187,0.6222032904624939,0.3357961177825928,-0.007505121175199747,0.0,0.0,0.0,0.0,0.0,0.0,0.0,0.0,0.0,0.0,0.0,0.0,0.0,0.0,0.0,0.0,0.0,0.0,0.0,0.0,0.0,0.0,0.0,0.0,0.0,0.0,0.0,0.0,0.0,0.0,0.0,0.0,0.0,0.0,0.0,0.0,0.0,0.0,0.0,0.0,0.0,0.0,0.0,0.0,0.0,0.0,0.0,0.0,0.0,0.0,0.0,0.0,0.0,0.0,0.0,0.0,0.0,0.0,0.0,0.0,0.0,0.0,0.0
1783345048.053785,0.670695424079895,0.6903897523880005,-6.520825195366342e-07,0.6550890803337097,0.6372008919715881,0.018998289480805397,0.6512686014175415,0.5878252387046814,0.024399586021900177,0.643798828125,0.5501453280448914,0.022509779781103134,0.6343778371810913,0.5268151760101318,0.021872932091355324,0.7057496309280396,0.5128412246704102,0.024425312876701355,0.6532099843025208,0.4749855101108551,0.013988466933369637,0.633243978023529,0.5177044868469238,0.007932133041322231,0.6307709813117981,0.5629544258117676,0.008550862781703472,0.7039954662322998,0.5032707452774048,0.008417567238211632,0.6384122967720032,0.47362247109413147,-0.0055535342544317245,0.6283014416694641,0.5301051735877991,-0.010262740775942802,0.6336073875427246,0.5749009251594543,-0.008926152251660824,0.6935274004936218,0.49845802783966064,-0.008082247339189053,0.6314881443977356,0.46386435627937317,-0.022063378244638443,0.6238684058189392,0.525990903377533,-0.021612342447042465,0.6323635578155518,0.5681077837944031,-0.016030846163630486,0.676738440990448,0.4929182827472687,-0.023044485598802567,0.6557178497314453,0.41050300002098083,-0.030291026458144188,0.6441141366958618,0.3743199408054352,-0.028346439823508263,0.6379777193069458,0.3418194055557251,-0.023926768451929092,0.0,0.0,0.0,0.0,0.0,0.0,0.0,0.0,0.0,0.0,0.0,0.0,0.0,0.0,0.0,0.0,0.0,0.0,0.0,0.0,0.0,0.0,0.0,0.0,0.0,0.0,0.0,0.0,0.0,0.0,0.0,0.0,0.0,0.0,0.0,0.0,0.0,0.0,0.0,0.0,0.0,0.0,0.0,0.0,0.0,0.0,0.0,0.0,0.0,0.0,0.0,0.0,0.0,0.0,0.0,0.0,0.0,0.0,0.0,0.0,0.0,0.0,0.0
1783345048.175431,0.6427141427993774,0.6876665353775024,-5.619468765871716e-07,0.6117388010025024,0.6345579028129578,0.014575794339179993,0.6089382767677307,0.581584632396698,0.022685347124934196,0.6111710071563721,0.5343104004859924,0.022429298609495163,0.6143162250518799,0.5010014772415161,0.022746317088603973,0.6322517395019531,0.5315905213356018,0.03970983251929283,0.6189541816711426,0.4872574806213379,0.031266503036022186,0.6060148477554321,0.5089760422706604,0.02431255206465721,0.6013165712356567,0.5392910242080688,0.024554383009672165,0.643096387386322,0.5225558280944824,0.02625916711986065,0.6119576692581177,0.4822634160518646,0.009508924558758736,0.6068869829177856,0.537194013595581,-0.0010848346864804626,0.6102766394615173,0.5811480283737183,-0.000679743243381381,0.6567003130912781,0.5141164064407349,0.01091103907674551,0.6181393265724182,0.470893919467926,-0.005514502990990877,0.6144903302192688,0.5313271880149841,-0.00888424925506115,0.6206166744232178,0.5790461897850037,-0.0024950685910880566,0.6729173064231873,0.5062428712844849,-0.003596568712964654,0.6607187390327454,0.4239267110824585,-0.007260615471750498,0.6532674431800842,0.37913501262664795,-0.0032503025140613317,0.6484124064445496,0.34068402647972107,0.003427706193178892,0.0,0.0,0.0,0.0,0.0,0.0,0.0,0.0,0.0,0.0,0.0,0.0,0.0,0.0,0.0,0.0,0.0,0.0,0.0,0.0,0.0,0.0,0.0,0.0,0.0,0.0,0.0,0.0,0.0,0.0,0.0,0.0,0.0,0.0,0.0,0.0,0.0,0.0,0.0,0.0,0.0,0.0,0.0,0.0,0.0,0.0,0.0,0.0,0.0,0.0,0.0,0.0,0.0,0.0,0.0,0.0,0.0,0.0,0.0,0.0,0.0,0.0,0.0
1783345048.316957,0.6391983032226562,0.6901315450668335,-5.795425295218593e-07,0.6023871898651123,0.6514683961868286,0.011969181708991528,0.5914261341094971,0.6044389009475708,0.018022017553448677,0.5916711091995239,0.5602553486824036,0.016662774607539177,0.5974228978157043,0.5295501947402954,0.016556672751903534,0.6140406131744385,0.5475614666938782,0.03322085738182068,0.5955208539962769,0.5003710389137268,0.02085193432867527,0.5902557373046875,0.5433309674263,0.00857182964682579,0.592067301273346,0.5918209552764893,0.0053743100725114346,0.6251993179321289,0.5338989496231079,0.023276422172784805,0.6011316776275635,0.4787720739841461,0.007499128580093384,0.5979838967323303,0.5395784378051758,-0.00573458569124341,0.6028550863265991,0.590364933013916,-0.008410166949033737,0.6418741941452026,0.5185649991035461,0.011934139765799046,0.615932822227478,0.46416175365448,0.0008471501059830189,0.6103171110153198,0.5265995264053345,-0.0021377115044742823,0.6174715757369995,0.5791623592376709,0.002368893474340439,0.6644793748855591,0.5048193335533142,0.0008158137206919491,0.660534679889679,0.4341655969619751,0.0022225617431104183,0.6517237424850464,0.391947478055954,0.005540348123759031,0.6444658041000366,0.35363146662712097,0.010127897374331951,0.0,0.0,0.0,0.0,0.0,0.0,0.0,0.0,0.0,0.0,0.0,0.0,0.0,0.0,0.0,0.0,0.0,0.0,0.0,0.0,0.0,0.0,0.0,0.0,0.0,0.0,0.0,0.0,0.0,0.0,0.0,0.0,0.0,0.0,0.0,0.0,0.0,0.0,0.0,0.0,0.0,0.0,0.0,0.0,0.0,0.0,0.0,0.0,0.0,0.0,0.0,0.0,0.0,0.0,0.0,0.0,0.0,0.0,0.0,0.0,0.0,0.0,0.0
1783345048.483836,0.6370570659637451,0.6847822666168213,-4.846317551709944e-07,0.5962438583374023,0.6540796160697937,0.005925025325268507,0.578501284122467,0.6044092774391174,0.009385904297232628,0.5756573677062988,0.55866938829422,0.005786554887890816,0.5770989060401917,0.525455892086029,0.003543867263942957,0.6033855080604553,0.5425326228141785,0.02779862843453884,0.5845097899436951,0.4973166882991791,0.013056544587016106,0.583256721496582,0.5410540103912354,0.0016848953673616052,0.5877957940101624,0.5862014889717102,-0.0006221554940566421,0.6179431080818176,0.5282222628593445,0.019116804003715515,0.5963825583457947,0.479939341545105,-0.0011841235682368279,0.5978220701217651,0.5410177707672119,-0.014001546427607536,0.604706883430481,0.5910616517066956,-0.01492150966078043,0.6378600597381592,0.5137467980384827,0.008061142638325691,0.6142820119857788,0.4647676646709442,-0.008155984804034233,0.6106703281402588,0.5254372358322144,-0.011187367141246796,0.6163517832756042,0.5752065181732178,-0.005019859876483679,0.6611840128898621,0.501345694065094,-0.003275460097938776,0.656640887260437,0.4325287640094757,-0.006898237857967615,0.6490364670753479,0.39248335361480713,-0.005965040531009436,0.6407277584075928,0.35712215304374695,-0.0019443059572950006,0.0,0.0,0.0,0.0,0.0,0.0,0.0,0.0,0.0,0.0,0.0,0.0,0.0,0.0,0.0,0.0,0.0,0.0,0.0,0.0,0.0,0.0,0.0,0.0,0.0,0.0,0.0,0.0,0.0,0.0,0.0,0.0,0.0,0.0,0.0,0.0,0.0,0.0,0.0,0.0,0.0,0.0,0.0,0.0,0.0,0.0,0.0,0.0,0.0,0.0,0.0,0.0,0.0,0.0,0.0,0.0,0.0,0.0,0.0,0.0,0.0,0.0,0.0
1783345048.621181,0.6437724828720093,0.6847689747810364,-4.246894604875706e-07,0.596476674079895,0.6604194641113281,0.0007937398040667176,0.5711305737495422,0.6076379418373108,0.002753571840003133,0.5673219561576843,0.5571261048316956,-0.0009502143366262317,0.5697989463806152,0.5244514346122742,-0.0031970287673175335,0.594068706035614,0.5437206029891968,0.021649811416864395,0.5763413310050964,0.4990397095680237,0.00508255697786808,0.5788694620132446,0.5407018065452576,-0.0067331306636333466,0.5856419801712036,0.5836378335952759,-0.009414300322532654,0.6127371788024902,0.5277689695358276,0.015152956359088421,0.5954187512397766,0.4778677225112915,-0.006097218953073025,0.5978729128837585,0.5357787013053894,-0.017860688269138336,0.6042077541351318,0.585737407207489,-0.01819162257015705,0.6348991394042969,0.5138798952102661,0.005720393266528845,0.616899847984314,0.4633656442165375,-0.012271254323422909,0.6145883798599243,0.525005578994751,-0.014385567978024483,0.6194816827774048,0.577040433883667,-0.007509566843509674,0.6594868898391724,0.503119707107544,-0.00433874037116766,0.6544151306152344,0.43636763095855713,-0.0103529654443264,0.6478651762008667,0.39680954813957214,-0.009990787133574486,0.6413611173629761,0.3602558374404907,-0.006261746399104595,0.0,0.0,0.0,0.0,0.0,0.0,0.0,0.0,0.0,0.0,0.0,0.0,0.0,0.0,0.0,0.0,0.0,0.0,0.0,0.0,0.0,0.0,0.0,0.0,0.0,0.0,0.0,0.0,0.0,0.0,0.0,0.0,0.0,0.0,0.0,0.0,0.0,0.0,0.0,0.0,0.0,0.0,0.0,0.0,0.0,0.0,0.0,0.0,0.0,0.0,0.0,0.0,0.0,0.0,0.0,0.0,0.0,0.0,0.0,0.0,0.0,0.0,0.0
1783345048.7742321,0.6455203890800476,0.6858217120170593,-3.598870534915477e-07,0.5986313819885254,0.668844997882843,-0.0009623767691664398,0.5735504627227783,0.6100693345069885,0.0002746593381743878,0.5796159505844116,0.5557528138160706,-0.003271951340138912,0.5942201018333435,0.5242300629615784,-0.005594272632151842,0.5895319581031799,0.5469271540641785,0.016504274681210518,0.5737349390983582,0.499725341796875,0.000380001642042771,0.5789031982421875,0.5408889651298523,-0.010684356093406677,0.5877382159233093,0.5862423181533813,-0.013498637825250626,0.6113306879997253,0.5290044546127319,0.010969514958560467,0.5945680141448975,0.47612372040748596,-0.009954527951776981,0.5980629324913025,0.5329819917678833,-0.02122725546360016,0.6053037643432617,0.5858378410339355,-0.021678492426872253,0.6355674266815186,0.5160996913909912,0.0026059341616928577,0.6187892556190491,0.46257483959198,-0.015950141474604607,0.6167166829109192,0.5225258469581604,-0.01872507482767105,0.621024489402771,0.5765768885612488,-0.012686168774962425,0.6619216799736023,0.5062887668609619,-0.006290157791227102,0.656231164932251,0.4382719397544861,-0.01448182575404644,0.6486005187034607,0.3964131772518158,-0.01629382185637951,0.6398536562919617,0.3580738604068756,-0.01438878569751978,0.0,0.0,0.0,0.0,0.0,0.0,0.0,0.0,0.0,0.0,0.0,0.0,0.0,0.0,0.0,0.0,0.0,0.0,0.0,0.0,0.0,0.0,0.0,0.0,0.0,0.0,0.0,0.0,0.0,0.0,0.0,0.0,0.0,0.0,0.0,0.0,0.0,0.0,0.0,0.0,0.0,0.0,0.0,0.0,0.0,0.0,0.0,0.0,0.0,0.0,0.0,0.0,0.0,0.0,0.0,0.0,0.0,0.0,0.0,0.0,0.0,0.0,0.0
1783345048.9204512,0.6514386534690857,0.6907429695129395,-3.5287607147438393e-07,0.6037076711654663,0.668628990650177,-0.0013438505120575428,0.5767235159873962,0.6057592630386353,0.0009017488919198513,0.5812276601791382,0.5546320080757141,-0.0010954259196296334,0.5953167676925659,0.5287080407142639,-0.001549117616377771,0.5923486948013306,0.5421919822692871,0.017243411391973495,0.579364001750946,0.49568405747413635,0.001871601678431034,0.5854390263557434,0.5382422208786011,-0.008506329730153084,0.5941173434257507,0.5832293033599854,-0.011177979409694672,0.6162264943122864,0.5237722396850586,0.01207068469375372,0.6020790934562683,0.47195637226104736,-0.008290180005133152,0.6067217588424683,0.5283846259117126,-0.01837865449488163,0.6133068203926086,0.580406904220581,-0.017998842522501945,0.6415584087371826,0.5130605101585388,0.0038911469746381044,0.6278703808784485,0.46108970046043396,-0.014238572679460049,0.6274580359458923,0.519774854183197,-0.01577880047261715,0.6316896677017212,0.5725277662277222,-0.009002620354294777,0.6696359515190125,0.5061156153678894,-0.00492951599881053,0.6652405858039856,0.4404160678386688,-0.01306033506989479,0.6588027477264404,0.4009690582752228,-0.014269549399614334,0.650629997253418,0.36500900983810425,-0.011910111643373966,0.0,0.0,0.0,0.0,0.0,0.0,0.0,0.0,0.0,0.0,0.0,0.0,0.0,0.0,0.0,0.0,0.0,0.0,0.0,0.0,0.0,0.0,0.0,0.0,0.0,0.0,0.0,0.0,0.0,0.0,0.0,0.0,0.0,0.0,0.0,0.0,0.0,0.0,0.0,0.0,0.0,0.0,0.0,0.0,0.0,0.0,0.0,0.0,0.0,0.0,0.0,0.0,0.0,0.0,0.0,0.0,0.0,0.0,0.0,0.0,0.0,0.0,0.0
1783345049.0544589,0.6619280576705933,0.6883397102355957,-3.626290947522648e-07,0.6146884560585022,0.6689018607139587,-0.0013703500153496861,0.5856220722198486,0.6094432473182678,0.00038312957622110844,0.5860118865966797,0.5605211853981018,-0.0013671801425516605,0.597793698310852,0.5371070504188538,-0.0010629940079525113,0.5993785858154297,0.5407295227050781,0.01099308580160141,0.5865815877914429,0.48473846912384033,-0.006387531291693449,0.5942828059196472,0.5251647233963013,-0.016466841101646423,0.6037442088127136,0.5718659162521362,-0.018537012860178947,0.6256393194198608,0.521886944770813,0.0058270967565476894,0.6134145259857178,0.4604831635951996,-0.016940027475357056,0.6187008619308472,0.5153898596763611,-0.025566743686795235,0.6241991519927979,0.5696655511856079,-0.02353561669588089,0.652401328086853,0.5114443302154541,-0.0020737131126224995,0.6402543187141418,0.4572170674800873,-0.021532800048589706,0.6401749849319458,0.5117492079734802,-0.0217912420630455,0.6435226798057556,0.5627551674842834,-0.013979321345686913,0.6804832220077515,0.5054283142089844,-0.010475358925759792,0.6768534183502197,0.44065845012664795,-0.021375203505158424,0.671007513999939,0.39945706725120544,-0.023756124079227448,0.6638723015785217,0.36373719573020935,-0.0217742957174778,0.0,0.0,0.0,0.0,0.0,0.0,0.0,0.0,0.0,0.0,0.0,0.0,0.0,0.0,0.0,0.0,0.0,0.0,0.0,0.0,0.0,0.0,0.0,0.0,0.0,0.0,0.0,0.0,0.0,0.0,0.0,0.0,0.0,0.0,0.0,0.0,0.0,0.0,0.0,0.0,0.0,0.0,0.0,0.0,0.0,0.0,0.0,0.0,0.0,0.0,0.0,0.0,0.0,0.0,0.0,0.0,0.0,0.0,0.0,0.0,0.0,0.0,0.0
1783345049.1907241,0.6785091161727905,0.6843169927597046,-3.354186333126563e-07,0.6309748888015747,0.6577170491218567,-0.0049573746509850025,0.6026057600975037,0.5880687236785889,-0.00678668636828661,0.6089152097702026,0.5369173884391785,-0.011401193216443062,0.6281869411468506,0.5180382132530212,-0.01406804472208023,0.619568407535553,0.5203324556350708,0.002063581719994545,0.6095957159996033,0.4614124000072479,-0.015750760212540627,0.6167247295379639,0.507407546043396,-0.02597554586827755,0.6239861845970154,0.5545209646224976,-0.02906298264861107,0.6475380659103394,0.5068135857582092,-0.002635211916640401,0.6406270265579224,0.4485084116458893,-0.025717614218592644,0.6433323621749878,0.5084333419799805,-0.03440050408244133,0.6463125348091125,0.5618181824684143,-0.03342217206954956,0.6754622459411621,0.5029605031013489,-0.009912918321788311,0.6704753637313843,0.44831395149230957,-0.02885379269719124,0.6671484112739563,0.5068196058273315,-0.028532976284623146,0.6661481261253357,0.5595646500587463,-0.021407565101981163,0.7034106850624084,0.5052591562271118,-0.01810886338353157,0.7032058835029602,0.43864724040031433,-0.028706027194857597,0.7004930973052979,0.39443618059158325,-0.03094196878373623,0.6970436573028564,0.35446712374687195,-0.029510607942938805,0.0,0.0,0.0,0.0,0.0,0.0,0.0,0.0,0.0,0.0,0.0,0.0,0.0,0.0,0.0,0.0,0.0,0.0,0.0,0.0,0.0,0.0,0.0,0.0,0.0,0.0,0.0,0.0,0.0,0.0,0.0,0.0,0.0,0.0,0.0,0.0,0.0,0.0,0.0,0.0,0.0,0.0,0.0,0.0,0.0,0.0,0.0,0.0,0.0,0.0,0.0,0.0,0.0,0.0,0.0,0.0,0.0,0.0,0.0,0.0,0.0,0.0,0.0
1783345049.332989,0.6981813311576843,0.6784961819648743,-3.618957293838321e-07,0.6484549641609192,0.6486775279045105,-0.004596343729645014,0.6199256777763367,0.5761228799819946,-0.004882819950580597,0.6273468136787415,0.5220186114311218,-0.008071784861385822,0.6503245234489441,0.5074588656425476,-0.009283371269702911,0.64238041639328,0.5086026787757874,0.004233964253216982,0.6350629329681396,0.44343996047973633,-0.013354727067053318,0.6418979167938232,0.4908532500267029,-0.023417649790644646,0.6475838422775269,0.5397587418556213,-0.02635706216096878,0.6721397042274475,0.4980560541152954,-0.000568482035305351,0.667982280254364,0.43527305126190186,-0.02485649846494198,0.6690595149993896,0.49917009472846985,-0.03422017768025398,0.6692709922790527,0.5548156499862671,-0.03309854120016098,0.7000714540481567,0.4973635971546173,-0.008082222193479538,0.6987805962562561,0.44188472628593445,-0.028801407665014267,0.6933634281158447,0.5014981627464294,-0.029848553240299225,0.6896477937698364,0.554756760597229,-0.022882500663399696,0.7276014089584351,0.5023838877677917,-0.016336357221007347,0.729365348815918,0.4345450699329376,-0.027876218780875206,0.7281078100204468,0.38905397057533264,-0.030823053792119026,0.7257447838783264,0.34736648201942444,-0.029647735878825188,0.0,0.0,0.0,0.0,0.0,0.0,0.0,0.0,0.0,0.0,0.0,0.0,0.0,0.0,0.0,0.0,0.0,0.0,0.0,0.0,0.0,0.0,0.0,0.0,0.0,0.0,0.0,0.0,0.0,0.0,0.0,0.0,0.0,0.0,0.0,0.0,0.0,0.0,0.0,0.0,0.0,0.0,0.0,0.0,0.0,0.0,0.0,0.0,0.0,0.0,0.0,0.0,0.0,0.0,0.0,0.0,0.0,0.0,0.0,0.0,0.0,0.0,0.0
1783345049.486635,0.7142364382743835,0.683174192905426,-3.673804087611643e-07,0.6655721068382263,0.656735897064209,-0.007568567059934139,0.6364285349845886,0.5847886204719543,-0.009032008238136768,0.6357148885726929,0.5267971754074097,-0.012870240956544876,0.6514489054679871,0.5077844858169556,-0.013921069912612438,0.6569921374320984,0.5116453170776367,0.0032974109053611755,0.6475979685783386,0.4441796541213989,-0.017567262053489685,0.6555927395820618,0.4890553057193756,-0.03020307794213295,0.6620116233825684,0.5369678139686584,-0.03402957320213318,0.6870144009590149,0.5016636848449707,-0.00014111242489889264,0.6822633743286133,0.434518426656723,-0.02797546237707138,0.6837612986564636,0.4973626434803009,-0.03978703171014786,0.6821932792663574,0.5542414784431458,-0.03939703851938248,0.7150923013687134,0.4989793002605438,-0.006522429175674915,0.7124508023262024,0.4361904561519623,-0.029968136921525,0.7070392370223999,0.4974587857723236,-0.031002843752503395,0.702683687210083,0.5540589094161987,-0.022910526022315025,0.7418634295463562,0.5020048022270203,-0.013820856809616089,0.7426608800888062,0.4327351152896881,-0.02602413296699524,0.741093635559082,0.3865869343280792,-0.028446858748793602,0.7385269999504089,0.34352415800094604,-0.026223238557577133,0.0,0.0,0.0,0.0,0.0,0.0,0.0,0.0,0.0,0.0,0.0,0.0,0.0,0.0,0.0,0.0,0.0,0.0,0.0,0.0,0.0,0.0,0.0,0.0,0.0,0.0,0.0,0.0,0.0,0.0,0.0,0.0,0.0,0.0,0.0,0.0,0.0,0.0,0.0,0.0,0.0,0.0,0.0,0.0,0.0,0.0,0.0,0.0,0.0,0.0,0.0,0.0,0.0,0.0,0.0,0.0,0.0,0.0,0.0,0.0,0.0,0.0,0.0
1783345049.640457,0.7160614132881165,0.6906254291534424,-3.7617235193465604e-07,0.6648739576339722,0.6623923182487488,-0.006265787873417139,0.6356903314590454,0.5824576616287231,-0.006035700440406799,0.6448073387145996,0.5247073173522949,-0.008513097651302814,0.6711742877960205,0.5161306858062744,-0.008461407385766506,0.6552838087081909,0.5163646340370178,0.00561614939942956,0.6498066782951355,0.4481443762779236,-0.013081925921142101,0.6574894785881042,0.5020791292190552,-0.0227515809237957,0.6642060279846191,0.5544196367263794,-0.024509314447641373,0.6871160268783569,0.5055471658706665,0.002095629693940282,0.6835065484046936,0.4393750727176666,-0.024240408092737198,0.6853102445602417,0.5079593062400818,-0.03313944861292839,0.6854580044746399,0.5668601989746094,-0.030327659100294113,0.7164851427078247,0.5036011934280396,-0.004593737423419952,0.7137913107872009,0.44363775849342346,-0.02686234936118126,0.7089155316352844,0.508608877658844,-0.027135398238897324,0.7047606110572815,0.5652055144309998,-0.01835094578564167,0.7435630559921265,0.5053494572639465,-0.012179865501821041,0.7431598901748657,0.4339559078216553,-0.02348806895315647,0.7418691515922546,0.38656070828437805,-0.025941798463463783,0.7395516633987427,0.3421270251274109,-0.023900151252746582,0.0,0.0,0.0,0.0,0.0,0.0,0.0,0.0,0.0,0.0,0.0,0.0,0.0,0.0,0.0,0.0,0.0,0.0,0.0,0.0,0.0,0.0,0.0,0.0,0.0,0.0,0.0,0.0,0.0,0.0,0.0,0.0,0.0,0.0,0.0,0.0,0.0,0.0,0.0,0.0,0.0,0.0,0.0,0.0,0.0,0.0,0.0,0.0,0.0,0.0,0.0,0.0,0.0,0.0,0.0,0.0,0.0,0.0,0.0,0.0,0.0,0.0,0.0
