ciel274/research-hand-sign/data/raw/hiragana/sign_language_e_3.csv
timestamp,R_joint_0_x,R_joint_0_y,R_joint_0_z,R_joint_1_x,R_joint_1_y,R_joint_1_z,R_joint_2_x,R_joint_2_y,R_joint_2_z,R_joint_3_x,R_joint_3_y,R_joint_3_z,R_joint_4_x,R_joint_4_y,R_joint_4_z,R_joint_5_x,R_joint_5_y,R_joint_5_z,R_joint_6_x,R_joint_6_y,R_joint_6_z,R_joint_7_x,R_joint_7_y,R_joint_7_z,R_joint_8_x,R_joint_8_y,R_joint_8_z,R_joint_9_x,R_joint_9_y,R_joint_9_z,R_joint_10_x,R_joint_10_y,R_joint_10_z,R_joint_11_x,R_joint_11_y,R_joint_11_z,R_joint_12_x,R_joint_12_y,R_joint_12_z,R_joint_13_x,R_joint_13_y,R_joint_13_z,R_joint_14_x,R_joint_14_y,R_joint_14_z,R_joint_15_x,R_joint_15_y,R_joint_15_z,R_joint_16_x,R_joint_16_y,R_joint_16_z,R_joint_17_x,R_joint_17_y,R_joint_17_z,R_joint_18_x,R_joint_18_y,R_joint_18_z,R_joint_19_x,R_joint_19_y,R_joint_19_z,R_joint_20_x,R_joint_20_y,R_joint_20_z,L_joint_0_x,L_joint_0_y,L_joint_0_z,L_joint_1_x,L_joint_1_y,L_joint_1_z,L_joint_2_x,L_joint_2_y,L_joint_2_z,L_joint_3_x,L_joint_3_y,L_joint_3_z,L_joint_4_x,L_joint_4_y,L_joint_4_z,L_joint_5_x,L_joint_5_y,L_joint_5_z,L_joint_6_x,L_joint_6_y,L_joint_6_z,L_joint_7_x,L_joint_7_y,L_joint_7_z,L_joint_8_x,L_joint_8_y,L_joint_8_z,L_joint_9_x,L_joint_9_y,L_joint_9_z,L_joint_10_x,L_joint_10_y,L_joint_10_z,L_joint_11_x,L_joint_11_y,L_joint_11_z,L_joint_12_x,L_joint_12_y,L_joint_12_z,L_joint_13_x,L_joint_13_y,L_joint_13_z,L_joint_14_x,L_joint_14_y,L_joint_14_z,L_joint_15_x,L_joint_15_y,L_joint_15_z,L_joint_16_x,L_joint_16_y,L_joint_16_z,L_joint_17_x,L_joint_17_y,L_joint_17_z,L_joint_18_x,L_joint_18_y,L_joint_18_z,L_joint_19_x,L_joint_19_y,L_joint_19_z,L_joint_20_x,L_joint_20_y,L_joint_20_z
1783345140.1689181,0.7069940567016602,0.7445339560508728,-1.194540573123959e-07,0.6607140898704529,0.72642982006073,-0.013519157655537128,0.6276513934135437,0.6524961590766907,-0.01979597471654415,0.6359052658081055,0.5888003706932068,-0.02786148153245449,0.669260561466217,0.5933704972267151,-0.03448697552084923,0.6528865098953247,0.5397906303405762,0.002157636219635606,0.6484448313713074,0.46317681670188904,-0.013641624711453915,0.6397485733032227,0.4649033844470978,-0.028112536296248436,0.6391218900680542,0.4986048936843872,-0.0366499088704586,0.6774866580963135,0.5305648446083069,-0.001175296725705266,0.6760053038597107,0.4427355229854584,-0.01799633353948593,0.6652885675430298,0.45287537574768066,-0.02966492436826229,0.6647986769676208,0.49832043051719666,-0.033836815506219864,0.7012913823127747,0.5358543992042542,-0.008213812485337257,0.7017934918403625,0.4577656090259552,-0.020104221999645233,0.6904699206352234,0.46528199315071106,-0.02707105129957199,0.6909952163696289,0.5065648555755615,-0.028631167486310005,0.7269546389579773,0.5512259006500244,-0.017753880470991135,0.7242735028266907,0.4834640324115753,-0.02497078850865364,0.7139021158218384,0.4808480441570282,-0.028548330068588257,0.7119759321212769,0.5102200508117676,-0.029446512460708618,0.0,0.0,0.0,0.0,0.0,0.0,0.0,0.0,0.0,0.0,0.0,0.0,0.0,0.0,0.0,0.0,0.0,0.0,0.0,0.0,0.0,0.0,0.0,0.0,0.0,0.0,0.0,0.0,0.0,0.0,0.0,0.0,0.0,0.0,0.0,0.0,0.0,0.0,0.0,0.0,0.0,0.0,0.0,0.0,0.0,0.0,0.0,0.0,0.0,0.0,0.0,0.0,0.0,0.0,0.0,0.0,0.0,0.0,0.0,0.0,0.0,0.0,0.0
1783345140.3990872,0.7075799107551575,0.7460265755653381,-1.1738338656641645e-07,0.6608119010925293,0.7279779314994812,-0.014223448000848293,0.6280638575553894,0.654724657535553,-0.021044941619038582,0.6365591883659363,0.5915908813476562,-0.029530620202422142,0.6694027185440063,0.5974838733673096,-0.036633845418691635,0.6536611318588257,0.5424696803092957,0.0013284840388223529,0.650463342666626,0.46610572934150696,-0.014954987913370132,0.6412169337272644,0.46715959906578064,-0.029902616515755653,0.6390802264213562,0.5009626150131226,-0.03878423199057579,0.6780234575271606,0.5331118702888489,-0.0017969799228012562,0.6770535707473755,0.4456293284893036,-0.019184671342372894,0.6661720871925354,0.45438534021377563,-0.03182980418205261,0.6647265553474426,0.49922171235084534,-0.03695046901702881,0.701519787311554,0.53838050365448,-0.008660661987960339,0.7029723525047302,0.4603463411331177,-0.021210407838225365,0.6916863918304443,0.46714919805526733,-0.029511986300349236,0.6914340853691101,0.5088433623313904,-0.03209109231829643,0.727088451385498,0.5538535118103027,-0.018013300374150276,0.7250300645828247,0.4862043857574463,-0.02580164186656475,0.7146976590156555,0.4834871292114258,-0.030352074652910233,0.7121403217315674,0.5133310556411743,-0.03210512176156044,0.0,0.0,0.0,0.0,0.0,0.0,0.0,0.0,0.0,0.0,0.0,0.0,0.0,0.0,0.0,0.0,0.0,0.0,0.0,0.0,0.0,0.0,0.0,0.0,0.0,0.0,0.0,0.0,0.0,0.0,0.0,0.0,0.0,0.0,0.0,0.0,0.0,0.0,0.0,0.0,0.0,0.0,0.0,0.0,0.0,0.0,0.0,0.0,0.0,0.0,0.0,0.0,0.0,0.0,0.0,0.0,0.0,0.0,0.0,0.0,0.0,0.0,0.0
1783345140.657512,0.7076818346977234,0.7463034987449646,-1.1787494713644264e-07,0.660581111907959,0.7280668020248413,-0.013806203380227089,0.6277597546577454,0.6537556648254395,-0.020097097381949425,0.6366064548492432,0.5905575752258301,-0.028158994391560555,0.6698747277259827,0.5963769555091858,-0.03484860807657242,0.6541323065757751,0.5425162315368652,0.0022480706684291363,0.6493601202964783,0.46590563654899597,-0.013765593059360981,0.6400828957557678,0.46759018301963806,-0.028466559946537018,0.6388797760009766,0.5014702677726746,-0.037098512053489685,0.6784877181053162,0.5332939624786377,-0.0009455156978219748,0.6766699552536011,0.4456607401371002,-0.01821323111653328,0.665787935256958,0.4553464949131012,-0.030468083918094635,0.6651939153671265,0.5010421872138977,-0.03496513515710831,0.7020484805107117,0.5383660793304443,-0.007898406125605106,0.7023447155952454,0.4605809152126312,-0.020297447219491005,0.6911212801933289,0.4672848582267761,-0.028103910386562347,0.6917067170143127,0.5089122653007507,-0.030107829719781876,0.7276310324668884,0.5531520247459412,-0.01734061725437641,0.7248460650444031,0.48572152853012085,-0.025055192410945892,0.7147694826126099,0.48329588770866394,-0.029218142852187157,0.7130786180496216,0.5133543014526367,-0.030464384704828262,0.0,0.0,0.0,0.0,0.0,0.0,0.0,0.0,0.0,0.0,0.0,0.0,0.0,0.0,0.0,0.0,0.0,0.0,0.0,0.0,0.0,0.0,0.0,0.0,0.0,0.0,0.0,0.0,0.0,0.0,0.0,0.0,0.0,0.0,0.0,0.0,0.0,0.0,0.0,0.0,0.0,0.0,0.0,0.0,0.0,0.0,0.0,0.0,0.0,0.0,0.0,0.0,0.0,0.0,0.0,0.0,0.0,0.0,0.0,0.0,0.0,0.0,0.0
1783345140.899669,0.7076244354248047,0.7455949783325195,-1.1955593492984917e-07,0.6606427431106567,0.7273937463760376,-0.013580729253590107,0.627660870552063,0.6532108783721924,-0.019651031121611595,0.6365334391593933,0.5902768969535828,-0.027558082714676857,0.6700421571731567,0.5958623290061951,-0.034066468477249146,0.6540316343307495,0.5421584844589233,0.002410573186352849,0.6491386890411377,0.4650271534919739,-0.01346655935049057,0.6402274966239929,0.46726563572883606,-0.027889585122466087,0.6395145654678345,0.5016219019889832,-0.0362711064517498,0.6783148050308228,0.5329525470733643,-0.0007799966260790825,0.6766152381896973,0.44471701979637146,-0.01788073405623436,0.6658517718315125,0.454976350069046,-0.029771896079182625,0.665459394454956,0.5009311437606812,-0.033932365477085114,0.7017632722854614,0.538034200668335,-0.007715637795627117,0.7022855877876282,0.45974087715148926,-0.019844667986035347,0.691056489944458,0.4670206904411316,-0.027181854471564293,0.6916515231132507,0.5086598992347717,-0.02883247472345829,0.727204442024231,0.5528585910797119,-0.017145005986094475,0.7247752547264099,0.4851091504096985,-0.024592578411102295,0.7146103978157043,0.4825592041015625,-0.028469784185290337,0.7127664685249329,0.5122967958450317,-0.029476504772901535,0.0,0.0,0.0,0.0,0.0,0.0,0.0,0.0,0.0,0.0,0.0,0.0,0.0,0.0,0.0,0.0,0.0,0.0,0.0,0.0,0.0,0.0,0.0,0.0,0.0,0.0,0.0,0.0,0.0,0.0,0.0,0.0,0.0,0.0,0.0,0.0,0.0,0.0,0.0,0.0,0.0,0.0,0.0,0.0,0.0,0.0,0.0,0.0,0.0,0.0,0.0,0.0,0.0,0.0,0.0,0.0,0.0,0.0,0.0,0.0,0.0,0.0,0.0
1783345141.064894,0.7075356841087341,0.7458069324493408,-1.1525423104785659e-07,0.6606888771057129,0.7274965047836304,-0.013688074424862862,0.6277605891227722,0.6526883840560913,-0.019871177151799202,0.6366883516311646,0.5896050930023193,-0.027859240770339966,0.6705514192581177,0.5961512923240662,-0.03444581851363182,0.6537050008773804,0.5422677993774414,0.0021470007486641407,0.6491886377334595,0.46572455763816833,-0.013761990703642368,0.6400834918022156,0.4669228792190552,-0.028190379962325096,0.6390361785888672,0.5005471110343933,-0.03663266822695732,0.6780757904052734,0.5328147411346436,-0.0010346302296966314,0.6763016581535339,0.4454249143600464,-0.01811029389500618,0.6655049324035645,0.4544790983200073,-0.029979294165968895,0.6650426983833313,0.49985411763191223,-0.03420661389827728,0.7016285061836243,0.5379284024238586,-0.007952605374157429,0.7020900845527649,0.45998379588127136,-0.020125584676861763,0.6909981966018677,0.46647191047668457,-0.027339745312929153,0.6916547417640686,0.5078751444816589,-0.028912246227264404,0.7270697355270386,0.5527594685554504,-0.017379185184836388,0.7242636680603027,0.48523449897766113,-0.025008082389831543,0.7142711281776428,0.4823485314846039,-0.028913067653775215,0.7126330137252808,0.5120416283607483,-0.02989676222205162,0.0,0.0,0.0,0.0,0.0,0.0,0.0,0.0,0.0,0.0,0.0,0.0,0.0,0.0,0.0,0.0,0.0,0.0,0.0,0.0,0.0,0.0,0.0,0.0,0.0,0.0,0.0,0.0,0.0,0.0,0.0,0.0,0.0,0.0,0.0,0.0,0.0,0.0,0.0,0.0,0.0,0.0,0.0,0.0,0.0,0.0,0.0,0.0,0.0,0.0,0.0,0.0,0.0,0.0,0.0,0.0,0.0,0.0,0.0,0.0,0.0,0.0,0.0
1783345141.220101,0.7076694965362549,0.7451900839805603,-1.1738910643543932e-07,0.6610457897186279,0.7270210981369019,-0.013572201132774353,0.6281903982162476,0.6524039506912231,-0.01964094117283821,0.6364524960517883,0.5889410972595215,-0.027471980080008507,0.6691692471504211,0.5937479138374329,-0.033951371908187866,0.6538214087486267,0.5419582724571228,0.002222257200628519,0.6497493386268616,0.4656802713871002,-0.01356216799467802,0.6408769488334656,0.46576347947120667,-0.028087040409445763,0.639483630657196,0.49835389852523804,-0.036635659635066986,0.6782557368278503,0.5329156517982483,-0.0009757442167028785,0.6765808463096619,0.4454496204853058,-0.018117135390639305,0.6660606265068054,0.45492276549339294,-0.030392056331038475,0.665471613407135,0.5004884004592896,-0.03495017811655998,0.7018329501152039,0.5379794239997864,-0.007841450162231922,0.7022790908813477,0.4604553282260895,-0.020150460302829742,0.6911505460739136,0.46749916672706604,-0.02804291620850563,0.6916532516479492,0.509212076663971,-0.030120963230729103,0.7274322509765625,0.552726686000824,-0.017143288627266884,0.7248141765594482,0.4852238893508911,-0.024835767224431038,0.714702844619751,0.48230841755867004,-0.029109178110957146,0.7128676176071167,0.5122162103652954,-0.03045196272432804,0.0,0.0,0.0,0.0,0.0,0.0,0.0,0.0,0.0,0.0,0.0,0.0,0.0,0.0,0.0,0.0,0.0,0.0,0.0,0.0,0.0,0.0,0.0,0.0,0.0,0.0,0.0,0.0,0.0,0.0,0.0,0.0,0.0,0.0,0.0,0.0,0.0,0.0,0.0,0.0,0.0,0.0,0.0,0.0,0.0,0.0,0.0,0.0,0.0,0.0,0.0,0.0,0.0,0.0,0.0,0.0,0.0,0.0,0.0,0.0,0.0,0.0,0.0
1783345141.364919,0.707711935043335,0.7450103759765625,-1.1308548408806018e-07,0.6610729694366455,0.7266039252281189,-0.01389116421341896,0.6281537413597107,0.653071939945221,-0.020485183224081993,0.6368532180786133,0.590004563331604,-0.02882515639066696,0.6699934005737305,0.5951544046401978,-0.035863008350133896,0.6538726687431335,0.5421044230461121,0.001687905634753406,0.6493020057678223,0.4658554196357727,-0.014597855508327484,0.6402789354324341,0.46594077348709106,-0.029505129903554916,0.6390911340713501,0.4986564517021179,-0.03823859617114067,0.6782895922660828,0.5330840349197388,-0.0014982197899371386,0.676231324672699,0.44544392824172974,-0.019044002518057823,0.6658774018287659,0.4549635946750641,-0.031536515802145004,0.6654953956604004,0.500370979309082,-0.03615833446383476,0.7018999457359314,0.5380685329437256,-0.0083798598498106,0.7020147442817688,0.4603901505470276,-0.02111811190843582,0.6910354495048523,0.46709010004997253,-0.029232248663902283,0.6916714310646057,0.5088142156600952,-0.03133983910083771,0.7274975776672363,0.5527876615524292,-0.017701538279652596,0.7245792746543884,0.48540377616882324,-0.025656696408987045,0.7145955562591553,0.48220154643058777,-0.030030468478798866,0.7128680348396301,0.5118353962898254,-0.031369779258966446,0.0,0.0,0.0,0.0,0.0,0.0,0.0,0.0,0.0,0.0,0.0,0.0,0.0,0.0,0.0,0.0,0.0,0.0,0.0,0.0,0.0,0.0,0.0,0.0,0.0,0.0,0.0,0.0,0.0,0.0,0.0,0.0,0.0,0.0,0.0,0.0,0.0,0.0,0.0,0.0,0.0,0.0,0.0,0.0,0.0,0.0,0.0,0.0,0.0,0.0,0.0,0.0,0.0,0.0,0.0,0.0,0.0,0.0,0.0,0.0,0.0,0.0,0.0
1783345141.508311,0.7077564597129822,0.7445530295372009,-1.1537231614511256e-07,0.6610914468765259,0.7266942858695984,-0.013975110836327076,0.6282123327255249,0.6529385447502136,-0.020610297098755836,0.6369125843048096,0.5896753668785095,-0.028998248279094696,0.6697568893432617,0.594797670841217,-0.03610021248459816,0.653935432434082,0.542465329170227,0.0013544382527470589,0.6494347453117371,0.4654434025287628,-0.015091325156390667,0.6403888463973999,0.4659925103187561,-0.030069656670093536,0.639133870601654,0.4993078410625458,-0.03882601857185364,0.67828768491745,0.5334937572479248,-0.0018221904756501317,0.676239550113678,0.4455277621746063,-0.019435903057456017,0.66570645570755,0.45505812764167786,-0.03196267411112785,0.6652412414550781,0.5005069375038147,-0.03664906322956085,0.7018364667892456,0.5384750366210938,-0.00870007649064064,0.7020432353019714,0.4604279100894928,-0.02146114595234394,0.6908614635467529,0.46724003553390503,-0.02960505150258541,0.6913424730300903,0.5091087222099304,-0.03178573027253151,0.727403461933136,0.553027331829071,-0.018026771023869514,0.7245641350746155,0.4855455756187439,-0.02598639205098152,0.7144450545310974,0.4824811518192291,-0.030394360423088074,0.7125839591026306,0.5122542977333069,-0.03180374577641487,0.0,0.0,0.0,0.0,0.0,0.0,0.0,0.0,0.0,0.0,0.0,0.0,0.0,0.0,0.0,0.0,0.0,0.0,0.0,0.0,0.0,0.0,0.0,0.0,0.0,0.0,0.0,0.0,0.0,0.0,0.0,0.0,0.0,0.0,0.0,0.0,0.0,0.0,0.0,0.0,0.0,0.0,0.0,0.0,0.0,0.0,0.0,0.0,0.0,0.0,0.0,0.0,0.0,0.0,0.0,0.0,0.0,0.0,0.0,0.0,0.0,0.0,0.0
1783345141.67007,0.7074376344680786,0.7443839907646179,-1.1223256990433583e-07,0.6605633497238159,0.7262287139892578,-0.013976714573800564,0.6279315948486328,0.6532059907913208,-0.02065342478454113,0.6369423270225525,0.5902885794639587,-0.029056621715426445,0.6697937250137329,0.5953001379966736,-0.036172688007354736,0.6538643836975098,0.5424613356590271,0.0013741961447522044,0.6495029330253601,0.466104120016098,-0.015093979425728321,0.640363335609436,0.4663226008415222,-0.030080707743763924,0.6389956474304199,0.4992547631263733,-0.038819462060928345,0.6782116293907166,0.5335386991500854,-0.0017867331625893712,0.6762890219688416,0.44560977816581726,-0.01946941949427128,0.6656153798103333,0.4548531770706177,-0.0319676473736763,0.6651016473770142,0.5001785159111023,-0.03658303618431091,0.7017560005187988,0.5385599136352539,-0.008647249080240726,0.702170729637146,0.46037808060646057,-0.021528804674744606,0.6909360289573669,0.4670122265815735,-0.029598841443657875,0.6914464235305786,0.5087538361549377,-0.03164216876029968,0.727396547794342,0.5533267855644226,-0.017947599291801453,0.724728524684906,0.48573312163352966,-0.0260490532964468,0.7144305109977722,0.4824181795120239,-0.03043472394347191,0.7123726010322571,0.511931300163269,-0.031748201698064804,0.0,0.0,0.0,0.0,0.0,0.0,0.0,0.0,0.0,0.0,0.0,0.0,0.0,0.0,0.0,0.0,0.0,0.0,0.0,0.0,0.0,0.0,0.0,0.0,0.0,0.0,0.0,0.0,0.0,0.0,0.0,0.0,0.0,0.0,0.0,0.0,0.0,0.0,0.0,0.0,0.0,0.0,0.0,0.0,0.0,0.0,0.0,0.0,0.0,0.0,0.0,0.0,0.0,0.0,0.0,0.0,0.0,0.0,0.0,0.0,0.0,0.0,0.0
1783345141.800902,0.7076687812805176,0.7441261410713196,-1.1360049256836646e-07,0.6608601212501526,0.7264392375946045,-0.013970407657325268,0.6277617812156677,0.6538646221160889,-0.020405108109116554,0.6363369822502136,0.5906287431716919,-0.02856975421309471,0.6697213053703308,0.5964070558547974,-0.0354105606675148,0.6532090902328491,0.5430431365966797,0.002019979292526841,0.6478643417358398,0.4670363962650299,-0.01388618629425764,0.6389688849449158,0.4677828550338745,-0.028487294912338257,0.6383527517318726,0.5007928013801575,-0.03706736862659454,0.6774722337722778,0.5332837700843811,-0.0009549733367748559,0.6748226881027222,0.44638416171073914,-0.01795014925301075,0.6646502614021301,0.4559295177459717,-0.03004109114408493,0.6647358536720276,0.5004317164421082,-0.03450273722410202,0.7009198069572449,0.5376742482185364,-0.0076543050818145275,0.7004393339157104,0.45995423197746277,-0.01991768181324005,0.6897637844085693,0.46697676181793213,-0.027513695880770683,0.6908578276634216,0.508150041103363,-0.02941703423857689,0.7264630794525146,0.5517780780792236,-0.016833366826176643,0.7231746315956116,0.48432961106300354,-0.0244535431265831,0.7132682204246521,0.48227062821388245,-0.028441419824957848,0.7118036150932312,0.5122509598731995,-0.0295897014439106,0.0,0.0,0.0,0.0,0.0,0.0,0.0,0.0,0.0,0.0,0.0,0.0,0.0,0.0,0.0,0.0,0.0,0.0,0.0,0.0,0.0,0.0,0.0,0.0,0.0,0.0,0.0,0.0,0.0,0.0,0.0,0.0,0.0,0.0,0.0,0.0,0.0,0.0,0.0,0.0,0.0,0.0,0.0,0.0,0.0,0.0,0.0,0.0,0.0,0.0,0.0,0.0,0.0,0.0,0.0,0.0,0.0,0.0,0.0,0.0,0.0,0.0,0.0
1783345141.961219,0.7072076797485352,0.7441920638084412,-1.1292733859136206e-07,0.6601811051368713,0.726240873336792,-0.014033823274075985,0.6269799470901489,0.6538795232772827,-0.020555783063173294,0.6351455450057983,0.5907216668128967,-0.02874957211315632,0.6682552099227905,0.5951439142227173,-0.03560488671064377,0.653115451335907,0.54310142993927,0.0016051513375714421,0.6477814316749573,0.4666275978088379,-0.014435035176575184,0.6386550068855286,0.4676628112792969,-0.02914975956082344,0.637812077999115,0.5009717345237732,-0.03774024918675423,0.6772670149803162,0.533730685710907,-0.0013157776556909084,0.6742252707481384,0.44666507840156555,-0.018226681277155876,0.6639156341552734,0.45593610405921936,-0.030399857088923454,0.6641128063201904,0.5005370378494263,-0.03498613461852074,0.7007473111152649,0.5381944179534912,-0.007940116338431835,0.6999452114105225,0.4601627588272095,-0.02030264027416706,0.6892185211181641,0.4664696455001831,-0.028173215687274933,0.6905416250228882,0.5077847242355347,-0.030238505452871323,0.7263382077217102,0.5521268248558044,-0.017012599855661392,0.7228569984436035,0.4839167296886444,-0.02490106225013733,0.712939977645874,0.4810834228992462,-0.029090415686368942,0.7116220593452454,0.5113030076026917,-0.03029298223555088,0.0,0.0,0.0,0.0,0.0,0.0,0.0,0.0,0.0,0.0,0.0,0.0,0.0,0.0,0.0,0.0,0.0,0.0,0.0,0.0,0.0,0.0,0.0,0.0,0.0,0.0,0.0,0.0,0.0,0.0,0.0,0.0,0.0,0.0,0.0,0.0,0.0,0.0,0.0,0.0,0.0,0.0,0.0,0.0,0.0,0.0,0.0,0.0,0.0,0.0,0.0,0.0,0.0,0.0,0.0,0.0,0.0,0.0,0.0,0.0,0.0,0.0,0.0
1783345142.105349,0.7067954540252686,0.7440622448921204,-1.1214918060886703e-07,0.6600339412689209,0.7261174321174622,-0.014128523878753185,0.6267600059509277,0.6535245180130005,-0.020835038274526596,0.63492351770401,0.5905680656433105,-0.029221611097455025,0.6682614088058472,0.594474732875824,-0.0361882746219635,0.6528058052062988,0.5421168804168701,0.0014674363192170858,0.6480215787887573,0.465383380651474,-0.014678940176963806,0.6388161778450012,0.4668005704879761,-0.0294754970818758,0.6378233432769775,0.500594973564148,-0.03815089911222458,0.6769317388534546,0.5331341028213501,-0.0014553224900737405,0.6742087602615356,0.4456598460674286,-0.018556669354438782,0.6638123393058777,0.45547351241111755,-0.030845481902360916,0.6639072299003601,0.5005049705505371,-0.03549667447805405,0.7003152370452881,0.5379802584648132,-0.008084426634013653,0.6998313665390015,0.4591429531574249,-0.020295538008213043,0.6889677047729492,0.4656326174736023,-0.02797839045524597,0.689988911151886,0.5069936513900757,-0.029976507648825645,0.7259413599967957,0.5522216558456421,-0.017201371490955353,0.722752571105957,0.48362815380096436,-0.024851618334650993,0.7127500176429749,0.48018741607666016,-0.02894190326333046,0.7110101580619812,0.5097429752349854,-0.030128678306937218,0.0,0.0,0.0,0.0,0.0,0.0,0.0,0.0,0.0,0.0,0.0,0.0,0.0,0.0,0.0,0.0,0.0,0.0,0.0,0.0,0.0,0.0,0.0,0.0,0.0,0.0,0.0,0.0,0.0,0.0,0.0,0.0,0.0,0.0,0.0,0.0,0.0,0.0,0.0,0.0,0.0,0.0,0.0,0.0,0.0,0.0,0.0,0.0,0.0,0.0,0.0,0.0,0.0,0.0,0.0,0.0,0.0,0.0,0.0,0.0,0.0,0.0,0.0
1783345142.223857,0.7064922451972961,0.744188129901886,-1.1179486847368025e-07,0.6597484350204468,0.7260164022445679,-0.013967403210699558,0.6265974044799805,0.6532474756240845,-0.020442310720682144,0.6348612308502197,0.5900342464447021,-0.02859744429588318,0.667944610118866,0.5938962697982788,-0.035341814160346985,0.6522802114486694,0.5419997572898865,0.0019150403095409274,0.647497296333313,0.4659939408302307,-0.01394121814519167,0.6383303999900818,0.4664483070373535,-0.02853444218635559,0.6371535062789917,0.4995343089103699,-0.03708810359239578,0.6765016317367554,0.5326598286628723,-0.0009958044392988086,0.6737853288650513,0.44595077633857727,-0.017829956486821175,0.663590133190155,0.45482948422431946,-0.030072608962655067,0.6634685397148132,0.4995976686477661,-0.034718845039606094,0.6999498009681702,0.5372834205627441,-0.007594910915941,0.6994297504425049,0.4594649374485016,-0.01974601298570633,0.6888263821601868,0.4654054045677185,-0.027533749118447304,0.6898224949836731,0.5067236423492432,-0.029582703486084938,0.7255822420120239,0.5514086484909058,-0.01665452867746353,0.7222496271133423,0.48358154296875,-0.024403026327490807,0.712395191192627,0.4801727831363678,-0.028624657541513443,0.7108010053634644,0.5099441409111023,-0.029859622940421104,0.0,0.0,0.0,0.0,0.0,0.0,0.0,0.0,0.0,0.0,0.0,0.0,0.0,0.0,0.0,0.0,0.0,0.0,0.0,0.0,0.0,0.0,0.0,0.0,0.0,0.0,0.0,0.0,0.0,0.0,0.0,0.0,0.0,0.0,0.0,0.0,0.0,0.0,0.0,0.0,0.0,0.0,0.0,0.0,0.0,0.0,0.0,0.0,0.0,0.0,0.0,0.0,0.0,0.0,0.0,0.0,0.0,0.0,0.0,0.0,0.0,0.0,0.0
1783345142.393089,0.7064988613128662,0.7437773942947388,-1.1268210187154182e-07,0.6597551703453064,0.7257631421089172,-0.013705773279070854,0.6264938116073608,0.6526298522949219,-0.019898829981684685,0.6341308951377869,0.5886562466621399,-0.027811303734779358,0.6672008037567139,0.592089056968689,-0.03427821397781372,0.6523638963699341,0.5416516661643982,0.002310326090082526,0.6477617025375366,0.46572136878967285,-0.013364211656153202,0.6384915113449097,0.4656817317008972,-0.027795545756816864,0.6371860504150391,0.4981672465801239,-0.03627549856901169,0.6766370534896851,0.5323829650878906,-0.0007039233460091054,0.6739761829376221,0.4450753927230835,-0.017695918679237366,0.6634040474891663,0.4539431035518646,-0.03000209853053093,0.6631973385810852,0.4991198778152466,-0.03455623239278793,0.7000205516815186,0.5370336174964905,-0.007357122376561165,0.6995556950569153,0.45867958664894104,-0.01950954459607601,0.6885691285133362,0.4647303521633148,-0.02707003243267536,0.6895079612731934,0.5061421394348145,-0.02884199284017086,0.7256935238838196,0.5510632991790771,-0.016461366787552834,0.7220711708068848,0.4829168915748596,-0.024214528501033783,0.7120086550712585,0.47913986444473267,-0.028343627229332924,0.7104299068450928,0.508700966835022,-0.029406430199742317,0.0,0.0,0.0,0.0,0.0,0.0,0.0,0.0,0.0,0.0,0.0,0.0,0.0,0.0,0.0,0.0,0.0,0.0,0.0,0.0,0.0,0.0,0.0,0.0,0.0,0.0,0.0,0.0,0.0,0.0,0.0,0.0,0.0,0.0,0.0,0.0,0.0,0.0,0.0,0.0,0.0,0.0,0.0,0.0,0.0,0.0,0.0,0.0,0.0,0.0,0.0,0.0,0.0,0.0,0.0,0.0,0.0,0.0,0.0,0.0,0.0,0.0,0.0
1783345142.5312629,0.706469714641571,0.7432743310928345,-1.1275562883383827e-07,0.6598563194274902,0.7257094979286194,-0.013771620579063892,0.6264162659645081,0.6527113318443298,-0.02003464661538601,0.6341491937637329,0.5890271067619324,-0.02799876406788826,0.6674343943595886,0.5923122763633728,-0.03455289453268051,0.6522040963172913,0.5409753918647766,0.0021609647665172815,0.6474019289016724,0.46487823128700256,-0.013577519915997982,0.6383417844772339,0.46490657329559326,-0.028067130595445633,0.6371918320655823,0.4974409341812134,-0.03656807914376259,0.6765041947364807,0.5318015217781067,-0.0008360697538591921,0.6736690998077393,0.44483062624931335,-0.017685959115624428,0.6632767915725708,0.4535990059375763,-0.029861144721508026,0.6630458831787109,0.49835601449012756,-0.03440234437584877,0.6999708414077759,0.5365398526191711,-0.007505808491259813,0.6992795467376709,0.4587303698062897,-0.01977422460913658,0.6885054707527161,0.46469250321388245,-0.027491681277751923,0.6894994974136353,0.505937933921814,-0.029396941885352135,0.7255970239639282,0.5506460666656494,-0.016610560938715935,0.7220063209533691,0.4825604259967804,-0.02455090545117855,0.7121269702911377,0.478956013917923,-0.028801778331398964,0.7106530666351318,0.5085187554359436,-0.029968298971652985,0.0,0.0,0.0,0.0,0.0,0.0,0.0,0.0,0.0,0.0,0.0,0.0,0.0,0.0,0.0,0.0,0.0,0.0,0.0,0.0,0.0,0.0,0.0,0.0,0.0,0.0,0.0,0.0,0.0,0.0,0.0,0.0,0.0,0.0,0.0,0.0,0.0,0.0,0.0,0.0,0.0,0.0,0.0,0.0,0.0,0.0,0.0,0.0,0.0,0.0,0.0,0.0,0.0,0.0,0.0,0.0,0.0,0.0,0.0,0.0,0.0,0.0,0.0
1783345142.669089,0.7068643569946289,0.7432800531387329,-1.1026614288311976e-07,0.6599681377410889,0.7256037592887878,-0.013836027123034,0.6267854571342468,0.6520066261291504,-0.02000483125448227,0.6351490020751953,0.5888440608978271,-0.027825605124235153,0.6684442162513733,0.593300998210907,-0.03427698463201523,0.6522622108459473,0.5412792563438416,0.0020689519587904215,0.6489167213439941,0.4651402235031128,-0.013544653542339802,0.6399282217025757,0.4646525979042053,-0.027959410101175308,0.637807309627533,0.49723464250564575,-0.036440879106521606,0.6766790151596069,0.5324097275733948,-0.000825324677862227,0.6747345924377441,0.4454116225242615,-0.017866121605038643,0.6645699739456177,0.45351216197013855,-0.030385242775082588,0.6638517379760742,0.49876868724823,-0.03522253781557083,0.7002180814743042,0.5371890068054199,-0.007376574445515871,0.7004249095916748,0.4594160318374634,-0.019893817603588104,0.6900091171264648,0.4655730426311493,-0.028302088379859924,0.6906401515007019,0.5075833797454834,-0.03068474493920803,0.725974440574646,0.5512056946754456,-0.016321174800395966,0.7228145003318787,0.4833729863166809,-0.024481799453496933,0.7133343815803528,0.47993820905685425,-0.02920902706682682,0.7117394804954529,0.5099232196807861,-0.030792145058512688,0.0,0.0,0.0,0.0,0.0,0.0,0.0,0.0,0.0,0.0,0.0,0.0,0.0,0.0,0.0,0.0,0.0,0.0,0.0,0.0,0.0,0.0,0.0,0.0,0.0,0.0,0.0,0.0,0.0,0.0,0.0,0.0,0.0,0.0,0.0,0.0,0.0,0.0,0.0,0.0,0.0,0.0,0.0,0.0,0.0,0.0,0.0,0.0,0.0,0.0,0.0,0.0,0.0,0.0,0.0,0.0,0.0,0.0,0.0,0.0,0.0,0.0,0.0
1783345142.8426082,0.7069207429885864,0.7443882822990417,-1.055321163789813e-07,0.660058319568634,0.7258960008621216,-0.013681617565453053,0.627124011516571,0.652497410774231,-0.0199461430311203,0.6357374787330627,0.5895261168479919,-0.027888048440217972,0.6694888472557068,0.5943247079849243,-0.03441649302840233,0.6528034210205078,0.5418167114257812,0.002223143121227622,0.6493452787399292,0.4662609100341797,-0.013493003323674202,0.6398425698280334,0.4656016230583191,-0.028009401634335518,0.6375925540924072,0.49764469265937805,-0.036574117839336395,0.6771653294563293,0.5331414341926575,-0.0008230842649936676,0.675515353679657,0.44594675302505493,-0.017995433881878853,0.6646163463592529,0.4536705017089844,-0.030430756509304047,0.6636750102043152,0.49866682291030884,-0.035149361938238144,0.7006626129150391,0.5385373830795288,-0.007517550606280565,0.7010276317596436,0.4604341983795166,-0.02003953605890274,0.6902748942375183,0.4663357138633728,-0.027876179665327072,0.6909530162811279,0.5080350637435913,-0.02977943606674671,0.7264814376831055,0.5533003211021423,-0.016631413251161575,0.7235832214355469,0.48508310317993164,-0.024779794737696648,0.7137946486473083,0.4809391498565674,-0.02915489301085472,0.7119199633598328,0.5101829767227173,-0.03037993796169758,0.0,0.0,0.0,0.0,0.0,0.0,0.0,0.0,0.0,0.0,0.0,0.0,0.0,0.0,0.0,0.0,0.0,0.0,0.0,0.0,0.0,0.0,0.0,0.0,0.0,0.0,0.0,0.0,0.0,0.0,0.0,0.0,0.0,0.0,0.0,0.0,0.0,0.0,0.0,0.0,0.0,0.0,0.0,0.0,0.0,0.0,0.0,0.0,0.0,0.0,0.0,0.0,0.0,0.0,0.0,0.0,0.0,0.0,0.0,0.0,0.0,0.0,0.0
1783345142.996028,0.7066863179206848,0.7439233064651489,-1.1148490131063227e-07,0.6601167917251587,0.7253936529159546,-0.013858383521437645,0.6271636486053467,0.6531214118003845,-0.020374884828925133,0.6354832649230957,0.5901787281036377,-0.028592530637979507,0.6691661477088928,0.5947433114051819,-0.03543224185705185,0.653065025806427,0.5420089364051819,0.0015782718546688557,0.6486732363700867,0.4660298228263855,-0.014385540969669819,0.6390945911407471,0.4665028750896454,-0.02896462008357048,0.6375498175621033,0.49908971786499023,-0.03753284364938736,0.6773297190666199,0.5329583287239075,-0.0014593590749427676,0.6751509308815002,0.445582777261734,-0.0186618659645319,0.6642998456954956,0.4550597071647644,-0.03090292029082775,0.6640317440032959,0.5001312494277954,-0.03545067459344864,0.7007933259010315,0.5378202199935913,-0.008139125071465969,0.7006970643997192,0.4600115716457367,-0.02050784043967724,0.689651370048523,0.4670467972755432,-0.028133505955338478,0.6906750202178955,0.5085405707359314,-0.02997485175728798,0.7264666557312012,0.552283763885498,-0.017269447445869446,0.7235066294670105,0.48431503772735596,-0.025006890296936035,0.7133077383041382,0.4814494848251343,-0.029077861458063126,0.7115910053253174,0.5113974809646606,-0.030187489464879036,0.0,0.0,0.0,0.0,0.0,0.0,0.0,0.0,0.0,0.0,0.0,0.0,0.0,0.0,0.0,0.0,0.0,0.0,0.0,0.0,0.0,0.0,0.0,0.0,0.0,0.0,0.0,0.0,0.0,0.0,0.0,0.0,0.0,0.0,0.0,0.0,0.0,0.0,0.0,0.0,0.0,0.0,0.0,0.0,0.0,0.0,0.0,0.0,0.0,0.0,0.0,0.0,0.0,0.0,0.0,0.0,0.0,0.0,0.0,0.0,0.0,0.0,0.0
1783345143.121491,0.7073981165885925,0.7437482476234436,-1.1355237461430079e-07,0.6607928276062012,0.7268544435501099,-0.01383073627948761,0.6274726986885071,0.6531022191047668,-0.020032478496432304,0.6356885433197021,0.5896546840667725,-0.027957778424024582,0.6691343188285828,0.5939676761627197,-0.03441754728555679,0.6530042886734009,0.5415224432945251,0.002071910537779331,0.6485324501991272,0.46545061469078064,-0.013829328119754791,0.6392319798469543,0.46586695313453674,-0.02828497625887394,0.6381251215934753,0.49871549010276794,-0.03675215318799019,0.6773777008056641,0.5323153138160706,-0.000997407827526331,0.6752843856811523,0.4446352422237396,-0.018343275412917137,0.6642991304397583,0.45412304997444153,-0.030435847118496895,0.6640163660049438,0.4996298551559448,-0.03472580760717392,0.7008904814720154,0.5374711155891418,-0.007775868754833937,0.7010367512702942,0.4594854712486267,-0.020305432379245758,0.6899946928024292,0.4669366478919983,-0.027663765475153923,0.6910735368728638,0.5086692571640015,-0.029185155406594276,0.726668119430542,0.5520575642585754,-0.017026495188474655,0.7239184975624084,0.48397937417030334,-0.02492441236972809,0.7138914465904236,0.48123103380203247,-0.028936274349689484,0.7122748494148254,0.5111793875694275,-0.029906107112765312,0.0,0.0,0.0,0.0,0.0,0.0,0.0,0.0,0.0,0.0,0.0,0.0,0.0,0.0,0.0,0.0,0.0,0.0,0.0,0.0,0.0,0.0,0.0,0.0,0.0,0.0,0.0,0.0,0.0,0.0,0.0,0.0,0.0,0.0,0.0,0.0,0.0,0.0,0.0,0.0,0.0,0.0,0.0,0.0,0.0,0.0,0.0,0.0,0.0,0.0,0.0,0.0,0.0,0.0,0.0,0.0,0.0,0.0,0.0,0.0,0.0,0.0,0.0
1783345143.2605069,0.7077696323394775,0.7447711229324341,-1.0979599096572201e-07,0.6608914136886597,0.7269801497459412,-0.013765696436166763,0.627949059009552,0.6534062623977661,-0.020148074254393578,0.636328399181366,0.5901030898094177,-0.02828715369105339,0.669390082359314,0.5949330925941467,-0.03501913323998451,0.6531879305839539,0.541869044303894,0.0018326345598325133,0.6487276554107666,0.4657500684261322,-0.014348232187330723,0.6395223140716553,0.4656880795955658,-0.029030298814177513,0.638024628162384,0.498527854681015,-0.03760534152388573,0.6776338815689087,0.5326740741729736,-0.0013371449895203114,0.6754612326622009,0.44528937339782715,-0.01897682063281536,0.6646928191184998,0.4537155330181122,-0.031386181712150574,0.6641159653663635,0.49910879135131836,-0.03593949228525162,0.7013082504272461,0.537899374961853,-0.008207765407860279,0.7016427516937256,0.4602058231830597,-0.021048588678240776,0.6905948519706726,0.467008113861084,-0.028820643201470375,0.6910834908485413,0.508901059627533,-0.030598487704992294,0.7271392941474915,0.5526352524757385,-0.017520535737276077,0.7246536016464233,0.48493513464927673,-0.02565048821270466,0.7144976854324341,0.4815176725387573,-0.029990995302796364,0.7122172117233276,0.5111882090568542,-0.031192107126116753,0.0,0.0,0.0,0.0,0.0,0.0,0.0,0.0,0.0,0.0,0.0,0.0,0.0,0.0,0.0,0.0,0.0,0.0,0.0,0.0,0.0,0.0,0.0,0.0,0.0,0.0,0.0,0.0,0.0,0.0,0.0,0.0,0.0,0.0,0.0,0.0,0.0,0.0,0.0,0.0,0.0,0.0,0.0,0.0,0.0,0.0,0.0,0.0,0.0,0.0,0.0,0.0,0.0,0.0,0.0,0.0,0.0,0.0,0.0,0.0,0.0,0.0,0.0
1783345143.398776,0.7080391645431519,0.744720995426178,-1.1210952521878426e-07,0.6615620851516724,0.7270539999008179,-0.013972165994346142,0.6282093524932861,0.6546164155006409,-0.02056543342769146,0.6360237002372742,0.5911198854446411,-0.028873765841126442,0.6692473292350769,0.5945111513137817,-0.03579353168606758,0.6534423232078552,0.5423172116279602,0.0016685809241607785,0.6483054757118225,0.46591946482658386,-0.01444799080491066,0.6393948197364807,0.4663667678833008,-0.029179567471146584,0.6386635899543762,0.4992612600326538,-0.03782973065972328,0.6778960824012756,0.5327898263931274,-0.0014449096051976085,0.6750730872154236,0.4447673559188843,-0.0189867801964283,0.6647568345069885,0.4544491767883301,-0.031541284173727036,0.6647586226463318,0.500039279460907,-0.036204300820827484,0.7015964984893799,0.5374554395675659,-0.008227027952671051,0.7011185884475708,0.45917823910713196,-0.020871320739388466,0.6903740763664246,0.46657416224479675,-0.028778165578842163,0.6913832426071167,0.5084161162376404,-0.030762409791350365,0.7274237275123596,0.5518501400947571,-0.017449194565415382,0.7239407300949097,0.4841625690460205,-0.025305811315774918,0.7140862345695496,0.4818478524684906,-0.029505977407097816,0.7126235365867615,0.5118664503097534,-0.030717860907316208,0.0,0.0,0.0,0.0,0.0,0.0,0.0,0.0,0.0,0.0,0.0,0.0,0.0,0.0,0.0,0.0,0.0,0.0,0.0,0.0,0.0,0.0,0.0,0.0,0.0,0.0,0.0,0.0,0.0,0.0,0.0,0.0,0.0,0.0,0.0,0.0,0.0,0.0,0.0,0.0,0.0,0.0,0.0,0.0,0.0,0.0,0.0,0.0,0.0,0.0,0.0,0.0,0.0,0.0,0.0,0.0,0.0,0.0,0.0,0.0,0.0,0.0,0.0
1783345143.542038,0.7081019878387451,0.7448886632919312,-1.1136199162820049e-07,0.661544919013977,0.7270929217338562,-0.01395578496158123,0.6280309557914734,0.654079258441925,-0.020435767248272896,0.635800302028656,0.5902447700500488,-0.028615258634090424,0.6695566773414612,0.5943343639373779,-0.035382743924856186,0.6533570289611816,0.5420836806297302,0.0017261537723243237,0.6486748456954956,0.4658864438533783,-0.014154338277876377,0.6395123600959778,0.46596038341522217,-0.028639528900384903,0.6385689377784729,0.4986538290977478,-0.03720153495669365,0.6778163909912109,0.5324030518531799,-0.00134096120018512,0.6752395629882812,0.44491809606552124,-0.018687134608626366,0.6646275520324707,0.45398062467575073,-0.03108232282102108,0.6644937992095947,0.4993579387664795,-0.035744454711675644,0.7014957666397095,0.5369957089424133,-0.008065973408520222,0.7011155486106873,0.45924320816993713,-0.020618578419089317,0.6902416348457336,0.4664510190486908,-0.028371645137667656,0.6913047432899475,0.5082559585571289,-0.03030148148536682,0.727255642414093,0.5512740612030029,-0.017241716384887695,0.7237519025802612,0.4835887849330902,-0.025124603882431984,0.7139410376548767,0.4813915491104126,-0.029288938269019127,0.7126845717430115,0.5117201805114746,-0.0304885134100914,0.0,0.0,0.0,0.0,0.0,0.0,0.0,0.0,0.0,0.0,0.0,0.0,0.0,0.0,0.0,0.0,0.0,0.0,0.0,0.0,0.0,0.0,0.0,0.0,0.0,0.0,0.0,0.0,0.0,0.0,0.0,0.0,0.0,0.0,0.0,0.0,0.0,0.0,0.0,0.0,0.0,0.0,0.0,0.0,0.0,0.0,0.0,0.0,0.0,0.0,0.0,0.0,0.0,0.0,0.0,0.0,0.0,0.0,0.0,0.0,0.0,0.0,0.0
