ciel274/research-hand-sign/data/raw/hiragana/sign_language_ta_2.csv
timestamp,R_joint_0_x,R_joint_0_y,R_joint_0_z,R_joint_1_x,R_joint_1_y,R_joint_1_z,R_joint_2_x,R_joint_2_y,R_joint_2_z,R_joint_3_x,R_joint_3_y,R_joint_3_z,R_joint_4_x,R_joint_4_y,R_joint_4_z,R_joint_5_x,R_joint_5_y,R_joint_5_z,R_joint_6_x,R_joint_6_y,R_joint_6_z,R_joint_7_x,R_joint_7_y,R_joint_7_z,R_joint_8_x,R_joint_8_y,R_joint_8_z,R_joint_9_x,R_joint_9_y,R_joint_9_z,R_joint_10_x,R_joint_10_y,R_joint_10_z,R_joint_11_x,R_joint_11_y,R_joint_11_z,R_joint_12_x,R_joint_12_y,R_joint_12_z,R_joint_13_x,R_joint_13_y,R_joint_13_z,R_joint_14_x,R_joint_14_y,R_joint_14_z,R_joint_15_x,R_joint_15_y,R_joint_15_z,R_joint_16_x,R_joint_16_y,R_joint_16_z,R_joint_17_x,R_joint_17_y,R_joint_17_z,R_joint_18_x,R_joint_18_y,R_joint_18_z,R_joint_19_x,R_joint_19_y,R_joint_19_z,R_joint_20_x,R_joint_20_y,R_joint_20_z,L_joint_0_x,L_joint_0_y,L_joint_0_z,L_joint_1_x,L_joint_1_y,L_joint_1_z,L_joint_2_x,L_joint_2_y,L_joint_2_z,L_joint_3_x,L_joint_3_y,L_joint_3_z,L_joint_4_x,L_joint_4_y,L_joint_4_z,L_joint_5_x,L_joint_5_y,L_joint_5_z,L_joint_6_x,L_joint_6_y,L_joint_6_z,L_joint_7_x,L_joint_7_y,L_joint_7_z,L_joint_8_x,L_joint_8_y,L_joint_8_z,L_joint_9_x,L_joint_9_y,L_joint_9_z,L_joint_10_x,L_joint_10_y,L_joint_10_z,L_joint_11_x,L_joint_11_y,L_joint_11_z,L_joint_12_x,L_joint_12_y,L_joint_12_z,L_joint_13_x,L_joint_13_y,L_joint_13_z,L_joint_14_x,L_joint_14_y,L_joint_14_z,L_joint_15_x,L_joint_15_y,L_joint_15_z,L_joint_16_x,L_joint_16_y,L_joint_16_z,L_joint_17_x,L_joint_17_y,L_joint_17_z,L_joint_18_x,L_joint_18_y,L_joint_18_z,L_joint_19_x,L_joint_19_y,L_joint_19_z,L_joint_20_x,L_joint_20_y,L_joint_20_z
1783390834.444811,0.7496712803840637,0.7841240167617798,-1.3508612539681053e-07,0.729255735874176,0.7170042395591736,-0.005790242925286293,0.6995790004730225,0.6377110481262207,-0.020925728604197502,0.6860750913619995,0.5793633460998535,-0.03444859758019447,0.6794391870498657,0.5241148471832275,-0.04822893440723419,0.7065244317054749,0.6609341502189636,-0.055871810764074326,0.6377450227737427,0.6755694150924683,-0.07460099458694458,0.6547021269798279,0.682669460773468,-0.07648327946662903,0.6765621900558472,0.6767316460609436,-0.07560513913631439,0.7131754159927368,0.7184720039367676,-0.0624430850148201,0.6376217007637024,0.7295832633972168,-0.08001109957695007,0.6583502888679504,0.7318276166915894,-0.07390165328979492,0.6823912858963013,0.7315317392349243,-0.07051171362400055,0.7164402604103088,0.7732733488082886,-0.06729799509048462,0.6460343599319458,0.7789195775985718,-0.0809159055352211,0.6661048531532288,0.778242826461792,-0.0673796609044075,0.6895798444747925,0.775274395942688,-0.05881720408797264,0.716543972492218,0.8223398923873901,-0.07188951224088669,0.6608400940895081,0.8233256936073303,-0.08348596841096878,0.6759026646614075,0.8161998391151428,-0.07621242851018906,0.6967518925666809,0.8133845329284668,-0.07071632146835327,0.0,0.0,0.0,0.0,0.0,0.0,0.0,0.0,0.0,0.0,0.0,0.0,0.0,0.0,0.0,0.0,0.0,0.0,0.0,0.0,0.0,0.0,0.0,0.0,0.0,0.0,0.0,0.0,0.0,0.0,0.0,0.0,0.0,0.0,0.0,0.0,0.0,0.0,0.0,0.0,0.0,0.0,0.0,0.0,0.0,0.0,0.0,0.0,0.0,0.0,0.0,0.0,0.0,0.0,0.0,0.0,0.0,0.0,0.0,0.0,0.0,0.0,0.0
1783390834.573361,0.7500150203704834,0.7882376313209534,-1.6628115417915978e-07,0.7291139364242554,0.7219733595848083,-0.005302587989717722,0.6999423503875732,0.64153653383255,-0.019524799659848213,0.6856403350830078,0.5824838876724243,-0.03228970617055893,0.6797646284103394,0.5258069634437561,-0.04518707096576691,0.7047439813613892,0.662144124507904,-0.05269395560026169,0.6366012096405029,0.6766809225082397,-0.0715559795498848,0.6539055705070496,0.687305748462677,-0.07377706468105316,0.6764787435531616,0.6818460822105408,-0.07304589450359344,0.7119312882423401,0.7194039821624756,-0.05932050943374634,0.6374248266220093,0.7323566675186157,-0.07677645236253738,0.6580987572669983,0.7365720868110657,-0.0705413967370987,0.6820157766342163,0.7345499992370605,-0.06708547472953796,0.7160484790802002,0.774677574634552,-0.06447197496891022,0.6460144519805908,0.7818593382835388,-0.07902015745639801,0.6661142706871033,0.7826316356658936,-0.06562504917383194,0.6896171569824219,0.7784728407859802,-0.0568825788795948,0.7170197367668152,0.8243072628974915,-0.06923290342092514,0.661811113357544,0.8259407877922058,-0.08129826933145523,0.6770790815353394,0.8197954297065735,-0.0741218626499176,0.6979076862335205,0.8160498738288879,-0.06849824637174606,0.0,0.0,0.0,0.0,0.0,0.0,0.0,0.0,0.0,0.0,0.0,0.0,0.0,0.0,0.0,0.0,0.0,0.0,0.0,0.0,0.0,0.0,0.0,0.0,0.0,0.0,0.0,0.0,0.0,0.0,0.0,0.0,0.0,0.0,0.0,0.0,0.0,0.0,0.0,0.0,0.0,0.0,0.0,0.0,0.0,0.0,0.0,0.0,0.0,0.0,0.0,0.0,0.0,0.0,0.0,0.0,0.0,0.0,0.0,0.0,0.0,0.0,0.0
1783390834.71418,0.7494337558746338,0.7989932298660278,-1.3128749287716346e-07,0.7267432808876038,0.7312981486320496,-0.007171471603214741,0.6980710029602051,0.653982400894165,-0.025843549519777298,0.685512125492096,0.5967341661453247,-0.041692666709423065,0.6795268654823303,0.5395698547363281,-0.057755354791879654,0.705411970615387,0.6773286461830139,-0.07179240137338638,0.6367673873901367,0.694840133190155,-0.08742164820432663,0.6543211340904236,0.7053932547569275,-0.08345521241426468,0.6759704351425171,0.6991408467292786,-0.07980954647064209,0.7132652997970581,0.7352713346481323,-0.07858526706695557,0.6363332271575928,0.7499278783798218,-0.09442311525344849,0.6568289399147034,0.7532681226730347,-0.08372600376605988,0.6812266707420349,0.7513554096221924,-0.0788872018456459,0.7169054746627808,0.7899224162101746,-0.08234913647174835,0.6462176442146301,0.7991239428520203,-0.09380257874727249,0.666415274143219,0.7994651198387146,-0.0764208510518074,0.6904016137123108,0.7969862818717957,-0.06744763255119324,0.7174170017242432,0.8376308679580688,-0.0858437642455101,0.6617517471313477,0.8415097594261169,-0.09658832848072052,0.67656409740448,0.8360673785209656,-0.08761083334684372,0.6972748041152954,0.8345991969108582,-0.08219283819198608,0.0,0.0,0.0,0.0,0.0,0.0,0.0,0.0,0.0,0.0,0.0,0.0,0.0,0.0,0.0,0.0,0.0,0.0,0.0,0.0,0.0,0.0,0.0,0.0,0.0,0.0,0.0,0.0,0.0,0.0,0.0,0.0,0.0,0.0,0.0,0.0,0.0,0.0,0.0,0.0,0.0,0.0,0.0,0.0,0.0,0.0,0.0,0.0,0.0,0.0,0.0,0.0,0.0,0.0,0.0,0.0,0.0,0.0,0.0,0.0,0.0,0.0,0.0
1783390834.847063,0.7508410811424255,0.8054090142250061,-1.3202146931234893e-07,0.7282891869544983,0.7412667274475098,-0.007219658233225346,0.6980578899383545,0.6626414656639099,-0.0232242364436388,0.6841256022453308,0.6041684150695801,-0.037247899919748306,0.6776983737945557,0.5478644371032715,-0.051445767283439636,0.7052519917488098,0.6878793835639954,-0.05989573895931244,0.6353035569190979,0.7037427425384521,-0.0789501965045929,0.6532323360443115,0.7122774720191956,-0.08070848137140274,0.6755504012107849,0.7053773403167725,-0.08013131469488144,0.7128391861915588,0.7462172508239746,-0.06643063575029373,0.6357883214950562,0.760628879070282,-0.08463585376739502,0.6568697690963745,0.7628026604652405,-0.07803256809711456,0.6813760995864868,0.7596748471260071,-0.07464848458766937,0.717103123664856,0.801501989364624,-0.07120730727910995,0.6457915306091309,0.8099146485328674,-0.08582013845443726,0.6659984588623047,0.8097336888313293,-0.07152767479419708,0.690026044845581,0.805031955242157,-0.06259249895811081,0.7181648015975952,0.8499966263771057,-0.07583378255367279,0.6621972918510437,0.8533494472503662,-0.08824148029088974,0.6765902042388916,0.8469895720481873,-0.0807604119181633,0.697319507598877,0.8437508344650269,-0.07520683109760284,0.0,0.0,0.0,0.0,0.0,0.0,0.0,0.0,0.0,0.0,0.0,0.0,0.0,0.0,0.0,0.0,0.0,0.0,0.0,0.0,0.0,0.0,0.0,0.0,0.0,0.0,0.0,0.0,0.0,0.0,0.0,0.0,0.0,0.0,0.0,0.0,0.0,0.0,0.0,0.0,0.0,0.0,0.0,0.0,0.0,0.0,0.0,0.0,0.0,0.0,0.0,0.0,0.0,0.0,0.0,0.0,0.0,0.0,0.0,0.0,0.0,0.0,0.0
1783390834.9797509,0.7471166253089905,0.81256103515625,-1.465361094687978e-07,0.7260192036628723,0.7450512647628784,-0.005503287073224783,0.6947411894798279,0.6646277904510498,-0.020719997584819794,0.6804686188697815,0.6051436066627502,-0.03443587198853493,0.6755251288414001,0.5454789400100708,-0.04845741018652916,0.7022982239723206,0.6847773194313049,-0.05503720045089722,0.6334303617477417,0.7012596130371094,-0.0739002600312233,0.6503296494483948,0.7119542360305786,-0.07611250132322311,0.6729905605316162,0.7062795162200928,-0.07551310956478119,0.7096155881881714,0.7419440150260925,-0.06195514649152756,0.6337609887123108,0.7581825852394104,-0.07971851527690887,0.655428409576416,0.7627869844436646,-0.0735495537519455,0.680828869342804,0.7603901624679565,-0.06991256773471832,0.7141432762145996,0.7978636026382446,-0.06720244884490967,0.6432752013206482,0.808279812335968,-0.08085043728351593,0.6639115810394287,0.8087665438652039,-0.06701257824897766,0.6882793307304382,0.8041109442710876,-0.05813862755894661,0.7160112261772156,0.8479045033454895,-0.07215980440378189,0.6598203778266907,0.8522430658340454,-0.08364380151033401,0.6744763255119324,0.8463181257247925,-0.07609281688928604,0.6953756213188171,0.8427035212516785,-0.07033012062311172,0.0,0.0,0.0,0.0,0.0,0.0,0.0,0.0,0.0,0.0,0.0,0.0,0.0,0.0,0.0,0.0,0.0,0.0,0.0,0.0,0.0,0.0,0.0,0.0,0.0,0.0,0.0,0.0,0.0,0.0,0.0,0.0,0.0,0.0,0.0,0.0,0.0,0.0,0.0,0.0,0.0,0.0,0.0,0.0,0.0,0.0,0.0,0.0,0.0,0.0,0.0,0.0,0.0,0.0,0.0,0.0,0.0,0.0,0.0,0.0,0.0,0.0,0.0
1783390835.1148229,0.7413506507873535,0.8235574960708618,-1.63800663699476e-07,0.7173041105270386,0.7584468126296997,-0.007710397243499756,0.687539279460907,0.6796196699142456,-0.024372214451432228,0.6742600798606873,0.6198760271072388,-0.03858131542801857,0.669900119304657,0.561663806438446,-0.05301160365343094,0.6976636648178101,0.701699435710907,-0.06376875936985016,0.6294065117835999,0.723292887210846,-0.08127561211585999,0.6455549597740173,0.7377222180366516,-0.08074978739023209,0.6664934754371643,0.7294039130210876,-0.07923151552677155,0.7066110968589783,0.7586972713470459,-0.07012797892093658,0.6302250027656555,0.7800427675247192,-0.08697881549596786,0.6497824788093567,0.7851061224937439,-0.078376904129982,0.6737664937973022,0.7793421149253845,-0.07450038939714432,0.7115204930305481,0.813279926776886,-0.07436150312423706,0.640831708908081,0.82688969373703,-0.08835151046514511,0.6604200005531311,0.8291386365890503,-0.07283080369234085,0.6841388940811157,0.8242803812026978,-0.06382696330547333,0.7131498456001282,0.8619954586029053,-0.07839663326740265,0.6570770144462585,0.8698903322219849,-0.09053625166416168,0.6716659665107727,0.8655902743339539,-0.08264630287885666,0.692863404750824,0.8618507385253906,-0.07724010944366455,0.0,0.0,0.0,0.0,0.0,0.0,0.0,0.0,0.0,0.0,0.0,0.0,0.0,0.0,0.0,0.0,0.0,0.0,0.0,0.0,0.0,0.0,0.0,0.0,0.0,0.0,0.0,0.0,0.0,0.0,0.0,0.0,0.0,0.0,0.0,0.0,0.0,0.0,0.0,0.0,0.0,0.0,0.0,0.0,0.0,0.0,0.0,0.0,0.0,0.0,0.0,0.0,0.0,0.0,0.0,0.0,0.0,0.0,0.0,0.0,0.0,0.0,0.0
1783390835.246515,0.7405111789703369,0.8296738862991333,-1.4267604342421691e-07,0.7168439626693726,0.7635840177536011,-0.008413553237915039,0.6870108246803284,0.6852973699569702,-0.02533433772623539,0.6736269593238831,0.6259499788284302,-0.03975030034780502,0.6681426167488098,0.5674982070922852,-0.05424463376402855,0.6977517604827881,0.7128058075904846,-0.06394165009260178,0.6274689435958862,0.7314884662628174,-0.08226342499256134,0.6445605158805847,0.7402424812316895,-0.08283039182424545,0.6669497489929199,0.7342049479484558,-0.08168123662471771,0.7059252262115479,0.7714740037918091,-0.06999362260103226,0.627866268157959,0.7884255647659302,-0.08763867616653442,0.6479377150535583,0.7889443039894104,-0.08037929236888885,0.6728964447975159,0.7861171364784241,-0.07718238979578018,0.7104522585868835,0.8264307975769043,-0.07400625944137573,0.638671338558197,0.8358908295631409,-0.08880798518657684,0.6589066982269287,0.8345650434494019,-0.07425124943256378,0.6833004355430603,0.8307664394378662,-0.06555278599262238,0.7114683985710144,0.8742929100990295,-0.07788613438606262,0.6559483408927917,0.8792003989219666,-0.09081264585256577,0.6711822152137756,0.872078537940979,-0.08333417773246765,0.6923338770866394,0.8690080642700195,-0.07805849611759186,0.0,0.0,0.0,0.0,0.0,0.0,0.0,0.0,0.0,0.0,0.0,0.0,0.0,0.0,0.0,0.0,0.0,0.0,0.0,0.0,0.0,0.0,0.0,0.0,0.0,0.0,0.0,0.0,0.0,0.0,0.0,0.0,0.0,0.0,0.0,0.0,0.0,0.0,0.0,0.0,0.0,0.0,0.0,0.0,0.0,0.0,0.0,0.0,0.0,0.0,0.0,0.0,0.0,0.0,0.0,0.0,0.0,0.0,0.0,0.0,0.0,0.0,0.0
1783390835.3773031,0.7425211668014526,0.8380677700042725,-1.5672932818233676e-07,0.7197403907775879,0.7720115780830383,-0.009304916486144066,0.6882279515266418,0.6913030743598938,-0.02653268352150917,0.67438805103302,0.6299523711204529,-0.04112566262483597,0.6687475442886353,0.5694801807403564,-0.05575200542807579,0.7000270485877991,0.7120073437690735,-0.06448592245578766,0.6295396685600281,0.7295769453048706,-0.0839097797870636,0.6465625762939453,0.7415297031402588,-0.0846218392252922,0.6692324876785278,0.734669029712677,-0.08334223181009293,0.7084366679191589,0.7700513601303101,-0.07013997435569763,0.6300510764122009,0.7879331707954407,-0.08938910067081451,0.6502628922462463,0.7939707040786743,-0.0819559395313263,0.6754271984100342,0.7910017371177673,-0.07801355421543121,0.7124410271644592,0.8262152671813965,-0.07406578958034515,0.6400806903839111,0.8383952975273132,-0.08961465954780579,0.6599411368370056,0.8400035500526428,-0.07477965950965881,0.6845825910568237,0.8349276781082153,-0.06555525958538055,0.7127902507781982,0.8757592439651489,-0.07794332504272461,0.6559023857116699,0.8815892338752747,-0.09120653569698334,0.6706885695457458,0.8764137029647827,-0.08389274030923843,0.6920821666717529,0.8727392554283142,-0.07859183847904205,0.0,0.0,0.0,0.0,0.0,0.0,0.0,0.0,0.0,0.0,0.0,0.0,0.0,0.0,0.0,0.0,0.0,0.0,0.0,0.0,0.0,0.0,0.0,0.0,0.0,0.0,0.0,0.0,0.0,0.0,0.0,0.0,0.0,0.0,0.0,0.0,0.0,0.0,0.0,0.0,0.0,0.0,0.0,0.0,0.0,0.0,0.0,0.0,0.0,0.0,0.0,0.0,0.0,0.0,0.0,0.0,0.0,0.0,0.0,0.0,0.0,0.0,0.0
1783390835.5195992,0.7404741644859314,0.8417164087295532,-1.6552159820548695e-07,0.7174498438835144,0.7724507451057434,-0.010959452018141747,0.6897726058959961,0.6922990083694458,-0.029420554637908936,0.67815101146698,0.6310928463935852,-0.04496293514966965,0.6752941012382507,0.5697751641273499,-0.060699090361595154,0.7077990770339966,0.7204893231391907,-0.0681891143321991,0.6341758966445923,0.7370341420173645,-0.09043530374765396,0.6508845686912537,0.745421290397644,-0.09378129988908768,0.6737054586410522,0.7394279837608337,-0.09392289817333221,0.7169230580329895,0.7796536087989807,-0.07348599284887314,0.634738564491272,0.7947567105293274,-0.09434127807617188,0.6547600030899048,0.796220600605011,-0.08789309859275818,0.6803250312805176,0.7951080203056335,-0.08491256088018417,0.7206212282180786,0.8351653218269348,-0.07716763764619827,0.644093930721283,0.8440197706222534,-0.09486062824726105,0.6641388535499573,0.8433845043182373,-0.08035893738269806,0.6890915036201477,0.840187132358551,-0.07124847918748856,0.7197935581207275,0.8838068246841431,-0.08090271800756454,0.6602527499198914,0.8891482949256897,-0.0956120565533638,0.6758334636688232,0.8817172646522522,-0.08816851675510406,0.6978403329849243,0.8781681656837463,-0.08282825350761414,0.0,0.0,0.0,0.0,0.0,0.0,0.0,0.0,0.0,0.0,0.0,0.0,0.0,0.0,0.0,0.0,0.0,0.0,0.0,0.0,0.0,0.0,0.0,0.0,0.0,0.0,0.0,0.0,0.0,0.0,0.0,0.0,0.0,0.0,0.0,0.0,0.0,0.0,0.0,0.0,0.0,0.0,0.0,0.0,0.0,0.0,0.0,0.0,0.0,0.0,0.0,0.0,0.0,0.0,0.0,0.0,0.0,0.0,0.0,0.0,0.0,0.0,0.0
1783390835.680895,0.7339387536048889,0.8427066206932068,-1.9030646569717646e-07,0.7047441601753235,0.774722695350647,-0.012947610579431057,0.6809607148170471,0.6952453255653381,-0.03157324343919754,0.6750200986862183,0.6328442096710205,-0.04707019403576851,0.6776671409606934,0.5720519423484802,-0.06288259476423264,0.708909809589386,0.7271764278411865,-0.06803268939256668,0.6360785961151123,0.7468789219856262,-0.09105826169252396,0.6513428092002869,0.75855952501297,-0.09556227177381516,0.6737607717514038,0.7523602247238159,-0.09660456329584122,0.7193442583084106,0.7866507172584534,-0.07266318798065186,0.6369945406913757,0.8013217449188232,-0.09280528873205185,0.655316174030304,0.8053063154220581,-0.08607199788093567,0.6796958446502686,0.8042330145835876,-0.08377223461866379,0.7238968014717102,0.8407332897186279,-0.07606688141822815,0.6470419764518738,0.8494545221328735,-0.09465865045785904,0.665476381778717,0.8521405458450317,-0.08060020953416824,0.6899073719978333,0.8507288694381714,-0.07202416658401489,0.7234684228897095,0.8877997994422913,-0.07975568622350693,0.6629998087882996,0.8930140137672424,-0.09492147713899612,0.6779998540878296,0.8885934948921204,-0.08788490295410156,0.7003977298736572,0.8852278590202332,-0.08308139443397522,0.0,0.0,0.0,0.0,0.0,0.0,0.0,0.0,0.0,0.0,0.0,0.0,0.0,0.0,0.0,0.0,0.0,0.0,0.0,0.0,0.0,0.0,0.0,0.0,0.0,0.0,0.0,0.0,0.0,0.0,0.0,0.0,0.0,0.0,0.0,0.0,0.0,0.0,0.0,0.0,0.0,0.0,0.0,0.0,0.0,0.0,0.0,0.0,0.0,0.0,0.0,0.0,0.0,0.0,0.0,0.0,0.0,0.0,0.0,0.0,0.0,0.0,0.0
1783390835.814487,0.7304485440254211,0.8521798849105835,-2.2966334256580012e-07,0.7003225088119507,0.7777643799781799,-0.01558824721723795,0.6777310967445374,0.6959826946258545,-0.03369686007499695,0.6709919571876526,0.6286647915840149,-0.048528414219617844,0.6736520528793335,0.5651834607124329,-0.0634392723441124,0.7076048254966736,0.7193697690963745,-0.06643301993608475,0.6355463862419128,0.7437539100646973,-0.08976656943559647,0.6496577262878418,0.7634238004684448,-0.09258945286273956,0.671898603439331,0.7563145756721497,-0.0923050194978714,0.7187730073928833,0.7797753214836121,-0.06984937936067581,0.6364833116531372,0.7991795539855957,-0.09075160324573517,0.6539391279220581,0.8082504868507385,-0.08231396228075027,0.6774441003799438,0.8047333359718323,-0.07819943130016327,0.7234130501747131,0.8357996940612793,-0.07281282544136047,0.6463038921356201,0.851080060005188,-0.09393642842769623,0.6632490158081055,0.8557076454162598,-0.07968603074550629,0.6874300241470337,0.8526003956794739,-0.06996572762727737,0.7227795720100403,0.885615348815918,-0.0761701688170433,0.6610792279243469,0.8937778472900391,-0.09273397922515869,0.6748369932174683,0.892669677734375,-0.08638882637023926,0.6981027126312256,0.8896133899688721,-0.08132312446832657,0.0,0.0,0.0,0.0,0.0,0.0,0.0,0.0,0.0,0.0,0.0,0.0,0.0,0.0,0.0,0.0,0.0,0.0,0.0,0.0,0.0,0.0,0.0,0.0,0.0,0.0,0.0,0.0,0.0,0.0,0.0,0.0,0.0,0.0,0.0,0.0,0.0,0.0,0.0,0.0,0.0,0.0,0.0,0.0,0.0,0.0,0.0,0.0,0.0,0.0,0.0,0.0,0.0,0.0,0.0,0.0,0.0,0.0,0.0,0.0,0.0,0.0,0.0
1783390835.949942,0.7334965467453003,0.842860758304596,-2.395348985828605e-07,0.6985992193222046,0.7682432532310486,-0.015866752713918686,0.6743958592414856,0.6828963160514832,-0.03238163888454437,0.6704519987106323,0.6104477047920227,-0.045589059591293335,0.675872266292572,0.548460841178894,-0.05838650092482567,0.7071649432182312,0.7029348611831665,-0.06094350665807724,0.6334927678108215,0.7328323721885681,-0.08346574008464813,0.6483479738235474,0.7546916007995605,-0.08574144542217255,0.6716828942298889,0.7467215061187744,-0.08473651856184006,0.7185248732566833,0.7640137076377869,-0.06335156410932541,0.6358307003974915,0.788952648639679,-0.08321763575077057,0.6544946432113647,0.7963008880615234,-0.07496438175439835,0.677866518497467,0.7914863228797913,-0.07087115943431854,0.7219639420509338,0.8200693726539612,-0.06571295857429504,0.6444710493087769,0.8385838866233826,-0.08639173954725266,0.6611174941062927,0.8423680663108826,-0.07414603233337402,0.6847861409187317,0.8370183110237122,-0.06570757925510406,0.7208942770957947,0.8700019717216492,-0.06844515353441238,0.658037543296814,0.8778848648071289,-0.08324387669563293,0.6723480224609375,0.8785735964775085,-0.07747362554073334,0.6965945959091187,0.8766332864761353,-0.07295788079500198,0.0,0.0,0.0,0.0,0.0,0.0,0.0,0.0,0.0,0.0,0.0,0.0,0.0,0.0,0.0,0.0,0.0,0.0,0.0,0.0,0.0,0.0,0.0,0.0,0.0,0.0,0.0,0.0,0.0,0.0,0.0,0.0,0.0,0.0,0.0,0.0,0.0,0.0,0.0,0.0,0.0,0.0,0.0,0.0,0.0,0.0,0.0,0.0,0.0,0.0,0.0,0.0,0.0,0.0,0.0,0.0,0.0,0.0,0.0,0.0,0.0,0.0,0.0
1783390836.174117,0.7205601334571838,0.8428395390510559,-2.6263401764481387e-07,0.6888558268547058,0.7617540955543518,-0.017920225858688354,0.6689671277999878,0.6750028729438782,-0.03681669756770134,0.6664795875549316,0.602787435054779,-0.052163027226924896,0.6727567911148071,0.5364610552787781,-0.0674276053905487,0.7062019109725952,0.6921650171279907,-0.06663202494382858,0.6304578185081482,0.7234609127044678,-0.08969806879758835,0.643665611743927,0.7468242645263672,-0.09134040027856827,0.666629433631897,0.7390490174293518,-0.08991687744855881,0.7183735966682434,0.7561667561531067,-0.06926871836185455,0.6333894729614258,0.7838227152824402,-0.09021688252687454,0.6506185531616211,0.7931428551673889,-0.08156117051839828,0.6735827922821045,0.7882608771324158,-0.07712599635124207,0.7226038575172424,0.8154745101928711,-0.07177144289016724,0.6426059603691101,0.8365973234176636,-0.09273095428943634,0.6584376692771912,0.8394724130630493,-0.07898257672786713,0.6819525361061096,0.8339468836784363,-0.06962698698043823,0.721580982208252,0.868729829788208,-0.07493171095848083,0.6569538116455078,0.8790755867958069,-0.09094483405351639,0.669833242893219,0.8778724670410156,-0.08483728766441345,0.6933895349502563,0.8748759031295776,-0.07975176721811295,0.0,0.0,0.0,0.0,0.0,0.0,0.0,0.0,0.0,0.0,0.0,0.0,0.0,0.0,0.0,0.0,0.0,0.0,0.0,0.0,0.0,0.0,0.0,0.0,0.0,0.0,0.0,0.0,0.0,0.0,0.0,0.0,0.0,0.0,0.0,0.0,0.0,0.0,0.0,0.0,0.0,0.0,0.0,0.0,0.0,0.0,0.0,0.0,0.0,0.0,0.0,0.0,0.0,0.0,0.0,0.0,0.0,0.0,0.0,0.0,0.0,0.0,0.0
1783390836.732088,0.7178066968917847,0.8481329083442688,-2.9372719723141927e-07,0.6796755194664001,0.7689857482910156,-0.01860731467604637,0.659719705581665,0.6699612140655518,-0.036282896995544434,0.6629863381385803,0.5905289649963379,-0.04935462772846222,0.6720443964004517,0.5254732370376587,-0.06115055829286575,0.7071066498756409,0.6945516467094421,-0.0619257353246212,0.6265785694122314,0.7217207551002502,-0.08364885300397873,0.6372835636138916,0.748473048210144,-0.08629845082759857,0.6609820127487183,0.7391778826713562,-0.08593964576721191,0.7187983393669128,0.7575681209564209,-0.06313924491405487,0.6270256042480469,0.7855194807052612,-0.08051005750894547,0.6443851590156555,0.792895495891571,-0.07246023416519165,0.6688233613967896,0.7856156229972839,-0.06914660334587097,0.7212042212486267,0.8189694881439209,-0.06442779302597046,0.6378348469734192,0.8420140147209167,-0.0803309828042984,0.6518698930740356,0.8461607098579407,-0.06807272136211395,0.6767472624778748,0.8389707803726196,-0.06137390434741974,0.7192828059196472,0.873970627784729,-0.06673198938369751,0.6523712277412415,0.8882637023925781,-0.07936813682317734,0.6659147143363953,0.8882521986961365,-0.07517381012439728,0.6922354102134705,0.8835064172744751,-0.07226728647947311,0.0,0.0,0.0,0.0,0.0,0.0,0.0,0.0,0.0,0.0,0.0,0.0,0.0,0.0,0.0,0.0,0.0,0.0,0.0,0.0,0.0,0.0,0.0,0.0,0.0,0.0,0.0,0.0,0.0,0.0,0.0,0.0,0.0,0.0,0.0,0.0,0.0,0.0,0.0,0.0,0.0,0.0,0.0,0.0,0.0,0.0,0.0,0.0,0.0,0.0,0.0,0.0,0.0,0.0,0.0,0.0,0.0,0.0,0.0,0.0,0.0,0.0,0.0
1783390837.038975,0.7418616414070129,0.8844068050384521,-3.627324929311726e-07,0.7014644145965576,0.7923799157142639,-0.025518642738461494,0.6895034909248352,0.6869902610778809,-0.04499448835849762,0.6965169906616211,0.5973386168479919,-0.059469833970069885,0.7077757120132446,0.5204405784606934,-0.0731963962316513,0.755689263343811,0.722040593624115,-0.06286994367837906,0.6742305755615234,0.7381306290626526,-0.07900366932153702,0.6763426661491394,0.7706285715103149,-0.078920379281044,0.7008485794067383,0.7678431272506714,-0.07895958423614502,0.7702457904815674,0.7970097064971924,-0.06269214302301407,0.673973023891449,0.8173887729644775,-0.0750494971871376,0.6855673789978027,0.8298708200454712,-0.0677080973982811,0.7145081162452698,0.8258723616600037,-0.06719392538070679,0.7727516293525696,0.867631733417511,-0.0627242922782898,0.6848462224006653,0.8840430974960327,-0.07555219531059265,0.6978123188018799,0.8878960013389587,-0.060659948736429214,0.7274734377861023,0.882839024066925,-0.05401809886097908,0.7708537578582764,0.9320899844169617,-0.06489626318216324,0.7075235843658447,0.940026044845581,-0.07857227325439453,0.716720461845398,0.9389770030975342,-0.07245531678199768,0.7409667372703552,0.9363824129104614,-0.06848408281803131,0.0,0.0,0.0,0.0,0.0,0.0,0.0,0.0,0.0,0.0,0.0,0.0,0.0,0.0,0.0,0.0,0.0,0.0,0.0,0.0,0.0,0.0,0.0,0.0,0.0,0.0,0.0,0.0,0.0,0.0,0.0,0.0,0.0,0.0,0.0,0.0,0.0,0.0,0.0,0.0,0.0,0.0,0.0,0.0,0.0,0.0,0.0,0.0,0.0,0.0,0.0,0.0,0.0,0.0,0.0,0.0,0.0,0.0,0.0,0.0,0.0,0.0,0.0
1783390837.2426748,0.7320507168769836,0.8910649418830872,-3.4533158554950205e-07,0.7084068059921265,0.7943064570426941,-0.03563077747821808,0.7071032524108887,0.6783976554870605,-0.051986679434776306,0.7175140380859375,0.5965360999107361,-0.06050294265151024,0.7285652756690979,0.5219978094100952,-0.064622662961483,0.7762156128883362,0.7202664613723755,-0.05627093091607094,0.6909685730934143,0.7381683588027954,-0.07587584108114243,0.6942919492721558,0.7658814787864685,-0.0800529271364212,0.7190853953361511,0.7666599154472351,-0.08202812075614929,0.7956664562225342,0.7956351637840271,-0.050306495279073715,0.6853870749473572,0.8270933628082275,-0.06720119714736938,0.7030832171440125,0.8302274346351624,-0.0660618469119072,0.7338486313819885,0.8208187818527222,-0.06752999871969223,0.7991860508918762,0.8740265965461731,-0.047011394053697586,0.6943652033805847,0.8982701301574707,-0.06746932119131088,0.7110241055488586,0.890866219997406,-0.0610525980591774,0.7407023310661316,0.877897322177887,-0.05607723072171211,0.7937382459640503,0.9461285471916199,-0.046955786645412445,0.7149336338043213,0.9568760991096497,-0.06771139800548553,0.7247731685638428,0.9440165162086487,-0.07062938809394836,0.7497729063034058,0.931751549243927,-0.07066403329372406,0.0,0.0,0.0,0.0,0.0,0.0,0.0,0.0,0.0,0.0,0.0,0.0,0.0,0.0,0.0,0.0,0.0,0.0,0.0,0.0,0.0,0.0,0.0,0.0,0.0,0.0,0.0,0.0,0.0,0.0,0.0,0.0,0.0,0.0,0.0,0.0,0.0,0.0,0.0,0.0,0.0,0.0,0.0,0.0,0.0,0.0,0.0,0.0,0.0,0.0,0.0,0.0,0.0,0.0,0.0,0.0,0.0,0.0,0.0,0.0,0.0,0.0,0.0
1783390837.387448,0.7167194485664368,0.8689124584197998,-4.3837908947352844e-07,0.6979557871818542,0.7873896956443787,-0.037070829421281815,0.7096891403198242,0.6687869429588318,-0.04798480495810509,0.7246606945991516,0.5852335095405579,-0.05041803419589996,0.7340959310531616,0.5163983106613159,-0.04615205153822899,0.7805436253547668,0.7016247510910034,-0.04458705708384514,0.7004852294921875,0.7187195420265198,-0.0631575882434845,0.7022486925125122,0.7463684678077698,-0.06876424700021744,0.7288010716438293,0.7521083950996399,-0.07216912508010864,0.805872917175293,0.7752399444580078,-0.034815963357686996,0.6911827921867371,0.8150618672370911,-0.050684213638305664,0.708448052406311,0.8198384642601013,-0.05009535700082779,0.7431542873382568,0.8062899708747864,-0.049697812646627426,0.811011016368866,0.856245756149292,-0.02845875918865204,0.7037792205810547,0.8863507509231567,-0.047362226992845535,0.7152140140533447,0.885233461856842,-0.03753070905804634,0.7460471987724304,0.8702900409698486,-0.028207523748278618,0.8049978613853455,0.9320692420005798,-0.026526810601353645,0.7210032939910889,0.9482383131980896,-0.04743007943034172,0.7258442640304565,0.9451024532318115,-0.049841009080410004,0.7506393790245056,0.934740424156189,-0.04722204804420471,0.0,0.0,0.0,0.0,0.0,0.0,0.0,0.0,0.0,0.0,0.0,0.0,0.0,0.0,0.0,0.0,0.0,0.0,0.0,0.0,0.0,0.0,0.0,0.0,0.0,0.0,0.0,0.0,0.0,0.0,0.0,0.0,0.0,0.0,0.0,0.0,0.0,0.0,0.0,0.0,0.0,0.0,0.0,0.0,0.0,0.0,0.0,0.0,0.0,0.0,0.0,0.0,0.0,0.0,0.0,0.0,0.0,0.0,0.0,0.0,0.0,0.0,0.0
1783390837.5561411,0.7179577946662903,0.8428200483322144,-4.2829680069189635e-07,0.7026750445365906,0.7600605487823486,-0.03837249428033829,0.7122060060501099,0.6486822962760925,-0.05612180754542351,0.7211217284202576,0.5692617297172546,-0.06545720994472504,0.7321438193321228,0.4915597438812256,-0.06851688027381897,0.785485565662384,0.68462073802948,-0.05551140382885933,0.7025338411331177,0.708130955696106,-0.077939972281456,0.7020304799079895,0.7289749979972839,-0.08685622364282608,0.7277227640151978,0.7322750687599182,-0.09348654001951218,0.807948887348175,0.7600398063659668,-0.04764559119939804,0.697638988494873,0.7948523759841919,-0.06605637818574905,0.7084962129592896,0.79401695728302,-0.06615573167800903,0.7393500208854675,0.7815420627593994,-0.06753446906805038,0.8120359182357788,0.8406507968902588,-0.04232347756624222,0.7096704244613647,0.860735297203064,-0.062273766845464706,0.7175723314285278,0.8556760549545288,-0.048626042902469635,0.7457064986228943,0.8436905145645142,-0.038048092275857925,0.8058705925941467,0.9145549535751343,-0.04185556247830391,0.7264444828033447,0.9188944101333618,-0.06505370885133743,0.7303916215896606,0.9142699241638184,-0.06430544704198837,0.7548456192016602,0.9062507748603821,-0.05960841849446297,0.0,0.0,0.0,0.0,0.0,0.0,0.0,0.0,0.0,0.0,0.0,0.0,0.0,0.0,0.0,0.0,0.0,0.0,0.0,0.0,0.0,0.0,0.0,0.0,0.0,0.0,0.0,0.0,0.0,0.0,0.0,0.0,0.0,0.0,0.0,0.0,0.0,0.0,0.0,0.0,0.0,0.0,0.0,0.0,0.0,0.0,0.0,0.0,0.0,0.0,0.0,0.0,0.0,0.0,0.0,0.0,0.0,0.0,0.0,0.0,0.0,0.0,0.0
1783390837.729874,0.7200828194618225,0.8337811827659607,-4.40208822283239e-07,0.7009641528129578,0.7445196509361267,-0.03635197877883911,0.7089621424674988,0.6283707618713379,-0.05279655382037163,0.7187828421592712,0.5483583807945251,-0.06131010130047798,0.7300348877906799,0.47171643376350403,-0.06395186483860016,0.7776157259941101,0.6609405279159546,-0.05299673229455948,0.6973528861999512,0.6868306398391724,-0.07223986834287643,0.6988570690155029,0.7031084895133972,-0.07905081659555435,0.7231512069702148,0.702544093132019,-0.08456424623727798,0.8013349771499634,0.7371705174446106,-0.04540976881980896,0.6904857754707336,0.7725437879562378,-0.06007421761751175,0.7042796015739441,0.7699886560440063,-0.05782969668507576,0.7349172234535217,0.7578014135360718,-0.05787546560168266,0.806125819683075,0.8182370066642761,-0.03996806964278221,0.7042441964149475,0.8343676924705505,-0.05731320381164551,0.7139123678207397,0.8276868462562561,-0.041677530854940414,0.7419333457946777,0.816213071346283,-0.029659952968358994,0.8002309799194336,0.8931260108947754,-0.03927270323038101,0.7220830917358398,0.89139723777771,-0.0612136535346508,0.7280054092407227,0.8844162225723267,-0.05903045833110809,0.7529178261756897,0.8771930932998657,-0.05294441804289818,0.0,0.0,0.0,0.0,0.0,0.0,0.0,0.0,0.0,0.0,0.0,0.0,0.0,0.0,0.0,0.0,0.0,0.0,0.0,0.0,0.0,0.0,0.0,0.0,0.0,0.0,0.0,0.0,0.0,0.0,0.0,0.0,0.0,0.0,0.0,0.0,0.0,0.0,0.0,0.0,0.0,0.0,0.0,0.0,0.0,0.0,0.0,0.0,0.0,0.0,0.0,0.0,0.0,0.0,0.0,0.0,0.0,0.0,0.0,0.0,0.0,0.0,0.0
1783390838.0575109,0.7189325094223022,0.8050321936607361,-4.284081001060258e-07,0.6948627233505249,0.7137198448181152,-0.03410293906927109,0.7007501125335693,0.5987988114356995,-0.04837536811828613,0.7103510499000549,0.5184345841407776,-0.05520383641123772,0.7199571132659912,0.442537397146225,-0.0558759868144989,0.7663396000862122,0.6230594515800476,-0.04791636019945145,0.6891191005706787,0.6432446837425232,-0.0660438984632492,0.6902668476104736,0.6624100208282471,-0.07109633833169937,0.715656578540802,0.6629148125648499,-0.07507283240556717,0.7913542985916138,0.6960647106170654,-0.041410524398088455,0.6804169416427612,0.7334011793136597,-0.05548948049545288,0.6951703429222107,0.7353307008743286,-0.052397433668375015,0.72895348072052,0.7237414717674255,-0.05165993794798851,0.7970854640007019,0.7763109803199768,-0.037496212869882584,0.6941238045692444,0.7957550883293152,-0.05397479608654976,0.7046087980270386,0.7929602265357971,-0.03902013599872589,0.7333734035491943,0.7830029129981995,-0.027644604444503784,0.7920735478401184,0.8506261110305786,-0.03807450830936432,0.7125563025474548,0.8538258671760559,-0.05861582234501839,0.7202777862548828,0.8488994836807251,-0.057433467358350754,0.7462581396102905,0.8414627313613892,-0.05254470184445381,0.0,0.0,0.0,0.0,0.0,0.0,0.0,0.0,0.0,0.0,0.0,0.0,0.0,0.0,0.0,0.0,0.0,0.0,0.0,0.0,0.0,0.0,0.0,0.0,0.0,0.0,0.0,0.0,0.0,0.0,0.0,0.0,0.0,0.0,0.0,0.0,0.0,0.0,0.0,0.0,0.0,0.0,0.0,0.0,0.0,0.0,0.0,0.0,0.0,0.0,0.0,0.0,0.0,0.0,0.0,0.0,0.0,0.0,0.0,0.0,0.0,0.0,0.0
1783390838.298295,0.7203637957572937,0.7533407211303711,-3.172499987158517e-07,0.6916391253471375,0.6571515798568726,-0.03439923748373985,0.6942806839942932,0.5450077056884766,-0.048455722630023956,0.702157735824585,0.4655808210372925,-0.05531388521194458,0.7077779769897461,0.3890095055103302,-0.055344466120004654,0.7645087242126465,0.5613570809364319,-0.04389532282948494,0.6747779250144958,0.5859020352363586,-0.06663022190332413,0.6795530319213867,0.6178321242332458,-0.0749206617474556,0.7098413109779358,0.6242501139640808,-0.07976186275482178,0.7855311632156372,0.6292678117752075,-0.038342684507369995,0.6733234524726868,0.6673547625541687,-0.057485539466142654,0.6907880902290344,0.6803126931190491,-0.056251637637615204,0.7265994548797607,0.6718409061431885,-0.05549661070108414,0.7892798781394958,0.7057877779006958,-0.03648084029555321,0.6865293979644775,0.7338972687721252,-0.056520018726587296,0.700741171836853,0.7402909398078918,-0.04365331307053566,0.732872486114502,0.7319415211677551,-0.0327824167907238,0.7833997011184692,0.7815425992012024,-0.03919043019413948,0.7050313949584961,0.7925193905830383,-0.059775326400995255,0.7150335907936096,0.7914421558380127,-0.05957657843828201,0.7442139983177185,0.7819796800613403,-0.055331092327833176,0.0,0.0,0.0,0.0,0.0,0.0,0.0,0.0,0.0,0.0,0.0,0.0,0.0,0.0,0.0,0.0,0.0,0.0,0.0,0.0,0.0,0.0,0.0,0.0,0.0,0.0,0.0,0.0,0.0,0.0,0.0,0.0,0.0,0.0,0.0,0.0,0.0,0.0,0.0,0.0,0.0,0.0,0.0,0.0,0.0,0.0,0.0,0.0,0.0,0.0,0.0,0.0,0.0,0.0,0.0,0.0,0.0,0.0,0.0,0.0,0.0,0.0,0.0
1783390838.4329238,0.7216498851776123,0.7329534292221069,-3.0863287747706636e-07,0.6965829730033875,0.6346592307090759,-0.036745306104421616,0.6927580237388611,0.5263327956199646,-0.06076173856854439,0.6961318850517273,0.4495343565940857,-0.07584001868963242,0.7045251131057739,0.3675611615180969,-0.08389629423618317,0.7596696019172668,0.5477638244628906,-0.08257222920656204,0.6680907011032104,0.5674350261688232,-0.1126604676246643,0.6715250015258789,0.6029440760612488,-0.11683716624975204,0.7008523344993591,0.6041066646575928,-0.11836523562669754,0.776211142539978,0.6167703866958618,-0.0800769254565239,0.6709734797477722,0.64317387342453,-0.10647766292095184,0.683489978313446,0.6612590551376343,-0.09830910712480545,0.7155404090881348,0.6526647210121155,-0.09403745085000992,0.7793399095535278,0.6927315592765808,-0.07984328269958496,0.6800962090492249,0.7182174921035767,-0.10340747982263565,0.6930697560310364,0.7280177474021912,-0.08360061049461365,0.7236768007278442,0.7229954600334167,-0.07053588330745697,0.7753490209579468,0.7674427628517151,-0.08402528613805771,0.6999892592430115,0.7767331004142761,-0.1078483834862709,0.7098163962364197,0.7768669724464417,-0.10644855350255966,0.738525390625,0.7696090936660767,-0.10318371653556824,0.0,0.0,0.0,0.0,0.0,0.0,0.0,0.0,0.0,0.0,0.0,0.0,0.0,0.0,0.0,0.0,0.0,0.0,0.0,0.0,0.0,0.0,0.0,0.0,0.0,0.0,0.0,0.0,0.0,0.0,0.0,0.0,0.0,0.0,0.0,0.0,0.0,0.0,0.0,0.0,0.0,0.0,0.0,0.0,0.0,0.0,0.0,0.0,0.0,0.0,0.0,0.0,0.0,0.0,0.0,0.0,0.0,0.0,0.0,0.0,0.0,0.0,0.0
1783390838.6297631,0.717907190322876,0.72611403465271,-3.149510519051546e-07,0.6930091381072998,0.6319570541381836,-0.03776098042726517,0.6890648007392883,0.5271593928337097,-0.05965900048613548,0.6934459805488586,0.45094138383865356,-0.07285553216934204,0.7017410397529602,0.3728129267692566,-0.07921392470598221,0.7532961368560791,0.5465546250343323,-0.07519033551216125,0.6624453067779541,0.5705161690711975,-0.10479747503995895,0.6669598817825317,0.6090995669364929,-0.11036322265863419,0.6965968608856201,0.611023485660553,-0.11233984678983688,0.7714909315109253,0.6148642897605896,-0.07109806686639786,0.6650216579437256,0.6481790542602539,-0.09793592244386673,0.6800245642662048,0.665968656539917,-0.09262047708034515,0.7121146321296692,0.6578932404518127,-0.08944403380155563,0.7765687704086304,0.6898414492607117,-0.0697384625673294,0.6765980124473572,0.7204990386962891,-0.09531193971633911,0.6911619305610657,0.727636456489563,-0.0790674164891243,0.7214390635490417,0.7205994129180908,-0.06688852608203888,0.7744135856628418,0.7631708383560181,-0.07267051190137863,0.6984851956367493,0.7769365906715393,-0.0974179357290268,0.7079885005950928,0.7742984890937805,-0.09720522165298462,0.735447883605957,0.7644609212875366,-0.0939505472779274,0.0,0.0,0.0,0.0,0.0,0.0,0.0,0.0,0.0,0.0,0.0,0.0,0.0,0.0,0.0,0.0,0.0,0.0,0.0,0.0,0.0,0.0,0.0,0.0,0.0,0.0,0.0,0.0,0.0,0.0,0.0,0.0,0.0,0.0,0.0,0.0,0.0,0.0,0.0,0.0,0.0,0.0,0.0,0.0,0.0,0.0,0.0,0.0,0.0,0.0,0.0,0.0,0.0,0.0,0.0,0.0,0.0,0.0,0.0,0.0,0.0,0.0,0.0
1783390838.8285,0.7156872749328613,0.7280734181404114,-3.1837143410484714e-07,0.6920468211174011,0.6309963464736938,-0.036317240446805954,0.689478874206543,0.5252295732498169,-0.05595962330698967,0.694737434387207,0.44876936078071594,-0.06733004003763199,0.7033845782279968,0.3728424310684204,-0.07200238853693008,0.7532304525375366,0.5474263429641724,-0.06793668866157532,0.6627575755119324,0.5659418702125549,-0.0955801010131836,0.6663373708724976,0.6019502282142639,-0.10126303136348724,0.6954267024993896,0.6042070984840393,-0.10334433615207672,0.770028829574585,0.6152739524841309,-0.0636853352189064,0.662636399269104,0.6444334983825684,-0.08867350220680237,0.6782147884368896,0.6605926156044006,-0.08408968150615692,0.7096071243286133,0.6536425352096558,-0.08126428723335266,0.7735446691513062,0.6896052956581116,-0.062320612370967865,0.6731037497520447,0.7162740230560303,-0.08662523329257965,0.6884810924530029,0.722754955291748,-0.07159194350242615,0.7185586094856262,0.7160597443580627,-0.059863027185201645,0.7699434161186218,0.7628831267356873,-0.06515105068683624,0.6946383118629456,0.7739972472190857,-0.08872037380933762,0.7050319314002991,0.7714560031890869,-0.08862458914518356,0.7321547865867615,0.7629865407943726,-0.08519234508275986,0.0,0.0,0.0,0.0,0.0,0.0,0.0,0.0,0.0,0.0,0.0,0.0,0.0,0.0,0.0,0.0,0.0,0.0,0.0,0.0,0.0,0.0,0.0,0.0,0.0,0.0,0.0,0.0,0.0,0.0,0.0,0.0,0.0,0.0,0.0,0.0,0.0,0.0,0.0,0.0,0.0,0.0,0.0,0.0,0.0,0.0,0.0,0.0,0.0,0.0,0.0,0.0,0.0,0.0,0.0,0.0,0.0,0.0,0.0,0.0,0.0,0.0,0.0
1783390839.149549,0.7178194522857666,0.726199209690094,-2.911707497332827e-07,0.6936032176017761,0.6307008266448975,-0.03903372958302498,0.6907712817192078,0.5243340134620667,-0.060882408171892166,0.696307361125946,0.44744163751602173,-0.0738150030374527,0.7058126926422119,0.36926591396331787,-0.08026664704084396,0.7548561692237854,0.5495965480804443,-0.07442738115787506,0.6645207405090332,0.5686912536621094,-0.10339555889368057,0.6698774695396423,0.6027719974517822,-0.1094551756978035,0.6989619731903076,0.6049869060516357,-0.11186401546001434,0.7713964581489563,0.6186335682868958,-0.06943105161190033,0.6631019115447998,0.6472856402397156,-0.09544052928686142,0.6792885661125183,0.6626327037811279,-0.0906875878572464,0.7119837403297424,0.6553690433502197,-0.08806055784225464,0.7746915221214294,0.6936101913452148,-0.06736750155687332,0.6733860969543457,0.7197313904762268,-0.09233607351779938,0.6890068054199219,0.7241415977478027,-0.07725296914577484,0.719639241695404,0.7172443270683289,-0.06592893600463867,0.7705567479133606,0.767135500907898,-0.06971339136362076,0.6934308409690857,0.7774724960327148,-0.09444192796945572,0.7039381861686707,0.773556113243103,-0.09502611309289932,0.7319024801254272,0.7646830677986145,-0.0923759788274765,0.0,0.0,0.0,0.0,0.0,0.0,0.0,0.0,0.0,0.0,0.0,0.0,0.0,0.0,0.0,0.0,0.0,0.0,0.0,0.0,0.0,0.0,0.0,0.0,0.0,0.0,0.0,0.0,0.0,0.0,0.0,0.0,0.0,0.0,0.0,0.0,0.0,0.0,0.0,0.0,0.0,0.0,0.0,0.0,0.0,0.0,0.0,0.0,0.0,0.0,0.0,0.0,0.0,0.0,0.0,0.0,0.0,0.0,0.0,0.0,0.0,0.0,0.0
1783390839.323325,0.7157967686653137,0.7283617258071899,-3.0354718205671816e-07,0.6920639276504517,0.6347771883010864,-0.03864046931266785,0.6902484893798828,0.5280762314796448,-0.05940153822302818,0.6970312595367432,0.4512808918952942,-0.0714196041226387,0.7085020542144775,0.37303832173347473,-0.07683655619621277,0.7562659382820129,0.5511734485626221,-0.06995837390422821,0.6671884059906006,0.5717063546180725,-0.09850818663835526,0.6728684306144714,0.6038452982902527,-0.1056261882185936,0.7020081281661987,0.6050723195075989,-0.10900363326072693,0.7737787961959839,0.6203060746192932,-0.06485495716333389,0.6645817756652832,0.6523094773292542,-0.09072275459766388,0.6821784973144531,0.6666464805603027,-0.08743347227573395,0.7160406708717346,0.6590365767478943,-0.08569813519716263,0.7773568034172058,0.696089506149292,-0.06281411647796631,0.6752939224243164,0.7244908213615417,-0.08771725744009018,0.6919351816177368,0.7291803359985352,-0.07341841608285904,0.7235615253448486,0.7210250496864319,-0.062362708151340485,0.7731243968009949,0.7712370753288269,-0.06523717194795609,0.6956095695495605,0.7829941511154175,-0.09006574749946594,0.706972599029541,0.7797145843505859,-0.0908845067024231,0.7359318137168884,0.7705938220024109,-0.08814281970262527,0.0,0.0,0.0,0.0,0.0,0.0,0.0,0.0,0.0,0.0,0.0,0.0,0.0,0.0,0.0,0.0,0.0,0.0,0.0,0.0,0.0,0.0,0.0,0.0,0.0,0.0,0.0,0.0,0.0,0.0,0.0,0.0,0.0,0.0,0.0,0.0,0.0,0.0,0.0,0.0,0.0,0.0,0.0,0.0,0.0,0.0,0.0,0.0,0.0,0.0,0.0,0.0,0.0,0.0,0.0,0.0,0.0,0.0,0.0,0.0,0.0,0.0,0.0
1783390839.6176121,0.7140334248542786,0.727334201335907,-3.2559876217419514e-07,0.6911828517913818,0.6322965621948242,-0.035111505538225174,0.692182719707489,0.5233068466186523,-0.05291319265961647,0.7009690999984741,0.4469040334224701,-0.06258846074342728,0.7114124298095703,0.37236931920051575,-0.06538207828998566,0.7565793991088867,0.5470793843269348,-0.06248050928115845,0.6665818095207214,0.564339280128479,-0.08959586173295975,0.6709476113319397,0.6005572080612183,-0.09650066494941711,0.7004385590553284,0.6041578650474548,-0.09972449392080307,0.7736894488334656,0.6158336400985718,-0.05831722542643547,0.6638322472572327,0.646457314491272,-0.08243376761674881,0.6820778846740723,0.6622743010520935,-0.0787573754787445,0.7160496115684509,0.6554330587387085,-0.07654246687889099,0.7758570909500122,0.6918899416923523,-0.057265885174274445,0.6740241646766663,0.717364490032196,-0.08077126741409302,0.6902152895927429,0.7234031558036804,-0.06616271287202835,0.7219952940940857,0.7158128023147583,-0.054569683969020844,0.7699251174926758,0.766974925994873,-0.060472145676612854,0.6936312317848206,0.7760306000709534,-0.0840403139591217,0.7054898738861084,0.7737821936607361,-0.08457309752702713,0.7350260615348816,0.7649527192115784,-0.08139559626579285,0.0,0.0,0.0,0.0,0.0,0.0,0.0,0.0,0.0,0.0,0.0,0.0,0.0,0.0,0.0,0.0,0.0,0.0,0.0,0.0,0.0,0.0,0.0,0.0,0.0,0.0,0.0,0.0,0.0,0.0,0.0,0.0,0.0,0.0,0.0,0.0,0.0,0.0,0.0,0.0,0.0,0.0,0.0,0.0,0.0,0.0,0.0,0.0,0.0,0.0,0.0,0.0,0.0,0.0,0.0,0.0,0.0,0.0,0.0,0.0,0.0,0.0,0.0
