ciel274/research-hand-sign/data/raw/hiragana/sign_language_ki_3.csv
timestamp,R_joint_0_x,R_joint_0_y,R_joint_0_z,R_joint_1_x,R_joint_1_y,R_joint_1_z,R_joint_2_x,R_joint_2_y,R_joint_2_z,R_joint_3_x,R_joint_3_y,R_joint_3_z,R_joint_4_x,R_joint_4_y,R_joint_4_z,R_joint_5_x,R_joint_5_y,R_joint_5_z,R_joint_6_x,R_joint_6_y,R_joint_6_z,R_joint_7_x,R_joint_7_y,R_joint_7_z,R_joint_8_x,R_joint_8_y,R_joint_8_z,R_joint_9_x,R_joint_9_y,R_joint_9_z,R_joint_10_x,R_joint_10_y,R_joint_10_z,R_joint_11_x,R_joint_11_y,R_joint_11_z,R_joint_12_x,R_joint_12_y,R_joint_12_z,R_joint_13_x,R_joint_13_y,R_joint_13_z,R_joint_14_x,R_joint_14_y,R_joint_14_z,R_joint_15_x,R_joint_15_y,R_joint_15_z,R_joint_16_x,R_joint_16_y,R_joint_16_z,R_joint_17_x,R_joint_17_y,R_joint_17_z,R_joint_18_x,R_joint_18_y,R_joint_18_z,R_joint_19_x,R_joint_19_y,R_joint_19_z,R_joint_20_x,R_joint_20_y,R_joint_20_z,L_joint_0_x,L_joint_0_y,L_joint_0_z,L_joint_1_x,L_joint_1_y,L_joint_1_z,L_joint_2_x,L_joint_2_y,L_joint_2_z,L_joint_3_x,L_joint_3_y,L_joint_3_z,L_joint_4_x,L_joint_4_y,L_joint_4_z,L_joint_5_x,L_joint_5_y,L_joint_5_z,L_joint_6_x,L_joint_6_y,L_joint_6_z,L_joint_7_x,L_joint_7_y,L_joint_7_z,L_joint_8_x,L_joint_8_y,L_joint_8_z,L_joint_9_x,L_joint_9_y,L_joint_9_z,L_joint_10_x,L_joint_10_y,L_joint_10_z,L_joint_11_x,L_joint_11_y,L_joint_11_z,L_joint_12_x,L_joint_12_y,L_joint_12_z,L_joint_13_x,L_joint_13_y,L_joint_13_z,L_joint_14_x,L_joint_14_y,L_joint_14_z,L_joint_15_x,L_joint_15_y,L_joint_15_z,L_joint_16_x,L_joint_16_y,L_joint_16_z,L_joint_17_x,L_joint_17_y,L_joint_17_z,L_joint_18_x,L_joint_18_y,L_joint_18_z,L_joint_19_x,L_joint_19_y,L_joint_19_z,L_joint_20_x,L_joint_20_y,L_joint_20_z
1783390544.852971,0.714015781879425,0.8126866221427917,-5.4224155832116594e-08,0.6723045110702515,0.7838870286941528,-0.014970543794333935,0.6478504538536072,0.7104774713516235,-0.022284239530563354,0.6593905687332153,0.6523826718330383,-0.03031843714416027,0.6811594367027283,0.6186407804489136,-0.037179261445999146,0.6430872678756714,0.6080137491226196,-0.013269005343317986,0.6230031251907349,0.5174837708473206,-0.0279999990016222,0.61149662733078,0.4643189013004303,-0.036282286047935486,0.6019449234008789,0.4130208194255829,-0.04311135411262512,0.6727218627929688,0.596693754196167,-0.015577483922243118,0.6632430553436279,0.5418375134468079,-0.0501096211373806,0.668423056602478,0.6132475733757019,-0.06055288016796112,0.673062801361084,0.6661101579666138,-0.05941274017095566,0.7033212780952454,0.5967776775360107,-0.01969102956354618,0.6993759870529175,0.5401325225830078,-0.051446132361888885,0.6955975890159607,0.6096588969230652,-0.050409622490406036,0.6925376057624817,0.6633555889129639,-0.04046035557985306,0.7309246063232422,0.6022896766662598,-0.025154370814561844,0.7426982522010803,0.5226007699966431,-0.04813061282038689,0.7506880164146423,0.46723851561546326,-0.05440979450941086,0.7556915879249573,0.4083534777164459,-0.05426046997308731,0.0,0.0,0.0,0.0,0.0,0.0,0.0,0.0,0.0,0.0,0.0,0.0,0.0,0.0,0.0,0.0,0.0,0.0,0.0,0.0,0.0,0.0,0.0,0.0,0.0,0.0,0.0,0.0,0.0,0.0,0.0,0.0,0.0,0.0,0.0,0.0,0.0,0.0,0.0,0.0,0.0,0.0,0.0,0.0,0.0,0.0,0.0,0.0,0.0,0.0,0.0,0.0,0.0,0.0,0.0,0.0,0.0,0.0,0.0,0.0,0.0,0.0,0.0
1783390545.020962,0.7152484655380249,0.8108860850334167,-5.4606676513913044e-08,0.6734250783920288,0.7821950912475586,-0.014941376633942127,0.6482407450675964,0.7067742943763733,-0.022176001220941544,0.660205066204071,0.6464049816131592,-0.030025985091924667,0.6820096373558044,0.6093291640281677,-0.03657607361674309,0.6443375945091248,0.6046853065490723,-0.013653198257088661,0.6251838803291321,0.5130350589752197,-0.028412939980626106,0.6140105128288269,0.45972636342048645,-0.03674228489398956,0.6043345332145691,0.40847933292388916,-0.04373788461089134,0.6741884350776672,0.5935031175613403,-0.01584550179541111,0.6646388173103333,0.5388079881668091,-0.050038017332553864,0.6698585152626038,0.6101531982421875,-0.060319844633340836,0.6745232343673706,0.6625531911849976,-0.0593847893178463,0.704625129699707,0.5936329364776611,-0.019837750121951103,0.700420081615448,0.5361020565032959,-0.051481861621141434,0.6961657404899597,0.6062101125717163,-0.05030249059200287,0.6926569938659668,0.6603603363037109,-0.04053652286529541,0.7320359349250793,0.5992430448532104,-0.025149861350655556,0.7441892623901367,0.5199136734008789,-0.0483141653239727,0.7524011731147766,0.4648381769657135,-0.05470957234501839,0.7574951648712158,0.4058765172958374,-0.05475985258817673,0.0,0.0,0.0,0.0,0.0,0.0,0.0,0.0,0.0,0.0,0.0,0.0,0.0,0.0,0.0,0.0,0.0,0.0,0.0,0.0,0.0,0.0,0.0,0.0,0.0,0.0,0.0,0.0,0.0,0.0,0.0,0.0,0.0,0.0,0.0,0.0,0.0,0.0,0.0,0.0,0.0,0.0,0.0,0.0,0.0,0.0,0.0,0.0,0.0,0.0,0.0,0.0,0.0,0.0,0.0,0.0,0.0,0.0,0.0,0.0,0.0,0.0,0.0
1783390545.1913412,0.7146483659744263,0.8095093965530396,-6.369868543742996e-08,0.6721801161766052,0.7804129719734192,-0.014893320389091969,0.6479634046554565,0.7061318755149841,-0.021864013746380806,0.6591103076934814,0.6470332741737366,-0.029567120596766472,0.6807020902633667,0.6118987202644348,-0.036035314202308655,0.6440887451171875,0.605687141418457,-0.012317871674895287,0.6239586472511292,0.5147882103919983,-0.02739541046321392,0.612095057964325,0.46121492981910706,-0.03584490343928337,0.602581262588501,0.40918681025505066,-0.042746517807245255,0.6733876466751099,0.5936475396156311,-0.014696330763399601,0.6637848019599915,0.5351870059967041,-0.049555517733097076,0.6686279773712158,0.6061597466468811,-0.059996068477630615,0.6733697056770325,0.659526526927948,-0.058701008558273315,0.7037171721458435,0.5932448506355286,-0.018980031833052635,0.6990132927894592,0.5334682464599609,-0.05085744336247444,0.6950932145118713,0.6029569506645203,-0.04959626868367195,0.6924856901168823,0.6569965481758118,-0.03944656252861023,0.7310789227485657,0.5987176299095154,-0.02466256357729435,0.742911159992218,0.5194908380508423,-0.04774269089102745,0.750592827796936,0.4644167721271515,-0.05409402772784233,0.7552807927131653,0.4057212769985199,-0.05403228849172592,0.0,0.0,0.0,0.0,0.0,0.0,0.0,0.0,0.0,0.0,0.0,0.0,0.0,0.0,0.0,0.0,0.0,0.0,0.0,0.0,0.0,0.0,0.0,0.0,0.0,0.0,0.0,0.0,0.0,0.0,0.0,0.0,0.0,0.0,0.0,0.0,0.0,0.0,0.0,0.0,0.0,0.0,0.0,0.0,0.0,0.0,0.0,0.0,0.0,0.0,0.0,0.0,0.0,0.0,0.0,0.0,0.0,0.0,0.0,0.0,0.0,0.0,0.0
1783390545.379754,0.714465320110321,0.8063960671424866,-5.937407721035015e-08,0.672116219997406,0.7773355841636658,-0.014273085631430149,0.6476163864135742,0.7017375826835632,-0.020874515175819397,0.6589253544807434,0.641288697719574,-0.028286298736929893,0.679722011089325,0.6045547127723694,-0.03453879430890083,0.6435976624488831,0.6030104160308838,-0.012203008867800236,0.6237435340881348,0.5121446251869202,-0.027070188894867897,0.6120927929878235,0.4582449197769165,-0.03534901142120361,0.6028172969818115,0.40669748187065125,-0.04216734319925308,0.6729751825332642,0.5910710096359253,-0.014719977974891663,0.6630150079727173,0.5341446399688721,-0.04921504855155945,0.6682660579681396,0.6048474311828613,-0.05948846414685249,0.673498809337616,0.6580992341041565,-0.05822744220495224,0.7033863663673401,0.590654194355011,-0.019100064411759377,0.6988518238067627,0.531118631362915,-0.050868187099695206,0.695281445980072,0.5993818640708923,-0.0498722679913044,0.6929033398628235,0.6531849503517151,-0.04004991427063942,0.7308735847473145,0.5960373878479004,-0.024775652214884758,0.7426142692565918,0.5170049667358398,-0.04808298870921135,0.7504143714904785,0.4618421494960785,-0.054779715836048126,0.7553074955940247,0.4035085141658783,-0.0549963153898716,0.0,0.0,0.0,0.0,0.0,0.0,0.0,0.0,0.0,0.0,0.0,0.0,0.0,0.0,0.0,0.0,0.0,0.0,0.0,0.0,0.0,0.0,0.0,0.0,0.0,0.0,0.0,0.0,0.0,0.0,0.0,0.0,0.0,0.0,0.0,0.0,0.0,0.0,0.0,0.0,0.0,0.0,0.0,0.0,0.0,0.0,0.0,0.0,0.0,0.0,0.0,0.0,0.0,0.0,0.0,0.0,0.0,0.0,0.0,0.0,0.0,0.0,0.0
1783390545.537799,0.7160237431526184,0.808026134967804,-5.809213732277385e-08,0.6741787791252136,0.7796981334686279,-0.015266248025000095,0.6489952802658081,0.7019748687744141,-0.022175094112753868,0.6604853272438049,0.6392077207565308,-0.029747243970632553,0.6809531450271606,0.6002553105354309,-0.03611643239855766,0.6447427272796631,0.6028485894203186,-0.012573329731822014,0.6249324083328247,0.511629045009613,-0.02698453515768051,0.6136732697486877,0.458374559879303,-0.03469809889793396,0.60450679063797,0.406911700963974,-0.041179705411195755,0.6743757724761963,0.5900354981422424,-0.014709040522575378,0.6651260256767273,0.5337067246437073,-0.04890810698270798,0.670463502407074,0.6047231554985046,-0.05879652127623558,0.6754713654518127,0.6574816107749939,-0.0572647899389267,0.7047226428985596,0.5899016857147217,-0.018798451870679855,0.7005011439323425,0.5312049388885498,-0.05058068782091141,0.6967343091964722,0.6001598834991455,-0.049362167716026306,0.6937667727470398,0.6538131237030029,-0.03937073051929474,0.7319474220275879,0.5960119366645813,-0.02425822615623474,0.7439655661582947,0.5170463919639587,-0.04758502170443535,0.7520233392715454,0.46229538321495056,-0.054108522832393646,0.7569305300712585,0.40406566858291626,-0.05416072905063629,0.0,0.0,0.0,0.0,0.0,0.0,0.0,0.0,0.0,0.0,0.0,0.0,0.0,0.0,0.0,0.0,0.0,0.0,0.0,0.0,0.0,0.0,0.0,0.0,0.0,0.0,0.0,0.0,0.0,0.0,0.0,0.0,0.0,0.0,0.0,0.0,0.0,0.0,0.0,0.0,0.0,0.0,0.0,0.0,0.0,0.0,0.0,0.0,0.0,0.0,0.0,0.0,0.0,0.0,0.0,0.0,0.0,0.0,0.0,0.0,0.0,0.0,0.0
1783390545.788159,0.7151058912277222,0.8095869421958923,-5.4810509908520544e-08,0.6732942461967468,0.7822827100753784,-0.016222337260842323,0.6483142375946045,0.7113415598869324,-0.024816781282424927,0.6580184102058411,0.6533797383308411,-0.03390870615839958,0.6770597696304321,0.6142947673797607,-0.041702933609485626,0.6444616913795471,0.6073392033576965,-0.015116692520678043,0.624365508556366,0.5158022046089172,-0.031301457434892654,0.6128769516944885,0.4623167812824249,-0.04075479507446289,0.6034814119338989,0.41042280197143555,-0.04842835292220116,0.6738845705986023,0.5958863496780396,-0.017226427793502808,0.6640022397041321,0.5382449626922607,-0.052495598793029785,0.6692920923233032,0.6105324625968933,-0.06277285516262054,0.6743322610855103,0.6629113554954529,-0.061697110533714294,0.7039651274681091,0.595869779586792,-0.02133496105670929,0.698887050151825,0.5357877016067505,-0.05326462537050247,0.6954081654548645,0.605740487575531,-0.05110853537917137,0.6933103203773499,0.6603712439537048,-0.04075999557971954,0.7311670184135437,0.6015999913215637,-0.027001095935702324,0.7432780861854553,0.5222972631454468,-0.05066467821598053,0.7506389021873474,0.4672853648662567,-0.05690281093120575,0.7548478245735168,0.40866124629974365,-0.056864164769649506,0.0,0.0,0.0,0.0,0.0,0.0,0.0,0.0,0.0,0.0,0.0,0.0,0.0,0.0,0.0,0.0,0.0,0.0,0.0,0.0,0.0,0.0,0.0,0.0,0.0,0.0,0.0,0.0,0.0,0.0,0.0,0.0,0.0,0.0,0.0,0.0,0.0,0.0,0.0,0.0,0.0,0.0,0.0,0.0,0.0,0.0,0.0,0.0,0.0,0.0,0.0,0.0,0.0,0.0,0.0,0.0,0.0,0.0,0.0,0.0,0.0,0.0,0.0
1783390546.0779688,0.7152140736579895,0.8123418688774109,-6.012164277535703e-08,0.6736307740211487,0.7845884561538696,-0.014988936483860016,0.6487848162651062,0.7097622156143188,-0.022348221391439438,0.6609262824058533,0.6493548154830933,-0.03037336654961109,0.6818440556526184,0.6115381717681885,-0.03717393800616264,0.644101083278656,0.608698308467865,-0.013674969784915447,0.6243487596511841,0.5170376896858215,-0.0289156436920166,0.6133518815040588,0.4630029499530792,-0.037649210542440414,0.6041672229766846,0.4111870527267456,-0.044902436435222626,0.673829197883606,0.596825361251831,-0.01601085439324379,0.6635239720344543,0.5412462949752808,-0.050328176468610764,0.6698325276374817,0.613803505897522,-0.06016717106103897,0.6755520701408386,0.6664263010025024,-0.05891219899058342,0.7044966220855713,0.5966639518737793,-0.02021760307252407,0.6994417905807495,0.5366231799125671,-0.05179882422089577,0.6968052387237549,0.6070579290390015,-0.04958018660545349,0.6950855851173401,0.6620827317237854,-0.039181627333164215,0.7322548627853394,0.6020491123199463,-0.025832215324044228,0.7443855404853821,0.5223519802093506,-0.0492667518556118,0.7522358298301697,0.4672565758228302,-0.05535346269607544,0.7568600177764893,0.40830162167549133,-0.055184271186590195,0.0,0.0,0.0,0.0,0.0,0.0,0.0,0.0,0.0,0.0,0.0,0.0,0.0,0.0,0.0,0.0,0.0,0.0,0.0,0.0,0.0,0.0,0.0,0.0,0.0,0.0,0.0,0.0,0.0,0.0,0.0,0.0,0.0,0.0,0.0,0.0,0.0,0.0,0.0,0.0,0.0,0.0,0.0,0.0,0.0,0.0,0.0,0.0,0.0,0.0,0.0,0.0,0.0,0.0,0.0,0.0,0.0,0.0,0.0,0.0,0.0,0.0,0.0
1783390546.2403479,0.7178634405136108,0.8161709308624268,-7.03817590874678e-08,0.6765998005867004,0.7881268858909607,-0.014315313659608364,0.650475025177002,0.7136695981025696,-0.021578166633844376,0.6618053913116455,0.6537877917289734,-0.029540549963712692,0.6840559244155884,0.6187837719917297,-0.03617211431264877,0.6475812196731567,0.610482394695282,-0.013322080485522747,0.6276073455810547,0.5186338424682617,-0.028470613062381744,0.6166278719902039,0.4643798768520355,-0.03756523132324219,0.6071814298629761,0.4126875102519989,-0.04526437073945999,0.6768547892570496,0.599169909954071,-0.01585015095770359,0.6660951375961304,0.5452682971954346,-0.0496324859559536,0.6726514101028442,0.6177164912223816,-0.05914168804883957,0.6785739660263062,0.669288158416748,-0.057976700365543365,0.7071738243103027,0.598878026008606,-0.020166698843240738,0.701802670955658,0.5388116836547852,-0.05069317668676376,0.6985942125320435,0.6090606451034546,-0.047517310827970505,0.6966705322265625,0.6639822721481323,-0.03684494271874428,0.7348666191101074,0.6038548350334167,-0.025961248204112053,0.746773898601532,0.5244271159172058,-0.048724692314863205,0.7541317939758301,0.4695165157318115,-0.05419483780860901,0.7585676312446594,0.4108135998249054,-0.05370816960930824,0.0,0.0,0.0,0.0,0.0,0.0,0.0,0.0,0.0,0.0,0.0,0.0,0.0,0.0,0.0,0.0,0.0,0.0,0.0,0.0,0.0,0.0,0.0,0.0,0.0,0.0,0.0,0.0,0.0,0.0,0.0,0.0,0.0,0.0,0.0,0.0,0.0,0.0,0.0,0.0,0.0,0.0,0.0,0.0,0.0,0.0,0.0,0.0,0.0,0.0,0.0,0.0,0.0,0.0,0.0,0.0,0.0,0.0,0.0,0.0,0.0,0.0,0.0
1783390546.3886578,0.7190706729888916,0.811809778213501,-7.255623302171443e-08,0.677385687828064,0.7836674451828003,-0.013881138525903225,0.6510322690010071,0.7083714604377747,-0.020455511286854744,0.6634153127670288,0.6487113237380981,-0.027911091223359108,0.6873789429664612,0.6143379807472229,-0.03424130752682686,0.6476826071739197,0.6055804491043091,-0.01203112117946148,0.628191351890564,0.515152096748352,-0.02655981294810772,0.6167294979095459,0.46164458990097046,-0.034841302782297134,0.6067553162574768,0.4107176959514618,-0.041809771209955215,0.67718905210495,0.5947063565254211,-0.014590698294341564,0.6666743755340576,0.5409945845603943,-0.04829864203929901,0.6740342378616333,0.613146185874939,-0.05793184041976929,0.6805030107498169,0.6658151745796204,-0.05648909509181976,0.7076075077056885,0.5946584939956665,-0.018914667889475822,0.702232301235199,0.5345306992530823,-0.04975011199712753,0.7004988193511963,0.6031819581985474,-0.04755289480090141,0.6993652582168579,0.6567061543464661,-0.037104006856679916,0.7351729869842529,0.599700391292572,-0.02456803433597088,0.7459287643432617,0.5196473598480225,-0.04691249132156372,0.7536523938179016,0.4650719463825226,-0.0524730309844017,0.758246660232544,0.407033771276474,-0.05195751413702965,0.0,0.0,0.0,0.0,0.0,0.0,0.0,0.0,0.0,0.0,0.0,0.0,0.0,0.0,0.0,0.0,0.0,0.0,0.0,0.0,0.0,0.0,0.0,0.0,0.0,0.0,0.0,0.0,0.0,0.0,0.0,0.0,0.0,0.0,0.0,0.0,0.0,0.0,0.0,0.0,0.0,0.0,0.0,0.0,0.0,0.0,0.0,0.0,0.0,0.0,0.0,0.0,0.0,0.0,0.0,0.0,0.0,0.0,0.0,0.0,0.0,0.0,0.0
1783390546.521538,0.7194617986679077,0.8067235946655273,-7.525477485614829e-08,0.6775434017181396,0.7782799005508423,-0.013727140612900257,0.652001142501831,0.7046067118644714,-0.020226897671818733,0.6640456914901733,0.6451534628868103,-0.02747245691716671,0.6869973540306091,0.6096380352973938,-0.033519674092531204,0.6481046080589294,0.6027455925941467,-0.012468178756535053,0.6288328170776367,0.5129170417785645,-0.02729063481092453,0.6173741817474365,0.45954757928848267,-0.03585132956504822,0.6072201728820801,0.4086764454841614,-0.04306028410792351,0.6777724623680115,0.5913153290748596,-0.01494006346911192,0.6669903993606567,0.5375560522079468,-0.048614297062158585,0.6745591163635254,0.6095725297927856,-0.05813554674386978,0.6813309192657471,0.6620855331420898,-0.056816939264535904,0.708257794380188,0.5909144282341003,-0.019170278683304787,0.7027019262313843,0.531703531742096,-0.04999414086341858,0.7004804611206055,0.6005284190177917,-0.04772822931408882,0.6990901231765747,0.6542658805847168,-0.03742372617125511,0.7358434796333313,0.5957536101341248,-0.024703118950128555,0.7465927600860596,0.5159865021705627,-0.0474998764693737,0.7540627121925354,0.46127477288246155,-0.053408194333314896,0.7584682703018188,0.40318983793258667,-0.05319281667470932,0.0,0.0,0.0,0.0,0.0,0.0,0.0,0.0,0.0,0.0,0.0,0.0,0.0,0.0,0.0,0.0,0.0,0.0,0.0,0.0,0.0,0.0,0.0,0.0,0.0,0.0,0.0,0.0,0.0,0.0,0.0,0.0,0.0,0.0,0.0,0.0,0.0,0.0,0.0,0.0,0.0,0.0,0.0,0.0,0.0,0.0,0.0,0.0,0.0,0.0,0.0,0.0,0.0,0.0,0.0,0.0,0.0,0.0,0.0,0.0,0.0,0.0,0.0
1783390546.64475,0.7196097373962402,0.8046079277992249,-6.030635546494523e-08,0.6778528094291687,0.7773789167404175,-0.014588731341063976,0.6523451209068298,0.7029743194580078,-0.021570594981312752,0.6649868488311768,0.6425910592079163,-0.029338190332055092,0.6879428029060364,0.6062402725219727,-0.03601237013936043,0.6472771167755127,0.6021873950958252,-0.012926430441439152,0.6271878480911255,0.5113083124160767,-0.028007343411445618,0.6159466505050659,0.45712536573410034,-0.03666835278272629,0.6065345406532288,0.40557247400283813,-0.043777626007795334,0.6770337820053101,0.5900106430053711,-0.015197426080703735,0.6666448712348938,0.5358370542526245,-0.04932153970003128,0.673668622970581,0.6071199774742126,-0.05915485695004463,0.6800413131713867,0.6590213775634766,-0.05778327211737633,0.7075842618942261,0.589053750038147,-0.019318794831633568,0.7023615837097168,0.5300111770629883,-0.05055560544133186,0.7006391882896423,0.5994105339050293,-0.04846730828285217,0.6997204422950745,0.6535263657569885,-0.03798651322722435,0.7351222038269043,0.5933722257614136,-0.024832433089613914,0.7456402778625488,0.5138863325119019,-0.047573961317539215,0.7530786395072937,0.4592253863811493,-0.05336366593837738,0.7575870156288147,0.4011226296424866,-0.05292145535349846,0.0,0.0,0.0,0.0,0.0,0.0,0.0,0.0,0.0,0.0,0.0,0.0,0.0,0.0,0.0,0.0,0.0,0.0,0.0,0.0,0.0,0.0,0.0,0.0,0.0,0.0,0.0,0.0,0.0,0.0,0.0,0.0,0.0,0.0,0.0,0.0,0.0,0.0,0.0,0.0,0.0,0.0,0.0,0.0,0.0,0.0,0.0,0.0,0.0,0.0,0.0,0.0,0.0,0.0,0.0,0.0,0.0,0.0,0.0,0.0,0.0,0.0,0.0
1783390546.9891,0.7189536690711975,0.8041456341743469,-5.779393674743005e-08,0.6773120760917664,0.7767407298088074,-0.01508694514632225,0.6522952318191528,0.704593300819397,-0.0226884838193655,0.6644637584686279,0.644723653793335,-0.030903683975338936,0.6858224868774414,0.6067848205566406,-0.03791438415646553,0.6471014618873596,0.6021596789360046,-0.013874305412173271,0.6270244121551514,0.5113905668258667,-0.029247097671031952,0.6161033511161804,0.45778340101242065,-0.03805897757411003,0.6069835424423218,0.40656670928001404,-0.04532930627465248,0.676762044429779,0.5896294713020325,-0.01604926772415638,0.6662312746047974,0.5351541042327881,-0.05017676204442978,0.6736397743225098,0.6071073412895203,-0.059864822775125504,0.6802777051925659,0.6583462357521057,-0.05860697105526924,0.7072605490684509,0.5887874960899353,-0.020143145695328712,0.7023590207099915,0.5303778648376465,-0.051452092826366425,0.700269341468811,0.6000453233718872,-0.0492553636431694,0.6989096999168396,0.6539099216461182,-0.038952719420194626,0.7346862554550171,0.5936347842216492,-0.025669394060969353,0.7457872033119202,0.5143991708755493,-0.048820387572050095,0.7529804110527039,0.45960307121276855,-0.05485135316848755,0.7570089101791382,0.4012933671474457,-0.05470889061689377,0.0,0.0,0.0,0.0,0.0,0.0,0.0,0.0,0.0,0.0,0.0,0.0,0.0,0.0,0.0,0.0,0.0,0.0,0.0,0.0,0.0,0.0,0.0,0.0,0.0,0.0,0.0,0.0,0.0,0.0,0.0,0.0,0.0,0.0,0.0,0.0,0.0,0.0,0.0,0.0,0.0,0.0,0.0,0.0,0.0,0.0,0.0,0.0,0.0,0.0,0.0,0.0,0.0,0.0,0.0,0.0,0.0,0.0,0.0,0.0,0.0,0.0,0.0
1783390547.153224,0.7192704081535339,0.8052935600280762,-6.442201794243374e-08,0.6775220632553101,0.7771332263946533,-0.014499357901513577,0.6530042290687561,0.7044853568077087,-0.021586362272500992,0.665440559387207,0.6445528864860535,-0.029281895607709885,0.6872713565826416,0.6072241067886353,-0.03578117862343788,0.6470564603805542,0.6028926372528076,-0.013347379863262177,0.6270648241043091,0.5118415951728821,-0.02879265882074833,0.6162925958633423,0.45760229229927063,-0.03786180913448334,0.6071582436561584,0.4062827229499817,-0.04531852528452873,0.6765548586845398,0.5902044177055359,-0.015550239942967892,0.6654523015022278,0.535614550113678,-0.04930145666003227,0.6732684969902039,0.6066375374794006,-0.058800939470529556,0.6801309585571289,0.6572100520133972,-0.0575353279709816,0.7071494460105896,0.5892195105552673,-0.019653240218758583,0.7017996907234192,0.5306724309921265,-0.05055919662117958,0.7001981735229492,0.5999732613563538,-0.048116475343704224,0.6992815136909485,0.653818666934967,-0.03774142637848854,0.7346240282058716,0.5938528776168823,-0.025167133659124374,0.7456674575805664,0.51414555311203,-0.04843282699584961,0.7528747916221619,0.459019273519516,-0.05460970476269722,0.7569239735603333,0.40039506554603577,-0.05455756559967995,0.0,0.0,0.0,0.0,0.0,0.0,0.0,0.0,0.0,0.0,0.0,0.0,0.0,0.0,0.0,0.0,0.0,0.0,0.0,0.0,0.0,0.0,0.0,0.0,0.0,0.0,0.0,0.0,0.0,0.0,0.0,0.0,0.0,0.0,0.0,0.0,0.0,0.0,0.0,0.0,0.0,0.0,0.0,0.0,0.0,0.0,0.0,0.0,0.0,0.0,0.0,0.0,0.0,0.0,0.0,0.0,0.0,0.0,0.0,0.0,0.0,0.0,0.0
1783390547.2896352,0.719392716884613,0.8050774335861206,-5.6460926600720995e-08,0.6778290867805481,0.7778181433677673,-0.01521564181894064,0.6525660753250122,0.7054295539855957,-0.02293788269162178,0.6646095514297485,0.645187497138977,-0.03134475275874138,0.686488926410675,0.6072782874107361,-0.03860083967447281,0.6479710340499878,0.6031386852264404,-0.013520421460270882,0.6280702352523804,0.5122493505477905,-0.029085282236337662,0.6169913411140442,0.4585428833961487,-0.0381971076130867,0.6076887249946594,0.40702196955680847,-0.04564373940229416,0.6773484349250793,0.5911432504653931,-0.015911709517240524,0.6664981842041016,0.5347010493278503,-0.050444282591342926,0.6734064817428589,0.6058158278465271,-0.06056402996182442,0.6798086166381836,0.6572855114936829,-0.05939304083585739,0.7076346278190613,0.5905881524085999,-0.020237203687429428,0.7023380994796753,0.5305967926979065,-0.051618676632642746,0.7003846764564514,0.5996479988098145,-0.04939722269773483,0.6991004347801208,0.6532565951347351,-0.038922980427742004,0.7348950505256653,0.5954310297966003,-0.026044294238090515,0.7449218034744263,0.5158913135528564,-0.048651088029146194,0.7513725757598877,0.46099621057510376,-0.05412036553025246,0.754662275314331,0.40249109268188477,-0.05357801541686058,0.0,0.0,0.0,0.0,0.0,0.0,0.0,0.0,0.0,0.0,0.0,0.0,0.0,0.0,0.0,0.0,0.0,0.0,0.0,0.0,0.0,0.0,0.0,0.0,0.0,0.0,0.0,0.0,0.0,0.0,0.0,0.0,0.0,0.0,0.0,0.0,0.0,0.0,0.0,0.0,0.0,0.0,0.0,0.0,0.0,0.0,0.0,0.0,0.0,0.0,0.0,0.0,0.0,0.0,0.0,0.0,0.0,0.0,0.0,0.0,0.0,0.0,0.0
1783390547.4212658,0.7197510600090027,0.8046423196792603,-7.200614504654368e-08,0.6782297492027283,0.7776347994804382,-0.013853698968887329,0.652696430683136,0.7047162055969238,-0.020458076149225235,0.6654996275901794,0.6463833451271057,-0.027886033058166504,0.6894842386245728,0.6136137843132019,-0.03428242728114128,0.6475978493690491,0.6018166542053223,-0.012006279081106186,0.6282346844673157,0.5115829110145569,-0.026767849922180176,0.6175496578216553,0.4583759307861328,-0.03552553430199623,0.6083358526229858,0.40797948837280273,-0.042708881199359894,0.6769512891769409,0.5902135968208313,-0.014648862183094025,0.6662238836288452,0.5345430970191956,-0.04819582775235176,0.6732627749443054,0.6042613983154297,-0.05830493941903114,0.6792653799057007,0.6549365520477295,-0.05721699446439743,0.7073137164115906,0.589439868927002,-0.019039148464798927,0.7022411823272705,0.5300353765487671,-0.049525681883096695,0.7005546689033508,0.598317563533783,-0.04765604808926582,0.6988124847412109,0.6510964035987854,-0.037460505962371826,0.7347475290298462,0.5936336517333984,-0.024765627458691597,0.7430350184440613,0.5142072439193726,-0.04649567976593971,0.7489451766014099,0.46031227707862854,-0.051638152450323105,0.7518285512924194,0.40297001600265503,-0.050885159522295,0.0,0.0,0.0,0.0,0.0,0.0,0.0,0.0,0.0,0.0,0.0,0.0,0.0,0.0,0.0,0.0,0.0,0.0,0.0,0.0,0.0,0.0,0.0,0.0,0.0,0.0,0.0,0.0,0.0,0.0,0.0,0.0,0.0,0.0,0.0,0.0,0.0,0.0,0.0,0.0,0.0,0.0,0.0,0.0,0.0,0.0,0.0,0.0,0.0,0.0,0.0,0.0,0.0,0.0,0.0,0.0,0.0,0.0,0.0,0.0,0.0,0.0,0.0
1783390547.550563,0.720431923866272,0.8048679232597351,-6.52918075161324e-08,0.6781644821166992,0.7779933214187622,-0.014492617920041084,0.6517878770828247,0.7026584148406982,-0.021546756848692894,0.665105402469635,0.6413548588752747,-0.029355136677622795,0.6901713013648987,0.6080580353736877,-0.0360344797372818,0.6483818888664246,0.6020056009292603,-0.01297694444656372,0.6291802525520325,0.5113726854324341,-0.027861444279551506,0.618310272693634,0.45797374844551086,-0.036748915910720825,0.6085381507873535,0.40703946352005005,-0.044115010648965836,0.677885890007019,0.5902512073516846,-0.015238087624311447,0.6681001782417297,0.5358700752258301,-0.048738375306129456,0.675152599811554,0.6059600710868835,-0.05875742435455322,0.6808269619941711,0.6567466855049133,-0.057690054178237915,0.7079988121986389,0.5890505313873291,-0.019248319789767265,0.7034848928451538,0.5290465950965881,-0.04928126558661461,0.701159656047821,0.5969908237457275,-0.04720055311918259,0.6988013982772827,0.6501351594924927,-0.03702552616596222,0.7351244688034058,0.5926937460899353,-0.024702241644263268,0.7434835433959961,0.5132060050964355,-0.04586540907621384,0.7491958737373352,0.45919886231422424,-0.050811633467674255,0.7520359754562378,0.40183037519454956,-0.04998405650258064,0.0,0.0,0.0,0.0,0.0,0.0,0.0,0.0,0.0,0.0,0.0,0.0,0.0,0.0,0.0,0.0,0.0,0.0,0.0,0.0,0.0,0.0,0.0,0.0,0.0,0.0,0.0,0.0,0.0,0.0,0.0,0.0,0.0,0.0,0.0,0.0,0.0,0.0,0.0,0.0,0.0,0.0,0.0,0.0,0.0,0.0,0.0,0.0,0.0,0.0,0.0,0.0,0.0,0.0,0.0,0.0,0.0,0.0,0.0,0.0,0.0,0.0,0.0
1783390547.6915681,0.7207551002502441,0.8034886121749878,-6.745487013404272e-08,0.6780072450637817,0.7762439846992493,-0.014360608533024788,0.6518125534057617,0.7021492123603821,-0.021375223994255066,0.6648356914520264,0.6422548890113831,-0.029182758182287216,0.6897443532943726,0.6086189150810242,-0.03587225452065468,0.6486734747886658,0.6009024381637573,-0.01248154230415821,0.6292247176170349,0.5108837485313416,-0.027379104867577553,0.6178363561630249,0.45807185769081116,-0.036247752606868744,0.6075606942176819,0.40731602907180786,-0.043551187962293625,0.6780161261558533,0.589207112789154,-0.014855733141303062,0.6680545806884766,0.5344688892364502,-0.04857296496629715,0.6753191947937012,0.6046335101127625,-0.05875018611550331,0.6814112663269043,0.6559195518493652,-0.057670749723911285,0.707909345626831,0.5880447626113892,-0.018992548808455467,0.702961266040802,0.5286585092544556,-0.0493040606379509,0.7009000778198242,0.5967510938644409,-0.04740407317876816,0.6990492939949036,0.6497116088867188,-0.037175171077251434,0.735051155090332,0.5918341875076294,-0.02454340271651745,0.743408203125,0.5120879411697388,-0.045767515897750854,0.7492802739143372,0.4580833911895752,-0.050712935626506805,0.7522602677345276,0.40077391266822815,-0.049827247858047485,0.0,0.0,0.0,0.0,0.0,0.0,0.0,0.0,0.0,0.0,0.0,0.0,0.0,0.0,0.0,0.0,0.0,0.0,0.0,0.0,0.0,0.0,0.0,0.0,0.0,0.0,0.0,0.0,0.0,0.0,0.0,0.0,0.0,0.0,0.0,0.0,0.0,0.0,0.0,0.0,0.0,0.0,0.0,0.0,0.0,0.0,0.0,0.0,0.0,0.0,0.0,0.0,0.0,0.0,0.0,0.0,0.0,0.0,0.0,0.0,0.0,0.0,0.0
1783390547.853149,0.7183935046195984,0.7985724210739136,-6.447548628329969e-08,0.6770104765892029,0.7713333368301392,-0.013189863413572311,0.6518787145614624,0.6958313584327698,-0.019080011174082756,0.6635661125183105,0.6337909698486328,-0.025855498388409615,0.6842684149742126,0.5950666666030884,-0.03162563592195511,0.6465006470680237,0.5979216694831848,-0.01062062755227089,0.6273745894432068,0.5082186460494995,-0.02470100112259388,0.6163263320922852,0.45451024174690247,-0.03311464563012123,0.6066935658454895,0.40390533208847046,-0.040089815855026245,0.6755570769309998,0.5852792263031006,-0.013136359862983227,0.6643648147583008,0.5289021134376526,-0.04565483704209328,0.6717669367790222,0.597086489200592,-0.055424656718969345,0.6786218881607056,0.648501992225647,-0.05424300208687782,0.7057332396507263,0.5838097929954529,-0.017321929335594177,0.6994778513908386,0.5215127468109131,-0.04671790823340416,0.6984712481498718,0.5868819952011108,-0.04455993324518204,0.6982828378677368,0.6389492750167847,-0.03448368236422539,0.7330490350723267,0.5881910920143127,-0.022800520062446594,0.7413586974143982,0.5085774660110474,-0.043552666902542114,0.747176468372345,0.45460230112075806,-0.04825547710061073,0.7502413988113403,0.3978825807571411,-0.047364845871925354,0.0,0.0,0.0,0.0,0.0,0.0,0.0,0.0,0.0,0.0,0.0,0.0,0.0,0.0,0.0,0.0,0.0,0.0,0.0,0.0,0.0,0.0,0.0,0.0,0.0,0.0,0.0,0.0,0.0,0.0,0.0,0.0,0.0,0.0,0.0,0.0,0.0,0.0,0.0,0.0,0.0,0.0,0.0,0.0,0.0,0.0,0.0,0.0,0.0,0.0,0.0,0.0,0.0,0.0,0.0,0.0,0.0,0.0,0.0,0.0,0.0,0.0,0.0
1783390547.9903748,0.7156955599784851,0.7943461537361145,-5.5739072024607594e-08,0.6738290190696716,0.7661399245262146,-0.012781240046024323,0.6490975618362427,0.6923757195472717,-0.018872538581490517,0.6595607995986938,0.632804811000824,-0.026060445234179497,0.6796256303787231,0.5962409377098083,-0.03231443092226982,0.6467476487159729,0.5942248106002808,-0.010415415279567242,0.6275449991226196,0.5044671297073364,-0.024556074291467667,0.6156920194625854,0.4508897066116333,-0.03295841068029404,0.6060422658920288,0.4007088541984558,-0.03990514203906059,0.675158679485321,0.582985520362854,-0.013490251265466213,0.6628713011741638,0.5256534218788147,-0.046505432575941086,0.6673949360847473,0.592930018901825,-0.056900504976511,0.6732790470123291,0.6451988816261292,-0.05604822561144829,0.704921305179596,0.5817370414733887,-0.018186477944254875,0.6981435418128967,0.5184249877929688,-0.04773784428834915,0.6949416399002075,0.5831619501113892,-0.04597263038158417,0.6940151453018188,0.6360495090484619,-0.03620019927620888,0.732276976108551,0.5861530303955078,-0.024170683696866035,0.741178572177887,0.5075327754020691,-0.04499829560518265,0.7465687394142151,0.4534063935279846,-0.04991000145673752,0.7496135830879211,0.3968360722064972,-0.049201931804418564,0.0,0.0,0.0,0.0,0.0,0.0,0.0,0.0,0.0,0.0,0.0,0.0,0.0,0.0,0.0,0.0,0.0,0.0,0.0,0.0,0.0,0.0,0.0,0.0,0.0,0.0,0.0,0.0,0.0,0.0,0.0,0.0,0.0,0.0,0.0,0.0,0.0,0.0,0.0,0.0,0.0,0.0,0.0,0.0,0.0,0.0,0.0,0.0,0.0,0.0,0.0,0.0,0.0,0.0,0.0,0.0,0.0,0.0,0.0,0.0,0.0,0.0,0.0
1783390548.1152399,0.7150871157646179,0.7939550280570984,-4.0960269842571506e-08,0.67393559217453,0.7656567096710205,-0.012649900279939175,0.6480640769004822,0.6987559795379639,-0.019340407103300095,0.6520711183547974,0.6474493145942688,-0.027260396629571915,0.6674301028251648,0.6118811964988708,-0.0339319072663784,0.6508639454841614,0.5890631675720215,-0.011420467868447304,0.631964385509491,0.49811476469039917,-0.026365261524915695,0.620259165763855,0.444472074508667,-0.03510947898030281,0.6112403273582458,0.39376670122146606,-0.042275331914424896,0.678419828414917,0.5815320014953613,-0.015244047157466412,0.6647956967353821,0.5224040150642395,-0.04995393007993698,0.6634678840637207,0.5887059569358826,-0.061658825725317,0.6653756499290466,0.6420221924781799,-0.06162798032164574,0.7080925107002258,0.5823352336883545,-0.020712362602353096,0.6993219256401062,0.5231341123580933,-0.05265004560351372,0.6915280818939209,0.5905401706695557,-0.05239582434296608,0.6875012516975403,0.644494354724884,-0.04322235658764839,0.7358604073524475,0.5882565975189209,-0.02729240246117115,0.7484686970710754,0.5096558928489685,-0.05051364004611969,0.7546620965003967,0.4545135498046875,-0.05712660029530525,0.7582162618637085,0.395623117685318,-0.05738093703985214,0.0,0.0,0.0,0.0,0.0,0.0,0.0,0.0,0.0,0.0,0.0,0.0,0.0,0.0,0.0,0.0,0.0,0.0,0.0,0.0,0.0,0.0,0.0,0.0,0.0,0.0,0.0,0.0,0.0,0.0,0.0,0.0,0.0,0.0,0.0,0.0,0.0,0.0,0.0,0.0,0.0,0.0,0.0,0.0,0.0,0.0,0.0,0.0,0.0,0.0,0.0,0.0,0.0,0.0,0.0,0.0,0.0,0.0,0.0,0.0,0.0,0.0,0.0
1783390548.256779,0.7165135145187378,0.7947185635566711,-7.04084897051871e-08,0.6756131649017334,0.7626602053642273,-0.011301551014184952,0.6499888300895691,0.6873143911361694,-0.01584557071328163,0.655110776424408,0.6318161487579346,-0.021722804754972458,0.6715046763420105,0.5976640582084656,-0.026424501091241837,0.65703946352005,0.5849003195762634,-0.009656003676354885,0.639530599117279,0.4926055371761322,-0.02314523607492447,0.6284648180007935,0.4394257664680481,-0.030527977272868156,0.6201528906822205,0.389472633600235,-0.0369228832423687,0.6846668124198914,0.578330397605896,-0.013711142353713512,0.6703953742980957,0.5177542567253113,-0.04765196144580841,0.6649189591407776,0.5824152231216431,-0.0585668608546257,0.6642253398895264,0.6364860534667969,-0.05792367830872536,0.71429443359375,0.5811520218849182,-0.019358010962605476,0.7044743895530701,0.5213291049003601,-0.05114319548010826,0.693610668182373,0.5871021747589111,-0.051078032702207565,0.6879609823226929,0.6406038999557495,-0.041979242116212845,0.7419819831848145,0.5887168049812317,-0.025973111391067505,0.7552499175071716,0.510650634765625,-0.04958850517868996,0.7620625495910645,0.4554446339607239,-0.056790851056575775,0.7671228051185608,0.3971906006336212,-0.05742296949028969,0.0,0.0,0.0,0.0,0.0,0.0,0.0,0.0,0.0,0.0,0.0,0.0,0.0,0.0,0.0,0.0,0.0,0.0,0.0,0.0,0.0,0.0,0.0,0.0,0.0,0.0,0.0,0.0,0.0,0.0,0.0,0.0,0.0,0.0,0.0,0.0,0.0,0.0,0.0,0.0,0.0,0.0,0.0,0.0,0.0,0.0,0.0,0.0,0.0,0.0,0.0,0.0,0.0,0.0,0.0,0.0,0.0,0.0,0.0,0.0,0.0,0.0,0.0
1783390548.420397,0.7183868885040283,0.7950221300125122,-8.080589708470143e-08,0.6787874698638916,0.759876012802124,-0.01132932584732771,0.6537611484527588,0.6856830716133118,-0.015822039917111397,0.6531234383583069,0.6321892738342285,-0.02161526307463646,0.6635722517967224,0.5964196920394897,-0.025786617770791054,0.6629512906074524,0.5814883708953857,-0.00802546925842762,0.6454054117202759,0.48978355526924133,-0.021402157843112946,0.6331341862678528,0.4358842670917511,-0.02818131633102894,0.6244019269943237,0.38681760430336,-0.03376217931509018,0.6890737414360046,0.577231228351593,-0.01167464628815651,0.6722524166107178,0.5155946612358093,-0.04483618587255478,0.6641603708267212,0.5808539986610413,-0.05411025881767273,0.6627827882766724,0.6357249617576599,-0.05203878879547119,0.7177790403366089,0.5816087126731873,-0.017210762947797775,0.704369306564331,0.521788477897644,-0.0487079955637455,0.6906207203865051,0.5894826650619507,-0.046987760812044144,0.6843740940093994,0.6439728736877441,-0.03642977401614189,0.745103657245636,0.5901058912277222,-0.023817410692572594,0.7596644163131714,0.5123938918113708,-0.04728984832763672,0.7667409777641296,0.45728057622909546,-0.0539550855755806,0.7722761034965515,0.3990734815597534,-0.054020702838897705,0.0,0.0,0.0,0.0,0.0,0.0,0.0,0.0,0.0,0.0,0.0,0.0,0.0,0.0,0.0,0.0,0.0,0.0,0.0,0.0,0.0,0.0,0.0,0.0,0.0,0.0,0.0,0.0,0.0,0.0,0.0,0.0,0.0,0.0,0.0,0.0,0.0,0.0,0.0,0.0,0.0,0.0,0.0,0.0,0.0,0.0,0.0,0.0,0.0,0.0,0.0,0.0,0.0,0.0,0.0,0.0,0.0,0.0,0.0,0.0,0.0,0.0,0.0
1783390548.557757,0.7161534428596497,0.7939938902854919,-1.003429872525885e-07,0.6760501265525818,0.7529565095901489,-0.00882183201611042,0.6515673995018005,0.670384407043457,-0.010770710185170174,0.651829719543457,0.610720694065094,-0.014463006518781185,0.6578468084335327,0.5705570578575134,-0.016635404899716377,0.6649177670478821,0.5766705870628357,-0.004557039588689804,0.6483333706855774,0.48585522174835205,-0.01702745072543621,0.6362194418907166,0.43218258023262024,-0.02349451556801796,0.6270511746406555,0.3834022581577301,-0.028687922284007072,0.6905588507652283,0.5740540027618408,-0.008968498557806015,0.6738977432250977,0.5120536684989929,-0.04124433919787407,0.6630104780197144,0.576489269733429,-0.0509493388235569,0.6596274971961975,0.6310505270957947,-0.049130674451589584,0.7184768915176392,0.5804922580718994,-0.015081940218806267,0.705473780632019,0.5216969847679138,-0.04606465622782707,0.6893206238746643,0.5901145935058594,-0.044759053736925125,0.6818218231201172,0.64485764503479,-0.03432050347328186,0.7452853918075562,0.5907256603240967,-0.022051742300391197,0.7596636414527893,0.5128595232963562,-0.044431477785110474,0.7670226097106934,0.4587971866130829,-0.05042362958192825,0.7736203670501709,0.40198129415512085,-0.04992934688925743,0.0,0.0,0.0,0.0,0.0,0.0,0.0,0.0,0.0,0.0,0.0,0.0,0.0,0.0,0.0,0.0,0.0,0.0,0.0,0.0,0.0,0.0,0.0,0.0,0.0,0.0,0.0,0.0,0.0,0.0,0.0,0.0,0.0,0.0,0.0,0.0,0.0,0.0,0.0,0.0,0.0,0.0,0.0,0.0,0.0,0.0,0.0,0.0,0.0,0.0,0.0,0.0,0.0,0.0,0.0,0.0,0.0,0.0,0.0,0.0,0.0,0.0,0.0
1783390548.681155,0.7169651985168457,0.791549801826477,-9.505699694045688e-08,0.6783962845802307,0.7539583444595337,-0.010790211148560047,0.6539953351020813,0.67733234167099,-0.015112044289708138,0.6552900075912476,0.6222072839736938,-0.020948423072695732,0.6669862270355225,0.5849722623825073,-0.025172021239995956,0.6663387417793274,0.5752259492874146,-0.007465284783393145,0.6497305035591125,0.48392218351364136,-0.020751390606164932,0.6378527283668518,0.43019506335258484,-0.02754231169819832,0.6292480230331421,0.381571501493454,-0.03295417129993439,0.691791296005249,0.5732748508453369,-0.011476662009954453,0.6750105619430542,0.5108546614646912,-0.044153086841106415,0.6645309925079346,0.5750685930252075,-0.053524233400821686,0.6615869998931885,0.6290247440338135,-0.051524121314287186,0.7196277379989624,0.5804201364517212,-0.01725728064775467,0.7063183784484863,0.5209795832633972,-0.04841437563300133,0.6909114718437195,0.5876216888427734,-0.04638730362057686,0.6839157342910767,0.6409353613853455,-0.035473115742206573,0.7461087107658386,0.5911617875099182,-0.02407808229327202,0.7604866623878479,0.5131781697273254,-0.04634467139840126,0.7679120302200317,0.45924898982048035,-0.05171171575784683,0.774372398853302,0.4028300940990448,-0.05081808567047119,0.0,0.0,0.0,0.0,0.0,0.0,0.0,0.0,0.0,0.0,0.0,0.0,0.0,0.0,0.0,0.0,0.0,0.0,0.0,0.0,0.0,0.0,0.0,0.0,0.0,0.0,0.0,0.0,0.0,0.0,0.0,0.0,0.0,0.0,0.0,0.0,0.0,0.0,0.0,0.0,0.0,0.0,0.0,0.0,0.0,0.0,0.0,0.0,0.0,0.0,0.0,0.0,0.0,0.0,0.0,0.0,0.0,0.0,0.0,0.0,0.0,0.0,0.0
1783390548.822337,0.7185461521148682,0.7912472486495972,-1.0648529524814876e-07,0.6787484288215637,0.7545435428619385,-0.010920281521975994,0.6539947986602783,0.6726888418197632,-0.014239022508263588,0.6563507914543152,0.6115466356277466,-0.01892254129052162,0.6668012738227844,0.5709099173545837,-0.02196703851222992,0.6662274599075317,0.5764342546463013,-0.0068983836099505424,0.6489807367324829,0.48525822162628174,-0.019881892949342728,0.6371577382087708,0.4311884343624115,-0.02652115933597088,0.6286332011222839,0.3824322521686554,-0.0318061001598835,0.6920842528343201,0.5726724863052368,-0.010458426550030708,0.6755213141441345,0.5095899105072021,-0.042681943625211716,0.6651602983474731,0.5737034678459167,-0.051682114601135254,0.6621314883232117,0.6278684139251709,-0.049382928758859634,0.7200024724006653,0.5788763165473938,-0.015862707048654556,0.7068827152252197,0.5192059874534607,-0.04661048576235771,0.6915350556373596,0.5872455835342407,-0.044235456734895706,0.6846930980682373,0.6416581869125366,-0.03313903510570526,0.7464184761047363,0.5889644026756287,-0.0223659910261631,0.7602532505989075,0.5116269588470459,-0.04438649117946625,0.7676030993461609,0.4579651653766632,-0.04969043284654617,0.7742146849632263,0.40121376514434814,-0.04879891872406006,0.0,0.0,0.0,0.0,0.0,0.0,0.0,0.0,0.0,0.0,0.0,0.0,0.0,0.0,0.0,0.0,0.0,0.0,0.0,0.0,0.0,0.0,0.0,0.0,0.0,0.0,0.0,0.0,0.0,0.0,0.0,0.0,0.0,0.0,0.0,0.0,0.0,0.0,0.0,0.0,0.0,0.0,0.0,0.0,0.0,0.0,0.0,0.0,0.0,0.0,0.0,0.0,0.0,0.0,0.0,0.0,0.0,0.0,0.0,0.0,0.0,0.0,0.0
1783390548.9872231,0.7179791331291199,0.7892579436302185,-9.760863406427234e-08,0.678937554359436,0.7511407732963562,-0.010688663460314274,0.6543199419975281,0.6688592433929443,-0.013687612488865852,0.6555720567703247,0.6069424152374268,-0.018114887177944183,0.6643036007881165,0.5646909475326538,-0.020923743024468422,0.665129542350769,0.5751128196716309,-0.006034622900187969,0.6479697823524475,0.483945369720459,-0.018918853253126144,0.6359536051750183,0.4297422170639038,-0.025571871548891068,0.6270580887794495,0.38085129857063293,-0.030793676152825356,0.6913530230522156,0.5707967877388,-0.009618584997951984,0.6748736500740051,0.5084169507026672,-0.041874438524246216,0.664405345916748,0.5719371438026428,-0.051269110292196274,0.6611338257789612,0.6267331838607788,-0.04917576164007187,0.7194454073905945,0.5763102173805237,-0.0150510985404253,0.7062417268753052,0.5169076919555664,-0.045872557908296585,0.6909515261650085,0.584823727607727,-0.04391466826200485,0.6840129494667053,0.639876663684845,-0.033023882657289505,0.7459933161735535,0.5859167575836182,-0.02152319811284542,0.7595436573028564,0.5090829730033875,-0.043314531445503235,0.7669014930725098,0.45563286542892456,-0.04857872426509857,0.7733867764472961,0.399421364068985,-0.04763233661651611,0.0,0.0,0.0,0.0,0.0,0.0,0.0,0.0,0.0,0.0,0.0,0.0,0.0,0.0,0.0,0.0,0.0,0.0,0.0,0.0,0.0,0.0,0.0,0.0,0.0,0.0,0.0,0.0,0.0,0.0,0.0,0.0,0.0,0.0,0.0,0.0,0.0,0.0,0.0,0.0,0.0,0.0,0.0,0.0,0.0,0.0,0.0,0.0,0.0,0.0,0.0,0.0,0.0,0.0,0.0,0.0,0.0,0.0,0.0,0.0,0.0,0.0,0.0
1783390549.124052,0.7184455394744873,0.7898157238960266,-9.624129404528503e-08,0.6785277128219604,0.7546610832214355,-0.011876801960170269,0.6527256369590759,0.6742761135101318,-0.01570458710193634,0.6538646817207336,0.6132760643959045,-0.020732959732413292,0.6637881398200989,0.5727699995040894,-0.024008583277463913,0.6629703640937805,0.5763861536979675,-0.007492027245461941,0.6452164649963379,0.485817551612854,-0.021110089495778084,0.633147120475769,0.4309655725955963,-0.028156282380223274,0.6243671178817749,0.3819473683834076,-0.03347492590546608,0.6895093321800232,0.5709962844848633,-0.010632648132741451,0.6735633611679077,0.5075555443763733,-0.043366819620132446,0.6639794707298279,0.571699321269989,-0.05251280590891838,0.6607062220573425,0.6263564825057983,-0.04999937117099762,0.7178625464439392,0.5756160616874695,-0.015698324888944626,0.7041587233543396,0.5168524980545044,-0.046876877546310425,0.690148115158081,0.5866622924804688,-0.04450676217675209,0.6838955879211426,0.6420265436172485,-0.03306681290268898,0.7444889545440674,0.5844526290893555,-0.02190171740949154,0.7567697763442993,0.5079253911972046,-0.0437459796667099,0.7638283371925354,0.4547955095767975,-0.04875031113624573,0.7701762318611145,0.3981052041053772,-0.04747305437922478,0.0,0.0,0.0,0.0,0.0,0.0,0.0,0.0,0.0,0.0,0.0,0.0,0.0,0.0,0.0,0.0,0.0,0.0,0.0,0.0,0.0,0.0,0.0,0.0,0.0,0.0,0.0,0.0,0.0,0.0,0.0,0.0,0.0,0.0,0.0,0.0,0.0,0.0,0.0,0.0,0.0,0.0,0.0,0.0,0.0,0.0,0.0,0.0,0.0,0.0,0.0,0.0,0.0,0.0,0.0,0.0,0.0,0.0,0.0,0.0,0.0,0.0,0.0
1783390549.2909691,0.7204201221466064,0.7906290888786316,-1.1827777512962712e-07,0.6809044480323792,0.7592934966087341,-0.011708813719451427,0.6525202989578247,0.6902494430541992,-0.016630122438073158,0.6509703993797302,0.6374210119247437,-0.022568903863430023,0.6659282445907593,0.6073855757713318,-0.026865607127547264,0.658875048160553,0.5822271108627319,-0.00948826689273119,0.639590322971344,0.4933731257915497,-0.024287713691592216,0.6255803108215332,0.44020968675613403,-0.03244928643107414,0.6148663759231567,0.39217060804367065,-0.03870028257369995,0.6854169368743896,0.5754941701889038,-0.012827083468437195,0.668095052242279,0.5115014314651489,-0.04559548199176788,0.6627715229988098,0.5780273079872131,-0.05416188761591911,0.6629632711410522,0.632981538772583,-0.05159032344818115,0.7139751315116882,0.5780640244483948,-0.017984673380851746,0.6991395354270935,0.5181125998497009,-0.048606399446725845,0.6894550919532776,0.5875219106674194,-0.04533153399825096,0.6865431666374207,0.6424189805984497,-0.03363168612122536,0.7412517070770264,0.5846676230430603,-0.024304138496518135,0.7517649531364441,0.5064571499824524,-0.046005140990018845,0.7573275566101074,0.4521454870700836,-0.05073922500014305,0.7619845867156982,0.39480283856391907,-0.049485888332128525,0.0,0.0,0.0,0.0,0.0,0.0,0.0,0.0,0.0,0.0,0.0,0.0,0.0,0.0,0.0,0.0,0.0,0.0,0.0,0.0,0.0,0.0,0.0,0.0,0.0,0.0,0.0,0.0,0.0,0.0,0.0,0.0,0.0,0.0,0.0,0.0,0.0,0.0,0.0,0.0,0.0,0.0,0.0,0.0,0.0,0.0,0.0,0.0,0.0,0.0,0.0,0.0,0.0,0.0,0.0,0.0,0.0,0.0,0.0,0.0,0.0,0.0,0.0
1783390549.4233758,0.7224693894386292,0.7916420698165894,-9.80041079401417e-08,0.6805776357650757,0.7618571519851685,-0.012940958142280579,0.6524242758750916,0.6888442039489746,-0.017826342955231667,0.6571819186210632,0.6291230320930481,-0.02366984821856022,0.6744213104248047,0.5909385681152344,-0.028105610981583595,0.6541463732719421,0.5897296667098999,-0.008474955335259438,0.6321980357170105,0.5036544799804688,-0.02288350835442543,0.6175443530082703,0.45199471712112427,-0.03185872733592987,0.6056546568870544,0.4035136103630066,-0.038899920880794525,0.6815776824951172,0.5783406496047974,-0.01139880996197462,0.6655632257461548,0.5149763822555542,-0.04365203157067299,0.6637238264083862,0.5757593512535095,-0.05433761328458786,0.6654423475265503,0.6276362538337708,-0.053487494587898254,0.7101094126701355,0.577420711517334,-0.016173753887414932,0.6972171068191528,0.5179024338722229,-0.045597054064273834,0.6918741464614868,0.5860018730163574,-0.043393637984991074,0.6916258931159973,0.6408135294914246,-0.03267650678753853,0.7370423674583435,0.5813841819763184,-0.022401973605155945,0.7438060641288757,0.5027036666870117,-0.042602814733982086,0.747928261756897,0.44796785712242126,-0.04706249386072159,0.7512294054031372,0.39107269048690796,-0.04586634784936905,0.0,0.0,0.0,0.0,0.0,0.0,0.0,0.0,0.0,0.0,0.0,0.0,0.0,0.0,0.0,0.0,0.0,0.0,0.0,0.0,0.0,0.0,0.0,0.0,0.0,0.0,0.0,0.0,0.0,0.0,0.0,0.0,0.0,0.0,0.0,0.0,0.0,0.0,0.0,0.0,0.0,0.0,0.0,0.0,0.0,0.0,0.0,0.0,0.0,0.0,0.0,0.0,0.0,0.0,0.0,0.0,0.0,0.0,0.0,0.0,0.0,0.0,0.0
1783390549.582968,0.7253931760787964,0.7948073744773865,-8.628185099723851e-08,0.6823039650917053,0.7700949907302856,-0.014712255448102951,0.6535518765449524,0.6961889863014221,-0.020495612174272537,0.6577169895172119,0.6337454915046692,-0.027014251798391342,0.6738032698631287,0.5936461687088013,-0.032113250344991684,0.6483482718467712,0.6006609201431274,-0.008686301298439503,0.6242598295211792,0.5169641375541687,-0.023576688021421432,0.6086955070495605,0.46662500500679016,-0.032953280955553055,0.5960715413093567,0.41838130354881287,-0.04018967226147652,0.6754863858222961,0.5843930840492249,-0.011018912307918072,0.6595215797424316,0.5198622345924377,-0.04346116632223129,0.6645487546920776,0.5812198519706726,-0.05424568057060242,0.6713812351226807,0.6326990127563477,-0.05325411260128021,0.7042474150657654,0.579511821269989,-0.01542346365749836,0.6923072338104248,0.5144449472427368,-0.04457873851060867,0.691721498966217,0.5814335942268372,-0.0424000583589077,0.6942716240882874,0.6361657977104187,-0.031831227242946625,0.7311694622039795,0.5808369517326355,-0.021462658420205116,0.7350086569786072,0.5026711225509644,-0.04070580378174782,0.7375983595848083,0.4489595293998718,-0.044658515602350235,0.7389878034591675,0.39246293902397156,-0.0433526374399662,0.0,0.0,0.0,0.0,0.0,0.0,0.0,0.0,0.0,0.0,0.0,0.0,0.0,0.0,0.0,0.0,0.0,0.0,0.0,0.0,0.0,0.0,0.0,0.0,0.0,0.0,0.0,0.0,0.0,0.0,0.0,0.0,0.0,0.0,0.0,0.0,0.0,0.0,0.0,0.0,0.0,0.0,0.0,0.0,0.0,0.0,0.0,0.0,0.0,0.0,0.0,0.0,0.0,0.0,0.0,0.0,0.0,0.0,0.0,0.0,0.0,0.0,0.0
1783390549.718592,0.7247702479362488,0.7958452105522156,-6.413741004962503e-08,0.6811119914054871,0.7742894291877747,-0.013974331319332123,0.6514802575111389,0.7027637958526611,-0.020053504034876823,0.657640278339386,0.6408553123474121,-0.026815136894583702,0.6760492324829102,0.6027263402938843,-0.03231925517320633,0.6441308259963989,0.6056801676750183,-0.010459174402058125,0.6201696991920471,0.5200092792510986,-0.02570505067706108,0.6052910089492798,0.4683757722377777,-0.03538279980421066,0.5934485793113708,0.41985785961151123,-0.04302946478128433,0.6719931364059448,0.5888591408729553,-0.012982834130525589,0.6571881771087646,0.5247544646263123,-0.046110816299915314,0.6636240482330322,0.589332103729248,-0.05645718798041344,0.6707881093025208,0.6420319676399231,-0.05510862544178963,0.7013972401618958,0.5828137397766113,-0.017374187707901,0.6900203824043274,0.5174533128738403,-0.04636622592806816,0.6904787421226501,0.58303302526474,-0.044101566076278687,0.6929876804351807,0.6366471648216248,-0.03371858596801758,0.7285165190696716,0.5835263729095459,-0.023248162120580673,0.7318923473358154,0.5056136250495911,-0.04305408522486687,0.7334660887718201,0.45265910029411316,-0.04731495678424835,0.7329850196838379,0.3964139223098755,-0.046146269887685776,0.0,0.0,0.0,0.0,0.0,0.0,0.0,0.0,0.0,0.0,0.0,0.0,0.0,0.0,0.0,0.0,0.0,0.0,0.0,0.0,0.0,0.0,0.0,0.0,0.0,0.0,0.0,0.0,0.0,0.0,0.0,0.0,0.0,0.0,0.0,0.0,0.0,0.0,0.0,0.0,0.0,0.0,0.0,0.0,0.0,0.0,0.0,0.0,0.0,0.0,0.0,0.0,0.0,0.0,0.0,0.0,0.0,0.0,0.0,0.0,0.0,0.0,0.0
1783390549.8540921,0.7249853610992432,0.8008562326431274,-7.6834510309709e-08,0.6815823316574097,0.7794316411018372,-0.01256477553397417,0.6513173580169678,0.701271116733551,-0.017068050801753998,0.6591803431510925,0.6315103769302368,-0.022458426654338837,0.6796460747718811,0.5903201699256897,-0.02678377740085125,0.6442962884902954,0.6086502075195312,-0.007741830311715603,0.6199671626091003,0.5233545899391174,-0.02073066309094429,0.6048710942268372,0.47268253564834595,-0.028572799637913704,0.5924500823020935,0.4250836670398712,-0.03537537157535553,0.6715410947799683,0.5908514857292175,-0.01055886596441269,0.6547136306762695,0.5290849804878235,-0.04202662408351898,0.6624811887741089,0.5931819677352905,-0.05135706812143326,0.6716437935829163,0.6444884538650513,-0.0495549701154232,0.7007796764373779,0.5848498344421387,-0.015162456780672073,0.6887486577033997,0.520830512046814,-0.04313444346189499,0.6886693239212036,0.5844608545303345,-0.040794018656015396,0.6909590363502502,0.6368352174758911,-0.030769504606723785,0.7279014587402344,0.5853777527809143,-0.021147051826119423,0.7305579781532288,0.5060945749282837,-0.040701478719711304,0.7316330671310425,0.4522722065448761,-0.045206766575574875,0.7305867075920105,0.39665746688842773,-0.044487811625003815,0.0,0.0,0.0,0.0,0.0,0.0,0.0,0.0,0.0,0.0,0.0,0.0,0.0,0.0,0.0,0.0,0.0,0.0,0.0,0.0,0.0,0.0,0.0,0.0,0.0,0.0,0.0,0.0,0.0,0.0,0.0,0.0,0.0,0.0,0.0,0.0,0.0,0.0,0.0,0.0,0.0,0.0,0.0,0.0,0.0,0.0,0.0,0.0,0.0,0.0,0.0,0.0,0.0,0.0,0.0,0.0,0.0,0.0,0.0,0.0,0.0,0.0,0.0
1783390550.0000489,0.7242581248283386,0.8007161617279053,-6.537450047972015e-08,0.6812155246734619,0.7792484760284424,-0.013659034855663776,0.6518274545669556,0.7068321108818054,-0.01957317627966404,0.6578587293624878,0.6428087949752808,-0.02627718076109886,0.6767255067825317,0.6009751558303833,-0.03181536868214607,0.6430061459541321,0.6105883717536926,-0.009274356998503208,0.6192054152488708,0.524340808391571,-0.023560184985399246,0.6045065522193909,0.4737401604652405,-0.032523032277822495,0.5922011733055115,0.42592743039131165,-0.039805296808481216,0.670831561088562,0.5930938124656677,-0.011855869553983212,0.6544288992881775,0.5310530662536621,-0.04434860870242119,0.6629669666290283,0.5948005318641663,-0.0547599270939827,0.6724173426628113,0.6459211111068726,-0.053587011992931366,0.7003219723701477,0.5864920616149902,-0.016208434477448463,0.6886954307556152,0.5213737487792969,-0.044967617839574814,0.6898959279060364,0.585978627204895,-0.04296431317925453,0.6926344633102417,0.638744056224823,-0.03283458948135376,0.727549135684967,0.5866952538490295,-0.021953238174319267,0.7293440699577332,0.5080204606056213,-0.04133296757936478,0.7298334240913391,0.45484694838523865,-0.04529163986444473,0.728017270565033,0.3994806408882141,-0.043982669711112976,0.0,0.0,0.0,0.0,0.0,0.0,0.0,0.0,0.0,0.0,0.0,0.0,0.0,0.0,0.0,0.0,0.0,0.0,0.0,0.0,0.0,0.0,0.0,0.0,0.0,0.0,0.0,0.0,0.0,0.0,0.0,0.0,0.0,0.0,0.0,0.0,0.0,0.0,0.0,0.0,0.0,0.0,0.0,0.0,0.0,0.0,0.0,0.0,0.0,0.0,0.0,0.0,0.0,0.0,0.0,0.0,0.0,0.0,0.0,0.0,0.0,0.0,0.0
1783390550.157523,0.724089503288269,0.8032151460647583,-7.39272323357909e-08,0.6802266240119934,0.7794744372367859,-0.013017076067626476,0.6508222818374634,0.7041411399841309,-0.01847393624484539,0.6594569087028503,0.6374897360801697,-0.02485663816332817,0.6804369688034058,0.5954184532165527,-0.030163591727614403,0.6443079113960266,0.6116177439689636,-0.008360149338841438,0.6209993958473206,0.525129497051239,-0.021559027954936028,0.6063879132270813,0.47451865673065186,-0.029322972521185875,0.5933954119682312,0.4272598624229431,-0.035878390073776245,0.6717260479927063,0.594662070274353,-0.01103051658719778,0.6564014554023743,0.5352107882499695,-0.04241488501429558,0.6656854152679443,0.5997457504272461,-0.051612868905067444,0.674575924873352,0.6502977609634399,-0.049813736230134964,0.7008652091026306,0.58896404504776,-0.015489127486944199,0.6896145939826965,0.525574266910553,-0.043537601828575134,0.6911840438842773,0.5894412398338318,-0.04098307713866234,0.6933698654174805,0.641053318977356,-0.0307124312967062,0.7278198003768921,0.5894319415092468,-0.021352024748921394,0.7296791672706604,0.5106720328330994,-0.04052500054240227,0.7303848266601562,0.45781412720680237,-0.04444892331957817,0.7283256649971008,0.4030500650405884,-0.04321907088160515,0.0,0.0,0.0,0.0,0.0,0.0,0.0,0.0,0.0,0.0,0.0,0.0,0.0,0.0,0.0,0.0,0.0,0.0,0.0,0.0,0.0,0.0,0.0,0.0,0.0,0.0,0.0,0.0,0.0,0.0,0.0,0.0,0.0,0.0,0.0,0.0,0.0,0.0,0.0,0.0,0.0,0.0,0.0,0.0,0.0,0.0,0.0,0.0,0.0,0.0,0.0,0.0,0.0,0.0,0.0,0.0,0.0,0.0,0.0,0.0,0.0,0.0,0.0
