ciel274/research-hand-sign/data/raw/hiragana/sign_language_ke_1.csv
timestamp,R_joint_0_x,R_joint_0_y,R_joint_0_z,R_joint_1_x,R_joint_1_y,R_joint_1_z,R_joint_2_x,R_joint_2_y,R_joint_2_z,R_joint_3_x,R_joint_3_y,R_joint_3_z,R_joint_4_x,R_joint_4_y,R_joint_4_z,R_joint_5_x,R_joint_5_y,R_joint_5_z,R_joint_6_x,R_joint_6_y,R_joint_6_z,R_joint_7_x,R_joint_7_y,R_joint_7_z,R_joint_8_x,R_joint_8_y,R_joint_8_z,R_joint_9_x,R_joint_9_y,R_joint_9_z,R_joint_10_x,R_joint_10_y,R_joint_10_z,R_joint_11_x,R_joint_11_y,R_joint_11_z,R_joint_12_x,R_joint_12_y,R_joint_12_z,R_joint_13_x,R_joint_13_y,R_joint_13_z,R_joint_14_x,R_joint_14_y,R_joint_14_z,R_joint_15_x,R_joint_15_y,R_joint_15_z,R_joint_16_x,R_joint_16_y,R_joint_16_z,R_joint_17_x,R_joint_17_y,R_joint_17_z,R_joint_18_x,R_joint_18_y,R_joint_18_z,R_joint_19_x,R_joint_19_y,R_joint_19_z,R_joint_20_x,R_joint_20_y,R_joint_20_z,L_joint_0_x,L_joint_0_y,L_joint_0_z,L_joint_1_x,L_joint_1_y,L_joint_1_z,L_joint_2_x,L_joint_2_y,L_joint_2_z,L_joint_3_x,L_joint_3_y,L_joint_3_z,L_joint_4_x,L_joint_4_y,L_joint_4_z,L_joint_5_x,L_joint_5_y,L_joint_5_z,L_joint_6_x,L_joint_6_y,L_joint_6_z,L_joint_7_x,L_joint_7_y,L_joint_7_z,L_joint_8_x,L_joint_8_y,L_joint_8_z,L_joint_9_x,L_joint_9_y,L_joint_9_z,L_joint_10_x,L_joint_10_y,L_joint_10_z,L_joint_11_x,L_joint_11_y,L_joint_11_z,L_joint_12_x,L_joint_12_y,L_joint_12_z,L_joint_13_x,L_joint_13_y,L_joint_13_z,L_joint_14_x,L_joint_14_y,L_joint_14_z,L_joint_15_x,L_joint_15_y,L_joint_15_z,L_joint_16_x,L_joint_16_y,L_joint_16_z,L_joint_17_x,L_joint_17_y,L_joint_17_z,L_joint_18_x,L_joint_18_y,L_joint_18_z,L_joint_19_x,L_joint_19_y,L_joint_19_z,L_joint_20_x,L_joint_20_y,L_joint_20_z
1783390582.686622,0.6727498173713684,0.7987980842590332,2.576657607278321e-07,0.6402000784873962,0.7612263560295105,-0.01340069342404604,0.6242116093635559,0.683998167514801,-0.018698621541261673,0.6500035524368286,0.6346882581710815,-0.02409522607922554,0.6811651587486267,0.6351578831672668,-0.02972560003399849,0.6268314719200134,0.584351658821106,-0.002978804288432002,0.6213170886039734,0.5059036016464233,-0.010108944959938526,0.6202062964439392,0.45826536417007446,-0.01921967603266239,0.6202260851860046,0.41603437066078186,-0.027649927884340286,0.6492508053779602,0.5762952566146851,-0.0054970853962004185,0.6424153447151184,0.4903355538845062,-0.010193444788455963,0.6398789882659912,0.43688854575157166,-0.018128057941794395,0.6372281908988953,0.39025285840034485,-0.025315281003713608,0.6716787219047546,0.5855861306190491,-0.010637779720127583,0.6663636565208435,0.5052281618118286,-0.014973663724958897,0.6626911163330078,0.455853134393692,-0.02173505537211895,0.6584652662277222,0.41286927461624146,-0.027929076924920082,0.694838285446167,0.6064527034759521,-0.01808936335146427,0.6920473575592041,0.5436027646064758,-0.022051138803362846,0.68959641456604,0.5033201575279236,-0.02465519681572914,0.687228798866272,0.4677688181400299,-0.02773798070847988,0.0,0.0,0.0,0.0,0.0,0.0,0.0,0.0,0.0,0.0,0.0,0.0,0.0,0.0,0.0,0.0,0.0,0.0,0.0,0.0,0.0,0.0,0.0,0.0,0.0,0.0,0.0,0.0,0.0,0.0,0.0,0.0,0.0,0.0,0.0,0.0,0.0,0.0,0.0,0.0,0.0,0.0,0.0,0.0,0.0,0.0,0.0,0.0,0.0,0.0,0.0,0.0,0.0,0.0,0.0,0.0,0.0,0.0,0.0,0.0,0.0,0.0,0.0
1783390582.8456151,0.6751934289932251,0.7900630831718445,2.869819013540109e-07,0.6417821049690247,0.7504835724830627,-0.014660893939435482,0.6272878050804138,0.6708897352218628,-0.01978383958339691,0.6549182534217834,0.6212761998176575,-0.02465374767780304,0.687275230884552,0.6241731643676758,-0.02958500012755394,0.6294143795967102,0.5743744373321533,-0.0027560414746403694,0.6237707734107971,0.4949970543384552,-0.008923791348934174,0.6227232813835144,0.44688880443573,-0.017505178228020668,0.6230969429016113,0.4042154550552368,-0.025604350492358208,0.6522405743598938,0.5678575038909912,-0.004289633594453335,0.6451942920684814,0.48190534114837646,-0.008026337251067162,0.6423962712287903,0.4274396598339081,-0.01598263531923294,0.6397320628166199,0.380007803440094,-0.023208271712064743,0.6749011278152466,0.5783156156539917,-0.008521068841218948,0.670026421546936,0.49824032187461853,-0.011970625258982182,0.6654013395309448,0.4480023980140686,-0.019423354417085648,0.6604182124137878,0.40433743596076965,-0.026211300864815712,0.6981998682022095,0.5993641018867493,-0.01517378631979227,0.6955961585044861,0.5364830493927002,-0.018407929688692093,0.6930462121963501,0.4960087239742279,-0.02120736800134182,0.6909000277519226,0.45963403582572937,-0.02452528290450573,0.0,0.0,0.0,0.0,0.0,0.0,0.0,0.0,0.0,0.0,0.0,0.0,0.0,0.0,0.0,0.0,0.0,0.0,0.0,0.0,0.0,0.0,0.0,0.0,0.0,0.0,0.0,0.0,0.0,0.0,0.0,0.0,0.0,0.0,0.0,0.0,0.0,0.0,0.0,0.0,0.0,0.0,0.0,0.0,0.0,0.0,0.0,0.0,0.0,0.0,0.0,0.0,0.0,0.0,0.0,0.0,0.0,0.0,0.0,0.0,0.0,0.0,0.0
1783390583.0688572,0.6767220497131348,0.7949747443199158,2.396730849341111e-07,0.6439759731292725,0.7591974139213562,-0.013769307173788548,0.628413736820221,0.6798723936080933,-0.018294718116521835,0.6538187861442566,0.6272803544998169,-0.02287277579307556,0.6837629675865173,0.6308850646018982,-0.027549266815185547,0.6306835412979126,0.5816099643707275,-0.001053048181347549,0.6248296499252319,0.5038461089134216,-0.007121369708329439,0.623530387878418,0.4572453796863556,-0.015629036352038383,0.6232583522796631,0.41672027111053467,-0.023698652163147926,0.6532477736473083,0.5726280212402344,-0.003220117185264826,0.6461435556411743,0.48710396885871887,-0.0071235159412026405,0.6434074640274048,0.43357419967651367,-0.014426369220018387,0.640693187713623,0.3872585594654083,-0.021005431190133095,0.6757552623748779,0.5816367268562317,-0.00825788825750351,0.6694676876068115,0.5025171041488647,-0.012225699611008167,0.6659391522407532,0.4532735049724579,-0.018805785104632378,0.6623683571815491,0.410131573677063,-0.024773813784122467,0.6991567015647888,0.6016411781311035,-0.01571536436676979,0.6957249641418457,0.5394977927207947,-0.019425584003329277,0.6932197213172913,0.4996210038661957,-0.02202928438782692,0.6912522315979004,0.46370944380760193,-0.025079751387238503,0.0,0.0,0.0,0.0,0.0,0.0,0.0,0.0,0.0,0.0,0.0,0.0,0.0,0.0,0.0,0.0,0.0,0.0,0.0,0.0,0.0,0.0,0.0,0.0,0.0,0.0,0.0,0.0,0.0,0.0,0.0,0.0,0.0,0.0,0.0,0.0,0.0,0.0,0.0,0.0,0.0,0.0,0.0,0.0,0.0,0.0,0.0,0.0,0.0,0.0,0.0,0.0,0.0,0.0,0.0,0.0,0.0,0.0,0.0,0.0,0.0,0.0,0.0
1783390583.1889632,0.6764922142028809,0.7951071858406067,2.565193426562473e-07,0.6442255973815918,0.757830023765564,-0.012719864025712013,0.6287432312965393,0.6797784566879272,-0.017314668744802475,0.6546748876571655,0.6315088868141174,-0.0221669003367424,0.6856778860092163,0.6341374516487122,-0.027424925938248634,0.6318319439888,0.5788584351539612,-0.0017623825697228312,0.6263691186904907,0.500984787940979,-0.008474533446133137,0.6259084939956665,0.45424187183380127,-0.017412280663847923,0.6268818974494934,0.4126264154911041,-0.025748619809746742,0.6545097827911377,0.5705655813217163,-0.00463180523365736,0.6479746699333191,0.48511749505996704,-0.009068114683032036,0.6457456350326538,0.4313291013240814,-0.017215730622410774,0.6436058282852173,0.3840831220149994,-0.024521145969629288,0.6770985126495361,0.5800275206565857,-0.010141673497855663,0.6723181009292603,0.5003029108047485,-0.014412768185138702,0.668515145778656,0.4514116048812866,-0.021746041253209114,0.6641606092453003,0.4081438481807709,-0.028320955112576485,0.7000884413719177,0.6013086438179016,-0.017888706177473068,0.697258710861206,0.5386724472045898,-0.0219563040882349,0.6948913931846619,0.49859240651130676,-0.02498302049934864,0.692686915397644,0.46228912472724915,-0.028365841135382652,0.0,0.0,0.0,0.0,0.0,0.0,0.0,0.0,0.0,0.0,0.0,0.0,0.0,0.0,0.0,0.0,0.0,0.0,0.0,0.0,0.0,0.0,0.0,0.0,0.0,0.0,0.0,0.0,0.0,0.0,0.0,0.0,0.0,0.0,0.0,0.0,0.0,0.0,0.0,0.0,0.0,0.0,0.0,0.0,0.0,0.0,0.0,0.0,0.0,0.0,0.0,0.0,0.0,0.0,0.0,0.0,0.0,0.0,0.0,0.0,0.0,0.0,0.0
1783390583.317072,0.6779111623764038,0.7993387579917908,2.381098198611653e-07,0.645568311214447,0.7632781863212585,-0.013705631718039513,0.629884660243988,0.6844214200973511,-0.018739094957709312,0.6555463075637817,0.6333134770393372,-0.023849211633205414,0.6859892010688782,0.6373942494392395,-0.02923625521361828,0.6334327459335327,0.5828801393508911,-0.002555450890213251,0.6283583045005798,0.5048611760139465,-0.009655330330133438,0.6276723146438599,0.4579297602176666,-0.018981050699949265,0.6279463171958923,0.417005717754364,-0.027679430320858955,0.6563708782196045,0.5742177367210388,-0.005098891910165548,0.6501820683479309,0.4885372221469879,-0.009936691261827946,0.6480292677879333,0.4345639646053314,-0.018195588141679764,0.6455048322677612,0.3872052729129791,-0.025581669062376022,0.6788956522941589,0.5836257934570312,-0.010379796847701073,0.674068808555603,0.5038852095603943,-0.01498599722981453,0.6706752777099609,0.4545137584209442,-0.022259652614593506,0.6665990948677063,0.4110201895236969,-0.02881435863673687,0.7017914056777954,0.6051988005638123,-0.018017932772636414,0.6990378499031067,0.5433219075202942,-0.022417139261960983,0.6965301036834717,0.5031483769416809,-0.025624901056289673,0.6942922472953796,0.46723291277885437,-0.029136797413229942,0.0,0.0,0.0,0.0,0.0,0.0,0.0,0.0,0.0,0.0,0.0,0.0,0.0,0.0,0.0,0.0,0.0,0.0,0.0,0.0,0.0,0.0,0.0,0.0,0.0,0.0,0.0,0.0,0.0,0.0,0.0,0.0,0.0,0.0,0.0,0.0,0.0,0.0,0.0,0.0,0.0,0.0,0.0,0.0,0.0,0.0,0.0,0.0,0.0,0.0,0.0,0.0,0.0,0.0,0.0,0.0,0.0,0.0,0.0,0.0,0.0,0.0,0.0
1783390583.490016,0.679550051689148,0.8045322895050049,2.428381549179903e-07,0.6474961638450623,0.7680084705352783,-0.013407837599515915,0.6320337653160095,0.689785897731781,-0.018706737086176872,0.6573313474655151,0.6396139860153198,-0.024195771664381027,0.6876439452171326,0.6435873508453369,-0.029996344819664955,0.6359412670135498,0.587287425994873,-0.002889913273975253,0.6310721635818481,0.5091477632522583,-0.010552986524999142,0.6300371289253235,0.4616636633872986,-0.020162180066108704,0.6299591660499573,0.4201327860355377,-0.028925389051437378,0.6583887338638306,0.578741729259491,-0.0058033219538629055,0.6524015665054321,0.4925031363964081,-0.011161879636347294,0.6499965190887451,0.43775075674057007,-0.019576244056224823,0.6473654508590698,0.38996633887290955,-0.02691408433020115,0.6806219816207886,0.588301956653595,-0.011397755704820156,0.6759651899337769,0.5079596042633057,-0.016399752348661423,0.6724214553833008,0.45810386538505554,-0.023568451404571533,0.6682444214820862,0.41426748037338257,-0.02988508716225624,0.7033417820930481,0.6103795170783997,-0.019322428852319717,0.7008389234542847,0.5482562184333801,-0.023856546729803085,0.6984947919845581,0.507872462272644,-0.02680836245417595,0.6963996887207031,0.47192734479904175,-0.029998794198036194,0.0,0.0,0.0,0.0,0.0,0.0,0.0,0.0,0.0,0.0,0.0,0.0,0.0,0.0,0.0,0.0,0.0,0.0,0.0,0.0,0.0,0.0,0.0,0.0,0.0,0.0,0.0,0.0,0.0,0.0,0.0,0.0,0.0,0.0,0.0,0.0,0.0,0.0,0.0,0.0,0.0,0.0,0.0,0.0,0.0,0.0,0.0,0.0,0.0,0.0,0.0,0.0,0.0,0.0,0.0,0.0,0.0,0.0,0.0,0.0,0.0,0.0,0.0
1783390583.601699,0.6809550523757935,0.8077408671379089,2.443205175950425e-07,0.6483774185180664,0.7691124677658081,-0.013429111801087856,0.6337797045707703,0.6917280554771423,-0.01883264072239399,0.6599377393722534,0.641497015953064,-0.02439923770725727,0.6898534297943115,0.6448334455490112,-0.030264850705862045,0.6382073163986206,0.5900077819824219,-0.0026163002476096153,0.6332053542137146,0.5109034776687622,-0.010119345039129257,0.6325485110282898,0.4632125496864319,-0.019682960584759712,0.6329613327980042,0.4211413562297821,-0.028407536447048187,0.6609818935394287,0.5819907188415527,-0.005383203737437725,0.6549956798553467,0.4957038462162018,-0.010489290580153465,0.6529821753501892,0.4415053129196167,-0.01885996386408806,0.6507887244224548,0.3941374123096466,-0.02624206431210041,0.6832981109619141,0.591791033744812,-0.010838308371603489,0.6787214279174805,0.5117989778518677,-0.015574059449136257,0.6754394769668579,0.4622562527656555,-0.022632811218500137,0.6715303063392639,0.41891372203826904,-0.028951838612556458,0.7063124179840088,0.613741397857666,-0.01864166557788849,0.7037918567657471,0.551233172416687,-0.022860268130898476,0.701503336429596,0.5110682249069214,-0.025645211338996887,0.6992521286010742,0.4754369258880615,-0.028786251321434975,0.0,0.0,0.0,0.0,0.0,0.0,0.0,0.0,0.0,0.0,0.0,0.0,0.0,0.0,0.0,0.0,0.0,0.0,0.0,0.0,0.0,0.0,0.0,0.0,0.0,0.0,0.0,0.0,0.0,0.0,0.0,0.0,0.0,0.0,0.0,0.0,0.0,0.0,0.0,0.0,0.0,0.0,0.0,0.0,0.0,0.0,0.0,0.0,0.0,0.0,0.0,0.0,0.0,0.0,0.0,0.0,0.0,0.0,0.0,0.0,0.0,0.0,0.0
1783390583.758152,0.6832093000411987,0.8079409599304199,2.567147703302908e-07,0.6511976718902588,0.7681952714920044,-0.01403782982379198,0.637370228767395,0.6900618672370911,-0.01939626969397068,0.6645171642303467,0.6415684223175049,-0.024724435061216354,0.6950976848602295,0.6466427445411682,-0.03012121096253395,0.6416804194450378,0.5902725458145142,-0.0022798816207796335,0.637138307094574,0.5124366283416748,-0.009227694012224674,0.6367706060409546,0.46489545702934265,-0.018465418368577957,0.6374768018722534,0.42256879806518555,-0.026925159618258476,0.6643524169921875,0.5829731225967407,-0.0044554066844284534,0.6589776873588562,0.49750036001205444,-0.008713090792298317,0.657101035118103,0.44310519099235535,-0.016568252816796303,0.6550618410110474,0.3952608108520508,-0.023645615205168724,0.6865320801734924,0.5931693315505981,-0.009370089508593082,0.6826651692390442,0.5145134329795837,-0.013239610940217972,0.6791986227035522,0.46411383152008057,-0.019812757149338722,0.6752216219902039,0.42026636004447937,-0.025799520313739777,0.7093827724456787,0.6147996783256531,-0.016740594059228897,0.7074393630027771,0.552187979221344,-0.019973723217844963,0.7054314613342285,0.5116755962371826,-0.02202524058520794,0.7036322355270386,0.4759094715118408,-0.024671493098139763,0.0,0.0,0.0,0.0,0.0,0.0,0.0,0.0,0.0,0.0,0.0,0.0,0.0,0.0,0.0,0.0,0.0,0.0,0.0,0.0,0.0,0.0,0.0,0.0,0.0,0.0,0.0,0.0,0.0,0.0,0.0,0.0,0.0,0.0,0.0,0.0,0.0,0.0,0.0,0.0,0.0,0.0,0.0,0.0,0.0,0.0,0.0,0.0,0.0,0.0,0.0,0.0,0.0,0.0,0.0,0.0,0.0,0.0,0.0,0.0,0.0,0.0,0.0
1783390583.8877351,0.6876291632652283,0.8082736134529114,2.539285048897e-07,0.6549417972564697,0.7682441473007202,-0.013922557234764099,0.6414278149604797,0.6903024911880493,-0.0191926471889019,0.6685587763786316,0.6419554948806763,-0.02444559894502163,0.6986822485923767,0.6462571620941162,-0.029785804450511932,0.6455479264259338,0.5913637280464172,-0.0019706089515239,0.6410952210426331,0.5135773420333862,-0.009020037017762661,0.6411645412445068,0.46616217494010925,-0.018445566296577454,0.6423935890197754,0.42386534810066223,-0.027080342173576355,0.6682738661766052,0.5838967561721802,-0.004256084561347961,0.6629582643508911,0.4988252520561218,-0.008615865372121334,0.661193311214447,0.4446963369846344,-0.016842877492308617,0.6593465209007263,0.3965495824813843,-0.024239813908934593,0.6904380321502686,0.5939846038818359,-0.009283137507736683,0.6866236329078674,0.5152826905250549,-0.013289430178701878,0.6834005117416382,0.4648461639881134,-0.020201222971081734,0.6797566413879395,0.42039310932159424,-0.026496779173612595,0.7132943272590637,0.6156126856803894,-0.016735052689909935,0.7112588286399841,0.5530011057853699,-0.02028416283428669,0.7092475295066833,0.5126481056213379,-0.0226107370108366,0.7074918150901794,0.47655782103538513,-0.02546674758195877,0.0,0.0,0.0,0.0,0.0,0.0,0.0,0.0,0.0,0.0,0.0,0.0,0.0,0.0,0.0,0.0,0.0,0.0,0.0,0.0,0.0,0.0,0.0,0.0,0.0,0.0,0.0,0.0,0.0,0.0,0.0,0.0,0.0,0.0,0.0,0.0,0.0,0.0,0.0,0.0,0.0,0.0,0.0,0.0,0.0,0.0,0.0,0.0,0.0,0.0,0.0,0.0,0.0,0.0,0.0,0.0,0.0,0.0,0.0,0.0,0.0,0.0,0.0
1783390584.037962,0.6893926858901978,0.8097776770591736,2.5641568868195463e-07,0.6571722030639648,0.7719384431838989,-0.014170024544000626,0.6430671811103821,0.6921151876449585,-0.019312730059027672,0.669730007648468,0.6433500051498413,-0.024453893303871155,0.6999257206916809,0.6492593884468079,-0.02974492497742176,0.6470203399658203,0.5936087965965271,-0.002686948049813509,0.642621636390686,0.5153000354766846,-0.009919039905071259,0.6427409052848816,0.467668354511261,-0.01941695623099804,0.6440702080726624,0.4254845082759857,-0.02814592234790325,0.6697124242782593,0.585310697555542,-0.004901816602796316,0.6643649339675903,0.5001233220100403,-0.00961383618414402,0.6626712083816528,0.44613614678382874,-0.017826657742261887,0.660840630531311,0.3982205092906952,-0.025180410593748093,0.6919803619384766,0.5948642492294312,-0.009907160885632038,0.6882421970367432,0.5154924392700195,-0.014272273518145084,0.6852099895477295,0.4656282365322113,-0.021333126351237297,0.6816151142120361,0.4219345152378082,-0.02773456461727619,0.7147908806800842,0.6159347891807556,-0.01737133413553238,0.713138997554779,0.5540611743927002,-0.021347185596823692,0.7110971212387085,0.5139245986938477,-0.02416420355439186,0.7089967131614685,0.47801923751831055,-0.02740803360939026,0.0,0.0,0.0,0.0,0.0,0.0,0.0,0.0,0.0,0.0,0.0,0.0,0.0,0.0,0.0,0.0,0.0,0.0,0.0,0.0,0.0,0.0,0.0,0.0,0.0,0.0,0.0,0.0,0.0,0.0,0.0,0.0,0.0,0.0,0.0,0.0,0.0,0.0,0.0,0.0,0.0,0.0,0.0,0.0,0.0,0.0,0.0,0.0,0.0,0.0,0.0,0.0,0.0,0.0,0.0,0.0,0.0,0.0,0.0,0.0,0.0,0.0,0.0
1783390584.1846862,0.6895678043365479,0.8121556639671326,2.6591274604470527e-07,0.6573242545127869,0.7740522623062134,-0.014780602417886257,0.6430277228355408,0.69318687915802,-0.02006678655743599,0.669634997844696,0.6437395215034485,-0.02514531835913658,0.6995129585266113,0.6504483819007874,-0.03023078851401806,0.6468608379364014,0.5955889225006104,-0.0031664154957979918,0.6425568461418152,0.5167837738990784,-0.010161733254790306,0.6425808072090149,0.4687226712703705,-0.019384164363145828,0.6437825560569763,0.4265875518321991,-0.0278161708265543,0.669684886932373,0.5875436663627625,-0.0048864372074604034,0.6645015478134155,0.5011454224586487,-0.009085205383598804,0.6630109548568726,0.4469050467014313,-0.01643243245780468,0.6614946722984314,0.3998151421546936,-0.023044785484671593,0.6922084093093872,0.5975013375282288,-0.009463869966566563,0.6878977417945862,0.5168693661689758,-0.013188398443162441,0.6849272847175598,0.46623677015304565,-0.019301217049360275,0.6817837953567505,0.4225328266620636,-0.024982130154967308,0.7155627608299255,0.6187835335731506,-0.016611583530902863,0.7132587432861328,0.5552965998649597,-0.019886856898665428,0.7110989093780518,0.5147602558135986,-0.021950695663690567,0.7091411352157593,0.47915393114089966,-0.024590253829956055,0.0,0.0,0.0,0.0,0.0,0.0,0.0,0.0,0.0,0.0,0.0,0.0,0.0,0.0,0.0,0.0,0.0,0.0,0.0,0.0,0.0,0.0,0.0,0.0,0.0,0.0,0.0,0.0,0.0,0.0,0.0,0.0,0.0,0.0,0.0,0.0,0.0,0.0,0.0,0.0,0.0,0.0,0.0,0.0,0.0,0.0,0.0,0.0,0.0,0.0,0.0,0.0,0.0,0.0,0.0,0.0,0.0,0.0,0.0,0.0,0.0,0.0,0.0
1783390584.342317,0.6898303627967834,0.8139839172363281,2.6666185704016243e-07,0.6572098135948181,0.7766541242599487,-0.01503997016698122,0.6427673101425171,0.6933379173278809,-0.01992393285036087,0.6701021194458008,0.6425284147262573,-0.024533139541745186,0.7006773352622986,0.6494755148887634,-0.029094621539115906,0.6469954252243042,0.5962415337562561,-0.0026905955746769905,0.6431344151496887,0.5172866582870483,-0.009047504514455795,0.6430524587631226,0.46928563714027405,-0.017883634194731712,0.6439439058303833,0.4270768463611603,-0.026206202805042267,0.6698628067970276,0.5880942344665527,-0.004168555606156588,0.6646557450294495,0.5012747645378113,-0.007837687619030476,0.6629852652549744,0.44677725434303284,-0.014887499623000622,0.6610868573188782,0.3994843363761902,-0.021357083693146706,0.6923900246620178,0.5983675718307495,-0.008552690036594868,0.6878896951675415,0.5173776149749756,-0.011889231391251087,0.684808075428009,0.46665558218955994,-0.01783110573887825,0.6815410256385803,0.42293354868888855,-0.023494236171245575,0.7156866788864136,0.6198782920837402,-0.015562452375888824,0.7133604884147644,0.5565062165260315,-0.018686426803469658,0.7113151550292969,0.5159868001937866,-0.020787687972187996,0.7096725702285767,0.480215460062027,-0.023520197719335556,0.0,0.0,0.0,0.0,0.0,0.0,0.0,0.0,0.0,0.0,0.0,0.0,0.0,0.0,0.0,0.0,0.0,0.0,0.0,0.0,0.0,0.0,0.0,0.0,0.0,0.0,0.0,0.0,0.0,0.0,0.0,0.0,0.0,0.0,0.0,0.0,0.0,0.0,0.0,0.0,0.0,0.0,0.0,0.0,0.0,0.0,0.0,0.0,0.0,0.0,0.0,0.0,0.0,0.0,0.0,0.0,0.0,0.0,0.0,0.0,0.0,0.0,0.0
1783390584.524596,0.6916981339454651,0.8140702247619629,2.537194063734205e-07,0.6588102579116821,0.7744942903518677,-0.013297207653522491,0.6441985368728638,0.6943607926368713,-0.01795347034931183,0.6711201071739197,0.6458369493484497,-0.0228058360517025,0.701828122138977,0.65044766664505,-0.027848688885569572,0.6491570472717285,0.5951300859451294,-0.001175684155896306,0.6448458433151245,0.5168394446372986,-0.00792950764298439,0.6447880268096924,0.46959152817726135,-0.017189957201480865,0.6457756757736206,0.42760834097862244,-0.025845283642411232,0.671949028968811,0.5877696871757507,-0.003830893896520138,0.6666465401649475,0.5019873380661011,-0.008204026147723198,0.6648272275924683,0.4478662312030792,-0.016363004222512245,0.6627573370933533,0.40007996559143066,-0.023741962388157845,0.6942511796951294,0.598289430141449,-0.009279423393309116,0.690212607383728,0.5180668830871582,-0.013484875671565533,0.6870434284210205,0.46786564588546753,-0.02056344971060753,0.6832577586174011,0.4238206148147583,-0.027042899280786514,0.7173507809638977,0.6203677654266357,-0.017111288383603096,0.7153799533843994,0.5575821399688721,-0.021114978939294815,0.7132259607315063,0.517029881477356,-0.02395600825548172,0.710999608039856,0.4805791974067688,-0.0272586178034544,0.0,0.0,0.0,0.0,0.0,0.0,0.0,0.0,0.0,0.0,0.0,0.0,0.0,0.0,0.0,0.0,0.0,0.0,0.0,0.0,0.0,0.0,0.0,0.0,0.0,0.0,0.0,0.0,0.0,0.0,0.0,0.0,0.0,0.0,0.0,0.0,0.0,0.0,0.0,0.0,0.0,0.0,0.0,0.0,0.0,0.0,0.0,0.0,0.0,0.0,0.0,0.0,0.0,0.0,0.0,0.0,0.0,0.0,0.0,0.0,0.0,0.0,0.0
1783390584.656908,0.6920329332351685,0.8140519261360168,2.623424109060579e-07,0.6598944664001465,0.7753233909606934,-0.014255315996706486,0.6453439593315125,0.693393886089325,-0.01930406503379345,0.6724198460578918,0.644412636756897,-0.024265820160508156,0.7031678557395935,0.6508135795593262,-0.02928696759045124,0.6490596532821655,0.5953252911567688,-0.0027323286049067974,0.6448168158531189,0.5171734094619751,-0.009472623467445374,0.6449933648109436,0.4703070819377899,-0.01855996996164322,0.6463450193405151,0.4290686845779419,-0.026993772014975548,0.6720508337020874,0.5877607464790344,-0.00474192202091217,0.6671633720397949,0.5015307664871216,-0.008727824315428734,0.6656373143196106,0.447903037071228,-0.01614423468708992,0.6638581156730652,0.40094539523124695,-0.02294822596013546,0.6946852803230286,0.5982912182807922,-0.009551473893225193,0.690618097782135,0.5174625515937805,-0.013187739066779613,0.6875677108764648,0.46723154187202454,-0.019469019025564194,0.6841527223587036,0.4237540364265442,-0.02537352591753006,0.7178399562835693,0.6201635003089905,-0.016862835735082626,0.7159016728401184,0.5567089319229126,-0.020126044750213623,0.7140200734138489,0.5164454579353333,-0.022248858585953712,0.7122707962989807,0.48110389709472656,-0.02502637729048729,0.0,0.0,0.0,0.0,0.0,0.0,0.0,0.0,0.0,0.0,0.0,0.0,0.0,0.0,0.0,0.0,0.0,0.0,0.0,0.0,0.0,0.0,0.0,0.0,0.0,0.0,0.0,0.0,0.0,0.0,0.0,0.0,0.0,0.0,0.0,0.0,0.0,0.0,0.0,0.0,0.0,0.0,0.0,0.0,0.0,0.0,0.0,0.0,0.0,0.0,0.0,0.0,0.0,0.0,0.0,0.0,0.0,0.0,0.0,0.0,0.0,0.0,0.0
1783390584.7903218,0.6922390460968018,0.8144189119338989,2.6600901037454605e-07,0.6602706909179688,0.7753629088401794,-0.014258434064686298,0.6457012295722961,0.6934669613838196,-0.019182631745934486,0.6728774309158325,0.6440806984901428,-0.023996710777282715,0.7035316824913025,0.650977611541748,-0.028798149898648262,0.6498953104019165,0.5939628481864929,-0.0016844406491145492,0.6458565592765808,0.5162938833236694,-0.00770186772570014,0.6462060809135437,0.4699093699455261,-0.01650141552090645,0.6477153897285461,0.428920179605484,-0.024842126294970512,0.6727885603904724,0.5870556235313416,-0.00352520146407187,0.6679573655128479,0.5014678239822388,-0.006792637053877115,0.6666621565818787,0.4478447139263153,-0.013894093222916126,0.6651834845542908,0.40079784393310547,-0.020565105602145195,0.6953439712524414,0.5983412265777588,-0.00822595413774252,0.6912955045700073,0.5184999108314514,-0.011234521865844727,0.6883640289306641,0.4684230089187622,-0.01724909618496895,0.6852859854698181,0.4250931739807129,-0.023061294108629227,0.7187082171440125,0.6208298802375793,-0.015485323034226894,0.7166184782981873,0.5573212504386902,-0.018352394923567772,0.7147191762924194,0.5170643329620361,-0.020343583077192307,0.7131120562553406,0.48158296942710876,-0.023058222606778145,0.0,0.0,0.0,0.0,0.0,0.0,0.0,0.0,0.0,0.0,0.0,0.0,0.0,0.0,0.0,0.0,0.0,0.0,0.0,0.0,0.0,0.0,0.0,0.0,0.0,0.0,0.0,0.0,0.0,0.0,0.0,0.0,0.0,0.0,0.0,0.0,0.0,0.0,0.0,0.0,0.0,0.0,0.0,0.0,0.0,0.0,0.0,0.0,0.0,0.0,0.0,0.0,0.0,0.0,0.0,0.0,0.0,0.0,0.0,0.0,0.0,0.0,0.0
1783390584.920288,0.6920297741889954,0.813801109790802,2.6255474949721247e-07,0.6600772738456726,0.7749266028404236,-0.014155668206512928,0.645758867263794,0.6932228207588196,-0.019049309194087982,0.6730619072914124,0.6437505483627319,-0.023846987634897232,0.7036425471305847,0.6496140956878662,-0.028663037344813347,0.6504743099212646,0.5936669111251831,-0.0017888520378619432,0.646695077419281,0.5158995389938354,-0.007838310673832893,0.6470280885696411,0.46979090571403503,-0.016586145386099815,0.6484684944152832,0.42908021807670593,-0.024873176589608192,0.6733704209327698,0.5867287516593933,-0.0036652388516813517,0.6689427495002747,0.500654935836792,-0.006949640344828367,0.6676169037818909,0.44721513986587524,-0.014041652902960777,0.665952742099762,0.4004776179790497,-0.020715733990073204,0.6957719922065735,0.5981119275093079,-0.008375478908419609,0.6919534206390381,0.5176915526390076,-0.011431127786636353,0.6889418959617615,0.4676493704319,-0.01742309331893921,0.685670793056488,0.42439451813697815,-0.023249896243214607,0.7188477516174316,0.6208533048629761,-0.01561003364622593,0.716867208480835,0.5574796199798584,-0.018519585952162743,0.7149597406387329,0.5174571871757507,-0.020492643117904663,0.7133368253707886,0.4821673631668091,-0.023216629400849342,0.0,0.0,0.0,0.0,0.0,0.0,0.0,0.0,0.0,0.0,0.0,0.0,0.0,0.0,0.0,0.0,0.0,0.0,0.0,0.0,0.0,0.0,0.0,0.0,0.0,0.0,0.0,0.0,0.0,0.0,0.0,0.0,0.0,0.0,0.0,0.0,0.0,0.0,0.0,0.0,0.0,0.0,0.0,0.0,0.0,0.0,0.0,0.0,0.0,0.0,0.0,0.0,0.0,0.0,0.0,0.0,0.0,0.0,0.0,0.0,0.0,0.0,0.0
1783390585.05934,0.6922541260719299,0.81379634141922,2.609492355531984e-07,0.6606414318084717,0.7744608521461487,-0.01416032761335373,0.6462373733520508,0.6936283111572266,-0.01934623345732689,0.6729932427406311,0.6450268030166626,-0.024455206468701363,0.7031518220901489,0.650634765625,-0.02961106039583683,0.6509032845497131,0.5934337377548218,-0.00232329242862761,0.6471075415611267,0.515218198299408,-0.00880193430930376,0.647784411907196,0.4688704013824463,-0.017805762588977814,0.6495870351791382,0.4280271530151367,-0.02617656998336315,0.6738377213478088,0.5869851112365723,-0.004331726580858231,0.6693791151046753,0.5010001063346863,-0.00800266396254301,0.6682008504867554,0.44751012325286865,-0.015387222170829773,0.6668058633804321,0.40056538581848145,-0.022234082221984863,0.6963443160057068,0.5985132455825806,-0.009145880118012428,0.6925856471061707,0.5180750489234924,-0.012511692941188812,0.6897662281990051,0.46794363856315613,-0.018773730844259262,0.6866618394851685,0.4243718385696411,-0.024734247475862503,0.7194778323173523,0.6214187741279602,-0.016456086188554764,0.717467725276947,0.5579339861869812,-0.019570190459489822,0.7154257297515869,0.5179092884063721,-0.021619411185383797,0.7136030793190002,0.4825637638568878,-0.02434960938990116,0.0,0.0,0.0,0.0,0.0,0.0,0.0,0.0,0.0,0.0,0.0,0.0,0.0,0.0,0.0,0.0,0.0,0.0,0.0,0.0,0.0,0.0,0.0,0.0,0.0,0.0,0.0,0.0,0.0,0.0,0.0,0.0,0.0,0.0,0.0,0.0,0.0,0.0,0.0,0.0,0.0,0.0,0.0,0.0,0.0,0.0,0.0,0.0,0.0,0.0,0.0,0.0,0.0,0.0,0.0,0.0,0.0,0.0,0.0,0.0,0.0,0.0,0.0
1783390585.191754,0.6927082538604736,0.8140199780464172,2.5745390530573786e-07,0.6615198850631714,0.7749763131141663,-0.014355503022670746,0.647350549697876,0.6941732168197632,-0.019574809819459915,0.6740947365760803,0.6454905867576599,-0.02467442862689495,0.7040826678276062,0.6513235569000244,-0.029748795554041862,0.6514018177986145,0.595384955406189,-0.002395816147327423,0.6476731896400452,0.5174182653427124,-0.008847246877849102,0.6483094096183777,0.4710507392883301,-0.017775021493434906,0.6500736474990845,0.4304824769496918,-0.026085615158081055,0.6742212176322937,0.588525652885437,-0.00430804118514061,0.6697096824645996,0.5024224519729614,-0.007950852625072002,0.6685796976089478,0.44884878396987915,-0.015194660983979702,0.6672838926315308,0.401826947927475,-0.021904096007347107,0.6967899799346924,0.5997540950775146,-0.009048901498317719,0.6927283406257629,0.519189178943634,-0.012392592616379261,0.6900442838668823,0.4685409367084503,-0.018590280786156654,0.6872351169586182,0.42438793182373047,-0.0244993194937706,0.7199646234512329,0.6224594712257385,-0.01631304621696472,0.7177997827529907,0.5590998530387878,-0.019362960010766983,0.7158136367797852,0.5188648700714111,-0.021366575732827187,0.714253842830658,0.48333504796028137,-0.02408282645046711,0.0,0.0,0.0,0.0,0.0,0.0,0.0,0.0,0.0,0.0,0.0,0.0,0.0,0.0,0.0,0.0,0.0,0.0,0.0,0.0,0.0,0.0,0.0,0.0,0.0,0.0,0.0,0.0,0.0,0.0,0.0,0.0,0.0,0.0,0.0,0.0,0.0,0.0,0.0,0.0,0.0,0.0,0.0,0.0,0.0,0.0,0.0,0.0,0.0,0.0,0.0,0.0,0.0,0.0,0.0,0.0,0.0,0.0,0.0,0.0,0.0,0.0,0.0
1783390585.430897,0.6939237117767334,0.8123729228973389,2.584475282674248e-07,0.662458598613739,0.7728429436683655,-0.013943683356046677,0.6489021182060242,0.6925749182701111,-0.018943244591355324,0.67608243227005,0.6457635760307312,-0.02396422252058983,0.7061591148376465,0.652157723903656,-0.029106615111231804,0.6531482338905334,0.593594491481781,-0.0018841675482690334,0.6493816375732422,0.5162772536277771,-0.008583427406847477,0.6499465703964233,0.469986230134964,-0.017861217260360718,0.6516401767730713,0.4284949004650116,-0.02648325264453888,0.6760227084159851,0.5867840051651001,-0.004127396736294031,0.6713743209838867,0.5018418431282043,-0.008161312900483608,0.6701159477233887,0.448091059923172,-0.016234098002314568,0.6685826182365417,0.3999161720275879,-0.02364959754049778,0.6984543204307556,0.5978657007217407,-0.009170671924948692,0.6952205896377563,0.5190615057945251,-0.012917338870465755,0.6926431655883789,0.46931153535842896,-0.019903486594557762,0.6894232630729675,0.4255683720111847,-0.026397541165351868,0.7213297486305237,0.6200860738754272,-0.016662433743476868,0.7198145389556885,0.5580848455429077,-0.019996140152215958,0.718048632144928,0.5184316039085388,-0.022474773228168488,0.7163305878639221,0.4828636646270752,-0.025623399764299393,0.0,0.0,0.0,0.0,0.0,0.0,0.0,0.0,0.0,0.0,0.0,0.0,0.0,0.0,0.0,0.0,0.0,0.0,0.0,0.0,0.0,0.0,0.0,0.0,0.0,0.0,0.0,0.0,0.0,0.0,0.0,0.0,0.0,0.0,0.0,0.0,0.0,0.0,0.0,0.0,0.0,0.0,0.0,0.0,0.0,0.0,0.0,0.0,0.0,0.0,0.0,0.0,0.0,0.0,0.0,0.0,0.0,0.0,0.0,0.0,0.0,0.0,0.0
