ciel274/research-hand-sign/data/raw/hiragana/sign_language_a_2.csv
timestamp,R_joint_0_x,R_joint_0_y,R_joint_0_z,R_joint_1_x,R_joint_1_y,R_joint_1_z,R_joint_2_x,R_joint_2_y,R_joint_2_z,R_joint_3_x,R_joint_3_y,R_joint_3_z,R_joint_4_x,R_joint_4_y,R_joint_4_z,R_joint_5_x,R_joint_5_y,R_joint_5_z,R_joint_6_x,R_joint_6_y,R_joint_6_z,R_joint_7_x,R_joint_7_y,R_joint_7_z,R_joint_8_x,R_joint_8_y,R_joint_8_z,R_joint_9_x,R_joint_9_y,R_joint_9_z,R_joint_10_x,R_joint_10_y,R_joint_10_z,R_joint_11_x,R_joint_11_y,R_joint_11_z,R_joint_12_x,R_joint_12_y,R_joint_12_z,R_joint_13_x,R_joint_13_y,R_joint_13_z,R_joint_14_x,R_joint_14_y,R_joint_14_z,R_joint_15_x,R_joint_15_y,R_joint_15_z,R_joint_16_x,R_joint_16_y,R_joint_16_z,R_joint_17_x,R_joint_17_y,R_joint_17_z,R_joint_18_x,R_joint_18_y,R_joint_18_z,R_joint_19_x,R_joint_19_y,R_joint_19_z,R_joint_20_x,R_joint_20_y,R_joint_20_z,L_joint_0_x,L_joint_0_y,L_joint_0_z,L_joint_1_x,L_joint_1_y,L_joint_1_z,L_joint_2_x,L_joint_2_y,L_joint_2_z,L_joint_3_x,L_joint_3_y,L_joint_3_z,L_joint_4_x,L_joint_4_y,L_joint_4_z,L_joint_5_x,L_joint_5_y,L_joint_5_z,L_joint_6_x,L_joint_6_y,L_joint_6_z,L_joint_7_x,L_joint_7_y,L_joint_7_z,L_joint_8_x,L_joint_8_y,L_joint_8_z,L_joint_9_x,L_joint_9_y,L_joint_9_z,L_joint_10_x,L_joint_10_y,L_joint_10_z,L_joint_11_x,L_joint_11_y,L_joint_11_z,L_joint_12_x,L_joint_12_y,L_joint_12_z,L_joint_13_x,L_joint_13_y,L_joint_13_z,L_joint_14_x,L_joint_14_y,L_joint_14_z,L_joint_15_x,L_joint_15_y,L_joint_15_z,L_joint_16_x,L_joint_16_y,L_joint_16_z,L_joint_17_x,L_joint_17_y,L_joint_17_z,L_joint_18_x,L_joint_18_y,L_joint_18_z,L_joint_19_x,L_joint_19_y,L_joint_19_z,L_joint_20_x,L_joint_20_y,L_joint_20_z
1783344091.38643,0.7660664916038513,0.6407921314239502,-6.320782972579764e-07,0.6992170810699463,0.6198921203613281,-0.027212170884013176,0.6283937096595764,0.541617214679718,-0.03834550827741623,0.5755850076675415,0.47057488560676575,-0.05046534538269043,0.5372098684310913,0.42435792088508606,-0.05386687070131302,0.6565622687339783,0.4041892886161804,0.0032882068771868944,0.6383451223373413,0.31992048025131226,-0.03453171253204346,0.6560193300247192,0.4088838994503021,-0.0484892874956131,0.6662656664848328,0.4546501934528351,-0.05034186691045761,0.700205385684967,0.39179500937461853,0.003826920874416828,0.6895171999931335,0.3418854773044586,-0.033026885241270065,0.7029494047164917,0.45571544766426086,-0.03498808667063713,0.6988687515258789,0.45599472522735596,-0.026316486299037933,0.7440205216407776,0.38798972964286804,-0.004509660415351391,0.7349268198013306,0.34395596385002136,-0.04157787933945656,0.7418884038925171,0.44420674443244934,-0.027251766994595528,0.7388489842414856,0.4444597065448761,-0.007167732808738947,0.7872154712677002,0.38716182112693787,-0.015486699528992176,0.7790630459785461,0.3396371304988861,-0.03137492761015892,0.7788465023040771,0.4093084931373596,-0.016507411375641823,0.7789013981819153,0.4220193028450012,0.0005998103879392147,0.0,0.0,0.0,0.0,0.0,0.0,0.0,0.0,0.0,0.0,0.0,0.0,0.0,0.0,0.0,0.0,0.0,0.0,0.0,0.0,0.0,0.0,0.0,0.0,0.0,0.0,0.0,0.0,0.0,0.0,0.0,0.0,0.0,0.0,0.0,0.0,0.0,0.0,0.0,0.0,0.0,0.0,0.0,0.0,0.0,0.0,0.0,0.0,0.0,0.0,0.0,0.0,0.0,0.0,0.0,0.0,0.0,0.0,0.0,0.0,0.0,0.0,0.0
1783344091.584481,0.7611032128334045,0.6275386214256287,-5.934113573857758e-07,0.6920154690742493,0.6024768352508545,-0.025385236367583275,0.622955322265625,0.5274201035499573,-0.03496841713786125,0.5699476599693298,0.45989739894866943,-0.045862745493650436,0.5312366485595703,0.41714605689048767,-0.048130303621292114,0.6511842608451843,0.3949030637741089,0.00939599797129631,0.6361273527145386,0.3124408721923828,-0.025069139897823334,0.6532394289970398,0.3993971645832062,-0.03774849325418472,0.6619726419448853,0.44075027108192444,-0.03923387452960014,0.6953305602073669,0.3826860189437866,0.009904141537845135,0.68598872423172,0.33290326595306396,-0.02359764464199543,0.6987024545669556,0.4451649487018585,-0.025357408449053764,0.6939094662666321,0.4437350630760193,-0.01725473627448082,0.7388695478439331,0.3783855140209198,0.0016039212932810187,0.7311626076698303,0.3326301574707031,-0.03285210579633713,0.7378392219543457,0.4316098093986511,-0.019087493419647217,0.7345287799835205,0.4331636130809784,3.778691097977571e-05,0.7816730737686157,0.3771932125091553,-0.009227246046066284,0.774564266204834,0.3269284665584564,-0.023273702710866928,0.7734978795051575,0.3959338665008545,-0.008527053520083427,0.7730534672737122,0.4113834500312805,0.00802287645637989,0.0,0.0,0.0,0.0,0.0,0.0,0.0,0.0,0.0,0.0,0.0,0.0,0.0,0.0,0.0,0.0,0.0,0.0,0.0,0.0,0.0,0.0,0.0,0.0,0.0,0.0,0.0,0.0,0.0,0.0,0.0,0.0,0.0,0.0,0.0,0.0,0.0,0.0,0.0,0.0,0.0,0.0,0.0,0.0,0.0,0.0,0.0,0.0,0.0,0.0,0.0,0.0,0.0,0.0,0.0,0.0,0.0,0.0,0.0,0.0,0.0,0.0,0.0
1783344091.779256,0.7614271640777588,0.6216372847557068,-6.170607775857206e-07,0.6948361992835999,0.5988065004348755,-0.025436047464609146,0.6251459121704102,0.5253844261169434,-0.03627081587910652,0.5706175565719604,0.46146297454833984,-0.04822785407304764,0.5318331122398376,0.4200640916824341,-0.05146271735429764,0.6531025171279907,0.3879653513431549,0.004664221778512001,0.6370240449905396,0.30510133504867554,-0.03208848834037781,0.6566910147666931,0.39500150084495544,-0.04667719081044197,0.6656392812728882,0.439565509557724,-0.04953832924365997,0.6963192224502563,0.3742157518863678,0.004823384806513786,0.6870465278625488,0.3253534436225891,-0.030693409964442253,0.7019771337509155,0.4373491704463959,-0.033249203115701675,0.6969609260559082,0.4381644129753113,-0.02590079791843891,0.7393825650215149,0.37097910046577454,-0.003475745441392064,0.7315854430198669,0.3245105445384979,-0.03846128657460213,0.7398934960365295,0.4220018684864044,-0.02405090071260929,0.7367602586746216,0.42375314235687256,-0.004899360239505768,0.781707227230072,0.3717576265335083,-0.014341319911181927,0.7759464383125305,0.3239184319972992,-0.028806064277887344,0.7753139734268188,0.39377841353416443,-0.013753307983279228,0.7735806107521057,0.40901944041252136,0.002861445304006338,0.0,0.0,0.0,0.0,0.0,0.0,0.0,0.0,0.0,0.0,0.0,0.0,0.0,0.0,0.0,0.0,0.0,0.0,0.0,0.0,0.0,0.0,0.0,0.0,0.0,0.0,0.0,0.0,0.0,0.0,0.0,0.0,0.0,0.0,0.0,0.0,0.0,0.0,0.0,0.0,0.0,0.0,0.0,0.0,0.0,0.0,0.0,0.0,0.0,0.0,0.0,0.0,0.0,0.0,0.0,0.0,0.0,0.0,0.0,0.0,0.0,0.0,0.0
1783344091.9491231,0.763393759727478,0.6230962872505188,-6.210998435562942e-07,0.6967849135398865,0.5982998013496399,-0.027415942400693893,0.6263195872306824,0.5242936015129089,-0.03953239321708679,0.57017582654953,0.45963072776794434,-0.052342258393764496,0.5290172696113586,0.42127662897109985,-0.05604393035173416,0.6542008519172668,0.3870563805103302,0.0016566942213103175,0.6381789445877075,0.3027954697608948,-0.03485013544559479,0.6585003733634949,0.3950237035751343,-0.04827963188290596,0.6665306091308594,0.43836820125579834,-0.05066657066345215,0.6974061727523804,0.37343156337738037,0.0024599763564765453,0.6876195669174194,0.3211154639720917,-0.03284512832760811,0.7032958269119263,0.4356412887573242,-0.034293897449970245,0.6978960633277893,0.43438199162483215,-0.026474719867110252,0.740703284740448,0.37033018469810486,-0.005217176862061024,0.7323402762413025,0.32018983364105225,-0.04024166986346245,0.7412733435630798,0.41947710514068604,-0.02454989030957222,0.73830246925354,0.4213312566280365,-0.0048395488411188126,0.7830144166946411,0.37136250734329224,-0.015663329511880875,0.7772814631462097,0.3204497694969177,-0.030317097902297974,0.7768276929855347,0.3904182016849518,-0.014743759296834469,0.7753887176513672,0.4062744677066803,0.002026723697781563,0.0,0.0,0.0,0.0,0.0,0.0,0.0,0.0,0.0,0.0,0.0,0.0,0.0,0.0,0.0,0.0,0.0,0.0,0.0,0.0,0.0,0.0,0.0,0.0,0.0,0.0,0.0,0.0,0.0,0.0,0.0,0.0,0.0,0.0,0.0,0.0,0.0,0.0,0.0,0.0,0.0,0.0,0.0,0.0,0.0,0.0,0.0,0.0,0.0,0.0,0.0,0.0,0.0,0.0,0.0,0.0,0.0,0.0,0.0,0.0,0.0,0.0,0.0
1783344092.137322,0.7616997957229614,0.6149248480796814,-6.194466664055653e-07,0.6950783133506775,0.5923165678977966,-0.02708621323108673,0.6245955228805542,0.5189505219459534,-0.039281781762838364,0.5687243938446045,0.4558641016483307,-0.05235995724797249,0.527374804019928,0.4186834394931793,-0.05669765919446945,0.6527595520019531,0.38225775957107544,0.0014414204051718116,0.6374523043632507,0.2975353002548218,-0.03494754806160927,0.6569387912750244,0.3899807333946228,-0.04814281314611435,0.6653385162353516,0.43304431438446045,-0.05020143464207649,0.695844829082489,0.3688948452472687,0.0022033138666301966,0.6868165135383606,0.31631913781166077,-0.03315989300608635,0.7015938758850098,0.4309709370136261,-0.034558266401290894,0.6969020962715149,0.4302859604358673,-0.026614142581820488,0.738875687122345,0.3647741675376892,-0.005426171701401472,0.731221616268158,0.31492793560028076,-0.04038892686367035,0.7390071749687195,0.41507869958877563,-0.024893714115023613,0.7357664108276367,0.41821661591529846,-0.005215911194682121,0.7807859182357788,0.3644753396511078,-0.015756387263536453,0.7747253179550171,0.3130098879337311,-0.030100127682089806,0.7736806869506836,0.3839397430419922,-0.014443876221776009,0.7720422744750977,0.4020734429359436,0.002428435953333974,0.0,0.0,0.0,0.0,0.0,0.0,0.0,0.0,0.0,0.0,0.0,0.0,0.0,0.0,0.0,0.0,0.0,0.0,0.0,0.0,0.0,0.0,0.0,0.0,0.0,0.0,0.0,0.0,0.0,0.0,0.0,0.0,0.0,0.0,0.0,0.0,0.0,0.0,0.0,0.0,0.0,0.0,0.0,0.0,0.0,0.0,0.0,0.0,0.0,0.0,0.0,0.0,0.0,0.0,0.0,0.0,0.0,0.0,0.0,0.0,0.0,0.0,0.0
1783344092.47453,0.7623947858810425,0.6165112853050232,-6.281148330344877e-07,0.6960545182228088,0.592481791973114,-0.02576591446995735,0.6268302202224731,0.5170315504074097,-0.03691389784216881,0.5716515779495239,0.45446303486824036,-0.049074746668338776,0.5307826995849609,0.41727375984191895,-0.052812911570072174,0.6546928286552429,0.37981054186820984,0.003375378903001547,0.6393576264381409,0.29524803161621094,-0.03290648013353348,0.6580342054367065,0.3864535987377167,-0.04742695018649101,0.666152834892273,0.4303613603115082,-0.0506359227001667,0.6980100274085999,0.3672965466976166,0.0033862318377941847,0.6882281303405762,0.31515398621559143,-0.03229976445436478,0.7028242945671082,0.42757681012153625,-0.03524196520447731,0.6986068487167358,0.4296797513961792,-0.028348125517368317,0.7411823272705078,0.36564305424690247,-0.0048431092873215675,0.7329888343811035,0.31683874130249023,-0.03992725536227226,0.7409520745277405,0.41577407717704773,-0.02544737607240677,0.7378554344177246,0.4189925789833069,-0.006477109156548977,0.7831853032112122,0.3674528896808624,-0.015619517304003239,0.7769337892532349,0.3162258565425873,-0.03003770299255848,0.7764655947685242,0.38799625635147095,-0.014483409002423286,0.7752913236618042,0.40470850467681885,0.0022141423542052507,0.0,0.0,0.0,0.0,0.0,0.0,0.0,0.0,0.0,0.0,0.0,0.0,0.0,0.0,0.0,0.0,0.0,0.0,0.0,0.0,0.0,0.0,0.0,0.0,0.0,0.0,0.0,0.0,0.0,0.0,0.0,0.0,0.0,0.0,0.0,0.0,0.0,0.0,0.0,0.0,0.0,0.0,0.0,0.0,0.0,0.0,0.0,0.0,0.0,0.0,0.0,0.0,0.0,0.0,0.0,0.0,0.0,0.0,0.0,0.0,0.0,0.0,0.0
1783344092.6699982,0.7641742825508118,0.6133730411529541,-6.157223992886429e-07,0.6975477337837219,0.5868046879768372,-0.026006022468209267,0.6287952661514282,0.5109615921974182,-0.03735026717185974,0.5735980272293091,0.44618794322013855,-0.049656160175800323,0.5321940779685974,0.4094652235507965,-0.053287286311388016,0.6561861634254456,0.37358078360557556,0.004521152935922146,0.6417592167854309,0.28982073068618774,-0.03114662505686283,0.6604102253913879,0.38123905658721924,-0.04498855024576187,0.6672585606575012,0.4251731038093567,-0.04765678942203522,0.6990777850151062,0.3618946075439453,0.005073509179055691,0.6906999945640564,0.309855580329895,-0.02948474884033203,0.705326497554779,0.4230634868144989,-0.031880028545856476,0.6991795301437378,0.4230469763278961,-0.02478097751736641,0.7420496344566345,0.36026251316070557,-0.002668082481250167,0.7352684736251831,0.31115567684173584,-0.037059396505355835,0.7431108951568604,0.4100559949874878,-0.02250813879072666,0.7387522459030151,0.4133589267730713,-0.0036193032283335924,0.783634603023529,0.36208784580230713,-0.012984044849872589,0.7790191173553467,0.3124677836894989,-0.026902543380856514,0.7783409357070923,0.38360583782196045,-0.011457908898591995,0.7761138081550598,0.40046456456184387,0.0051286350935697556,0.0,0.0,0.0,0.0,0.0,0.0,0.0,0.0,0.0,0.0,0.0,0.0,0.0,0.0,0.0,0.0,0.0,0.0,0.0,0.0,0.0,0.0,0.0,0.0,0.0,0.0,0.0,0.0,0.0,0.0,0.0,0.0,0.0,0.0,0.0,0.0,0.0,0.0,0.0,0.0,0.0,0.0,0.0,0.0,0.0,0.0,0.0,0.0,0.0,0.0,0.0,0.0,0.0,0.0,0.0,0.0,0.0,0.0,0.0,0.0,0.0,0.0,0.0
1783344092.812588,0.7629165649414062,0.6082261800765991,-6.070405333957751e-07,0.6959896087646484,0.5819546580314636,-0.027857882902026176,0.6267921328544617,0.5085361003875732,-0.03978903219103813,0.5719321966171265,0.44230860471725464,-0.05226290598511696,0.5302339792251587,0.4056237041950226,-0.05569463223218918,0.6554778218269348,0.3699209988117218,0.0031260596588253975,0.6414849162101746,0.2864988148212433,-0.03214501589536667,0.6591686606407166,0.3803812861442566,-0.04489261284470558,0.6658022403717041,0.4224735200405121,-0.04685695096850395,0.6988484859466553,0.35901111364364624,0.004682776518166065,0.6904770135879517,0.30557817220687866,-0.029510585591197014,0.7029482126235962,0.42188891768455505,-0.03067675791680813,0.6971145868301392,0.4190221130847931,-0.022872140631079674,0.7414380311965942,0.3572064936161041,-0.0023178281262516975,0.7348055839538574,0.3061269521713257,-0.03695345297455788,0.7404230833053589,0.4077796936035156,-0.021812601014971733,0.7368834018707275,0.41069403290748596,-0.0024814887437969446,0.7825204133987427,0.3585640490055084,-0.012051737867295742,0.7780106067657471,0.3067485988140106,-0.02631976641714573,0.7754955291748047,0.37797442078590393,-0.011021544225513935,0.7736684679985046,0.3952432870864868,0.00547339441254735,0.0,0.0,0.0,0.0,0.0,0.0,0.0,0.0,0.0,0.0,0.0,0.0,0.0,0.0,0.0,0.0,0.0,0.0,0.0,0.0,0.0,0.0,0.0,0.0,0.0,0.0,0.0,0.0,0.0,0.0,0.0,0.0,0.0,0.0,0.0,0.0,0.0,0.0,0.0,0.0,0.0,0.0,0.0,0.0,0.0,0.0,0.0,0.0,0.0,0.0,0.0,0.0,0.0,0.0,0.0,0.0,0.0,0.0,0.0,0.0,0.0,0.0,0.0
1783344092.981545,0.7613188624382019,0.6133416295051575,-6.276532644733379e-07,0.6954966187477112,0.5895074009895325,-0.025653250515460968,0.625577986240387,0.5104357600212097,-0.03692606836557388,0.5713930130004883,0.44557079672813416,-0.04955536499619484,0.5300520658493042,0.4118845462799072,-0.05407439544796944,0.6569269299507141,0.3743166923522949,0.003026310820132494,0.6395999789237976,0.28906846046447754,-0.034510642290115356,0.6573715806007385,0.3782558739185333,-0.0501001700758934,0.6668796539306641,0.4242580533027649,-0.0537235289812088,0.6996006369590759,0.3631296753883362,0.002593515906482935,0.690056562423706,0.31210434436798096,-0.03401387482881546,0.7032330632209778,0.42375531792640686,-0.03741595894098282,0.6997614502906799,0.4265080690383911,-0.03055441938340664,0.7422567009925842,0.3626476526260376,-0.006230038125067949,0.7341380715370178,0.31456050276756287,-0.041780099272727966,0.7403478026390076,0.41288334131240845,-0.02764301933348179,0.7378603219985962,0.4165089726448059,-0.008668815717101097,0.7843277454376221,0.365416944026947,-0.01767909899353981,0.7780325412750244,0.3143182396888733,-0.03253522887825966,0.7763932943344116,0.3839322328567505,-0.017326384782791138,0.7753310203552246,0.39999744296073914,-0.0006506547215394676,0.0,0.0,0.0,0.0,0.0,0.0,0.0,0.0,0.0,0.0,0.0,0.0,0.0,0.0,0.0,0.0,0.0,0.0,0.0,0.0,0.0,0.0,0.0,0.0,0.0,0.0,0.0,0.0,0.0,0.0,0.0,0.0,0.0,0.0,0.0,0.0,0.0,0.0,0.0,0.0,0.0,0.0,0.0,0.0,0.0,0.0,0.0,0.0,0.0,0.0,0.0,0.0,0.0,0.0,0.0,0.0,0.0,0.0,0.0,0.0,0.0,0.0,0.0
1783344093.138171,0.7630369067192078,0.614711582660675,-6.281009632402856e-07,0.6969434022903442,0.5914369821548462,-0.026983637362718582,0.627241313457489,0.5130866765975952,-0.03864983096718788,0.5725373029708862,0.4475195109844208,-0.05104465037584305,0.5312377214431763,0.41136130690574646,-0.05489500239491463,0.6563916206359863,0.37742841243743896,0.0009884156752377748,0.6402693390846252,0.2896516025066376,-0.036304324865341187,0.659149706363678,0.38127589225769043,-0.05128619447350502,0.667167603969574,0.42704421281814575,-0.05463976785540581,0.6992838382720947,0.3651118874549866,0.001471934956498444,0.690292477607727,0.3106420338153839,-0.03495730087161064,0.7048086524009705,0.42420122027397156,-0.03797914832830429,0.699921190738678,0.4276309013366699,-0.0310245081782341,0.7421523332595825,0.3635304868221283,-0.006371790077537298,0.7349721193313599,0.31297925114631653,-0.04187488183379173,0.742647647857666,0.41308751702308655,-0.027306893840432167,0.739078938961029,0.4174182415008545,-0.008216848596930504,0.7843546271324158,0.3654201626777649,-0.016899172216653824,0.7791954874992371,0.3133489489555359,-0.03173808008432388,0.7785024642944336,0.38478514552116394,-0.016322245821356773,0.7764435410499573,0.4021345376968384,0.00036202726187184453,0.0,0.0,0.0,0.0,0.0,0.0,0.0,0.0,0.0,0.0,0.0,0.0,0.0,0.0,0.0,0.0,0.0,0.0,0.0,0.0,0.0,0.0,0.0,0.0,0.0,0.0,0.0,0.0,0.0,0.0,0.0,0.0,0.0,0.0,0.0,0.0,0.0,0.0,0.0,0.0,0.0,0.0,0.0,0.0,0.0,0.0,0.0,0.0,0.0,0.0,0.0,0.0,0.0,0.0,0.0,0.0,0.0,0.0,0.0,0.0,0.0,0.0,0.0
1783344093.269544,0.7606196403503418,0.611258864402771,-6.09163748777064e-07,0.6952691078186035,0.5883998274803162,-0.0262162946164608,0.6252279877662659,0.5111160278320312,-0.038058020174503326,0.5704198479652405,0.4482227861881256,-0.051095325499773026,0.5282267332077026,0.4151112139225006,-0.056221481412649155,0.6541750431060791,0.378334641456604,0.0013595839263871312,0.6376736164093018,0.2909659743309021,-0.036315638571977615,0.6558007597923279,0.3776633143424988,-0.051661476492881775,0.6655183434486389,0.423564076423645,-0.054899826645851135,0.6971839666366577,0.36633145809173584,0.0012572980485856533,0.688960075378418,0.31116780638694763,-0.03530874475836754,0.7027407884597778,0.42312461137771606,-0.03845527768135071,0.6989212036132812,0.42859548330307007,-0.031224960461258888,0.7401237487792969,0.36346855759620667,-0.007176782935857773,0.7332921624183655,0.31346920132637024,-0.04315250739455223,0.7402538657188416,0.41274940967559814,-0.02920708805322647,0.7371187806129456,0.41866084933280945,-0.010062756948173046,0.7822791934013367,0.3640095293521881,-0.018141988664865494,0.7763996124267578,0.3107590079307556,-0.03320800140500069,0.7756409049034119,0.3809049725532532,-0.01787898689508438,0.7739317417144775,0.3992847502231598,-0.0010023367358371615,0.0,0.0,0.0,0.0,0.0,0.0,0.0,0.0,0.0,0.0,0.0,0.0,0.0,0.0,0.0,0.0,0.0,0.0,0.0,0.0,0.0,0.0,0.0,0.0,0.0,0.0,0.0,0.0,0.0,0.0,0.0,0.0,0.0,0.0,0.0,0.0,0.0,0.0,0.0,0.0,0.0,0.0,0.0,0.0,0.0,0.0,0.0,0.0,0.0,0.0,0.0,0.0,0.0,0.0,0.0,0.0,0.0,0.0,0.0,0.0,0.0,0.0,0.0
1783344093.4398148,0.7564483284950256,0.6071797013282776,-5.916591589993914e-07,0.6907287836074829,0.5877891182899475,-0.02813011221587658,0.6206095218658447,0.5144806504249573,-0.040705423802137375,0.5658771991729736,0.4508485198020935,-0.05392578989267349,0.5242745280265808,0.4155290126800537,-0.059254106134176254,0.6483984589576721,0.3816145658493042,5.557035910896957e-05,0.6329372525215149,0.29471316933631897,-0.03786357492208481,0.6512080430984497,0.37735724449157715,-0.05356838181614876,0.660304069519043,0.42343053221702576,-0.05688902363181114,0.691726565361023,0.36911794543266296,0.0009160941699519753,0.6846447587013245,0.31285977363586426,-0.0359400175511837,0.6991157531738281,0.4220266044139862,-0.03972715139389038,0.6935371160507202,0.42990726232528687,-0.032839689403772354,0.7345224618911743,0.3644203245639801,-0.00671502947807312,0.7293643355369568,0.3156024217605591,-0.04362275451421738,0.7371035814285278,0.4129506051540375,-0.03104442171752453,0.7320113778114319,0.420074999332428,-0.012556086294353008,0.7765925526618958,0.3627064824104309,-0.016904272139072418,0.7712442278862,0.3103172481060028,-0.03294543921947479,0.7724469304084778,0.3792617917060852,-0.0185309536755085,0.7702265381813049,0.39782053232192993,-0.002139874268323183,0.0,0.0,0.0,0.0,0.0,0.0,0.0,0.0,0.0,0.0,0.0,0.0,0.0,0.0,0.0,0.0,0.0,0.0,0.0,0.0,0.0,0.0,0.0,0.0,0.0,0.0,0.0,0.0,0.0,0.0,0.0,0.0,0.0,0.0,0.0,0.0,0.0,0.0,0.0,0.0,0.0,0.0,0.0,0.0,0.0,0.0,0.0,0.0,0.0,0.0,0.0,0.0,0.0,0.0,0.0,0.0,0.0,0.0,0.0,0.0,0.0,0.0,0.0
1783344093.6021261,0.7496944665908813,0.6156377792358398,-5.760443286817463e-07,0.6859790682792664,0.5978848934173584,-0.03027651645243168,0.6150137782096863,0.526343822479248,-0.04424960911273956,0.5584192276000977,0.4645477533340454,-0.05850803107023239,0.5168070197105408,0.4293280243873596,-0.06488963961601257,0.6373865604400635,0.3925230801105499,-0.0019017013255506754,0.6226949095726013,0.3064424395561218,-0.03987053781747818,0.6428381204605103,0.38657689094543457,-0.05509158596396446,0.6518151760101318,0.4333925247192383,-0.057891521602869034,0.6790043115615845,0.37489429116249084,-0.00019464170327410102,0.6728211641311646,0.31887301802635193,-0.037337519228458405,0.6887704730033875,0.4264135956764221,-0.041351258754730225,0.6816051602363586,0.4353184700012207,-0.034497931599617004,0.7207667827606201,0.36662358045578003,-0.007056628819555044,0.7169893383979797,0.3167366683483124,-0.04449557885527611,0.7252341508865356,0.41255807876586914,-0.032411444932222366,0.718573808670044,0.4221881926059723,-0.014240635558962822,0.761188268661499,0.3645596504211426,-0.016672587022185326,0.7570644617080688,0.3160475194454193,-0.034393150359392166,0.7590271830558777,0.38568398356437683,-0.02137434482574463,0.7554108500480652,0.4070184528827667,-0.005749967880547047,0.0,0.0,0.0,0.0,0.0,0.0,0.0,0.0,0.0,0.0,0.0,0.0,0.0,0.0,0.0,0.0,0.0,0.0,0.0,0.0,0.0,0.0,0.0,0.0,0.0,0.0,0.0,0.0,0.0,0.0,0.0,0.0,0.0,0.0,0.0,0.0,0.0,0.0,0.0,0.0,0.0,0.0,0.0,0.0,0.0,0.0,0.0,0.0,0.0,0.0,0.0,0.0,0.0,0.0,0.0,0.0,0.0,0.0,0.0,0.0,0.0,0.0,0.0
1783344093.733709,0.7390246987342834,0.5986931920051575,-5.578935429184639e-07,0.6772745847702026,0.5891122817993164,-0.02612479403614998,0.6095829010009766,0.5236391425132751,-0.03926372528076172,0.5563865303993225,0.46475696563720703,-0.053451165556907654,0.5174143314361572,0.42332908511161804,-0.06049536541104317,0.6318386793136597,0.38815706968307495,-0.0022763318847864866,0.6171528697013855,0.29568424820899963,-0.03926422819495201,0.6355337500572205,0.3738473057746887,-0.05438339710235596,0.6464592218399048,0.4262007772922516,-0.0569276362657547,0.6726540327072144,0.3732515871524811,-0.002246539108455181,0.6660652160644531,0.31715959310531616,-0.03799404948949814,0.6819790601730347,0.4226951003074646,-0.04125787317752838,0.6781824827194214,0.43680280447006226,-0.033914439380168915,0.7124807238578796,0.3656272292137146,-0.01006211619824171,0.7066044807434082,0.3171454071998596,-0.045112673193216324,0.7164531946182251,0.4124194383621216,-0.032106250524520874,0.7121931910514832,0.42524874210357666,-0.013677426613867283,0.7522484064102173,0.36132630705833435,-0.020289530977606773,0.7457544803619385,0.31343507766723633,-0.03638296201825142,0.7484290599822998,0.38292571902275085,-0.022229736670851707,0.7460517883300781,0.40544646978378296,-0.005874339956790209,0.0,0.0,0.0,0.0,0.0,0.0,0.0,0.0,0.0,0.0,0.0,0.0,0.0,0.0,0.0,0.0,0.0,0.0,0.0,0.0,0.0,0.0,0.0,0.0,0.0,0.0,0.0,0.0,0.0,0.0,0.0,0.0,0.0,0.0,0.0,0.0,0.0,0.0,0.0,0.0,0.0,0.0,0.0,0.0,0.0,0.0,0.0,0.0,0.0,0.0,0.0,0.0,0.0,0.0,0.0,0.0,0.0,0.0,0.0,0.0,0.0,0.0,0.0
1783344094.051472,0.7264717221260071,0.5865864157676697,-5.324051244315342e-07,0.6678518652915955,0.5793673396110535,-0.025858154520392418,0.6025863885879517,0.5188257098197937,-0.03920308127999306,0.5511748194694519,0.46458497643470764,-0.05312030762434006,0.5144004225730896,0.4269523620605469,-0.06033546105027199,0.6233228445053101,0.3861699104309082,-0.005491373594850302,0.6082296967506409,0.29731568694114685,-0.040715523064136505,0.6254727840423584,0.37162521481513977,-0.055262576788663864,0.6360083222389221,0.42193979024887085,-0.058101337403059006,0.6614094376564026,0.37195733189582825,-0.005417670123279095,0.6543532609939575,0.31349167227745056,-0.040239300578832626,0.6684529781341553,0.4127417206764221,-0.043959759175777435,0.664827287197113,0.42963582277297974,-0.03744535893201828,0.6986158490180969,0.36443203687667847,-0.012641924433410168,0.6933149695396423,0.31464728713035583,-0.04681626334786415,0.7023619413375854,0.4052264392375946,-0.03488638997077942,0.6982560157775879,0.41961410641670227,-0.01759440079331398,0.7361695766448975,0.36085957288742065,-0.022208167240023613,0.7301208972930908,0.3126254975795746,-0.0386720634996891,0.7331790328025818,0.3784193694591522,-0.025754520669579506,0.7310292720794678,0.4005797505378723,-0.01059185341000557,0.0,0.0,0.0,0.0,0.0,0.0,0.0,0.0,0.0,0.0,0.0,0.0,0.0,0.0,0.0,0.0,0.0,0.0,0.0,0.0,0.0,0.0,0.0,0.0,0.0,0.0,0.0,0.0,0.0,0.0,0.0,0.0,0.0,0.0,0.0,0.0,0.0,0.0,0.0,0.0,0.0,0.0,0.0,0.0,0.0,0.0,0.0,0.0,0.0,0.0,0.0,0.0,0.0,0.0,0.0,0.0,0.0,0.0,0.0,0.0,0.0,0.0,0.0
1783344094.220994,0.719527006149292,0.5868166089057922,-5.583985398516234e-07,0.662943959236145,0.5814219117164612,-0.02267353981733322,0.6022515892982483,0.5317347645759583,-0.03567647188901901,0.5528131723403931,0.48522692918777466,-0.04961800202727318,0.5219846963882446,0.4484001696109772,-0.05741662532091141,0.6205741167068481,0.39872244000434875,-0.00508028594776988,0.6030981540679932,0.3207046687602997,-0.03903971612453461,0.6224379539489746,0.39510399103164673,-0.054060742259025574,0.6338571906089783,0.43771523237228394,-0.058051660656929016,0.6548275947570801,0.3831197917461395,-0.006256325636059046,0.6433218717575073,0.32671284675598145,-0.04074704274535179,0.6595635414123535,0.42171838879585266,-0.045793648809194565,0.659091591835022,0.4399036169052124,-0.04067932069301605,0.6886265873908997,0.3747952878475189,-0.013852504082024097,0.6796828508377075,0.3241795003414154,-0.0460343100130558,0.6901971101760864,0.4121289849281311,-0.03407417982816696,0.6890668869018555,0.42872053384780884,-0.017356744036078453,0.7231959700584412,0.3728736340999603,-0.02371983975172043,0.7163339257240295,0.325872540473938,-0.03884135186672211,0.7190706729888916,0.3900906443595886,-0.02615874446928501,0.7183023691177368,0.4141475260257721,-0.011611255817115307,0.0,0.0,0.0,0.0,0.0,0.0,0.0,0.0,0.0,0.0,0.0,0.0,0.0,0.0,0.0,0.0,0.0,0.0,0.0,0.0,0.0,0.0,0.0,0.0,0.0,0.0,0.0,0.0,0.0,0.0,0.0,0.0,0.0,0.0,0.0,0.0,0.0,0.0,0.0,0.0,0.0,0.0,0.0,0.0,0.0,0.0,0.0,0.0,0.0,0.0,0.0,0.0,0.0,0.0,0.0,0.0,0.0,0.0,0.0,0.0,0.0,0.0,0.0
1783344094.415116,0.7193605899810791,0.5849280953407288,-5.075270905763318e-07,0.6605311036109924,0.576723575592041,-0.017261173576116562,0.6031278967857361,0.5359382629394531,-0.028223175555467606,0.5557000041007996,0.4960003197193146,-0.0407741405069828,0.5250157713890076,0.4654521644115448,-0.04807262495160103,0.6224414110183716,0.4076259136199951,-0.0023845841642469168,0.6022568345069885,0.3301333785057068,-0.03183779492974281,0.620452344417572,0.3980145752429962,-0.04660719633102417,0.6322088837623596,0.44313329458236694,-0.05139310657978058,0.6542921662330627,0.389312744140625,-0.004116673022508621,0.6405342221260071,0.3307431936264038,-0.03487473726272583,0.6576399803161621,0.4202304184436798,-0.04146523028612137,0.6599846482276917,0.4496890604496002,-0.03871689736843109,0.6865047216415405,0.3801734447479248,-0.01068872306495905,0.6739539504051208,0.3272259533405304,-0.037517935037612915,0.6868162155151367,0.41163143515586853,-0.025966409593820572,0.6899040341377258,0.44200360774993896,-0.010822639800608158,0.7196246385574341,0.37914565205574036,-0.019041160121560097,0.7096507549285889,0.3286413550376892,-0.030746882781386375,0.7129446268081665,0.3902696967124939,-0.01748640462756157,0.7142820358276367,0.42024946212768555,-0.003297843737527728,0.0,0.0,0.0,0.0,0.0,0.0,0.0,0.0,0.0,0.0,0.0,0.0,0.0,0.0,0.0,0.0,0.0,0.0,0.0,0.0,0.0,0.0,0.0,0.0,0.0,0.0,0.0,0.0,0.0,0.0,0.0,0.0,0.0,0.0,0.0,0.0,0.0,0.0,0.0,0.0,0.0,0.0,0.0,0.0,0.0,0.0,0.0,0.0,0.0,0.0,0.0,0.0,0.0,0.0,0.0,0.0,0.0,0.0,0.0,0.0,0.0,0.0,0.0
1783344094.56531,0.7186377644538879,0.5863046050071716,-5.320276841302984e-07,0.6634196043014526,0.5812129974365234,-0.01858563721179962,0.6047748923301697,0.5309329032897949,-0.028680892661213875,0.5574779510498047,0.4870903193950653,-0.03999015688896179,0.5257907509803772,0.4546605944633484,-0.046030443161726,0.6227030754089355,0.4069646894931793,-0.0020752756390720606,0.6028521656990051,0.3340190052986145,-0.03238169848918915,0.6222776174545288,0.4052397310733795,-0.04736500233411789,0.6357852220535278,0.4476138651371002,-0.052214354276657104,0.6552309989929199,0.38899514079093933,-0.0038663798477500677,0.6402930021286011,0.33432191610336304,-0.03398444503545761,0.6577113270759583,0.4241756796836853,-0.03924403339624405,0.6617633700370789,0.44686898589134216,-0.03532050549983978,0.6883953213691711,0.38034355640411377,-0.01118179690092802,0.675852358341217,0.3315522074699402,-0.038796428591012955,0.6885104775428772,0.41487619280815125,-0.027512919157743454,0.69173264503479,0.435458779335022,-0.012379101477563381,0.7229377031326294,0.37773439288139343,-0.020354704931378365,0.7122789025306702,0.33055806159973145,-0.032544080168008804,0.7155012488365173,0.392539381980896,-0.019716531038284302,0.717389702796936,0.41703057289123535,-0.005898575764149427,0.0,0.0,0.0,0.0,0.0,0.0,0.0,0.0,0.0,0.0,0.0,0.0,0.0,0.0,0.0,0.0,0.0,0.0,0.0,0.0,0.0,0.0,0.0,0.0,0.0,0.0,0.0,0.0,0.0,0.0,0.0,0.0,0.0,0.0,0.0,0.0,0.0,0.0,0.0,0.0,0.0,0.0,0.0,0.0,0.0,0.0,0.0,0.0,0.0,0.0,0.0,0.0,0.0,0.0,0.0,0.0,0.0,0.0,0.0,0.0,0.0,0.0,0.0
1783344094.7281668,0.7239850163459778,0.5817028284072876,-5.211264806348481e-07,0.6680893301963806,0.5798929929733276,-0.022046945989131927,0.6050536036491394,0.5264292359352112,-0.03315979242324829,0.5550673604011536,0.48169806599617004,-0.044852446764707565,0.5193397998809814,0.45590701699256897,-0.04977952688932419,0.621600329875946,0.4022475779056549,-0.002902971114963293,0.6026530861854553,0.331121563911438,-0.03514016419649124,0.6241354942321777,0.40468087792396545,-0.04793798178434372,0.6351691484451294,0.4426814317703247,-0.05066324397921562,0.6561446785926819,0.38565748929977417,-0.003567618317902088,0.6425933837890625,0.3367549777030945,-0.03534151613712311,0.6628561019897461,0.4318723976612091,-0.03741344064474106,0.6619820594787598,0.4384535849094391,-0.03030133806169033,0.6916084885597229,0.37506332993507385,-0.010794593021273613,0.6800849437713623,0.33036983013153076,-0.0412377268075943,0.6948527693748474,0.4159506559371948,-0.027484968304634094,0.6946248412132263,0.4209712743759155,-0.009925107471644878,0.7274850606918335,0.3674347698688507,-0.020202243700623512,0.7177232503890991,0.32973140478134155,-0.0332009419798851,0.7239550352096558,0.39183956384658813,-0.019375484436750412,0.7254838347434998,0.4036828875541687,-0.004421103745698929,0.0,0.0,0.0,0.0,0.0,0.0,0.0,0.0,0.0,0.0,0.0,0.0,0.0,0.0,0.0,0.0,0.0,0.0,0.0,0.0,0.0,0.0,0.0,0.0,0.0,0.0,0.0,0.0,0.0,0.0,0.0,0.0,0.0,0.0,0.0,0.0,0.0,0.0,0.0,0.0,0.0,0.0,0.0,0.0,0.0,0.0,0.0,0.0,0.0,0.0,0.0,0.0,0.0,0.0,0.0,0.0,0.0,0.0,0.0,0.0,0.0,0.0,0.0
1783344094.8657238,0.7311471700668335,0.5860956907272339,-5.645332521453383e-07,0.6734203696250916,0.5755119323730469,-0.02076115272939205,0.6108969449996948,0.5146160125732422,-0.02968245930969715,0.5601004362106323,0.46982836723327637,-0.04044421389698982,0.5228247046470642,0.448110967874527,-0.04523629695177078,0.6317334175109863,0.40215083956718445,0.00413476349785924,0.6103753447532654,0.334273099899292,-0.02870085835456848,0.628269612789154,0.40232330560684204,-0.04277227818965912,0.6417133808135986,0.43926140666007996,-0.04621407762169838,0.6678529381752014,0.3845002055168152,0.0025449967943131924,0.6540064811706543,0.34863102436065674,-0.028799453750252724,0.671209454536438,0.44150176644325256,-0.03145064786076546,0.6737529635429382,0.44322288036346436,-0.024965617805719376,0.705238401889801,0.3749629855155945,-0.006452247034758329,0.6938310265541077,0.34132200479507446,-0.03748345002532005,0.7034695744514465,0.42629870772361755,-0.025693941861391068,0.7044517397880554,0.4270835816860199,-0.009225074201822281,0.7426353693008423,0.36983922123908997,-0.017660891637206078,0.7333517074584961,0.33623093366622925,-0.030883245170116425,0.7340693473815918,0.39683955907821655,-0.018615853041410446,0.7354482412338257,0.4076501727104187,-0.004784426186233759,0.0,0.0,0.0,0.0,0.0,0.0,0.0,0.0,0.0,0.0,0.0,0.0,0.0,0.0,0.0,0.0,0.0,0.0,0.0,0.0,0.0,0.0,0.0,0.0,0.0,0.0,0.0,0.0,0.0,0.0,0.0,0.0,0.0,0.0,0.0,0.0,0.0,0.0,0.0,0.0,0.0,0.0,0.0,0.0,0.0,0.0,0.0,0.0,0.0,0.0,0.0,0.0,0.0,0.0,0.0,0.0,0.0,0.0,0.0,0.0,0.0,0.0,0.0
1783344095.014347,0.733981728553772,0.600265383720398,-5.880114031242556e-07,0.6750364303588867,0.5800371170043945,-0.022470949217677116,0.6112297177314758,0.5112296938896179,-0.030570313334465027,0.561564028263092,0.46630486845970154,-0.0396495945751667,0.5246142148971558,0.4449741840362549,-0.04203861951828003,0.6368928551673889,0.3975614905357361,0.003083379240706563,0.6160017251968384,0.34569692611694336,-0.026521818712353706,0.6367388963699341,0.4246334135532379,-0.037995051592588425,0.6485962867736816,0.4474075734615326,-0.04152394086122513,0.6735705137252808,0.37802454829216003,0.0025837647262960672,0.6599798202514648,0.3558211922645569,-0.028320850804448128,0.6754214763641357,0.45366495847702026,-0.03033147193491459,0.6789399981498718,0.44530531764030457,-0.024652034044265747,0.712069571018219,0.37316545844078064,-0.005118572618812323,0.7013381719589233,0.3490234911441803,-0.036135606467723846,0.7080874443054199,0.43883514404296875,-0.02315828576683998,0.7108572125434875,0.433610200881958,-0.006790834944695234,0.7493528127670288,0.373688280582428,-0.015247717499732971,0.7410858869552612,0.3465363383293152,-0.02845713496208191,0.7385246753692627,0.4110484719276428,-0.01618848741054535,0.7403098344802856,0.4189539849758148,-0.003117209766060114,0.0,0.0,0.0,0.0,0.0,0.0,0.0,0.0,0.0,0.0,0.0,0.0,0.0,0.0,0.0,0.0,0.0,0.0,0.0,0.0,0.0,0.0,0.0,0.0,0.0,0.0,0.0,0.0,0.0,0.0,0.0,0.0,0.0,0.0,0.0,0.0,0.0,0.0,0.0,0.0,0.0,0.0,0.0,0.0,0.0,0.0,0.0,0.0,0.0,0.0,0.0,0.0,0.0,0.0,0.0,0.0,0.0,0.0,0.0,0.0,0.0,0.0,0.0
1783344095.145567,0.7366858124732971,0.5988702178001404,-6.214615950739244e-07,0.6735870242118835,0.5779866576194763,-0.024908913299441338,0.6091254353523254,0.5024585127830505,-0.03292206674814224,0.5613850951194763,0.4556979537010193,-0.04072500765323639,0.523990273475647,0.43246784806251526,-0.0424540713429451,0.6365950107574463,0.36534175276756287,0.0001714294048724696,0.6200911402702332,0.3625885546207428,-0.023927416652441025,0.6419061422348022,0.4394974112510681,-0.03500136733055115,0.6526814103126526,0.44849279522895813,-0.0411887988448143,0.6737163662910461,0.3343396782875061,0.0004089834983460605,0.6648915410041809,0.3717342019081116,-0.025741904973983765,0.677979052066803,0.46297964453697205,-0.030074497684836388,0.6813181638717651,0.44685325026512146,-0.028505144640803337,0.7147549390792847,0.3346317410469055,-0.005526954308152199,0.708534300327301,0.364618718624115,-0.03380396217107773,0.712354838848114,0.45081403851509094,-0.023175176233053207,0.7149844169616699,0.4386981725692749,-0.010482355952262878,0.7533301711082458,0.3474142849445343,-0.014391389675438404,0.7491656541824341,0.36395007371902466,-0.02940794639289379,0.7441308498382568,0.427339643239975,-0.020350750535726547,0.7445789575576782,0.4281626343727112,-0.010123355314135551,0.0,0.0,0.0,0.0,0.0,0.0,0.0,0.0,0.0,0.0,0.0,0.0,0.0,0.0,0.0,0.0,0.0,0.0,0.0,0.0,0.0,0.0,0.0,0.0,0.0,0.0,0.0,0.0,0.0,0.0,0.0,0.0,0.0,0.0,0.0,0.0,0.0,0.0,0.0,0.0,0.0,0.0,0.0,0.0,0.0,0.0,0.0,0.0,0.0,0.0,0.0,0.0,0.0,0.0,0.0,0.0,0.0,0.0,0.0,0.0,0.0,0.0,0.0
1783344095.2979999,0.7387999296188354,0.5923432111740112,-6.613392429244414e-07,0.6765037775039673,0.5729882121086121,-0.027973944321274757,0.6122989654541016,0.4960610866546631,-0.03737831488251686,0.5674368739128113,0.4480040371417999,-0.04514900967478752,0.5279973745346069,0.42396408319473267,-0.04760320484638214,0.6414960622787476,0.3548051416873932,-0.009389474987983704,0.6298927068710327,0.388536661863327,-0.035849347710609436,0.649085283279419,0.45889878273010254,-0.04828107729554176,0.6601722240447998,0.46895450353622437,-0.05472729355096817,0.6813297867774963,0.32057860493659973,-0.008260820060968399,0.6756988763809204,0.39810118079185486,-0.03444651886820793,0.6872037649154663,0.4795553386211395,-0.039292529225349426,0.6923847198486328,0.4686968922615051,-0.03870939463376999,0.7237951755523682,0.32008323073387146,-0.013145890086889267,0.7194705605506897,0.39438939094543457,-0.04275643825531006,0.7222985625267029,0.4711020588874817,-0.03565875068306923,0.7245449423789978,0.46146777272224426,-0.025776125490665436,0.7633530497550964,0.33437880873680115,-0.021176490932703018,0.7593584060668945,0.38744014501571655,-0.039241235703229904,0.7556802034378052,0.44940242171287537,-0.03382444009184837,0.755454421043396,0.4499240517616272,-0.026135804131627083,0.0,0.0,0.0,0.0,0.0,0.0,0.0,0.0,0.0,0.0,0.0,0.0,0.0,0.0,0.0,0.0,0.0,0.0,0.0,0.0,0.0,0.0,0.0,0.0,0.0,0.0,0.0,0.0,0.0,0.0,0.0,0.0,0.0,0.0,0.0,0.0,0.0,0.0,0.0,0.0,0.0,0.0,0.0,0.0,0.0,0.0,0.0,0.0,0.0,0.0,0.0,0.0,0.0,0.0,0.0,0.0,0.0,0.0,0.0,0.0,0.0,0.0,0.0
1783344095.451405,0.741413414478302,0.5954063534736633,-6.858439292045659e-07,0.678574800491333,0.5745006799697876,-0.029460277408361435,0.6155842542648315,0.5003493428230286,-0.04090204834938049,0.570906400680542,0.4495755732059479,-0.049952976405620575,0.5303659439086914,0.42351824045181274,-0.053778670728206635,0.64859938621521,0.35026249289512634,-0.0156044727191329,0.638516902923584,0.40468883514404297,-0.042510513216257095,0.6543299555778503,0.47539398074150085,-0.05463861674070358,0.6656850576400757,0.48988115787506104,-0.06061157211661339,0.6898571252822876,0.3202840983867645,-0.013769884593784809,0.6824764013290405,0.41451025009155273,-0.04002190753817558,0.6906655430793762,0.49078911542892456,-0.045219071209430695,0.6967244148254395,0.4835870862007141,-0.0454353503882885,0.7325820326805115,0.3232238292694092,-0.01743183471262455,0.7254064679145813,0.4140186905860901,-0.04633953794836998,0.7255534529685974,0.4850047528743744,-0.039955902844667435,0.7279961705207825,0.47996553778648376,-0.031015897169709206,0.7715293169021606,0.34198254346847534,-0.02444174326956272,0.764969527721405,0.40576454997062683,-0.04319913312792778,0.7606755495071411,0.4632866084575653,-0.038820866495370865,0.7607534527778625,0.4657759666442871,-0.0317201241850853,0.0,0.0,0.0,0.0,0.0,0.0,0.0,0.0,0.0,0.0,0.0,0.0,0.0,0.0,0.0,0.0,0.0,0.0,0.0,0.0,0.0,0.0,0.0,0.0,0.0,0.0,0.0,0.0,0.0,0.0,0.0,0.0,0.0,0.0,0.0,0.0,0.0,0.0,0.0,0.0,0.0,0.0,0.0,0.0,0.0,0.0,0.0,0.0,0.0,0.0,0.0,0.0,0.0,0.0,0.0,0.0,0.0,0.0,0.0,0.0,0.0,0.0,0.0
1783344095.6088479,0.7444997429847717,0.5983289480209351,-6.959976985854155e-07,0.6785141229629517,0.5832148194313049,-0.03324966877698898,0.6176791787147522,0.5136739015579224,-0.0467580147087574,0.5738541483879089,0.4579569697380066,-0.055968161672353745,0.5315924882888794,0.4257025420665741,-0.06016099080443382,0.6553895473480225,0.36707282066345215,-0.027298107743263245,0.6518343091011047,0.4631151556968689,-0.05215376615524292,0.6667616367340088,0.521856427192688,-0.06481011211872101,0.6768547892570496,0.5240364670753479,-0.07263627648353577,0.6982835531234741,0.34260472655296326,-0.02353319153189659,0.6946269869804382,0.46943238377571106,-0.04684993624687195,0.700097382068634,0.5259977579116821,-0.052739061415195465,0.7052776217460632,0.5201643109321594,-0.05606803297996521,0.7410754561424255,0.3488118350505829,-0.024298744276165962,0.7349609732627869,0.46476471424102783,-0.05125434324145317,0.7341622710227966,0.5165845155715942,-0.047455430030822754,0.7358992695808411,0.5131999850273132,-0.04191140457987785,0.7802063822746277,0.3715253174304962,-0.02873976156115532,0.7749423980712891,0.4488966763019562,-0.04874894395470619,0.7719507217407227,0.4914582371711731,-0.04717802256345749,0.7712636590003967,0.4934544563293457,-0.04273596405982971,0.0,0.0,0.0,0.0,0.0,0.0,0.0,0.0,0.0,0.0,0.0,0.0,0.0,0.0,0.0,0.0,0.0,0.0,0.0,0.0,0.0,0.0,0.0,0.0,0.0,0.0,0.0,0.0,0.0,0.0,0.0,0.0,0.0,0.0,0.0,0.0,0.0,0.0,0.0,0.0,0.0,0.0,0.0,0.0,0.0,0.0,0.0,0.0,0.0,0.0,0.0,0.0,0.0,0.0,0.0,0.0,0.0,0.0,0.0,0.0,0.0,0.0,0.0
1783344095.741224,0.7470877170562744,0.6059103012084961,-6.960422638258024e-07,0.6820840835571289,0.595162034034729,-0.0324566550552845,0.621732234954834,0.5257344841957092,-0.046395931392908096,0.5774875283241272,0.4708801805973053,-0.05552535504102707,0.5336323976516724,0.4383208155632019,-0.060109809041023254,0.6602069735527039,0.3854726254940033,-0.031793124973773956,0.6603497862815857,0.4956173896789551,-0.05359722301363945,0.673937201499939,0.546274721622467,-0.06541868299245834,0.6815100312232971,0.5414024591445923,-0.07376160472631454,0.7045669555664062,0.36313125491142273,-0.028096981346607208,0.7022517323493958,0.5010751485824585,-0.047741129994392395,0.7069714665412903,0.5480066537857056,-0.052624963223934174,0.7112032771110535,0.5410745143890381,-0.057093389332294464,0.7477098703384399,0.37029966711997986,-0.027975909411907196,0.7405868172645569,0.4898732304573059,-0.05152861401438713,0.7404299378395081,0.5357537269592285,-0.0466710589826107,0.7425950765609741,0.5347478985786438,-0.04207756370306015,0.7870190739631653,0.3934178054332733,-0.03142767772078514,0.7811275720596313,0.46869784593582153,-0.05049674212932587,0.7773098945617676,0.51126629114151,-0.04811716452240944,0.7762196660041809,0.5181710720062256,-0.043884217739105225,0.0,0.0,0.0,0.0,0.0,0.0,0.0,0.0,0.0,0.0,0.0,0.0,0.0,0.0,0.0,0.0,0.0,0.0,0.0,0.0,0.0,0.0,0.0,0.0,0.0,0.0,0.0,0.0,0.0,0.0,0.0,0.0,0.0,0.0,0.0,0.0,0.0,0.0,0.0,0.0,0.0,0.0,0.0,0.0,0.0,0.0,0.0,0.0,0.0,0.0,0.0,0.0,0.0,0.0,0.0,0.0,0.0,0.0,0.0,0.0,0.0,0.0,0.0
1783344095.895377,0.7508031129837036,0.6051669120788574,-6.417778877221281e-07,0.6846341490745544,0.5959237217903137,-0.030869057402014732,0.6249813437461853,0.5310632586479187,-0.044577550143003464,0.5799250602722168,0.48187658190727234,-0.052857235074043274,0.5352823138237,0.4529733955860138,-0.057072076946496964,0.6647752523422241,0.4070880115032196,-0.03625797852873802,0.6553784608840942,0.5168318152427673,-0.052434291690588,0.6676179766654968,0.5583234429359436,-0.060468096286058426,0.6775795817375183,0.547417938709259,-0.06744840741157532,0.7101326584815979,0.38713717460632324,-0.03213701769709587,0.6977927684783936,0.5289487242698669,-0.04544971138238907,0.7023009061813354,0.5605880618095398,-0.04836171120405197,0.7079819440841675,0.5474048256874084,-0.05353735014796257,0.7530825138092041,0.3966061472892761,-0.030303912237286568,0.7354919910430908,0.5226788520812988,-0.04717252403497696,0.7359119057655334,0.5545031428337097,-0.04198328033089638,0.7399355173110962,0.5476521849632263,-0.03959100320935249,0.7907494306564331,0.4213851988315582,-0.03189333155751228,0.7758111357688904,0.5065702199935913,-0.04727059230208397,0.7720910310745239,0.5425156354904175,-0.04488123208284378,0.7729365229606628,0.549066960811615,-0.04218846559524536,0.0,0.0,0.0,0.0,0.0,0.0,0.0,0.0,0.0,0.0,0.0,0.0,0.0,0.0,0.0,0.0,0.0,0.0,0.0,0.0,0.0,0.0,0.0,0.0,0.0,0.0,0.0,0.0,0.0,0.0,0.0,0.0,0.0,0.0,0.0,0.0,0.0,0.0,0.0,0.0,0.0,0.0,0.0,0.0,0.0,0.0,0.0,0.0,0.0,0.0,0.0,0.0,0.0,0.0,0.0,0.0,0.0,0.0,0.0,0.0,0.0,0.0,0.0
1783344096.039881,0.7515820860862732,0.6007026433944702,-5.592724505731894e-07,0.685704231262207,0.600159227848053,-0.033519670367240906,0.624835193157196,0.5412079691886902,-0.048576366156339645,0.5798285007476807,0.4946286082267761,-0.057309433817863464,0.534580647945404,0.46463656425476074,-0.06132543459534645,0.6638410091400146,0.42091336846351624,-0.0400361493229866,0.6527906060218811,0.5479354858398438,-0.057385798543691635,0.6662569642066956,0.5779008865356445,-0.06546998023986816,0.6782229542732239,0.5570324659347534,-0.07207189500331879,0.7100175619125366,0.4010666012763977,-0.034850552678108215,0.6957797408103943,0.5613529682159424,-0.04882289469242096,0.7009894251823425,0.5755029916763306,-0.0510237030684948,0.7068840265274048,0.5511682033538818,-0.05540557578206062,0.7534117698669434,0.41062304377555847,-0.032220207154750824,0.7338369488716125,0.5539214015007019,-0.049837376922369,0.7348341941833496,0.571578860282898,-0.0427846796810627,0.7389326691627502,0.5541167855262756,-0.03856715187430382,0.7911214828491211,0.4353705942630768,-0.03342672064900398,0.7745318412780762,0.5342229008674622,-0.05078686401247978,0.7717403173446655,0.5597673654556274,-0.048624809831380844,0.7737749814987183,0.5570078492164612,-0.045328009873628616,0.0,0.0,0.0,0.0,0.0,0.0,0.0,0.0,0.0,0.0,0.0,0.0,0.0,0.0,0.0,0.0,0.0,0.0,0.0,0.0,0.0,0.0,0.0,0.0,0.0,0.0,0.0,0.0,0.0,0.0,0.0,0.0,0.0,0.0,0.0,0.0,0.0,0.0,0.0,0.0,0.0,0.0,0.0,0.0,0.0,0.0,0.0,0.0,0.0,0.0,0.0,0.0,0.0,0.0,0.0,0.0,0.0,0.0,0.0,0.0,0.0,0.0,0.0
1783344096.1992,0.7511393427848816,0.6067923903465271,-5.72255487440998e-07,0.6860265731811523,0.6036176085472107,-0.03263908997178078,0.6250889897346497,0.5438933372497559,-0.04644428938627243,0.5805103778839111,0.49729108810424805,-0.05401294678449631,0.5365397334098816,0.4677605926990509,-0.056698571890592575,0.6637095212936401,0.4219849109649658,-0.03970184177160263,0.651703417301178,0.5466127395629883,-0.05585065111517906,0.6651729941368103,0.577953577041626,-0.061921626329422,0.6764397621154785,0.5595771670341492,-0.06699147075414658,0.7096475958824158,0.40293315052986145,-0.03453754261136055,0.6959193348884583,0.5618734359741211,-0.04813769832253456,0.6996572613716125,0.5770010948181152,-0.04972490668296814,0.704064667224884,0.5537828207015991,-0.053354598581790924,0.7534939050674438,0.4130338430404663,-0.03175969421863556,0.7342422008514404,0.5559689402580261,-0.0492008700966835,0.7347705960273743,0.5733541250228882,-0.0421493798494339,0.7383403182029724,0.5561699271202087,-0.03763074427843094,0.7916069626808167,0.43842846155166626,-0.03262169286608696,0.7756475210189819,0.5358147025108337,-0.05000893026590347,0.7728865742683411,0.5590837001800537,-0.048141028732061386,0.7748291492462158,0.5545191764831543,-0.04478636384010315,0.0,0.0,0.0,0.0,0.0,0.0,0.0,0.0,0.0,0.0,0.0,0.0,0.0,0.0,0.0,0.0,0.0,0.0,0.0,0.0,0.0,0.0,0.0,0.0,0.0,0.0,0.0,0.0,0.0,0.0,0.0,0.0,0.0,0.0,0.0,0.0,0.0,0.0,0.0,0.0,0.0,0.0,0.0,0.0,0.0,0.0,0.0,0.0,0.0,0.0,0.0,0.0,0.0,0.0,0.0,0.0,0.0,0.0,0.0,0.0,0.0,0.0,0.0
1783344096.347662,0.750662088394165,0.6149681806564331,-6.246174280022387e-07,0.6857227087020874,0.603053867816925,-0.029786286875605583,0.6267362833023071,0.5395793318748474,-0.04302407428622246,0.5816693305969238,0.49093693494796753,-0.05139901861548424,0.5366815328598022,0.46245893836021423,-0.05529765784740448,0.6640434265136719,0.40401560068130493,-0.03152552992105484,0.6564624309539795,0.5107328295707703,-0.04969583824276924,0.6668549180030823,0.5537364482879639,-0.05849532410502434,0.6739903092384338,0.5441255569458008,-0.06526260823011398,0.7096871137619019,0.38301408290863037,-0.02822270803153515,0.6993522047996521,0.5248579978942871,-0.044747333973646164,0.7020464539527893,0.5595803260803223,-0.04868515208363533,0.7052474617958069,0.5435693264007568,-0.05305715650320053,0.7530866265296936,0.39194992184638977,-0.027739832177758217,0.7372666597366333,0.5203487873077393,-0.04746711626648903,0.7365292906761169,0.5557542443275452,-0.042385801672935486,0.7386611700057983,0.5487182140350342,-0.03870686516165733,0.7907230257987976,0.4167674779891968,-0.030609291046857834,0.7779651284217834,0.5087631344795227,-0.04782675579190254,0.7731656432151794,0.5463683009147644,-0.046195920556783676,0.7720276713371277,0.5502672791481018,-0.043014466762542725,0.0,0.0,0.0,0.0,0.0,0.0,0.0,0.0,0.0,0.0,0.0,0.0,0.0,0.0,0.0,0.0,0.0,0.0,0.0,0.0,0.0,0.0,0.0,0.0,0.0,0.0,0.0,0.0,0.0,0.0,0.0,0.0,0.0,0.0,0.0,0.0,0.0,0.0,0.0,0.0,0.0,0.0,0.0,0.0,0.0,0.0,0.0,0.0,0.0,0.0,0.0,0.0,0.0,0.0,0.0,0.0,0.0,0.0,0.0,0.0,0.0,0.0,0.0
1783344096.507412,0.747301459312439,0.606982409954071,-6.302054771367693e-07,0.6813672780990601,0.5943862795829773,-0.029997067525982857,0.6214045286178589,0.5261136293411255,-0.04325437918305397,0.5776118636131287,0.4756121337413788,-0.052232734858989716,0.534538745880127,0.44762030243873596,-0.05677441507577896,0.663982629776001,0.3849430978298187,-0.028224442154169083,0.6589826941490173,0.49335429072380066,-0.049396812915802,0.6699441075325012,0.5436145663261414,-0.061068616807460785,0.6782171130180359,0.5386956334114075,-0.06901593506336212,0.7080668807029724,0.36358916759490967,-0.025172969326376915,0.6993779540061951,0.4986855685710907,-0.04428597539663315,0.7034444212913513,0.5437376499176025,-0.04903223738074303,0.7094482183456421,0.5343712568283081,-0.05298145115375519,0.7505626082420349,0.37237441539764404,-0.025578664615750313,0.7379864454269409,0.4892559349536896,-0.04803963378071785,0.737562894821167,0.5338162183761597,-0.043385304510593414,0.7404395341873169,0.5305347442626953,-0.038812171667814255,0.7882441282272339,0.3970409631729126,-0.029347730800509453,0.7792604565620422,0.4697515666484833,-0.04729260504245758,0.7758409976959229,0.5102168321609497,-0.045155346393585205,0.7759406566619873,0.5163949131965637,-0.04104192554950714,0.0,0.0,0.0,0.0,0.0,0.0,0.0,0.0,0.0,0.0,0.0,0.0,0.0,0.0,0.0,0.0,0.0,0.0,0.0,0.0,0.0,0.0,0.0,0.0,0.0,0.0,0.0,0.0,0.0,0.0,0.0,0.0,0.0,0.0,0.0,0.0,0.0,0.0,0.0,0.0,0.0,0.0,0.0,0.0,0.0,0.0,0.0,0.0,0.0,0.0,0.0,0.0,0.0,0.0,0.0,0.0,0.0,0.0,0.0,0.0,0.0,0.0,0.0
1783344096.637871,0.7440550327301025,0.6054323315620422,-6.660155804638634e-07,0.6810364127159119,0.5894156098365784,-0.031171759590506554,0.6205376386642456,0.5184004902839661,-0.044762685894966125,0.5761662721633911,0.46691107749938965,-0.05500590801239014,0.5334458351135254,0.4374406039714813,-0.0605020709335804,0.6558796167373657,0.3712584972381592,-0.02345559373497963,0.6518216729164124,0.45087718963623047,-0.049692798405885696,0.6653913259506226,0.516507625579834,-0.06362257152795792,0.6748702526092529,0.52666175365448,-0.07172269374132156,0.6986327767372131,0.3463222086429596,-0.02095481939613819,0.6932620406150818,0.45703378319740295,-0.04421244189143181,0.6993539929389954,0.5216869115829468,-0.04999414458870888,0.7054162621498108,0.518902063369751,-0.053077444434165955,0.7417451739311218,0.3532201647758484,-0.023179568350315094,0.7339507341384888,0.45281586050987244,-0.05012514442205429,0.7334349155426025,0.5128145813941956,-0.0452725850045681,0.7355157732963562,0.5124543309211731,-0.03903218358755112,0.7815454602241516,0.3754812777042389,-0.028899764642119408,0.7735350728034973,0.4400880038738251,-0.04844100773334503,0.7689675688743591,0.4917127788066864,-0.045297008007764816,0.767615556716919,0.5012167096138,-0.03974607214331627,0.0,0.0,0.0,0.0,0.0,0.0,0.0,0.0,0.0,0.0,0.0,0.0,0.0,0.0,0.0,0.0,0.0,0.0,0.0,0.0,0.0,0.0,0.0,0.0,0.0,0.0,0.0,0.0,0.0,0.0,0.0,0.0,0.0,0.0,0.0,0.0,0.0,0.0,0.0,0.0,0.0,0.0,0.0,0.0,0.0,0.0,0.0,0.0,0.0,0.0,0.0,0.0,0.0,0.0,0.0,0.0,0.0,0.0,0.0,0.0,0.0,0.0,0.0
1783344096.7730849,0.7432151436805725,0.6151546239852905,-6.511907599815459e-07,0.6796563863754272,0.5891422033309937,-0.030700361356139183,0.6175721287727356,0.5133190155029297,-0.04326120764017105,0.573125958442688,0.45967185497283936,-0.053219035267829895,0.5322020053863525,0.4316900670528412,-0.058017853647470474,0.6536568999290466,0.36490103602409363,-0.01782313734292984,0.6464369893074036,0.41928809881210327,-0.04465090483427048,0.659692645072937,0.48896634578704834,-0.05726803466677666,0.6684885025024414,0.49895399808883667,-0.0640859603881836,0.6954646706581116,0.33811837434768677,-0.015553832054138184,0.6902425289154053,0.42876505851745605,-0.042062390595674515,0.6960030198097229,0.5037493705749512,-0.04738249257206917,0.7014455199241638,0.49635714292526245,-0.048277948051691055,0.7380329370498657,0.3443630635738373,-0.018710359930992126,0.7332789897918701,0.4295685887336731,-0.048486169427633286,0.7309017181396484,0.49829065799713135,-0.042642779648303986,0.7321774363517761,0.4929582178592682,-0.034238480031490326,0.7768924832344055,0.3656953275203705,-0.025239666923880577,0.7730695605278015,0.41949954628944397,-0.04469716176390648,0.7666035294532776,0.4744565188884735,-0.04069534316658974,0.7648653984069824,0.47904065251350403,-0.03405091539025307,0.0,0.0,0.0,0.0,0.0,0.0,0.0,0.0,0.0,0.0,0.0,0.0,0.0,0.0,0.0,0.0,0.0,0.0,0.0,0.0,0.0,0.0,0.0,0.0,0.0,0.0,0.0,0.0,0.0,0.0,0.0,0.0,0.0,0.0,0.0,0.0,0.0,0.0,0.0,0.0,0.0,0.0,0.0,0.0,0.0,0.0,0.0,0.0,0.0,0.0,0.0,0.0,0.0,0.0,0.0,0.0,0.0,0.0,0.0,0.0,0.0,0.0,0.0
1783344096.8991842,0.7442767024040222,0.6218162775039673,-6.717083351759356e-07,0.6832625865936279,0.5936182141304016,-0.03012116812169552,0.6200900673866272,0.5144252777099609,-0.04157062619924545,0.5740770697593689,0.46174877882003784,-0.050910208374261856,0.533191442489624,0.4330957531929016,-0.055053409188985825,0.652725338935852,0.3703097403049469,-0.014141787774860859,0.6501554846763611,0.41257479786872864,-0.04145015403628349,0.6615293025970459,0.4824434816837311,-0.05378035455942154,0.6679370999336243,0.4930374026298523,-0.06014285981655121,0.6943516731262207,0.3400791883468628,-0.012226098217070103,0.6943215727806091,0.4212145507335663,-0.040216051042079926,0.6983282566070557,0.5023214221000671,-0.04584868997335434,0.7011657357215881,0.4962223470211029,-0.04585764557123184,0.7373117208480835,0.34289461374282837,-0.016118910163640976,0.7374094128608704,0.422523558139801,-0.04787908494472504,0.734399139881134,0.497398316860199,-0.04290183633565903,0.7341153025627136,0.49324721097946167,-0.034006182104349136,0.7767590284347534,0.3611922860145569,-0.02318967506289482,0.7759338617324829,0.4133901596069336,-0.04338645562529564,0.7687760591506958,0.473237007856369,-0.03976234793663025,0.7657278776168823,0.4784572720527649,-0.032955218106508255,0.0,0.0,0.0,0.0,0.0,0.0,0.0,0.0,0.0,0.0,0.0,0.0,0.0,0.0,0.0,0.0,0.0,0.0,0.0,0.0,0.0,0.0,0.0,0.0,0.0,0.0,0.0,0.0,0.0,0.0,0.0,0.0,0.0,0.0,0.0,0.0,0.0,0.0,0.0,0.0,0.0,0.0,0.0,0.0,0.0,0.0,0.0,0.0,0.0,0.0,0.0,0.0,0.0,0.0,0.0,0.0,0.0,0.0,0.0,0.0,0.0,0.0,0.0
1783344097.0394912,0.7486032247543335,0.6169251799583435,-6.512541403935757e-07,0.6888017654418945,0.5925872921943665,-0.028018517419695854,0.6257724165916443,0.5079870820045471,-0.03732234239578247,0.5788698792457581,0.4568824768066406,-0.04458106681704521,0.5370791554450989,0.43417587876319885,-0.04613956809043884,0.6543738842010498,0.3679942786693573,-0.01066085509955883,0.6574708223342896,0.39214256405830383,-0.03129043057560921,0.6721696257591248,0.4662642776966095,-0.03885672613978386,0.6769310832023621,0.4716072082519531,-0.043612606823444366,0.6957669854164124,0.3364095985889435,-0.009026698768138885,0.7012759447097778,0.3937250077724457,-0.031486060470342636,0.7062037587165833,0.47819414734840393,-0.03426705300807953,0.7048650979995728,0.46681421995162964,-0.033420827239751816,0.73886638879776,0.33883053064346313,-0.012556461617350578,0.7440932393074036,0.3872707188129425,-0.039768852293491364,0.7420685887336731,0.4671511948108673,-0.03180868551135063,0.7388420701026917,0.46375876665115356,-0.0222865529358387,0.778130292892456,0.3565119206905365,-0.019041793420910835,0.7830670475959778,0.38047340512275696,-0.03615297004580498,0.7752575278282166,0.44456344842910767,-0.029804928228259087,0.7689804434776306,0.4548000991344452,-0.021976379677653313,0.0,0.0,0.0,0.0,0.0,0.0,0.0,0.0,0.0,0.0,0.0,0.0,0.0,0.0,0.0,0.0,0.0,0.0,0.0,0.0,0.0,0.0,0.0,0.0,0.0,0.0,0.0,0.0,0.0,0.0,0.0,0.0,0.0,0.0,0.0,0.0,0.0,0.0,0.0,0.0,0.0,0.0,0.0,0.0,0.0,0.0,0.0,0.0,0.0,0.0,0.0,0.0,0.0,0.0,0.0,0.0,0.0,0.0,0.0,0.0,0.0,0.0,0.0
1783344097.1769059,0.7488547563552856,0.6133469939231873,-5.498625910149713e-07,0.6904849410057068,0.5874167680740356,-0.0290257316082716,0.6270785927772522,0.5042168498039246,-0.03934650868177414,0.5779252052307129,0.45125898718833923,-0.04851946607232094,0.5379397869110107,0.43336403369903564,-0.05040052905678749,0.658698320388794,0.3927825093269348,-0.0055498648434877396,0.6527459621429443,0.3408474028110504,-0.030950462445616722,0.6668072938919067,0.4319688677787781,-0.038572244346141815,0.6706106066703796,0.4474180340766907,-0.041081223636865616,0.6993321180343628,0.38171377778053284,-0.0024546263739466667,0.6961073875427246,0.3497762084007263,-0.03125268965959549,0.7020231485366821,0.45518216490745544,-0.03209159895777702,0.6986615657806396,0.4455775022506714,-0.026781203225255013,0.7386203408241272,0.38489753007888794,-0.00598172377794981,0.7369877099990845,0.34858962893486023,-0.036832988262176514,0.7364100813865662,0.4440174698829651,-0.023350166156888008,0.7341773509979248,0.4450755715370178,-0.007406474091112614,0.7743197679519653,0.3923195004463196,-0.01214990857988596,0.7740137577056885,0.35203278064727783,-0.02611491270363331,0.7675472497940063,0.4204106032848358,-0.013313249684870243,0.7641893029212952,0.43731439113616943,-0.0003197613114025444,0.0,0.0,0.0,0.0,0.0,0.0,0.0,0.0,0.0,0.0,0.0,0.0,0.0,0.0,0.0,0.0,0.0,0.0,0.0,0.0,0.0,0.0,0.0,0.0,0.0,0.0,0.0,0.0,0.0,0.0,0.0,0.0,0.0,0.0,0.0,0.0,0.0,0.0,0.0,0.0,0.0,0.0,0.0,0.0,0.0,0.0,0.0,0.0,0.0,0.0,0.0,0.0,0.0,0.0,0.0,0.0,0.0,0.0,0.0,0.0,0.0,0.0,0.0
1783344097.312105,0.7472176551818848,0.5992940068244934,-5.235933144831506e-07,0.690803587436676,0.5751506090164185,-0.02646077424287796,0.6287935376167297,0.4990711510181427,-0.03707623481750488,0.5791890025138855,0.4466380178928375,-0.04735953360795975,0.5396122932434082,0.4292531907558441,-0.050206586718559265,0.6587426066398621,0.38609984517097473,-0.004023415967822075,0.650753378868103,0.31884804368019104,-0.030176393687725067,0.6663966178894043,0.40896427631378174,-0.03761348873376846,0.6701304912567139,0.43039005994796753,-0.039375875145196915,0.6973681449890137,0.3740115463733673,-0.0017658829456195235,0.6922391057014465,0.32962778210639954,-0.03098478727042675,0.7013992071151733,0.4346964359283447,-0.030955161899328232,0.69793701171875,0.4282096028327942,-0.0247064009308815,0.7353261709213257,0.37544435262680054,-0.006010616663843393,0.7326683402061462,0.3279535174369812,-0.035869281738996506,0.7349112629890442,0.42019110918045044,-0.02149050310254097,0.7322538495063782,0.4227995276451111,-0.004998025018721819,0.7703677415847778,0.38096198439598083,-0.012704840861260891,0.7696554064750671,0.33354732394218445,-0.02508624456822872,0.7646158933639526,0.3982221484184265,-0.011811783537268639,0.7616464495658875,0.41475710272789,0.001360630034469068,0.0,0.0,0.0,0.0,0.0,0.0,0.0,0.0,0.0,0.0,0.0,0.0,0.0,0.0,0.0,0.0,0.0,0.0,0.0,0.0,0.0,0.0,0.0,0.0,0.0,0.0,0.0,0.0,0.0,0.0,0.0,0.0,0.0,0.0,0.0,0.0,0.0,0.0,0.0,0.0,0.0,0.0,0.0,0.0,0.0,0.0,0.0,0.0,0.0,0.0,0.0,0.0,0.0,0.0,0.0,0.0,0.0,0.0,0.0,0.0,0.0,0.0,0.0
1783344097.487205,0.7448897361755371,0.587241530418396,-5.187702640796488e-07,0.6868933439254761,0.5685112476348877,-0.02562638930976391,0.6249809265136719,0.4956166446208954,-0.03584618866443634,0.5764668583869934,0.44315001368522644,-0.045984651893377304,0.5374007821083069,0.4245552122592926,-0.04894230142235756,0.6526162028312683,0.38297680020332336,-0.004121752921491861,0.6446589827537537,0.30711114406585693,-0.03167339041829109,0.661974310874939,0.39430150389671326,-0.04064072668552399,0.6654890775680542,0.4213520884513855,-0.042816970497369766,0.6906225085258484,0.36881935596466064,-0.002173830522224307,0.6853399872779846,0.31329086422920227,-0.03176267445087433,0.6968772411346436,0.41616493463516235,-0.03291817381978035,0.6926385164260864,0.41636577248573303,-0.02722986973822117,0.7280651926994324,0.3663814961910248,-0.006648813374340534,0.7251537442207336,0.31232768297195435,-0.03588880971074104,0.7294781804084778,0.4052688479423523,-0.0218938197940588,0.7258413434028625,0.4141208529472351,-0.005582466721534729,0.7631462812423706,0.36836981773376465,-0.013566281646490097,0.761725127696991,0.31724077463150024,-0.025482334196567535,0.7585887312889099,0.3810841143131256,-0.012085072696208954,0.7554714679718018,0.4008162021636963,0.0012533859116956592,0.0,0.0,0.0,0.0,0.0,0.0,0.0,0.0,0.0,0.0,0.0,0.0,0.0,0.0,0.0,0.0,0.0,0.0,0.0,0.0,0.0,0.0,0.0,0.0,0.0,0.0,0.0,0.0,0.0,0.0,0.0,0.0,0.0,0.0,0.0,0.0,0.0,0.0,0.0,0.0,0.0,0.0,0.0,0.0,0.0,0.0,0.0,0.0,0.0,0.0,0.0,0.0,0.0,0.0,0.0,0.0,0.0,0.0,0.0,0.0,0.0,0.0,0.0
1783344097.6458392,0.7384285926818848,0.575153648853302,-4.988979753761669e-07,0.6822767853736877,0.5637305974960327,-0.026151064783334732,0.620181679725647,0.49866053462028503,-0.03825652226805687,0.5713249444961548,0.45077916979789734,-0.050094038248062134,0.5326496362686157,0.43651914596557617,-0.05527949333190918,0.6416044235229492,0.383897989988327,-0.008037534542381763,0.6335797905921936,0.30455389618873596,-0.03807602822780609,0.6542887091636658,0.38632509112358093,-0.04955130070447922,0.6579592823982239,0.4172464609146118,-0.05297637730836868,0.6786486506462097,0.3680976927280426,-0.006937285419553518,0.6743496060371399,0.3086918890476227,-0.038712698966264725,0.6888198256492615,0.4071510434150696,-0.04195289686322212,0.6818093061447144,0.4168050289154053,-0.03722262382507324,0.7149977087974548,0.3620510995388031,-0.012141975574195385,0.7125737071037292,0.30590811371803284,-0.043403785675764084,0.720608115196228,0.39624008536338806,-0.031133584678173065,0.7140811085700989,0.4100669026374817,-0.015510219149291515,0.7498373985290527,0.3613561689853668,-0.019696786999702454,0.7480177283287048,0.31092342734336853,-0.0339185930788517,0.7488064765930176,0.3750358819961548,-0.021407686173915863,0.7438942790031433,0.39805173873901367,-0.008257312700152397,0.0,0.0,0.0,0.0,0.0,0.0,0.0,0.0,0.0,0.0,0.0,0.0,0.0,0.0,0.0,0.0,0.0,0.0,0.0,0.0,0.0,0.0,0.0,0.0,0.0,0.0,0.0,0.0,0.0,0.0,0.0,0.0,0.0,0.0,0.0,0.0,0.0,0.0,0.0,0.0,0.0,0.0,0.0,0.0,0.0,0.0,0.0,0.0,0.0,0.0,0.0,0.0,0.0,0.0,0.0,0.0,0.0,0.0,0.0,0.0,0.0,0.0,0.0
1783344097.812963,0.733357310295105,0.5727961659431458,-4.842443104280392e-07,0.6792104840278625,0.5644586682319641,-0.02556530386209488,0.6174214482307434,0.5073994994163513,-0.03781566023826599,0.5678099989891052,0.4645061194896698,-0.04993477836251259,0.5298852920532227,0.4503921866416931,-0.05582349747419357,0.6339612007141113,0.3909991979598999,-0.006409645080566406,0.6255629062652588,0.3137117922306061,-0.036761317402124405,0.6454235315322876,0.3879742920398712,-0.049105044454336166,0.649975597858429,0.42146822810173035,-0.05278444290161133,0.6698054075241089,0.3733239471912384,-0.005573907867074013,0.6648226380348206,0.3153967559337616,-0.03672812506556511,0.6801000833511353,0.4085668623447418,-0.040517374873161316,0.6735339760780334,0.4197064936161041,-0.03596153482794762,0.7049322128295898,0.36408311128616333,-0.011201291345059872,0.7011899948120117,0.3119347393512726,-0.04248823598027229,0.7106220126152039,0.39803940057754517,-0.031687818467617035,0.7044351100921631,0.41103148460388184,-0.016746118664741516,0.7388736605644226,0.35973936319351196,-0.019071904942393303,0.7351765036582947,0.31490716338157654,-0.033779919147491455,0.7383962869644165,0.37687361240386963,-0.022181540727615356,0.7348181009292603,0.3971838653087616,-0.009389000944793224,0.0,0.0,0.0,0.0,0.0,0.0,0.0,0.0,0.0,0.0,0.0,0.0,0.0,0.0,0.0,0.0,0.0,0.0,0.0,0.0,0.0,0.0,0.0,0.0,0.0,0.0,0.0,0.0,0.0,0.0,0.0,0.0,0.0,0.0,0.0,0.0,0.0,0.0,0.0,0.0,0.0,0.0,0.0,0.0,0.0,0.0,0.0,0.0,0.0,0.0,0.0,0.0,0.0,0.0,0.0,0.0,0.0,0.0,0.0,0.0,0.0,0.0,0.0
1783344097.989959,0.732114315032959,0.5715123414993286,-4.903487251795013e-07,0.6769260168075562,0.5641167163848877,-0.02239951491355896,0.6158624291419983,0.5082994103431702,-0.03283435478806496,0.5673173666000366,0.4667527973651886,-0.043737784028053284,0.5307006239891052,0.45173704624176025,-0.04844691604375839,0.6329078674316406,0.3904859125614166,-0.0023552675265818834,0.6210883259773254,0.31275704503059387,-0.03185126557946205,0.6415642499923706,0.38820576667785645,-0.04408822953701019,0.6475265026092529,0.4251062572002411,-0.0475442074239254,0.667762279510498,0.37274640798568726,-0.002540160436183214,0.6595999598503113,0.3132055997848511,-0.033045440912246704,0.6761323809623718,0.40761658549308777,-0.03672942891716957,0.671562671661377,0.4212293326854706,-0.031809497624635696,0.7023186683654785,0.364830881357193,-0.008881751447916031,0.6959417462348938,0.31317567825317383,-0.038705870509147644,0.7073039412498474,0.3996680974960327,-0.02721053548157215,0.7036765813827515,0.4139348566532135,-0.01182282343506813,0.7362453937530518,0.3609156310558319,-0.017252208665013313,0.7315175533294678,0.3168568015098572,-0.030336549505591393,0.7350999116897583,0.37911370396614075,-0.01783621497452259,0.7327290177345276,0.3988742232322693,-0.0044736978597939014,0.0,0.0,0.0,0.0,0.0,0.0,0.0,0.0,0.0,0.0,0.0,0.0,0.0,0.0,0.0,0.0,0.0,0.0,0.0,0.0,0.0,0.0,0.0,0.0,0.0,0.0,0.0,0.0,0.0,0.0,0.0,0.0,0.0,0.0,0.0,0.0,0.0,0.0,0.0,0.0,0.0,0.0,0.0,0.0,0.0,0.0,0.0,0.0,0.0,0.0,0.0,0.0,0.0,0.0,0.0,0.0,0.0,0.0,0.0,0.0,0.0,0.0,0.0
1783344098.152786,0.7347641587257385,0.5712854266166687,-5.049435571891081e-07,0.6799407601356506,0.5626357793807983,-0.02356727235019207,0.6190643310546875,0.5051754713058472,-0.03390628844499588,0.5695502758026123,0.4611506462097168,-0.04447358846664429,0.5328616499900818,0.4478481709957123,-0.04859083145856857,0.636535108089447,0.38370952010154724,-0.0009947328362613916,0.6269018054008484,0.3092438876628876,-0.030808638781309128,0.645381510257721,0.3872586786746979,-0.04310496523976326,0.6494197845458984,0.4206559360027313,-0.04683879762887955,0.6715614199638367,0.36775586009025574,-0.0009824455482885242,0.664696216583252,0.30982381105422974,-0.03225167095661163,0.6791197061538696,0.4060470759868622,-0.035729508846998215,0.6739939451217651,0.41359373927116394,-0.030468178912997246,0.7062013149261475,0.3622654378414154,-0.0075239017605781555,0.7014808654785156,0.30973514914512634,-0.038512710481882095,0.7105478644371033,0.3958645761013031,-0.026898114010691643,0.7062821984291077,0.40585607290267944,-0.011173292994499207,0.7396983504295349,0.36167484521865845,-0.016284750774502754,0.736818790435791,0.3167553246021271,-0.030357634648680687,0.7389742136001587,0.379224568605423,-0.018384015187621117,0.7364804148674011,0.3972558379173279,-0.005259278230369091,0.0,0.0,0.0,0.0,0.0,0.0,0.0,0.0,0.0,0.0,0.0,0.0,0.0,0.0,0.0,0.0,0.0,0.0,0.0,0.0,0.0,0.0,0.0,0.0,0.0,0.0,0.0,0.0,0.0,0.0,0.0,0.0,0.0,0.0,0.0,0.0,0.0,0.0,0.0,0.0,0.0,0.0,0.0,0.0,0.0,0.0,0.0,0.0,0.0,0.0,0.0,0.0,0.0,0.0,0.0,0.0,0.0,0.0,0.0,0.0,0.0,0.0,0.0
1783344098.319751,0.7351675033569336,0.5740922093391418,-4.960843966728135e-07,0.6801033616065979,0.5616782903671265,-0.022714022547006607,0.6192454099655151,0.5041571855545044,-0.03297805041074753,0.5706253051757812,0.46193474531173706,-0.04362157732248306,0.5341786742210388,0.4474753439426422,-0.04782675951719284,0.6381794214248657,0.3839446008205414,-0.0006429257919080555,0.6282010078430176,0.3103560507297516,-0.029968440532684326,0.646514356136322,0.38851678371429443,-0.042235180735588074,0.6513015627861023,0.4222947359085083,-0.0460195317864418,0.6734176278114319,0.368166446685791,-0.0008049997850321233,0.6661108136177063,0.3102482855319977,-0.03161165490746498,0.6800592541694641,0.4070855975151062,-0.0351603738963604,0.6757135391235352,0.4157140851020813,-0.030046505853533745,0.7082870602607727,0.36285141110420227,-0.007371189072728157,0.7027526497840881,0.3108557462692261,-0.03752656280994415,0.7117015719413757,0.39714568853378296,-0.025946322828531265,0.7086995244026184,0.40684592723846436,-0.010409033857285976,0.7418777942657471,0.3618139624595642,-0.016071362420916557,0.7379512190818787,0.31745317578315735,-0.029005292803049088,0.7396349906921387,0.37952184677124023,-0.016605345532298088,0.7381447553634644,0.39605289697647095,-0.003386339172720909,0.0,0.0,0.0,0.0,0.0,0.0,0.0,0.0,0.0,0.0,0.0,0.0,0.0,0.0,0.0,0.0,0.0,0.0,0.0,0.0,0.0,0.0,0.0,0.0,0.0,0.0,0.0,0.0,0.0,0.0,0.0,0.0,0.0,0.0,0.0,0.0,0.0,0.0,0.0,0.0,0.0,0.0,0.0,0.0,0.0,0.0,0.0,0.0,0.0,0.0,0.0,0.0,0.0,0.0,0.0,0.0,0.0,0.0,0.0,0.0,0.0,0.0,0.0
1783344098.517451,0.7341442108154297,0.5748111605644226,-5.010525683246669e-07,0.6787094473838806,0.5647051334381104,-0.022780368104577065,0.6184425950050354,0.5079168677330017,-0.033162251114845276,0.5707043409347534,0.46372994780540466,-0.04378700256347656,0.5344130396842957,0.447601854801178,-0.048014797270298004,0.6368951201438904,0.3870072662830353,-0.0014612409286201,0.6273819208145142,0.3134712278842926,-0.030819686129689217,0.6464926600456238,0.3905785083770752,-0.04309826344251633,0.6509609818458557,0.42525777220726013,-0.046747107058763504,0.6726601719856262,0.37220314145088196,-0.0014751870185136795,0.6656795740127563,0.31471309065818787,-0.03229523450136185,0.680187463760376,0.41080817580223083,-0.03615141287446022,0.6749201416969299,0.42165377736091614,-0.03126951679587364,0.707536518573761,0.3667413592338562,-0.007774978410452604,0.7024244666099548,0.31636592745780945,-0.03819333389401436,0.7118982076644897,0.4030922055244446,-0.02712528221309185,0.7078613042831421,0.41413599252700806,-0.011872494593262672,0.7415037155151367,0.36461272835731506,-0.01611378788948059,0.7378295063972473,0.3206295073032379,-0.029468366876244545,0.7400858998298645,0.3832186758518219,-0.017200421541929245,0.7377963662147522,0.4009483754634857,-0.003951355814933777,0.0,0.0,0.0,0.0,0.0,0.0,0.0,0.0,0.0,0.0,0.0,0.0,0.0,0.0,0.0,0.0,0.0,0.0,0.0,0.0,0.0,0.0,0.0,0.0,0.0,0.0,0.0,0.0,0.0,0.0,0.0,0.0,0.0,0.0,0.0,0.0,0.0,0.0,0.0,0.0,0.0,0.0,0.0,0.0,0.0,0.0,0.0,0.0,0.0,0.0,0.0,0.0,0.0,0.0,0.0,0.0,0.0,0.0,0.0,0.0,0.0,0.0,0.0
1783344098.724867,0.734387993812561,0.5816276669502258,-5.073486022411089e-07,0.6799727082252502,0.5710591673851013,-0.023951126262545586,0.6185213327407837,0.5100501775741577,-0.034363772720098495,0.5703244805335999,0.4649823009967804,-0.044856879860162735,0.5337235927581787,0.44880762696266174,-0.048728764057159424,0.6376135945320129,0.39053288102149963,-0.0018896672409027815,0.6283386945724487,0.31578442454338074,-0.03251402825117111,0.6477833390235901,0.3945540189743042,-0.045136578381061554,0.6522979140281677,0.4286805987358093,-0.04888388514518738,0.6733980178833008,0.37627318501472473,-0.0018702326342463493,0.6663087606430054,0.3180536925792694,-0.0343874953687191,0.6812690496444702,0.4147169291973114,-0.038497909903526306,0.6761185526847839,0.4239151179790497,-0.033293187618255615,0.7084937691688538,0.37135049700737,-0.008487249724566936,0.7032680511474609,0.321056067943573,-0.040178749710321426,0.7130831480026245,0.407530277967453,-0.028991231694817543,0.708685040473938,0.41579991579055786,-0.01336685661226511,0.7428858280181885,0.3691229224205017,-0.017299938946962357,0.7389602661132812,0.32603463530540466,-0.03129377216100693,0.7419282793998718,0.38885703682899475,-0.019120236858725548,0.7398450374603271,0.4046728312969208,-0.00584596348926425,0.0,0.0,0.0,0.0,0.0,0.0,0.0,0.0,0.0,0.0,0.0,0.0,0.0,0.0,0.0,0.0,0.0,0.0,0.0,0.0,0.0,0.0,0.0,0.0,0.0,0.0,0.0,0.0,0.0,0.0,0.0,0.0,0.0,0.0,0.0,0.0,0.0,0.0,0.0,0.0,0.0,0.0,0.0,0.0,0.0,0.0,0.0,0.0,0.0,0.0,0.0,0.0,0.0,0.0,0.0,0.0,0.0,0.0,0.0,0.0,0.0,0.0,0.0
1783344098.978611,0.7352761030197144,0.5815331339836121,-5.190248657527263e-07,0.6802340745925903,0.5704154372215271,-0.021921081468462944,0.6193017959594727,0.5086778998374939,-0.03095092438161373,0.5713236927986145,0.46167314052581787,-0.04043373093008995,0.5355084538459778,0.4437146782875061,-0.04331199824810028,0.639257550239563,0.3892308473587036,0.0011226575588807464,0.6288922429084778,0.31589028239250183,-0.02802286110818386,0.6472976803779602,0.3948993384838104,-0.04011223465204239,0.6522005796432495,0.4286552369594574,-0.04365665465593338,0.6745789647102356,0.3747222125530243,0.0008529056794941425,0.6669087409973145,0.3181667625904083,-0.030011549592018127,0.6810563802719116,0.415761262178421,-0.033623237162828445,0.6769341826438904,0.42458227276802063,-0.028326978906989098,0.709450364112854,0.3700352907180786,-0.005849162582308054,0.7036356925964355,0.3191707730293274,-0.03619551658630371,0.7127672433853149,0.4066438376903534,-0.024765904992818832,0.7097280025482178,0.41572603583335876,-0.009082398377358913,0.7433857321739197,0.36886468529701233,-0.014588856138288975,0.7392722964286804,0.32460135221481323,-0.027522943913936615,0.7408224940299988,0.38756263256073,-0.015157002955675125,0.7390415668487549,0.40368571877479553,-0.00181670393794775,0.0,0.0,0.0,0.0,0.0,0.0,0.0,0.0,0.0,0.0,0.0,0.0,0.0,0.0,0.0,0.0,0.0,0.0,0.0,0.0,0.0,0.0,0.0,0.0,0.0,0.0,0.0,0.0,0.0,0.0,0.0,0.0,0.0,0.0,0.0,0.0,0.0,0.0,0.0,0.0,0.0,0.0,0.0,0.0,0.0,0.0,0.0,0.0,0.0,0.0,0.0,0.0,0.0,0.0,0.0,0.0,0.0,0.0,0.0,0.0,0.0,0.0,0.0
