ciel274/research-hand-sign/data/raw/hiragana/sign_language_si_2.csv
timestamp,R_joint_0_x,R_joint_0_y,R_joint_0_z,R_joint_1_x,R_joint_1_y,R_joint_1_z,R_joint_2_x,R_joint_2_y,R_joint_2_z,R_joint_3_x,R_joint_3_y,R_joint_3_z,R_joint_4_x,R_joint_4_y,R_joint_4_z,R_joint_5_x,R_joint_5_y,R_joint_5_z,R_joint_6_x,R_joint_6_y,R_joint_6_z,R_joint_7_x,R_joint_7_y,R_joint_7_z,R_joint_8_x,R_joint_8_y,R_joint_8_z,R_joint_9_x,R_joint_9_y,R_joint_9_z,R_joint_10_x,R_joint_10_y,R_joint_10_z,R_joint_11_x,R_joint_11_y,R_joint_11_z,R_joint_12_x,R_joint_12_y,R_joint_12_z,R_joint_13_x,R_joint_13_y,R_joint_13_z,R_joint_14_x,R_joint_14_y,R_joint_14_z,R_joint_15_x,R_joint_15_y,R_joint_15_z,R_joint_16_x,R_joint_16_y,R_joint_16_z,R_joint_17_x,R_joint_17_y,R_joint_17_z,R_joint_18_x,R_joint_18_y,R_joint_18_z,R_joint_19_x,R_joint_19_y,R_joint_19_z,R_joint_20_x,R_joint_20_y,R_joint_20_z,L_joint_0_x,L_joint_0_y,L_joint_0_z,L_joint_1_x,L_joint_1_y,L_joint_1_z,L_joint_2_x,L_joint_2_y,L_joint_2_z,L_joint_3_x,L_joint_3_y,L_joint_3_z,L_joint_4_x,L_joint_4_y,L_joint_4_z,L_joint_5_x,L_joint_5_y,L_joint_5_z,L_joint_6_x,L_joint_6_y,L_joint_6_z,L_joint_7_x,L_joint_7_y,L_joint_7_z,L_joint_8_x,L_joint_8_y,L_joint_8_z,L_joint_9_x,L_joint_9_y,L_joint_9_z,L_joint_10_x,L_joint_10_y,L_joint_10_z,L_joint_11_x,L_joint_11_y,L_joint_11_z,L_joint_12_x,L_joint_12_y,L_joint_12_z,L_joint_13_x,L_joint_13_y,L_joint_13_z,L_joint_14_x,L_joint_14_y,L_joint_14_z,L_joint_15_x,L_joint_15_y,L_joint_15_z,L_joint_16_x,L_joint_16_y,L_joint_16_z,L_joint_17_x,L_joint_17_y,L_joint_17_z,L_joint_18_x,L_joint_18_y,L_joint_18_z,L_joint_19_x,L_joint_19_y,L_joint_19_z,L_joint_20_x,L_joint_20_y,L_joint_20_z
1783390692.421338,0.7596318125724792,0.8915975689888,3.1909911513139377e-07,0.7416330575942993,0.8051134943962097,0.007899033837020397,0.7097499966621399,0.7308570742607117,0.005171483848243952,0.6838412880897522,0.6641491651535034,0.0016401882749050856,0.6801099181175232,0.6065859198570251,-0.0019037078600376844,0.6704580783843994,0.7526088356971741,-0.021224768832325935,0.6071544289588928,0.7097762227058411,-0.028446469455957413,0.5719552636146545,0.6900169849395752,-0.030350541695952415,0.5442680716514587,0.675180196762085,-0.03115815296769142,0.660676896572113,0.8057504892349243,-0.025982705876231194,0.5901421904563904,0.7799468040466309,-0.0358419343829155,0.5487151145935059,0.7716930508613586,-0.03814108669757843,0.5193361043930054,0.7716676592826843,-0.039569687098264694,0.6572352647781372,0.8588955998420715,-0.026382116600871086,0.607498049736023,0.8343714475631714,-0.026804689317941666,0.6242137551307678,0.8270862102508545,-0.012031245045363903,0.6438643336296082,0.8307096362113953,-0.0006000859430059791,0.6591606140136719,0.9042418003082275,-0.026369789615273476,0.6250132322311401,0.8783231973648071,-0.01999378204345703,0.6404937505722046,0.870791494846344,-0.004375908523797989,0.6567789912223816,0.8735611438751221,0.008378739468753338,0.0,0.0,0.0,0.0,0.0,0.0,0.0,0.0,0.0,0.0,0.0,0.0,0.0,0.0,0.0,0.0,0.0,0.0,0.0,0.0,0.0,0.0,0.0,0.0,0.0,0.0,0.0,0.0,0.0,0.0,0.0,0.0,0.0,0.0,0.0,0.0,0.0,0.0,0.0,0.0,0.0,0.0,0.0,0.0,0.0,0.0,0.0,0.0,0.0,0.0,0.0,0.0,0.0,0.0,0.0,0.0,0.0,0.0,0.0,0.0,0.0,0.0,0.0
1783390692.594039,0.760705292224884,0.8915653824806213,3.250459883474832e-07,0.7428920865058899,0.804892361164093,0.006009369622915983,0.709802508354187,0.7296736836433411,0.0028216803912073374,0.6842505931854248,0.662656843662262,-0.0012468273052945733,0.6812590956687927,0.6053400635719299,-0.005523414816707373,0.6713464260101318,0.7515900135040283,-0.021030038595199585,0.6078692078590393,0.7084552645683289,-0.028368940576910973,0.5727944374084473,0.6883407831192017,-0.029996579512953758,0.5453274250030518,0.6735302209854126,-0.03045022487640381,0.661642849445343,0.8044082522392273,-0.02590455301105976,0.5916635990142822,0.7785329222679138,-0.03601868450641632,0.5504229664802551,0.7696884274482727,-0.03796475753188133,0.5208587646484375,0.7689743638038635,-0.03877898305654526,0.6583208441734314,0.8575361371040344,-0.026972969993948936,0.6086535453796387,0.8335174918174744,-0.02977629378437996,0.6255757808685303,0.8275105357170105,-0.0162013191729784,0.6452232599258423,0.8323537111282349,-0.004833995830267668,0.660285234451294,0.9036902189254761,-0.027705242857336998,0.6250128746032715,0.8762927055358887,-0.023695193231105804,0.6404945850372314,0.8691874146461487,-0.008915231563150883,0.6571826338768005,0.8726292252540588,0.003637942485511303,0.0,0.0,0.0,0.0,0.0,0.0,0.0,0.0,0.0,0.0,0.0,0.0,0.0,0.0,0.0,0.0,0.0,0.0,0.0,0.0,0.0,0.0,0.0,0.0,0.0,0.0,0.0,0.0,0.0,0.0,0.0,0.0,0.0,0.0,0.0,0.0,0.0,0.0,0.0,0.0,0.0,0.0,0.0,0.0,0.0,0.0,0.0,0.0,0.0,0.0,0.0,0.0,0.0,0.0,0.0,0.0,0.0,0.0,0.0,0.0,0.0,0.0,0.0
1783390692.738383,0.7618599534034729,0.892212450504303,3.0098618708507274e-07,0.7433849573135376,0.8050188422203064,0.007947389036417007,0.7105099558830261,0.7303305864334106,0.005542065482586622,0.6850948333740234,0.663334846496582,0.0019404083723202348,0.6818264126777649,0.6070129871368408,-0.002096759155392647,0.6717599034309387,0.7524385452270508,-0.019480764865875244,0.6091428995132446,0.7109650373458862,-0.027201086282730103,0.5742365717887878,0.6907015442848206,-0.029975736513733864,0.5463712811470032,0.6752480864524841,-0.03137972578406334,0.6618600487709045,0.806228518486023,-0.02520960196852684,0.5920208096504211,0.7800095081329346,-0.03460155799984932,0.5512478351593018,0.7714124321937561,-0.03689577057957649,0.5215606093406677,0.771268367767334,-0.03841535374522209,0.6587574481964111,0.8595157861709595,-0.026984982192516327,0.6085926294326782,0.835327684879303,-0.02923918515443802,0.6255881190299988,0.8279701471328735,-0.016148004680871964,0.6456804275512695,0.831941545009613,-0.005533948075026274,0.6610155701637268,0.905616283416748,-0.028249360620975494,0.625364363193512,0.8784734606742859,-0.024153804406523705,0.6405850052833557,0.8705650568008423,-0.009618972428143024,0.6571400165557861,0.8731235265731812,0.0025392454117536545,0.0,0.0,0.0,0.0,0.0,0.0,0.0,0.0,0.0,0.0,0.0,0.0,0.0,0.0,0.0,0.0,0.0,0.0,0.0,0.0,0.0,0.0,0.0,0.0,0.0,0.0,0.0,0.0,0.0,0.0,0.0,0.0,0.0,0.0,0.0,0.0,0.0,0.0,0.0,0.0,0.0,0.0,0.0,0.0,0.0,0.0,0.0,0.0,0.0,0.0,0.0,0.0,0.0,0.0,0.0,0.0,0.0,0.0,0.0,0.0,0.0,0.0,0.0
1783390692.9011211,0.7604936957359314,0.8909479379653931,3.371996797341126e-07,0.7417343854904175,0.8043122887611389,0.007527642417699099,0.7098167538642883,0.7296746373176575,0.004697672091424465,0.6846126317977905,0.663075864315033,0.0009907291969284415,0.6803062558174133,0.6063653826713562,-0.00258021242916584,0.6709306836128235,0.7508613467216492,-0.020151257514953613,0.6076427698135376,0.7080304026603699,-0.027381714433431625,0.5730931758880615,0.687820553779602,-0.029052648693323135,0.5460253357887268,0.6724290251731873,-0.029483826830983162,0.6613380908966064,0.8040761351585388,-0.024996008723974228,0.5911074280738831,0.7777692675590515,-0.0355827622115612,0.5495614409446716,0.7696555852890015,-0.0382893830537796,0.5199844837188721,0.7694036364555359,-0.039616648107767105,0.6579031944274902,0.8573352694511414,-0.025620751082897186,0.6080244183540344,0.833700954914093,-0.02709125727415085,0.6246392130851746,0.8277837634086609,-0.012543574906885624,0.6440421342849731,0.8317088484764099,-0.0007910486310720444,0.6596205830574036,0.9029880166053772,-0.02583855763077736,0.6249863505363464,0.8775705695152283,-0.02010973170399666,0.6409578919410706,0.8710741996765137,-0.004289101343601942,0.6574053764343262,0.8744728565216064,0.008902767673134804,0.0,0.0,0.0,0.0,0.0,0.0,0.0,0.0,0.0,0.0,0.0,0.0,0.0,0.0,0.0,0.0,0.0,0.0,0.0,0.0,0.0,0.0,0.0,0.0,0.0,0.0,0.0,0.0,0.0,0.0,0.0,0.0,0.0,0.0,0.0,0.0,0.0,0.0,0.0,0.0,0.0,0.0,0.0,0.0,0.0,0.0,0.0,0.0,0.0,0.0,0.0,0.0,0.0,0.0,0.0,0.0,0.0,0.0,0.0,0.0,0.0,0.0,0.0
1783390693.058231,0.7604603171348572,0.8877763152122498,3.233817267300765e-07,0.741627037525177,0.8002431392669678,0.009073191322386265,0.7095029950141907,0.7250481843948364,0.00700240395963192,0.6843078136444092,0.6590186357498169,0.0036988919600844383,0.6809501051902771,0.6030230522155762,0.000507455610204488,0.6697348952293396,0.7466950416564941,-0.01855870895087719,0.6079762578010559,0.7045612335205078,-0.02536521479487419,0.573617696762085,0.6841645836830139,-0.026842355728149414,0.5467140674591064,0.6683433651924133,-0.027360741049051285,0.6603125929832458,0.7991676926612854,-0.024239789694547653,0.5922025442123413,0.7743070721626282,-0.03559122979640961,0.5511642098426819,0.7652024030685425,-0.03837579861283302,0.5214154720306396,0.7636597752571106,-0.03972389176487923,0.6570605635643005,0.8526332378387451,-0.025594741106033325,0.6092311143875122,0.8288388848304749,-0.027863148599863052,0.6259499192237854,0.8226516246795654,-0.013025525957345963,0.6450546383857727,0.8271742463111877,-0.0009004843886941671,0.6589639782905579,0.899251401424408,-0.02640509605407715,0.624262273311615,0.870882511138916,-0.02127997949719429,0.6402497887611389,0.864236056804657,-0.005361607763916254,0.6569806933403015,0.8679943084716797,0.007979604415595531,0.0,0.0,0.0,0.0,0.0,0.0,0.0,0.0,0.0,0.0,0.0,0.0,0.0,0.0,0.0,0.0,0.0,0.0,0.0,0.0,0.0,0.0,0.0,0.0,0.0,0.0,0.0,0.0,0.0,0.0,0.0,0.0,0.0,0.0,0.0,0.0,0.0,0.0,0.0,0.0,0.0,0.0,0.0,0.0,0.0,0.0,0.0,0.0,0.0,0.0,0.0,0.0,0.0,0.0,0.0,0.0,0.0,0.0,0.0,0.0,0.0,0.0,0.0
1783390693.198623,0.7601792812347412,0.8838499784469604,3.2677363037691975e-07,0.7420738339424133,0.7962711453437805,0.007729318458586931,0.7092744708061218,0.7214002013206482,0.005880096927285194,0.6843541860580444,0.6548783779144287,0.002907196991145611,0.6802977323532104,0.5998282432556152,4.7319931582023855e-06,0.6700734496116638,0.7415165305137634,-0.01740741916000843,0.6078080534934998,0.6998851895332336,-0.02343149669468403,0.5737058520317078,0.6799182295799255,-0.024217404425144196,0.5471002459526062,0.6644907593727112,-0.024159051477909088,0.6601822376251221,0.794106662273407,-0.022651690989732742,0.5917545557022095,0.769346296787262,-0.03306703269481659,0.5508155226707458,0.760849118232727,-0.03581667318940163,0.5213529467582703,0.7592430710792542,-0.03698638826608658,0.6566062569618225,0.8477302193641663,-0.023868633434176445,0.6086039543151855,0.824777364730835,-0.026771193370223045,0.6256042122840881,0.8200498819351196,-0.013450497761368752,0.6449357271194458,0.8251676559448242,-0.0021209337282925844,0.6583088636398315,0.8947159051895142,-0.02456304430961609,0.6253632307052612,0.8681851029396057,-0.02048160880804062,0.6420688033103943,0.8630495667457581,-0.005669997073709965,0.659076452255249,0.8677966594696045,0.00704119261354208,0.0,0.0,0.0,0.0,0.0,0.0,0.0,0.0,0.0,0.0,0.0,0.0,0.0,0.0,0.0,0.0,0.0,0.0,0.0,0.0,0.0,0.0,0.0,0.0,0.0,0.0,0.0,0.0,0.0,0.0,0.0,0.0,0.0,0.0,0.0,0.0,0.0,0.0,0.0,0.0,0.0,0.0,0.0,0.0,0.0,0.0,0.0,0.0,0.0,0.0,0.0,0.0,0.0,0.0,0.0,0.0,0.0,0.0,0.0,0.0,0.0,0.0,0.0
1783390693.3692212,0.7601555585861206,0.8768071532249451,3.1435439495908213e-07,0.7407175898551941,0.7909221649169922,0.008605263195931911,0.708621084690094,0.7167074680328369,0.006706827785819769,0.6836158633232117,0.6509835720062256,0.003586863400414586,0.6788105964660645,0.5971377491950989,0.00048497950774617493,0.6706717610359192,0.7369363307952881,-0.019054368138313293,0.608008086681366,0.6954960227012634,-0.02694058232009411,0.5730915069580078,0.6749103665351868,-0.02907618321478367,0.5458835959434509,0.6589114665985107,-0.02989007905125618,0.6614905595779419,0.789121150970459,-0.024901634082198143,0.5923764109611511,0.7639614343643188,-0.03731741011142731,0.5508524179458618,0.7561173439025879,-0.040711261332035065,0.5212365984916687,0.7557693719863892,-0.04223775863647461,0.6582995653152466,0.8427154421806335,-0.026569874957203865,0.6081574559211731,0.8214631676673889,-0.030556634068489075,0.624690055847168,0.8160105347633362,-0.016394469887018204,0.6440621614456177,0.8198968172073364,-0.004330974537879229,0.6602452993392944,0.8901517391204834,-0.027638733386993408,0.6245938539505005,0.8650587797164917,-0.024129312485456467,0.6410194635391235,0.8596216440200806,-0.008647104725241661,0.6580588221549988,0.8635551929473877,0.004656982142478228,0.0,0.0,0.0,0.0,0.0,0.0,0.0,0.0,0.0,0.0,0.0,0.0,0.0,0.0,0.0,0.0,0.0,0.0,0.0,0.0,0.0,0.0,0.0,0.0,0.0,0.0,0.0,0.0,0.0,0.0,0.0,0.0,0.0,0.0,0.0,0.0,0.0,0.0,0.0,0.0,0.0,0.0,0.0,0.0,0.0,0.0,0.0,0.0,0.0,0.0,0.0,0.0,0.0,0.0,0.0,0.0,0.0,0.0,0.0,0.0,0.0,0.0,0.0
1783390693.49939,0.7606937885284424,0.875374436378479,3.134993278308684e-07,0.7412011027336121,0.7898749709129333,0.009946499019861221,0.7087623476982117,0.7157724499702454,0.008496602065861225,0.6830594539642334,0.6498482823371887,0.005511326715350151,0.6785775423049927,0.5945607423782349,0.0025272720959037542,0.6693704128265381,0.7351418137550354,-0.01718818210065365,0.607535719871521,0.6946566700935364,-0.024232110008597374,0.5729268789291382,0.675033450126648,-0.02612883225083351,0.5458588600158691,0.6599092483520508,-0.02701171301305294,0.6601652503013611,0.7870182991027832,-0.023482508957386017,0.591488778591156,0.7631573677062988,-0.03494739159941673,0.5499184727668762,0.7564200758934021,-0.038745682686567307,0.5206090807914734,0.756847620010376,-0.04092581197619438,0.657245934009552,0.8411564826965332,-0.025410261005163193,0.6092814803123474,0.8221002817153931,-0.027386179193854332,0.6268434524536133,0.8172327876091003,-0.012893945910036564,0.6465271711349487,0.8204152584075928,-0.001233732677064836,0.6595779657363892,0.8886706829071045,-0.026765314862132072,0.6262466907501221,0.866572380065918,-0.02126023918390274,0.6430363655090332,0.8610259294509888,-0.005545268766582012,0.659544825553894,0.8639060258865356,0.007466006092727184,0.0,0.0,0.0,0.0,0.0,0.0,0.0,0.0,0.0,0.0,0.0,0.0,0.0,0.0,0.0,0.0,0.0,0.0,0.0,0.0,0.0,0.0,0.0,0.0,0.0,0.0,0.0,0.0,0.0,0.0,0.0,0.0,0.0,0.0,0.0,0.0,0.0,0.0,0.0,0.0,0.0,0.0,0.0,0.0,0.0,0.0,0.0,0.0,0.0,0.0,0.0,0.0,0.0,0.0,0.0,0.0,0.0,0.0,0.0,0.0,0.0,0.0,0.0
1783390693.6719658,0.7612767219543457,0.8754358291625977,3.1735561378809507e-07,0.7416845560073853,0.7907963991165161,0.00932293850928545,0.7090249061584473,0.7150937914848328,0.007073855493217707,0.6829575896263123,0.6489322781562805,0.003460892476141453,0.6797295212745667,0.5922117829322815,-0.00019195419736206532,0.6701880693435669,0.7359815835952759,-0.0196921918541193,0.6080792546272278,0.6946364045143127,-0.02772696316242218,0.5727647542953491,0.6748969554901123,-0.030245717614889145,0.5451898574829102,0.660010576248169,-0.0315551832318306,0.6612105965614319,0.7875667214393616,-0.025685366243124008,0.5923397541046143,0.7638483643531799,-0.03761248290538788,0.5504897236824036,0.7572307586669922,-0.0411863774061203,0.5208613872528076,0.7581611275672913,-0.043321989476680756,0.6581213474273682,0.8411164283752441,-0.027266746386885643,0.609746515750885,0.8219997882843018,-0.02896691858768463,0.6267940998077393,0.8174265027046204,-0.013758399523794651,0.6462110877037048,0.8211520910263062,-0.0017576917307451367,0.6599718928337097,0.8883852958679199,-0.028398314490914345,0.6259750723838806,0.8660017251968384,-0.022507181391119957,0.6420960426330566,0.8603914380073547,-0.0064318859949707985,0.6583543419837952,0.8632752299308777,0.006749630905687809,0.0,0.0,0.0,0.0,0.0,0.0,0.0,0.0,0.0,0.0,0.0,0.0,0.0,0.0,0.0,0.0,0.0,0.0,0.0,0.0,0.0,0.0,0.0,0.0,0.0,0.0,0.0,0.0,0.0,0.0,0.0,0.0,0.0,0.0,0.0,0.0,0.0,0.0,0.0,0.0,0.0,0.0,0.0,0.0,0.0,0.0,0.0,0.0,0.0,0.0,0.0,0.0,0.0,0.0,0.0,0.0,0.0,0.0,0.0,0.0,0.0,0.0,0.0
1783390693.8038049,0.7609331011772156,0.8752744197845459,3.2379591630160576e-07,0.741597592830658,0.79012531042099,0.008054537698626518,0.7089913487434387,0.7150888442993164,0.0051533859223127365,0.683218777179718,0.6486940979957581,0.0008842043462209404,0.679885983467102,0.591952383518219,-0.0035698285792022943,0.6706005930900574,0.7359712719917297,-0.019974762573838234,0.6083013415336609,0.6945585012435913,-0.02813829854130745,0.5733363032341003,0.674220860004425,-0.030797718092799187,0.5459181070327759,0.6587892770767212,-0.03219502419233322,0.6616503596305847,0.7878125905990601,-0.02603844553232193,0.5925468802452087,0.7634410858154297,-0.037715595215559006,0.5508208274841309,0.7562963366508484,-0.04138381779193878,0.5211328864097595,0.7566636800765991,-0.04365023598074913,0.6587607860565186,0.8418273329734802,-0.027954986318945885,0.6087799072265625,0.8217136263847351,-0.030706528574228287,0.6259223222732544,0.8165264129638672,-0.016405930742621422,0.6456063985824585,0.8200212717056274,-0.004915050696581602,0.6608205437660217,0.8894371390342712,-0.029446542263031006,0.6256157755851746,0.8662680387496948,-0.024957707151770592,0.6420263648033142,0.8602077960968018,-0.009495618753135204,0.6587018370628357,0.8633196353912354,0.003339888760820031,0.0,0.0,0.0,0.0,0.0,0.0,0.0,0.0,0.0,0.0,0.0,0.0,0.0,0.0,0.0,0.0,0.0,0.0,0.0,0.0,0.0,0.0,0.0,0.0,0.0,0.0,0.0,0.0,0.0,0.0,0.0,0.0,0.0,0.0,0.0,0.0,0.0,0.0,0.0,0.0,0.0,0.0,0.0,0.0,0.0,0.0,0.0,0.0,0.0,0.0,0.0,0.0,0.0,0.0,0.0,0.0,0.0,0.0,0.0,0.0,0.0,0.0,0.0
1783390693.96847,0.7617156505584717,0.8758661150932312,3.1170142733571993e-07,0.7420647144317627,0.7901752591133118,0.010085505433380604,0.7092289328575134,0.7152661681175232,0.008069591596722603,0.6832206845283508,0.6489662528038025,0.0045214081183075905,0.6800762414932251,0.5924656987190247,0.0008402954554185271,0.6704056859016418,0.7358490824699402,-0.01891966536641121,0.6086450219154358,0.695186972618103,-0.02690538577735424,0.5735688209533691,0.6754351854324341,-0.029771145433187485,0.5460893511772156,0.6603479385375977,-0.031434327363967896,0.6616146564483643,0.7881048321723938,-0.02535281330347061,0.5931656956672668,0.7635169625282288,-0.03695430979132652,0.551475465297699,0.7563284039497375,-0.04059568792581558,0.5218058228492737,0.7568214535713196,-0.04298987612128258,0.6586393713951111,0.8422179222106934,-0.02735123783349991,0.6090482473373413,0.8215333819389343,-0.028784409165382385,0.6261284351348877,0.8165247440338135,-0.013478578999638557,0.6456986665725708,0.8202090859413147,-0.0016584026161581278,0.6606842279434204,0.8896521925926208,-0.028838269412517548,0.625379741191864,0.8656884431838989,-0.022916650399565697,0.6416417360305786,0.8600934147834778,-0.0066831596195697784,0.6581805944442749,0.8630087375640869,0.006472127046436071,0.0,0.0,0.0,0.0,0.0,0.0,0.0,0.0,0.0,0.0,0.0,0.0,0.0,0.0,0.0,0.0,0.0,0.0,0.0,0.0,0.0,0.0,0.0,0.0,0.0,0.0,0.0,0.0,0.0,0.0,0.0,0.0,0.0,0.0,0.0,0.0,0.0,0.0,0.0,0.0,0.0,0.0,0.0,0.0,0.0,0.0,0.0,0.0,0.0,0.0,0.0,0.0,0.0,0.0,0.0,0.0,0.0,0.0,0.0,0.0,0.0,0.0,0.0
1783390694.171954,0.7621366381645203,0.8768712282180786,3.042962930521753e-07,0.7426305413246155,0.7904101014137268,0.012432711198925972,0.710443377494812,0.7158135175704956,0.011585709638893604,0.6842589378356934,0.6495258212089539,0.008995137177407742,0.680881679058075,0.5928544998168945,0.006511001847684383,0.6709785461425781,0.7350641489028931,-0.01626473106443882,0.6089046001434326,0.6952429413795471,-0.022800154983997345,0.574042558670044,0.6760922074317932,-0.02477828599512577,0.5464718341827393,0.6613692045211792,-0.02601736970245838,0.6616102457046509,0.7867764830589294,-0.023026060312986374,0.5929086208343506,0.7632428407669067,-0.033960215747356415,0.5512120723724365,0.7568179368972778,-0.037561748176813126,0.5216497182846069,0.7576913237571716,-0.04006434977054596,0.6579148173332214,0.8409273624420166,-0.025007348507642746,0.609171986579895,0.8218384385108948,-0.024491172283887863,0.6267199516296387,0.8179415464401245,-0.008246807381510735,0.6464253664016724,0.8216809630393982,0.003777785925194621,0.6592968702316284,0.8879721164703369,-0.026369977742433548,0.6251596212387085,0.8660590052604675,-0.018433142453432083,0.6419664621353149,0.861325740814209,-0.0014728264650329947,0.6585791707038879,0.8641287684440613,0.011932832188904285,0.0,0.0,0.0,0.0,0.0,0.0,0.0,0.0,0.0,0.0,0.0,0.0,0.0,0.0,0.0,0.0,0.0,0.0,0.0,0.0,0.0,0.0,0.0,0.0,0.0,0.0,0.0,0.0,0.0,0.0,0.0,0.0,0.0,0.0,0.0,0.0,0.0,0.0,0.0,0.0,0.0,0.0,0.0,0.0,0.0,0.0,0.0,0.0,0.0,0.0,0.0,0.0,0.0,0.0,0.0,0.0,0.0,0.0,0.0,0.0,0.0,0.0,0.0
1783390694.306557,0.7632926106452942,0.8763150572776794,2.9875837981307996e-07,0.7423484325408936,0.7898202538490295,0.01324998028576374,0.7106257677078247,0.7162021994590759,0.012777499854564667,0.6848258376121521,0.6507980227470398,0.010536085814237595,0.6797291040420532,0.5955400466918945,0.008506539277732372,0.6704525947570801,0.7352813482284546,-0.01588917151093483,0.6085128784179688,0.6949651837348938,-0.02264034003019333,0.5734246969223022,0.6760143041610718,-0.02452649362385273,0.5461302995681763,0.6611484885215759,-0.02545293979346752,0.661587119102478,0.7876603007316589,-0.022878536954522133,0.5926415920257568,0.7644264698028564,-0.0346958301961422,0.5507371425628662,0.7582427263259888,-0.03823316842317581,0.521462619304657,0.7588688135147095,-0.04029546305537224,0.6584606766700745,0.8420983552932739,-0.024977771565318108,0.6101226210594177,0.8219274878501892,-0.025041714310646057,0.6269285082817078,0.8176566362380981,-0.008357323706150055,0.6461006999015808,0.8208935260772705,0.004358780570328236,0.6606277823448181,0.8898084163665771,-0.026331501081585884,0.6256834864616394,0.8666172027587891,-0.018216947093605995,0.6420921683311462,0.8615986704826355,-0.0004603083070833236,0.6584004759788513,0.8641793727874756,0.01373338233679533,0.0,0.0,0.0,0.0,0.0,0.0,0.0,0.0,0.0,0.0,0.0,0.0,0.0,0.0,0.0,0.0,0.0,0.0,0.0,0.0,0.0,0.0,0.0,0.0,0.0,0.0,0.0,0.0,0.0,0.0,0.0,0.0,0.0,0.0,0.0,0.0,0.0,0.0,0.0,0.0,0.0,0.0,0.0,0.0,0.0,0.0,0.0,0.0,0.0,0.0,0.0,0.0,0.0,0.0,0.0,0.0,0.0,0.0,0.0,0.0,0.0,0.0,0.0
1783390694.468498,0.7625514268875122,0.8773635625839233,3.184719048476836e-07,0.7424975633621216,0.7916308641433716,0.011115418747067451,0.7096837162971497,0.7167824506759644,0.00952878873795271,0.683525562286377,0.6507394313812256,0.006035716272890568,0.680178701877594,0.5944774150848389,0.0024626897647976875,0.6705268025398254,0.7358043193817139,-0.01718767173588276,0.6083009243011475,0.6953713893890381,-0.02504553273320198,0.5731158256530762,0.6753803491592407,-0.02769320458173752,0.5456342101097107,0.6602854132652283,-0.029173510149121284,0.6616732478141785,0.7878186106681824,-0.02435550093650818,0.5928418040275574,0.7634760737419128,-0.036691196262836456,0.5504308938980103,0.7566536664962769,-0.0409570075571537,0.5203861594200134,0.7573630213737488,-0.043592918664216995,0.6586818099021912,0.8427029848098755,-0.027016151696443558,0.6093924641609192,0.8235886693000793,-0.028846366330981255,0.6267713904380798,0.819404661655426,-0.013328112661838531,0.6463391780853271,0.8227505087852478,-0.0011564065935090184,0.6607555150985718,0.8912026882171631,-0.02910427935421467,0.6259803175926208,0.8687041401863098,-0.02316696010529995,0.6429851651191711,0.8635678887367249,-0.006557272747159004,0.659656286239624,0.8666310906410217,0.006987147964537144,0.0,0.0,0.0,0.0,0.0,0.0,0.0,0.0,0.0,0.0,0.0,0.0,0.0,0.0,0.0,0.0,0.0,0.0,0.0,0.0,0.0,0.0,0.0,0.0,0.0,0.0,0.0,0.0,0.0,0.0,0.0,0.0,0.0,0.0,0.0,0.0,0.0,0.0,0.0,0.0,0.0,0.0,0.0,0.0,0.0,0.0,0.0,0.0,0.0,0.0,0.0,0.0,0.0,0.0,0.0,0.0,0.0,0.0,0.0,0.0,0.0,0.0,0.0
1783390694.598809,0.7625650763511658,0.8775759339332581,3.1843427450439776e-07,0.7430278658866882,0.7921311259269714,0.008467474021017551,0.7095623016357422,0.7170401811599731,0.006133561488240957,0.6839054226875305,0.6503352522850037,0.0024069282226264477,0.6804130673408508,0.5941346883773804,-0.001546237850561738,0.6716008186340332,0.7365059852600098,-0.01921999268233776,0.6091155409812927,0.695572018623352,-0.02731451764702797,0.573874831199646,0.6756366491317749,-0.029824543744325638,0.5462405681610107,0.6602469086647034,-0.03097197785973549,0.6625257730484009,0.7887282967567444,-0.02539474330842495,0.592972457408905,0.764414370059967,-0.037031546235084534,0.5510246753692627,0.7569317817687988,-0.04025038331747055,0.5209882855415344,0.7563431859016418,-0.04198411479592323,0.6593260765075684,0.8430593013763428,-0.027476897463202477,0.6093172430992126,0.8236945867538452,-0.030795659869909286,0.6263831853866577,0.8192694187164307,-0.01657133735716343,0.6460850238800049,0.8231855034828186,-0.0047795213758945465,0.6611211895942688,0.8918524384498596,-0.029049305245280266,0.625146210193634,0.8679494857788086,-0.024926291778683662,0.6416373252868652,0.862748384475708,-0.009250817820429802,0.6585232019424438,0.8660747408866882,0.003921021707355976,0.0,0.0,0.0,0.0,0.0,0.0,0.0,0.0,0.0,0.0,0.0,0.0,0.0,0.0,0.0,0.0,0.0,0.0,0.0,0.0,0.0,0.0,0.0,0.0,0.0,0.0,0.0,0.0,0.0,0.0,0.0,0.0,0.0,0.0,0.0,0.0,0.0,0.0,0.0,0.0,0.0,0.0,0.0,0.0,0.0,0.0,0.0,0.0,0.0,0.0,0.0,0.0,0.0,0.0,0.0,0.0,0.0,0.0,0.0,0.0,0.0,0.0,0.0
1783390694.731334,0.762432873249054,0.8773150444030762,3.0952102747505705e-07,0.7419705986976624,0.7907459139823914,0.012977308593690395,0.7103109359741211,0.7168516516685486,0.012520509772002697,0.68453049659729,0.6509247422218323,0.010306842625141144,0.6791791319847107,0.5961184501647949,0.008344477973878384,0.6706833839416504,0.7356036305427551,-0.01588018424808979,0.6081749796867371,0.694744348526001,-0.022757651284337044,0.5730630159378052,0.6748656034469604,-0.02457667887210846,0.5457329750061035,0.6594940423965454,-0.025457752868533134,0.6620091199874878,0.7874588966369629,-0.022926734760403633,0.5933581590652466,0.7629079222679138,-0.03535263240337372,0.5512497425079346,0.7560609579086304,-0.03936142101883888,0.5217443108558655,0.7565411925315857,-0.041659921407699585,0.6587087512016296,0.8420873880386353,-0.025141358375549316,0.6092515587806702,0.8228952288627625,-0.026254212483763695,0.625934898853302,0.8183472752571106,-0.010002907365560532,0.645179808139801,0.8211788535118103,0.0026581324636936188,0.660437822341919,0.890011727809906,-0.02656208910048008,0.6246039271354675,0.8671450018882751,-0.01961625926196575,0.6412755846977234,0.8621862530708313,-0.00228283298201859,0.6578583717346191,0.8650312423706055,0.011803848668932915,0.0,0.0,0.0,0.0,0.0,0.0,0.0,0.0,0.0,0.0,0.0,0.0,0.0,0.0,0.0,0.0,0.0,0.0,0.0,0.0,0.0,0.0,0.0,0.0,0.0,0.0,0.0,0.0,0.0,0.0,0.0,0.0,0.0,0.0,0.0,0.0,0.0,0.0,0.0,0.0,0.0,0.0,0.0,0.0,0.0,0.0,0.0,0.0,0.0,0.0,0.0,0.0,0.0,0.0,0.0,0.0,0.0,0.0,0.0,0.0,0.0,0.0,0.0
1783390694.8705091,0.7627464532852173,0.8774076700210571,3.2493946378053806e-07,0.7432648539543152,0.7924151420593262,0.008177724666893482,0.7099663019180298,0.7165860533714294,0.0055662295781075954,0.6840729713439941,0.6496294736862183,0.001624922500923276,0.6804105043411255,0.5937663316726685,-0.0023957376834005117,0.671379566192627,0.7362996339797974,-0.020286746323108673,0.60773104429245,0.6949836015701294,-0.028729688376188278,0.5719714760780334,0.6741229891777039,-0.03144568204879761,0.5441648960113525,0.6582884192466736,-0.0328405536711216,0.662684440612793,0.7882992029190063,-0.026337359100580215,0.5933764576911926,0.7634836435317993,-0.039031147956848145,0.5509179830551147,0.7561835646629333,-0.043059367686510086,0.5208314061164856,0.7563227415084839,-0.045359011739492416,0.659508228302002,0.8427021503448486,-0.028192153200507164,0.609338641166687,0.8227430582046509,-0.03174952045083046,0.6266621947288513,0.8186336755752563,-0.017115097492933273,0.6462974548339844,0.8225984573364258,-0.005074205342680216,0.6610636115074158,0.8909198045730591,-0.02958994172513485,0.6252161264419556,0.8669314980506897,-0.025632750242948532,0.6418933868408203,0.8620826005935669,-0.009900390170514584,0.6586331129074097,0.8657292723655701,0.0033514993265271187,0.0,0.0,0.0,0.0,0.0,0.0,0.0,0.0,0.0,0.0,0.0,0.0,0.0,0.0,0.0,0.0,0.0,0.0,0.0,0.0,0.0,0.0,0.0,0.0,0.0,0.0,0.0,0.0,0.0,0.0,0.0,0.0,0.0,0.0,0.0,0.0,0.0,0.0,0.0,0.0,0.0,0.0,0.0,0.0,0.0,0.0,0.0,0.0,0.0,0.0,0.0,0.0,0.0,0.0,0.0,0.0,0.0,0.0,0.0,0.0,0.0,0.0,0.0
1783390695.03986,0.7629179358482361,0.8780070543289185,3.139259661111282e-07,0.7432260513305664,0.7932993769645691,0.009451232850551605,0.7103387713432312,0.7167748212814331,0.0068858773447573185,0.6840871572494507,0.6500658988952637,0.0029512878973037004,0.6799110770225525,0.5935348868370056,-0.001172876451164484,0.6715407967567444,0.7365926504135132,-0.02126271277666092,0.6074491143226624,0.6950460076332092,-0.03052179142832756,0.5712025165557861,0.6739599108695984,-0.0340530090034008,0.5428748726844788,0.6577947735786438,-0.035984672605991364,0.6633816361427307,0.7889158725738525,-0.027689529582858086,0.5934200882911682,0.7638868093490601,-0.0403050035238266,0.5509364008903503,0.7567415833473206,-0.04397096857428551,0.5205933451652527,0.7573750615119934,-0.04629844054579735,0.6602467894554138,0.8431183695793152,-0.02973344549536705,0.6089533567428589,0.8227728009223938,-0.032390888780355453,0.6258669495582581,0.8186041116714478,-0.0168373491615057,0.6454110741615295,0.8222871422767639,-0.0045796846970915794,0.6616101861000061,0.891408383846283,-0.03127230331301689,0.6245770454406738,0.8666236400604248,-0.02650897204875946,0.6409429311752319,0.8621487021446228,-0.010170867666602135,0.6576162576675415,0.8656289577484131,0.0032883191015571356,0.0,0.0,0.0,0.0,0.0,0.0,0.0,0.0,0.0,0.0,0.0,0.0,0.0,0.0,0.0,0.0,0.0,0.0,0.0,0.0,0.0,0.0,0.0,0.0,0.0,0.0,0.0,0.0,0.0,0.0,0.0,0.0,0.0,0.0,0.0,0.0,0.0,0.0,0.0,0.0,0.0,0.0,0.0,0.0,0.0,0.0,0.0,0.0,0.0,0.0,0.0,0.0,0.0,0.0,0.0,0.0,0.0,0.0,0.0,0.0,0.0,0.0,0.0
1783390695.201306,0.7633057832717896,0.8773765563964844,3.0911158432900265e-07,0.7439913153648376,0.7923368811607361,0.009612834081053734,0.710781991481781,0.716625988483429,0.0076913186348974705,0.6844336986541748,0.6495558023452759,0.00421613035723567,0.6811744570732117,0.5930590033531189,0.0007410396938212216,0.671802818775177,0.7348620891571045,-0.018868789076805115,0.6077020168304443,0.6936025023460388,-0.0271395742893219,0.5713863968849182,0.6728742718696594,-0.030032290145754814,0.5431615114212036,0.6573261022567749,-0.03172636777162552,0.6628289222717285,0.7864610552787781,-0.025187278166413307,0.593730628490448,0.7624009251594543,-0.037672899663448334,0.5514916777610779,0.756048858165741,-0.0420110858976841,0.5216553807258606,0.7569427490234375,-0.044769782572984695,0.6592233180999756,0.8407800197601318,-0.027160819619894028,0.6093811392784119,0.8221113681793213,-0.02942661941051483,0.6267321109771729,0.8185948729515076,-0.01437090802937746,0.6465256214141846,0.822535514831543,-0.002514429157599807,0.6604034304618835,0.8886081576347351,-0.028671644628047943,0.6260843873023987,0.8671644926071167,-0.02353832684457302,0.6428048610687256,0.8624438047409058,-0.007808141876012087,0.6593813896179199,0.8655986785888672,0.005177599377930164,0.0,0.0,0.0,0.0,0.0,0.0,0.0,0.0,0.0,0.0,0.0,0.0,0.0,0.0,0.0,0.0,0.0,0.0,0.0,0.0,0.0,0.0,0.0,0.0,0.0,0.0,0.0,0.0,0.0,0.0,0.0,0.0,0.0,0.0,0.0,0.0,0.0,0.0,0.0,0.0,0.0,0.0,0.0,0.0,0.0,0.0,0.0,0.0,0.0,0.0,0.0,0.0,0.0,0.0,0.0,0.0,0.0,0.0,0.0,0.0,0.0,0.0,0.0
1783390695.4129121,0.7655754685401917,0.8718156814575195,2.72980713589277e-07,0.7452470660209656,0.7851856350898743,0.014042042195796967,0.7126312851905823,0.7102904319763184,0.014617176726460457,0.6878825426101685,0.6451559662818909,0.013014649972319603,0.6848559379577637,0.5911298990249634,0.01144496537744999,0.6724755764007568,0.7288380265235901,-0.013424213044345379,0.6114515066146851,0.6892728209495544,-0.02138182334601879,0.5761775970458984,0.6689017415046692,-0.02535766176879406,0.5487403273582458,0.6522791981697083,-0.027983995154500008,0.6642203330993652,0.7797627449035645,-0.020860811695456505,0.5960961580276489,0.7577484250068665,-0.0326780341565609,0.554220974445343,0.7492982149124146,-0.03700632601976395,0.5237775444984436,0.7483969330787659,-0.040121305733919144,0.6619842052459717,0.8329885005950928,-0.023722494021058083,0.6111651659011841,0.8153877258300781,-0.024821657687425613,0.6282910704612732,0.8101930022239685,-0.009154899045825005,0.6477059721946716,0.8131029009819031,0.002836212981492281,0.664463996887207,0.8805471062660217,-0.025802278891205788,0.6268165111541748,0.857737123966217,-0.02014359086751938,0.6433866024017334,0.8529090285301208,-0.0038853916339576244,0.6602813601493835,0.8552600145339966,0.009369310922920704,0.0,0.0,0.0,0.0,0.0,0.0,0.0,0.0,0.0,0.0,0.0,0.0,0.0,0.0,0.0,0.0,0.0,0.0,0.0,0.0,0.0,0.0,0.0,0.0,0.0,0.0,0.0,0.0,0.0,0.0,0.0,0.0,0.0,0.0,0.0,0.0,0.0,0.0,0.0,0.0,0.0,0.0,0.0,0.0,0.0,0.0,0.0,0.0,0.0,0.0,0.0,0.0,0.0,0.0,0.0,0.0,0.0,0.0,0.0,0.0,0.0,0.0,0.0
1783390695.5718,0.7663742303848267,0.8720436692237854,2.88290323169349e-07,0.7463563084602356,0.787161648273468,0.010075325146317482,0.7132589221000671,0.7113442420959473,0.00825444981455803,0.6879691481590271,0.645387589931488,0.004611621145159006,0.6844602823257446,0.5898905992507935,0.0005010387394577265,0.6748904585838318,0.7310829758644104,-0.017955737188458443,0.6123168468475342,0.6901726722717285,-0.02662207931280136,0.5765307545661926,0.6700513958930969,-0.029852578416466713,0.5485491156578064,0.654592752456665,-0.03152253106236458,0.6665289998054504,0.7824121713638306,-0.025170601904392242,0.5970306396484375,0.7593398094177246,-0.03717897832393646,0.5549885034561157,0.7530820965766907,-0.04080429673194885,0.5246672034263611,0.7539834976196289,-0.04293094202876091,0.6639426946640015,0.8358142375946045,-0.028248803690075874,0.6133249998092651,0.8183355331420898,-0.03184537589550018,0.6304543018341064,0.8143286108970642,-0.017671318724751472,0.6499151587486267,0.8176171183586121,-0.005969898775219917,0.6660740375518799,0.8845606446266174,-0.030667779967188835,0.6282715797424316,0.8625438809394836,-0.026664040982723236,0.6444166898727417,0.8580880165100098,-0.010753919370472431,0.6612403988838196,0.8611937165260315,0.002542092464864254,0.0,0.0,0.0,0.0,0.0,0.0,0.0,0.0,0.0,0.0,0.0,0.0,0.0,0.0,0.0,0.0,0.0,0.0,0.0,0.0,0.0,0.0,0.0,0.0,0.0,0.0,0.0,0.0,0.0,0.0,0.0,0.0,0.0,0.0,0.0,0.0,0.0,0.0,0.0,0.0,0.0,0.0,0.0,0.0,0.0,0.0,0.0,0.0,0.0,0.0,0.0,0.0,0.0,0.0,0.0,0.0,0.0,0.0,0.0,0.0,0.0,0.0,0.0
1783390695.740291,0.7662845253944397,0.8721949458122253,2.93738537493482e-07,0.746008574962616,0.7868611812591553,0.010300450958311558,0.7128138542175293,0.7122973799705505,0.008990347385406494,0.6870983242988586,0.6469340920448303,0.006026906426995993,0.6818382740020752,0.593467652797699,0.0029034707695245743,0.6742841005325317,0.730593740940094,-0.01747335121035576,0.6111175417900085,0.6918087601661682,-0.025700079277157784,0.5755177736282349,0.6719969511032104,-0.028635257855057716,0.5477306842803955,0.6566736102104187,-0.03011515736579895,0.6659324169158936,0.7818077206611633,-0.024418020620942116,0.5964062213897705,0.7587881088256836,-0.03673246502876282,0.5542370080947876,0.7523142695426941,-0.04059341549873352,0.5241845846176147,0.7526102066040039,-0.042713653296232224,0.6628516912460327,0.8353851437568665,-0.027161043137311935,0.611692488193512,0.8171542882919312,-0.030773045495152473,0.628551185131073,0.8134154081344604,-0.016423476859927177,0.6479454636573792,0.8167737722396851,-0.004472596105188131,0.6645159125328064,0.8840808272361755,-0.029220256954431534,0.6270363926887512,0.8604499697685242,-0.025216789916157722,0.6435114145278931,0.8563242554664612,-0.009325605817139149,0.6605345010757446,0.8595646619796753,0.004079438280314207,0.0,0.0,0.0,0.0,0.0,0.0,0.0,0.0,0.0,0.0,0.0,0.0,0.0,0.0,0.0,0.0,0.0,0.0,0.0,0.0,0.0,0.0,0.0,0.0,0.0,0.0,0.0,0.0,0.0,0.0,0.0,0.0,0.0,0.0,0.0,0.0,0.0,0.0,0.0,0.0,0.0,0.0,0.0,0.0,0.0,0.0,0.0,0.0,0.0,0.0,0.0,0.0,0.0,0.0,0.0,0.0,0.0,0.0,0.0,0.0,0.0,0.0,0.0
1783390695.894696,0.7655558586120605,0.8715746402740479,3.0209974966055597e-07,0.7451456189155579,0.7869617938995361,0.008843090385198593,0.7121374011039734,0.7120333909988403,0.006717106327414513,0.6865587830543518,0.6465374231338501,0.00317532941699028,0.6812310814857483,0.5931639671325684,-0.0005095675005577505,0.6737834215164185,0.731240451335907,-0.01955099031329155,0.6105586886405945,0.6918477416038513,-0.028288260102272034,0.5748437643051147,0.6720274090766907,-0.03137838467955589,0.5469635128974915,0.6570119261741638,-0.03300510719418526,0.66538006067276,0.7825139164924622,-0.026133812963962555,0.5958409309387207,0.7583987712860107,-0.03914931043982506,0.5535143613815308,0.7517665028572083,-0.04334592446684837,0.5234026312828064,0.752231776714325,-0.045692890882492065,0.6625544428825378,0.8362496495246887,-0.028541099280118942,0.6109144687652588,0.817082941532135,-0.03286729380488396,0.6277936697006226,0.8128219842910767,-0.018571289256215096,0.6472838521003723,0.8159140348434448,-0.00663268007338047,0.6647459864616394,0.8847288489341736,-0.0303889699280262,0.6281776428222656,0.8616216778755188,-0.02730272151529789,0.6450202465057373,0.857069730758667,-0.0118021909147501,0.6622341871261597,0.8604509830474854,0.0014096044469624758,0.0,0.0,0.0,0.0,0.0,0.0,0.0,0.0,0.0,0.0,0.0,0.0,0.0,0.0,0.0,0.0,0.0,0.0,0.0,0.0,0.0,0.0,0.0,0.0,0.0,0.0,0.0,0.0,0.0,0.0,0.0,0.0,0.0,0.0,0.0,0.0,0.0,0.0,0.0,0.0,0.0,0.0,0.0,0.0,0.0,0.0,0.0,0.0,0.0,0.0,0.0,0.0,0.0,0.0,0.0,0.0,0.0,0.0,0.0,0.0,0.0,0.0,0.0
1783390696.041991,0.7649606466293335,0.8696131706237793,3.043157335014257e-07,0.744615375995636,0.7847316861152649,0.0097549669444561,0.711799681186676,0.7108721137046814,0.008165468461811543,0.685409426689148,0.6464419364929199,0.004941749852150679,0.680382251739502,0.5926768779754639,0.001685446361079812,0.6729978322982788,0.7310391068458557,-0.018029147759079933,0.6087720990180969,0.691636860370636,-0.026341047137975693,0.572931170463562,0.672582745552063,-0.029018932953476906,0.5451903939247131,0.6586257815361023,-0.03030574321746826,0.6644178032875061,0.7826595902442932,-0.024580908939242363,0.5944716930389404,0.7579705119132996,-0.03724368289113045,0.5523787140846252,0.7513726353645325,-0.04116487130522728,0.5227773785591125,0.7526058554649353,-0.04319233074784279,0.6617211103439331,0.836370050907135,-0.026899103075265884,0.6109368801116943,0.8163875937461853,-0.030029289424419403,0.627805769443512,0.8113698363304138,-0.015172862447798252,0.6472039818763733,0.8144037127494812,-0.002964538522064686,0.6642308235168457,0.8844869136810303,-0.02868291363120079,0.628998339176178,0.8611627817153931,-0.02435639128088951,0.6458714604377747,0.856007993221283,-0.008551754988729954,0.6630337834358215,0.8594571948051453,0.0047993967309594154,0.0,0.0,0.0,0.0,0.0,0.0,0.0,0.0,0.0,0.0,0.0,0.0,0.0,0.0,0.0,0.0,0.0,0.0,0.0,0.0,0.0,0.0,0.0,0.0,0.0,0.0,0.0,0.0,0.0,0.0,0.0,0.0,0.0,0.0,0.0,0.0,0.0,0.0,0.0,0.0,0.0,0.0,0.0,0.0,0.0,0.0,0.0,0.0,0.0,0.0,0.0,0.0,0.0,0.0,0.0,0.0,0.0,0.0,0.0,0.0,0.0,0.0,0.0
1783390696.266616,0.7661391496658325,0.8736357092857361,2.915922436841356e-07,0.7454031109809875,0.7885798811912537,0.0121142053976655,0.7122573256492615,0.7136402130126953,0.011360890232026577,0.6853786110877991,0.6494852304458618,0.008577104657888412,0.6821839809417725,0.5933029055595398,0.005698686931282282,0.6722351312637329,0.7326821684837341,-0.01564648002386093,0.609826385974884,0.6934115290641785,-0.023883013054728508,0.5736439228057861,0.6737852096557617,-0.027737358585000038,0.545602560043335,0.6596257090568542,-0.030264336615800858,0.663820207118988,0.7845683693885803,-0.02273513562977314,0.595210611820221,0.7621523141860962,-0.03419987112283707,0.5532051920890808,0.7563443183898926,-0.03867428004741669,0.523533046245575,0.7589486241340637,-0.04190167784690857,0.6612799167633057,0.8388636708259583,-0.02535867877304554,0.6109713315963745,0.8200472593307495,-0.025774993002414703,0.6276270151138306,0.8137872815132141,-0.010325196199119091,0.6470229625701904,0.8162875175476074,0.0012612070422619581,0.6637992858886719,0.8866864442825317,-0.027453361079096794,0.6289817094802856,0.864066481590271,-0.020909596234560013,0.6449238657951355,0.8574157953262329,-0.004828848410397768,0.6614782214164734,0.8595466613769531,0.008134894073009491,0.0,0.0,0.0,0.0,0.0,0.0,0.0,0.0,0.0,0.0,0.0,0.0,0.0,0.0,0.0,0.0,0.0,0.0,0.0,0.0,0.0,0.0,0.0,0.0,0.0,0.0,0.0,0.0,0.0,0.0,0.0,0.0,0.0,0.0,0.0,0.0,0.0,0.0,0.0,0.0,0.0,0.0,0.0,0.0,0.0,0.0,0.0,0.0,0.0,0.0,0.0,0.0,0.0,0.0,0.0,0.0,0.0,0.0,0.0,0.0,0.0,0.0,0.0
1783390696.434706,0.7647484540939331,0.8723728656768799,3.1609633310836216e-07,0.7442910671234131,0.7868668437004089,0.010722553357481956,0.7120108604431152,0.7115284204483032,0.009417645633220673,0.6858078837394714,0.6453306674957275,0.006377444136887789,0.6826280355453491,0.5899662375450134,0.003639355767518282,0.6727408766746521,0.7296448945999146,-0.016541019082069397,0.6095989942550659,0.690758466720581,-0.02520141191780567,0.5738784670829773,0.6707983613014221,-0.029071306809782982,0.5462654232978821,0.6553235650062561,-0.031576141715049744,0.6642707586288452,0.7804086208343506,-0.023097600787878036,0.5952702760696411,0.7572734355926514,-0.0361897312104702,0.553199827671051,0.749338686466217,-0.04150006175041199,0.5235193371772766,0.7490389943122864,-0.04499450698494911,0.661030650138855,0.8341442942619324,-0.025294039398431778,0.6085838675498962,0.8156569004058838,-0.027683347463607788,0.6250341534614563,0.81005859375,-0.012554810382425785,0.6444540023803711,0.8127519488334656,-0.0006320864777080715,0.6623228788375854,0.881173849105835,-0.02703957073390484,0.6272690892219543,0.858729898929596,-0.02255645953118801,0.6438971757888794,0.8522390127182007,-0.007374956272542477,0.6602635383605957,0.8539680242538452,0.005385168362408876,0.0,0.0,0.0,0.0,0.0,0.0,0.0,0.0,0.0,0.0,0.0,0.0,0.0,0.0,0.0,0.0,0.0,0.0,0.0,0.0,0.0,0.0,0.0,0.0,0.0,0.0,0.0,0.0,0.0,0.0,0.0,0.0,0.0,0.0,0.0,0.0,0.0,0.0,0.0,0.0,0.0,0.0,0.0,0.0,0.0,0.0,0.0,0.0,0.0,0.0,0.0,0.0,0.0,0.0,0.0,0.0,0.0,0.0,0.0,0.0,0.0,0.0,0.0
1783390696.5697138,0.7664523720741272,0.8720230460166931,2.7230237265030155e-07,0.745756208896637,0.7867327928543091,0.013288501650094986,0.7131204009056091,0.7125647068023682,0.013032838702201843,0.6868683695793152,0.6468278765678406,0.010556514374911785,0.683361291885376,0.591503918170929,0.00799509510397911,0.6734351515769958,0.7296532988548279,-0.014969605021178722,0.6109881401062012,0.6901234984397888,-0.02294064499437809,0.5748944878578186,0.6701152920722961,-0.02630508318543434,0.546683669090271,0.6549365520477295,-0.02855036035180092,0.6648987531661987,0.7807012796401978,-0.02278471179306507,0.5961244702339172,0.758730947971344,-0.035495515912771225,0.5537855625152588,0.7532727718353271,-0.040440212935209274,0.5239620804786682,0.7551929354667664,-0.04378293827176094,0.6619893312454224,0.8348876237869263,-0.02591612935066223,0.612213134765625,0.8169023990631104,-0.027579156681895256,0.6297217011451721,0.8127011060714722,-0.011851413175463676,0.6493604183197021,0.8156256079673767,0.00025180430384352803,0.6641194224357605,0.8828197121620178,-0.02833392098546028,0.6284282207489014,0.8611041903495789,-0.022401858121156693,0.6453315615653992,0.8563068509101868,-0.005818693898618221,0.6621700525283813,0.858989953994751,0.0076438672840595245,0.0,0.0,0.0,0.0,0.0,0.0,0.0,0.0,0.0,0.0,0.0,0.0,0.0,0.0,0.0,0.0,0.0,0.0,0.0,0.0,0.0,0.0,0.0,0.0,0.0,0.0,0.0,0.0,0.0,0.0,0.0,0.0,0.0,0.0,0.0,0.0,0.0,0.0,0.0,0.0,0.0,0.0,0.0,0.0,0.0,0.0,0.0,0.0,0.0,0.0,0.0,0.0,0.0,0.0,0.0,0.0,0.0,0.0,0.0,0.0,0.0,0.0,0.0
1783390696.73362,0.7667903900146484,0.8728461861610413,2.9124583988959785e-07,0.7465340495109558,0.7883110642433167,0.010901411063969135,0.7135494351387024,0.712702751159668,0.00962034147232771,0.687354564666748,0.6462914943695068,0.006598060950636864,0.6843471527099609,0.5908838510513306,0.0035467681009322405,0.675218939781189,0.731163740158081,-0.017786478623747826,0.6112196445465088,0.6923090815544128,-0.026275556534528732,0.5749313235282898,0.6724629998207092,-0.029574045911431313,0.5469560623168945,0.6576910018920898,-0.03155003860592842,0.666456937789917,0.7827905416488647,-0.02466742880642414,0.5969974994659424,0.758245587348938,-0.037215735763311386,0.5546336770057678,0.7518455982208252,-0.04150231555104256,0.524918258190155,0.7534166574478149,-0.044202640652656555,0.6630635261535645,0.8368476033210754,-0.027151308953762054,0.611381471157074,0.8177454471588135,-0.02926558442413807,0.6288975477218628,0.8135093450546265,-0.01371849700808525,0.6487498879432678,0.8168233633041382,-0.0015454465756192803,0.6648339033126831,0.8844727277755737,-0.0290981512516737,0.6291027665138245,0.8624337315559387,-0.02386602573096752,0.6459941864013672,0.8570228815078735,-0.007754510268568993,0.6630548238754272,0.8596544861793518,0.00550990691408515,0.0,0.0,0.0,0.0,0.0,0.0,0.0,0.0,0.0,0.0,0.0,0.0,0.0,0.0,0.0,0.0,0.0,0.0,0.0,0.0,0.0,0.0,0.0,0.0,0.0,0.0,0.0,0.0,0.0,0.0,0.0,0.0,0.0,0.0,0.0,0.0,0.0,0.0,0.0,0.0,0.0,0.0,0.0,0.0,0.0,0.0,0.0,0.0,0.0,0.0,0.0,0.0,0.0,0.0,0.0,0.0,0.0,0.0,0.0,0.0,0.0,0.0,0.0
1783390696.8660989,0.7671551704406738,0.872722327709198,2.983437639159092e-07,0.7473251223564148,0.7881198525428772,0.008505740202963352,0.7140045166015625,0.7130193710327148,0.006361492443829775,0.6882830262184143,0.6465908885002136,0.0028124062810093164,0.6853448152542114,0.5913600921630859,-0.000851502874866128,0.6756567358970642,0.7321011424064636,-0.019425569102168083,0.6114299297332764,0.6925519704818726,-0.02846650779247284,0.5749444961547852,0.6729791760444641,-0.03209729492664337,0.5465346574783325,0.6585036516189575,-0.034111153334379196,0.6672466397285461,0.7842862606048584,-0.025671223178505898,0.5974095463752747,0.7596835494041443,-0.03791046142578125,0.5550405383110046,0.7527916431427002,-0.04203600436449051,0.524749755859375,0.7537078261375427,-0.04457569494843483,0.6641726493835449,0.838074803352356,-0.027878200635313988,0.6122233867645264,0.8178212642669678,-0.03133615478873253,0.6292980313301086,0.8126978278160095,-0.017190514132380486,0.649056077003479,0.8161817193031311,-0.005591840948909521,0.6658515334129333,0.8857123851776123,-0.029643084853887558,0.6294013261795044,0.8617531657218933,-0.02588464505970478,0.645641028881073,0.8554174900054932,-0.01060531660914421,0.6625722646713257,0.8580689430236816,0.002296716207638383,0.0,0.0,0.0,0.0,0.0,0.0,0.0,0.0,0.0,0.0,0.0,0.0,0.0,0.0,0.0,0.0,0.0,0.0,0.0,0.0,0.0,0.0,0.0,0.0,0.0,0.0,0.0,0.0,0.0,0.0,0.0,0.0,0.0,0.0,0.0,0.0,0.0,0.0,0.0,0.0,0.0,0.0,0.0,0.0,0.0,0.0,0.0,0.0,0.0,0.0,0.0,0.0,0.0,0.0,0.0,0.0,0.0,0.0,0.0,0.0,0.0,0.0,0.0
1783390697.012488,0.7673448920249939,0.8739594221115112,2.9929532274763915e-07,0.7472783327102661,0.7893242239952087,0.009153096936643124,0.7142879962921143,0.713496208190918,0.006771209184080362,0.6881887912750244,0.6481107473373413,0.0028231856413185596,0.6850430965423584,0.5923612713813782,-0.0014304808573797345,0.6757851839065552,0.732663094997406,-0.020027296617627144,0.6117563247680664,0.6928166747093201,-0.030087601393461227,0.5749199390411377,0.6727471947669983,-0.03472026437520981,0.5461527705192566,0.6575154066085815,-0.037401989102363586,0.6675772666931152,0.7847159504890442,-0.02656555362045765,0.597947359085083,0.7610222101211548,-0.03920983523130417,0.5557875633239746,0.7539857029914856,-0.043427493423223495,0.5255716443061829,0.7547008991241455,-0.04616740718483925,0.6646896004676819,0.8383745551109314,-0.028997858986258507,0.6133221387863159,0.8191851377487183,-0.03234248235821724,0.6302399635314941,0.8144591450691223,-0.01784430257976055,0.6498488187789917,0.8176900148391724,-0.006124626379460096,0.6662291884422302,0.8869253993034363,-0.03095659799873829,0.6291493773460388,0.8632462620735168,-0.027016298845410347,0.6451591849327087,0.8577417731285095,-0.011416515335440636,0.661857008934021,0.8600639700889587,0.0016443169442936778,0.0,0.0,0.0,0.0,0.0,0.0,0.0,0.0,0.0,0.0,0.0,0.0,0.0,0.0,0.0,0.0,0.0,0.0,0.0,0.0,0.0,0.0,0.0,0.0,0.0,0.0,0.0,0.0,0.0,0.0,0.0,0.0,0.0,0.0,0.0,0.0,0.0,0.0,0.0,0.0,0.0,0.0,0.0,0.0,0.0,0.0,0.0,0.0,0.0,0.0,0.0,0.0,0.0,0.0,0.0,0.0,0.0,0.0,0.0,0.0,0.0,0.0,0.0
1783390697.173145,0.7660754919052124,0.8707475662231445,3.1157881608123716e-07,0.7460871338844299,0.7851671576499939,0.010641489177942276,0.7141155004501343,0.7112391591072083,0.00931486114859581,0.6881898641586304,0.6453948020935059,0.006429238710552454,0.6847816109657288,0.5906091332435608,0.0038276473060250282,0.6749494075775146,0.7298868894577026,-0.01786568947136402,0.6110694408416748,0.690316915512085,-0.026748990640044212,0.5749737024307251,0.6698837280273438,-0.030467910692095757,0.5472807288169861,0.6539325714111328,-0.03273680806159973,0.6661885380744934,0.7811101078987122,-0.024133937433362007,0.5970659255981445,0.7570025324821472,-0.03784596547484398,0.5549353361129761,0.7486490607261658,-0.043107714504003525,0.5254234075546265,0.7479487061500549,-0.046374086290597916,0.6626255512237549,0.8345851898193359,-0.02590840309858322,0.6109815835952759,0.8154398202896118,-0.02862006053328514,0.6268432140350342,0.8100038766860962,-0.013387749902904034,0.6459033489227295,0.8129484057426453,-0.0012121358886361122,0.6637808680534363,0.8812817931175232,-0.027149535715579987,0.6283408999443054,0.8592110276222229,-0.022400759160518646,0.6442674398422241,0.8529956936836243,-0.006764309015125036,0.6603749990463257,0.854998767375946,0.006360318511724472,0.0,0.0,0.0,0.0,0.0,0.0,0.0,0.0,0.0,0.0,0.0,0.0,0.0,0.0,0.0,0.0,0.0,0.0,0.0,0.0,0.0,0.0,0.0,0.0,0.0,0.0,0.0,0.0,0.0,0.0,0.0,0.0,0.0,0.0,0.0,0.0,0.0,0.0,0.0,0.0,0.0,0.0,0.0,0.0,0.0,0.0,0.0,0.0,0.0,0.0,0.0,0.0,0.0,0.0,0.0,0.0,0.0,0.0,0.0,0.0,0.0,0.0,0.0
1783390697.3394969,0.7664971947669983,0.8724554777145386,2.8296807386141154e-07,0.7468360066413879,0.7862592935562134,0.011977647431194782,0.7143906950950623,0.7121485471725464,0.01108919270336628,0.6884639859199524,0.6463891267776489,0.008267687633633614,0.6854225397109985,0.5906691551208496,0.0052613671869039536,0.6757088303565979,0.7295637726783752,-0.017410464584827423,0.6115145683288574,0.6904334425926208,-0.0264037624001503,0.5749014019966125,0.670814037322998,-0.03047609142959118,0.5462123155593872,0.6560595035552979,-0.03306062892079353,0.6672612428665161,0.7815520763397217,-0.024807579815387726,0.5975676774978638,0.7574715614318848,-0.03740653395652771,0.5555893778800964,0.750602662563324,-0.0420844666659832,0.5254692435264587,0.7513712644577026,-0.04534232243895531,0.6640846729278564,0.8358573317527771,-0.02770836278796196,0.612756609916687,0.8164898157119751,-0.030102483928203583,0.6302905678749084,0.8122029900550842,-0.014937635511159897,0.650124192237854,0.8153628706932068,-0.003136951010674238,0.6655320525169373,0.8841761350631714,-0.029928328469395638,0.6288043260574341,0.8606540560722351,-0.02510831505060196,0.6455686688423157,0.8556649088859558,-0.009087959304451942,0.6624380350112915,0.8582841157913208,0.004035043530166149,0.0,0.0,0.0,0.0,0.0,0.0,0.0,0.0,0.0,0.0,0.0,0.0,0.0,0.0,0.0,0.0,0.0,0.0,0.0,0.0,0.0,0.0,0.0,0.0,0.0,0.0,0.0,0.0,0.0,0.0,0.0,0.0,0.0,0.0,0.0,0.0,0.0,0.0,0.0,0.0,0.0,0.0,0.0,0.0,0.0,0.0,0.0,0.0,0.0,0.0,0.0,0.0,0.0,0.0,0.0,0.0,0.0,0.0,0.0,0.0,0.0,0.0,0.0
1783390697.504562,0.7673404812812805,0.872471272945404,2.954239732844144e-07,0.7480136156082153,0.7879498600959778,0.008788296021521091,0.7150936722755432,0.7127273678779602,0.0066309720277786255,0.6892661452293396,0.6467409133911133,0.0028634576592594385,0.686142086982727,0.5913026332855225,-0.0009843065636232495,0.6766529679298401,0.730478048324585,-0.01867508515715599,0.612693190574646,0.6904116868972778,-0.027714744210243225,0.576461911201477,0.670129120349884,-0.031349387019872665,0.5484400987625122,0.6548656225204468,-0.033457186073064804,0.6677405834197998,0.781856894493103,-0.025090575218200684,0.5988999605178833,0.7575104236602783,-0.03780125454068184,0.556867241859436,0.7500360608100891,-0.04235848784446716,0.5266493558883667,0.7503995299339294,-0.04524122551083565,0.6642374396324158,0.8357715606689453,-0.02746523916721344,0.6135823130607605,0.8155015110969543,-0.031143363565206528,0.6308475136756897,0.8111016154289246,-0.016893800348043442,0.6503673791885376,0.8154810070991516,-0.005221994128078222,0.6654704809188843,0.8835110664367676,-0.029400400817394257,0.6296713352203369,0.8590136170387268,-0.02577679045498371,0.6461346745491028,0.8534004092216492,-0.010519620962440968,0.6628726720809937,0.8571194410324097,0.002357127843424678,0.0,0.0,0.0,0.0,0.0,0.0,0.0,0.0,0.0,0.0,0.0,0.0,0.0,0.0,0.0,0.0,0.0,0.0,0.0,0.0,0.0,0.0,0.0,0.0,0.0,0.0,0.0,0.0,0.0,0.0,0.0,0.0,0.0,0.0,0.0,0.0,0.0,0.0,0.0,0.0,0.0,0.0,0.0,0.0,0.0,0.0,0.0,0.0,0.0,0.0,0.0,0.0,0.0,0.0,0.0,0.0,0.0,0.0,0.0,0.0,0.0,0.0,0.0
1783390697.646132,0.7668859362602234,0.8720951080322266,3.0094244607425935e-07,0.7473233938217163,0.7870991826057434,0.009676739573478699,0.7152628302574158,0.7122910022735596,0.007608157582581043,0.6897603273391724,0.6463881731033325,0.0038387570530176163,0.6860894560813904,0.5921143293380737,3.9893311623018235e-05,0.6767010688781738,0.7294289469718933,-0.018768174573779106,0.6133630871772766,0.6896952390670776,-0.02783774770796299,0.5774498581886292,0.66943359375,-0.031488873064517975,0.5494183897972107,0.654216468334198,-0.033695660531520844,0.6676689386367798,0.7804586291313171,-0.025529582053422928,0.599162757396698,0.756294310092926,-0.03914675489068031,0.5569090843200684,0.7489598393440247,-0.044221363961696625,0.5266115069389343,0.7491992115974426,-0.04739465191960335,0.6641018986701965,0.8343899250030518,-0.028003960847854614,0.6136615872383118,0.8147332668304443,-0.0318400114774704,0.6309813261032104,0.8103798627853394,-0.0172012597322464,0.6505409479141235,0.8140897154808044,-0.005231523420661688,0.6653326749801636,0.8822475075721741,-0.029951026663184166,0.629597544670105,0.8589291572570801,-0.0260444525629282,0.6462177634239197,0.8537329435348511,-0.010391551069915295,0.6629594564437866,0.856965184211731,0.0027515625115484,0.0,0.0,0.0,0.0,0.0,0.0,0.0,0.0,0.0,0.0,0.0,0.0,0.0,0.0,0.0,0.0,0.0,0.0,0.0,0.0,0.0,0.0,0.0,0.0,0.0,0.0,0.0,0.0,0.0,0.0,0.0,0.0,0.0,0.0,0.0,0.0,0.0,0.0,0.0,0.0,0.0,0.0,0.0,0.0,0.0,0.0,0.0,0.0,0.0,0.0,0.0,0.0,0.0,0.0,0.0,0.0,0.0,0.0,0.0,0.0,0.0,0.0,0.0
1783390697.836988,0.767654538154602,0.8723825216293335,2.862595636088372e-07,0.7484172582626343,0.7871764898300171,0.009045000188052654,0.7157332301139832,0.7117452025413513,0.007150482852011919,0.6903167963027954,0.6454302668571472,0.00373416137881577,0.6872425079345703,0.5905523300170898,0.00013222068082541227,0.6776314973831177,0.7304975390434265,-0.01890159770846367,0.6143807768821716,0.6903981566429138,-0.027945181354880333,0.5784364342689514,0.670071005821228,-0.03192576393485069,0.5502808690071106,0.6546202301979065,-0.03435610607266426,0.66892009973526,0.7823498249053955,-0.025489499792456627,0.6000804305076599,0.7570037841796875,-0.03772585466504097,0.5581157803535461,0.7490034699440002,-0.042092468589544296,0.5276256799697876,0.749102771282196,-0.04506349563598633,0.6655694246292114,0.836022138595581,-0.028042607009410858,0.6133190393447876,0.8150604963302612,-0.03174994885921478,0.6305224299430847,0.8102849125862122,-0.01782095618546009,0.6503188610076904,0.8141268491744995,-0.006501608528196812,0.6668664813041687,0.8835895657539368,-0.03006857819855213,0.6288315653800964,0.8594668507575989,-0.026751751080155373,0.6449010968208313,0.8541057109832764,-0.011645224876701832,0.661750316619873,0.8570811152458191,0.0010123865213245153,0.0,0.0,0.0,0.0,0.0,0.0,0.0,0.0,0.0,0.0,0.0,0.0,0.0,0.0,0.0,0.0,0.0,0.0,0.0,0.0,0.0,0.0,0.0,0.0,0.0,0.0,0.0,0.0,0.0,0.0,0.0,0.0,0.0,0.0,0.0,0.0,0.0,0.0,0.0,0.0,0.0,0.0,0.0,0.0,0.0,0.0,0.0,0.0,0.0,0.0,0.0,0.0,0.0,0.0,0.0,0.0,0.0,0.0,0.0,0.0,0.0,0.0,0.0
1783390697.973438,0.7673993706703186,0.8718134164810181,3.0775183290643326e-07,0.7485689520835876,0.7878766655921936,0.007144017610698938,0.7155231237411499,0.7124292254447937,0.00448618596419692,0.6904151439666748,0.6459798216819763,0.0006855519022792578,0.6870376467704773,0.5912289023399353,-0.003257828764617443,0.6780956983566284,0.7309751510620117,-0.02122650481760502,0.6139183044433594,0.6897333860397339,-0.030710646882653236,0.5779536366462708,0.6692116260528564,-0.03438042104244232,0.549775242805481,0.6543738842010498,-0.036313239485025406,0.6693969368934631,0.782068133354187,-0.027072614058852196,0.5996471047401428,0.7553362846374512,-0.0398782417178154,0.5573152899742126,0.7467721104621887,-0.0440688356757164,0.5263169407844543,0.7462876439094543,-0.0465058870613575,0.665763258934021,0.8350083231925964,-0.029043180868029594,0.6135703921318054,0.8145798444747925,-0.03402595967054367,0.6307348608970642,0.8103525042533875,-0.02072950080037117,0.6504054069519043,0.8143588304519653,-0.009284193627536297,0.6665563583374023,0.8824698328971863,-0.030539097264409065,0.6292009949684143,0.858248233795166,-0.028403349220752716,0.645485520362854,0.8534038662910461,-0.013874057680368423,0.6623424887657166,0.8566597700119019,-0.0012708825524896383,0.0,0.0,0.0,0.0,0.0,0.0,0.0,0.0,0.0,0.0,0.0,0.0,0.0,0.0,0.0,0.0,0.0,0.0,0.0,0.0,0.0,0.0,0.0,0.0,0.0,0.0,0.0,0.0,0.0,0.0,0.0,0.0,0.0,0.0,0.0,0.0,0.0,0.0,0.0,0.0,0.0,0.0,0.0,0.0,0.0,0.0,0.0,0.0,0.0,0.0,0.0,0.0,0.0,0.0,0.0,0.0,0.0,0.0,0.0,0.0,0.0,0.0,0.0
1783390698.1439402,0.7675384283065796,0.871760904788971,2.9943601020931965e-07,0.7480241656303406,0.7867993712425232,0.008201788179576397,0.7151880860328674,0.7114143967628479,0.005748865194618702,0.6902202367782593,0.645279586315155,0.0019247181480750442,0.686629056930542,0.590937614440918,-0.0020966066513210535,0.677825927734375,0.7306275963783264,-0.02018553391098976,0.6144692897796631,0.6898831725120544,-0.029595844447612762,0.5786416530609131,0.6695095896720886,-0.033324629068374634,0.5506826043128967,0.653844952583313,-0.03533569723367691,0.6695098280906677,0.7821465730667114,-0.02677699364721775,0.5998851656913757,0.7562130689620972,-0.03981105610728264,0.5572338104248047,0.7478618025779724,-0.04409268870949745,0.5260186195373535,0.7471166253089905,-0.04664255306124687,0.6663988828659058,0.8355287313461304,-0.029405267909169197,0.6136555075645447,0.8137221932411194,-0.034577302634716034,0.6302416324615479,0.8087967038154602,-0.02102692611515522,0.6496414542198181,0.8124668598175049,-0.009419834241271019,0.6678155064582825,0.883672833442688,-0.03145856410264969,0.6285063028335571,0.8577276468276978,-0.029135415330529213,0.6443051099777222,0.8521816730499268,-0.013988533057272434,0.6611164212226868,0.8553721904754639,-0.0010166345164179802,0.0,0.0,0.0,0.0,0.0,0.0,0.0,0.0,0.0,0.0,0.0,0.0,0.0,0.0,0.0,0.0,0.0,0.0,0.0,0.0,0.0,0.0,0.0,0.0,0.0,0.0,0.0,0.0,0.0,0.0,0.0,0.0,0.0,0.0,0.0,0.0,0.0,0.0,0.0,0.0,0.0,0.0,0.0,0.0,0.0,0.0,0.0,0.0,0.0,0.0,0.0,0.0,0.0,0.0,0.0,0.0,0.0,0.0,0.0,0.0,0.0,0.0,0.0
1783390698.3051982,0.7675849199295044,0.8719503283500671,3.048327812393836e-07,0.7481567859649658,0.7872917652130127,0.008821200579404831,0.7156241536140442,0.7123461365699768,0.0065107098780572414,0.6904287934303284,0.646530032157898,0.0027685353998094797,0.6870116591453552,0.5915312170982361,-0.001089148921892047,0.6777589917182922,0.7305486798286438,-0.01978318952023983,0.6143091917037964,0.6888402700424194,-0.02874145098030567,0.5787183046340942,0.6681674718856812,-0.03188280388712883,0.5510779619216919,0.6527089476585388,-0.03349250927567482,0.6695367097854614,0.7815209627151489,-0.026381034404039383,0.6000102162361145,0.7554720044136047,-0.03948912024497986,0.5577870607376099,0.7472453117370605,-0.04350004345178604,0.5272094011306763,0.7467519640922546,-0.04572638124227524,0.6663671731948853,0.8349448442459106,-0.02889110893011093,0.6140872240066528,0.813818097114563,-0.033372558653354645,0.6309071183204651,0.8093147277832031,-0.018995782360434532,0.6501104235649109,0.8129996061325073,-0.006893726531416178,0.6678525805473328,0.8832166790962219,-0.030813105404376984,0.6294710040092468,0.8582945466041565,-0.02751188911497593,0.6454458236694336,0.8531972169876099,-0.011786147952079773,0.6621140241622925,0.8564466238021851,0.0015396539820358157,0.0,0.0,0.0,0.0,0.0,0.0,0.0,0.0,0.0,0.0,0.0,0.0,0.0,0.0,0.0,0.0,0.0,0.0,0.0,0.0,0.0,0.0,0.0,0.0,0.0,0.0,0.0,0.0,0.0,0.0,0.0,0.0,0.0,0.0,0.0,0.0,0.0,0.0,0.0,0.0,0.0,0.0,0.0,0.0,0.0,0.0,0.0,0.0,0.0,0.0,0.0,0.0,0.0,0.0,0.0,0.0,0.0,0.0,0.0,0.0,0.0,0.0,0.0
1783390698.4696052,0.7680407762527466,0.8732750415802002,2.940116701211082e-07,0.7480583786964417,0.7881312370300293,0.010201550088822842,0.7155911326408386,0.7129932641983032,0.008432590402662754,0.6900619864463806,0.6474947333335876,0.005013544578105211,0.6852151155471802,0.593146800994873,0.0014256879221647978,0.677101194858551,0.7308399677276611,-0.018600981682538986,0.6144552826881409,0.6893393993377686,-0.02756861038506031,0.5787858366966248,0.6686891317367554,-0.031065238639712334,0.550866425037384,0.6531341075897217,-0.03295477479696274,0.6687535047531128,0.7818623781204224,-0.025817623361945152,0.5989267230033875,0.7562904953956604,-0.03852972388267517,0.5565174221992493,0.7487198114395142,-0.04251870885491371,0.5259164571762085,0.7486662268638611,-0.04489311948418617,0.6655967831611633,0.8356186151504517,-0.028832409530878067,0.6132228374481201,0.8150267601013184,-0.032777734100818634,0.6299737691879272,0.8108736872673035,-0.018200978636741638,0.6494348645210266,0.8142806887626648,-0.006153952330350876,0.6671981811523438,0.884613573551178,-0.03117063082754612,0.6285057663917542,0.8592920303344727,-0.027369560673832893,0.6446186304092407,0.8546023964881897,-0.011303486302495003,0.6614978909492493,0.8576750159263611,0.002172087552025914,0.0,0.0,0.0,0.0,0.0,0.0,0.0,0.0,0.0,0.0,0.0,0.0,0.0,0.0,0.0,0.0,0.0,0.0,0.0,0.0,0.0,0.0,0.0,0.0,0.0,0.0,0.0,0.0,0.0,0.0,0.0,0.0,0.0,0.0,0.0,0.0,0.0,0.0,0.0,0.0,0.0,0.0,0.0,0.0,0.0,0.0,0.0,0.0,0.0,0.0,0.0,0.0,0.0,0.0,0.0,0.0,0.0,0.0,0.0,0.0,0.0,0.0,0.0
1783390698.6199381,0.7674432396888733,0.8719531893730164,3.1447558512809337e-07,0.7476670145988464,0.7873627543449402,0.008815892972052097,0.7155478596687317,0.7129267454147339,0.006695306859910488,0.6901109218597412,0.6473143696784973,0.003108423203229904,0.6848852038383484,0.5936918258666992,-0.00037865759804844856,0.6764925718307495,0.7311412692070007,-0.019065488129854202,0.6135345697402954,0.6898642182350159,-0.028538551181554794,0.5784278512001038,0.6683734059333801,-0.0323871448636055,0.5509346723556519,0.6519858241081238,-0.03444439917802811,0.667445182800293,0.7819127440452576,-0.025296758860349655,0.5982486605644226,0.7559300661087036,-0.03885447606444359,0.5561718940734863,0.746992826461792,-0.04370226711034775,0.5259559750556946,0.7462127804756165,-0.04648943245410919,0.6641372442245483,0.8352034687995911,-0.027407241985201836,0.612960696220398,0.8149685263633728,-0.0316961295902729,0.6300541758537292,0.8102500438690186,-0.017392341047525406,0.6496359705924988,0.8137675523757935,-0.005331169348210096,0.665608823299408,0.8826577067375183,-0.029013657942414284,0.6294718980789185,0.8593474626541138,-0.02561800740659237,0.6459329724311829,0.8544263243675232,-0.010196758434176445,0.6624714732170105,0.8575849533081055,0.0030083428137004375,0.0,0.0,0.0,0.0,0.0,0.0,0.0,0.0,0.0,0.0,0.0,0.0,0.0,0.0,0.0,0.0,0.0,0.0,0.0,0.0,0.0,0.0,0.0,0.0,0.0,0.0,0.0,0.0,0.0,0.0,0.0,0.0,0.0,0.0,0.0,0.0,0.0,0.0,0.0,0.0,0.0,0.0,0.0,0.0,0.0,0.0,0.0,0.0,0.0,0.0,0.0,0.0,0.0,0.0,0.0,0.0,0.0,0.0,0.0,0.0,0.0,0.0,0.0
