ciel274/research-hand-sign/data/raw/hiragana/sign_language_sa_2.csv
timestamp,R_joint_0_x,R_joint_0_y,R_joint_0_z,R_joint_1_x,R_joint_1_y,R_joint_1_z,R_joint_2_x,R_joint_2_y,R_joint_2_z,R_joint_3_x,R_joint_3_y,R_joint_3_z,R_joint_4_x,R_joint_4_y,R_joint_4_z,R_joint_5_x,R_joint_5_y,R_joint_5_z,R_joint_6_x,R_joint_6_y,R_joint_6_z,R_joint_7_x,R_joint_7_y,R_joint_7_z,R_joint_8_x,R_joint_8_y,R_joint_8_z,R_joint_9_x,R_joint_9_y,R_joint_9_z,R_joint_10_x,R_joint_10_y,R_joint_10_z,R_joint_11_x,R_joint_11_y,R_joint_11_z,R_joint_12_x,R_joint_12_y,R_joint_12_z,R_joint_13_x,R_joint_13_y,R_joint_13_z,R_joint_14_x,R_joint_14_y,R_joint_14_z,R_joint_15_x,R_joint_15_y,R_joint_15_z,R_joint_16_x,R_joint_16_y,R_joint_16_z,R_joint_17_x,R_joint_17_y,R_joint_17_z,R_joint_18_x,R_joint_18_y,R_joint_18_z,R_joint_19_x,R_joint_19_y,R_joint_19_z,R_joint_20_x,R_joint_20_y,R_joint_20_z,L_joint_0_x,L_joint_0_y,L_joint_0_z,L_joint_1_x,L_joint_1_y,L_joint_1_z,L_joint_2_x,L_joint_2_y,L_joint_2_z,L_joint_3_x,L_joint_3_y,L_joint_3_z,L_joint_4_x,L_joint_4_y,L_joint_4_z,L_joint_5_x,L_joint_5_y,L_joint_5_z,L_joint_6_x,L_joint_6_y,L_joint_6_z,L_joint_7_x,L_joint_7_y,L_joint_7_z,L_joint_8_x,L_joint_8_y,L_joint_8_z,L_joint_9_x,L_joint_9_y,L_joint_9_z,L_joint_10_x,L_joint_10_y,L_joint_10_z,L_joint_11_x,L_joint_11_y,L_joint_11_z,L_joint_12_x,L_joint_12_y,L_joint_12_z,L_joint_13_x,L_joint_13_y,L_joint_13_z,L_joint_14_x,L_joint_14_y,L_joint_14_z,L_joint_15_x,L_joint_15_y,L_joint_15_z,L_joint_16_x,L_joint_16_y,L_joint_16_z,L_joint_17_x,L_joint_17_y,L_joint_17_z,L_joint_18_x,L_joint_18_y,L_joint_18_z,L_joint_19_x,L_joint_19_y,L_joint_19_z,L_joint_20_x,L_joint_20_y,L_joint_20_z
1783390656.025443,0.7312021255493164,0.6842000484466553,-3.390523772850429e-07,0.686342716217041,0.6528985500335693,-0.01691572740674019,0.6465553641319275,0.5622693300247192,-0.02265157923102379,0.6608136296272278,0.4855480492115021,-0.029913943260908127,0.6997377872467041,0.4795646667480469,-0.03242636099457741,0.6451098918914795,0.487713485956192,0.00353892776183784,0.6360572576522827,0.4167255163192749,-0.021484069526195526,0.6505353450775146,0.4834652543067932,-0.033656615763902664,0.6585200428962708,0.5107998251914978,-0.0388466939330101,0.6756474375724792,0.4730207622051239,-0.00016164686530828476,0.6697052717208862,0.3995330035686493,-0.02570514753460884,0.678424060344696,0.47973623871803284,-0.02803339622914791,0.6807732582092285,0.49649298191070557,-0.02172817662358284,0.7075843811035156,0.4745468199253082,-0.009849314577877522,0.7071781754493713,0.41472965478897095,-0.03165612369775772,0.7086349725723267,0.488525927066803,-0.023401349782943726,0.707594633102417,0.5021240711212158,-0.011055953800678253,0.7398672699928284,0.4861336350440979,-0.022302981466054916,0.7356616258621216,0.4437216520309448,-0.029668888077139854,0.7333158850669861,0.49272748827934265,-0.02045046165585518,0.73460453748703,0.5082326531410217,-0.010840010829269886,0.0,0.0,0.0,0.0,0.0,0.0,0.0,0.0,0.0,0.0,0.0,0.0,0.0,0.0,0.0,0.0,0.0,0.0,0.0,0.0,0.0,0.0,0.0,0.0,0.0,0.0,0.0,0.0,0.0,0.0,0.0,0.0,0.0,0.0,0.0,0.0,0.0,0.0,0.0,0.0,0.0,0.0,0.0,0.0,0.0,0.0,0.0,0.0,0.0,0.0,0.0,0.0,0.0,0.0,0.0,0.0,0.0,0.0,0.0,0.0,0.0,0.0,0.0
1783390656.346923,0.7320285439491272,0.6738818287849426,-3.493558438094624e-07,0.6865898966789246,0.642035961151123,-0.016573432832956314,0.648332417011261,0.5535802245140076,-0.02232901006937027,0.6628267168998718,0.47985804080963135,-0.029544273391366005,0.7005719542503357,0.4691666066646576,-0.03174876421689987,0.649221658706665,0.4739692807197571,0.0025184976402670145,0.6389982104301453,0.40473854541778564,-0.022935355082154274,0.6528452634811401,0.4762836694717407,-0.03444473445415497,0.6606599688529968,0.501910924911499,-0.03898242115974426,0.6792222261428833,0.4608485698699951,-0.0010884461225941777,0.6716051697731018,0.38938501477241516,-0.026351073756814003,0.679524302482605,0.4724166691303253,-0.02774614281952381,0.6828287839889526,0.4846816658973694,-0.02091771736741066,0.710674524307251,0.4630011022090912,-0.010627666488289833,0.7085689306259155,0.4046826958656311,-0.03217904642224312,0.7092908024787903,0.48092857003211975,-0.02295728400349617,0.7099090218544006,0.4907683730125427,-0.010018543340265751,0.7428185343742371,0.4738275706768036,-0.022888852283358574,0.7374183535575867,0.4341408908367157,-0.029430828988552094,0.7341060638427734,0.4835321009159088,-0.019501660019159317,0.7362486720085144,0.4956446886062622,-0.009357712231576443,0.0,0.0,0.0,0.0,0.0,0.0,0.0,0.0,0.0,0.0,0.0,0.0,0.0,0.0,0.0,0.0,0.0,0.0,0.0,0.0,0.0,0.0,0.0,0.0,0.0,0.0,0.0,0.0,0.0,0.0,0.0,0.0,0.0,0.0,0.0,0.0,0.0,0.0,0.0,0.0,0.0,0.0,0.0,0.0,0.0,0.0,0.0,0.0,0.0,0.0,0.0,0.0,0.0,0.0,0.0,0.0,0.0,0.0,0.0,0.0,0.0,0.0,0.0
1783390656.764396,0.732825517654419,0.6794003844261169,-3.4812748594958975e-07,0.6880195736885071,0.6484518647193909,-0.017635777592658997,0.6493030786514282,0.5578397512435913,-0.023185182362794876,0.666131854057312,0.482890248298645,-0.03026362508535385,0.7046633958816528,0.47239962220191956,-0.03251120448112488,0.6480774283409119,0.4805643558502197,0.0039504352025687695,0.6374773979187012,0.41032305359840393,-0.0215141661465168,0.6525416374206543,0.4779101610183716,-0.03426022455096245,0.6612849235534668,0.5071372985839844,-0.039669085294008255,0.6780573129653931,0.4649375081062317,0.0005541142891161144,0.6723029017448425,0.3927461504936218,-0.024877388030290604,0.6813967227935791,0.47350308299064636,-0.027641166001558304,0.6840739846229553,0.49098777770996094,-0.02184194326400757,0.7098137140274048,0.46667298674583435,-0.009062924422323704,0.7096623778343201,0.40506109595298767,-0.030733978375792503,0.711184561252594,0.47975802421569824,-0.02260815165936947,0.7099794745445251,0.4947667121887207,-0.01062047854065895,0.7418379187583923,0.4793214201927185,-0.02160143479704857,0.7387113571166992,0.44023099541664124,-0.029496314004063606,0.7360754609107971,0.4884788691997528,-0.02086310088634491,0.7367032170295715,0.5027152895927429,-0.011677066795527935,0.0,0.0,0.0,0.0,0.0,0.0,0.0,0.0,0.0,0.0,0.0,0.0,0.0,0.0,0.0,0.0,0.0,0.0,0.0,0.0,0.0,0.0,0.0,0.0,0.0,0.0,0.0,0.0,0.0,0.0,0.0,0.0,0.0,0.0,0.0,0.0,0.0,0.0,0.0,0.0,0.0,0.0,0.0,0.0,0.0,0.0,0.0,0.0,0.0,0.0,0.0,0.0,0.0,0.0,0.0,0.0,0.0,0.0,0.0,0.0,0.0,0.0,0.0
1783390657.001484,0.7334866523742676,0.6776248812675476,-3.3143530231427576e-07,0.6884473562240601,0.6449471116065979,-0.01847817935049534,0.6503047943115234,0.5584574341773987,-0.025509141385555267,0.6657431125640869,0.48386603593826294,-0.033870112150907516,0.7048496007919312,0.4690021574497223,-0.03724076226353645,0.6475367546081543,0.4788326323032379,0.002766244113445282,0.6384585499763489,0.40861642360687256,-0.023572904989123344,0.6525834798812866,0.47739142179489136,-0.03637569397687912,0.6609893441200256,0.5052408576011658,-0.041598785668611526,0.678281843662262,0.4640636742115021,-0.00045327842235565186,0.672601580619812,0.39084482192993164,-0.02666488103568554,0.6807711720466614,0.47185400128364563,-0.029324190691113472,0.6834969520568848,0.486797571182251,-0.023185763508081436,0.7104976177215576,0.46564191579818726,-0.009942197240889072,0.710284411907196,0.40599268674850464,-0.032327450811862946,0.7110930681228638,0.48020389676094055,-0.024067923426628113,0.7101714611053467,0.4918053150177002,-0.011621709913015366,0.7428364753723145,0.4776194095611572,-0.02233363501727581,0.7387986183166504,0.4364200234413147,-0.029794685542583466,0.736120879650116,0.48500609397888184,-0.020412292331457138,0.7375314235687256,0.49851810932159424,-0.010551860556006432,0.0,0.0,0.0,0.0,0.0,0.0,0.0,0.0,0.0,0.0,0.0,0.0,0.0,0.0,0.0,0.0,0.0,0.0,0.0,0.0,0.0,0.0,0.0,0.0,0.0,0.0,0.0,0.0,0.0,0.0,0.0,0.0,0.0,0.0,0.0,0.0,0.0,0.0,0.0,0.0,0.0,0.0,0.0,0.0,0.0,0.0,0.0,0.0,0.0,0.0,0.0,0.0,0.0,0.0,0.0,0.0,0.0,0.0,0.0,0.0,0.0,0.0,0.0
1783390657.32279,0.7329680919647217,0.6784675121307373,-3.315833225769893e-07,0.6891033053398132,0.6467949748039246,-0.018683815374970436,0.6499300599098206,0.5561022758483887,-0.024913396686315536,0.6652055382728577,0.47925636172294617,-0.032381024211645126,0.70531165599823,0.4699743986129761,-0.03482925519347191,0.6465031504631042,0.4785704016685486,0.0035051063168793917,0.6384836435317993,0.40790924429893494,-0.021685397252440453,0.652463436126709,0.4751867651939392,-0.03389138728380203,0.6602228283882141,0.5017918348312378,-0.03914903849363327,0.6771631836891174,0.463339626789093,0.000650242785923183,0.6720471382141113,0.3910096287727356,-0.024627037346363068,0.6804580092430115,0.4712771773338318,-0.02676616981625557,0.682642936706543,0.4855271279811859,-0.020493069663643837,0.7095003128051758,0.46538886427879333,-0.008534016087651253,0.7097682356834412,0.4060639441013336,-0.03040294162929058,0.71083664894104,0.47957950830459595,-0.022324630990624428,0.7095691561698914,0.49154725670814514,-0.010219475254416466,0.7421934604644775,0.47759729623794556,-0.02066042460501194,0.7385343909263611,0.43586835265159607,-0.028317011892795563,0.7358094453811646,0.4843418002128601,-0.01951955258846283,0.7367047667503357,0.49880120158195496,-0.010210225358605385,0.0,0.0,0.0,0.0,0.0,0.0,0.0,0.0,0.0,0.0,0.0,0.0,0.0,0.0,0.0,0.0,0.0,0.0,0.0,0.0,0.0,0.0,0.0,0.0,0.0,0.0,0.0,0.0,0.0,0.0,0.0,0.0,0.0,0.0,0.0,0.0,0.0,0.0,0.0,0.0,0.0,0.0,0.0,0.0,0.0,0.0,0.0,0.0,0.0,0.0,0.0,0.0,0.0,0.0,0.0,0.0,0.0,0.0,0.0,0.0,0.0,0.0,0.0
1783390657.553254,0.7327845692634583,0.6795645952224731,-3.3058191206691845e-07,0.6888291835784912,0.6470423936843872,-0.01837839186191559,0.6495996713638306,0.555330753326416,-0.024641212075948715,0.6645221710205078,0.47909289598464966,-0.03230108320713043,0.7037795782089233,0.4713272154331207,-0.03498246893286705,0.645736038684845,0.4793762266635895,0.004132488742470741,0.637574315071106,0.40856465697288513,-0.021236665546894073,0.6517219543457031,0.47478997707366943,-0.03384923189878464,0.6595845818519592,0.5019562840461731,-0.03932475298643112,0.6760988831520081,0.4639261066913605,0.0010871387785300612,0.6711533069610596,0.39229294657707214,-0.024301474913954735,0.6797081232070923,0.4716084897518158,-0.02687627263367176,0.6814064979553223,0.48649775981903076,-0.020958399400115013,0.7083512544631958,0.46549883484840393,-0.008297765627503395,0.7083733081817627,0.4055612087249756,-0.030089933425188065,0.7096437811851501,0.478132426738739,-0.022234942764043808,0.7080802321434021,0.4910873770713806,-0.010349512100219727,0.7409427165985107,0.4772303104400635,-0.020614510402083397,0.7368560433387756,0.43497514724731445,-0.028156735002994537,0.7345207929611206,0.48293986916542053,-0.019346794113516808,0.7355309724807739,0.49811896681785583,-0.010059010237455368,0.0,0.0,0.0,0.0,0.0,0.0,0.0,0.0,0.0,0.0,0.0,0.0,0.0,0.0,0.0,0.0,0.0,0.0,0.0,0.0,0.0,0.0,0.0,0.0,0.0,0.0,0.0,0.0,0.0,0.0,0.0,0.0,0.0,0.0,0.0,0.0,0.0,0.0,0.0,0.0,0.0,0.0,0.0,0.0,0.0,0.0,0.0,0.0,0.0,0.0,0.0,0.0,0.0,0.0,0.0,0.0,0.0,0.0,0.0,0.0,0.0,0.0,0.0
1783390657.7704918,0.732054591178894,0.6766197681427002,-3.348999939589703e-07,0.6873499155044556,0.6438928842544556,-0.01811162382364273,0.6482403874397278,0.550662636756897,-0.02419808879494667,0.66361403465271,0.4737183153629303,-0.03152346611022949,0.7033745050430298,0.46358007192611694,-0.033907450735569,0.6461296677589417,0.47518405318260193,0.0031277108937501907,0.6382578015327454,0.40599673986434937,-0.02188456989824772,0.652728259563446,0.4741680324077606,-0.033772774040699005,0.6601389050483704,0.4997301399707794,-0.03886871784925461,0.6765190958976746,0.45987311005592346,-5.3720257710665464e-05,0.6713629364967346,0.38699379563331604,-0.025377443060278893,0.6799229979515076,0.4679562449455261,-0.027434878051280975,0.6816883683204651,0.4820270836353302,-0.021061351522803307,0.7086127996444702,0.4615296721458435,-0.009381895884871483,0.7089288830757141,0.40290361642837524,-0.0312162134796381,0.710185706615448,0.47695860266685486,-0.02291138656437397,0.7088264226913452,0.4882226586341858,-0.010672825388610363,0.7410192489624023,0.4732942581176758,-0.02157796360552311,0.736949622631073,0.43197914958000183,-0.028970006853342056,0.7347195148468018,0.4812484085559845,-0.01976669393479824,0.7360317707061768,0.49529892206192017,-0.010220516473054886,0.0,0.0,0.0,0.0,0.0,0.0,0.0,0.0,0.0,0.0,0.0,0.0,0.0,0.0,0.0,0.0,0.0,0.0,0.0,0.0,0.0,0.0,0.0,0.0,0.0,0.0,0.0,0.0,0.0,0.0,0.0,0.0,0.0,0.0,0.0,0.0,0.0,0.0,0.0,0.0,0.0,0.0,0.0,0.0,0.0,0.0,0.0,0.0,0.0,0.0,0.0,0.0,0.0,0.0,0.0,0.0,0.0,0.0,0.0,0.0,0.0,0.0,0.0
1783390657.961539,0.7325901985168457,0.6776474118232727,-3.3262830356761697e-07,0.6890884637832642,0.6451845765113831,-0.018826035782694817,0.650002658367157,0.5537523031234741,-0.025113582611083984,0.66424560546875,0.47684699296951294,-0.03263294696807861,0.7035422921180725,0.46853405237197876,-0.03501245006918907,0.6455616354942322,0.47578755021095276,0.00384574756026268,0.6377035975456238,0.4062039256095886,-0.021329542621970177,0.6525424122810364,0.47334885597229004,-0.03365163505077362,0.6600378751754761,0.49904030561447144,-0.03903663530945778,0.6759819388389587,0.46076884865760803,0.000989004853181541,0.6712917685508728,0.3898046910762787,-0.024454066529870033,0.6802893877029419,0.469623863697052,-0.026839276775717735,0.6816672682762146,0.48342403769493103,-0.02076444774866104,0.708218514919281,0.4630224406719208,-0.00822157971560955,0.7092112898826599,0.4040921628475189,-0.030112428590655327,0.7108184099197388,0.4768224060535431,-0.022085048258304596,0.7089353203773499,0.48896318674087524,-0.010063651017844677,0.7406759858131409,0.47574353218078613,-0.020429156720638275,0.7380779981613159,0.4346355199813843,-0.028129469603300095,0.7356371879577637,0.4824460744857788,-0.019466713070869446,0.7360329031944275,0.49705904722213745,-0.010253694839775562,0.0,0.0,0.0,0.0,0.0,0.0,0.0,0.0,0.0,0.0,0.0,0.0,0.0,0.0,0.0,0.0,0.0,0.0,0.0,0.0,0.0,0.0,0.0,0.0,0.0,0.0,0.0,0.0,0.0,0.0,0.0,0.0,0.0,0.0,0.0,0.0,0.0,0.0,0.0,0.0,0.0,0.0,0.0,0.0,0.0,0.0,0.0,0.0,0.0,0.0,0.0,0.0,0.0,0.0,0.0,0.0,0.0,0.0,0.0,0.0,0.0,0.0,0.0
1783390658.1623812,0.7330086827278137,0.6772189736366272,-3.293492341072124e-07,0.6892871856689453,0.6440840363502502,-0.01880073733627796,0.6501950621604919,0.5535731315612793,-0.025320300832390785,0.6645462512969971,0.47700366377830505,-0.03316888213157654,0.703927218914032,0.46658995747566223,-0.035957951098680496,0.6458427309989929,0.47573208808898926,0.004171667620539665,0.6381659507751465,0.40637487173080444,-0.021503211930394173,0.6528322100639343,0.47280266880989075,-0.03425518795847893,0.6604819297790527,0.49903610348701477,-0.03976195678114891,0.6763163208961487,0.4605078101158142,0.0011594652896746993,0.6719303131103516,0.38915935158729553,-0.024841444566845894,0.6808567047119141,0.4688500165939331,-0.027654070407152176,0.6824024319648743,0.48324087262153625,-0.021688681095838547,0.7087814807891846,0.4623326063156128,-0.008264831267297268,0.7099863886833191,0.4041200876235962,-0.030774272978305817,0.7112424969673157,0.4770340919494629,-0.023168513551354408,0.7091518044471741,0.4893530011177063,-0.011206023395061493,0.7413934469223022,0.47453904151916504,-0.020640002563595772,0.7386438846588135,0.43294450640678406,-0.02852623723447323,0.7359933257102966,0.48138391971588135,-0.019833914935588837,0.7362551093101501,0.4963638186454773,-0.010513423942029476,0.0,0.0,0.0,0.0,0.0,0.0,0.0,0.0,0.0,0.0,0.0,0.0,0.0,0.0,0.0,0.0,0.0,0.0,0.0,0.0,0.0,0.0,0.0,0.0,0.0,0.0,0.0,0.0,0.0,0.0,0.0,0.0,0.0,0.0,0.0,0.0,0.0,0.0,0.0,0.0,0.0,0.0,0.0,0.0,0.0,0.0,0.0,0.0,0.0,0.0,0.0,0.0,0.0,0.0,0.0,0.0,0.0,0.0,0.0,0.0,0.0,0.0,0.0
1783390658.4216971,0.7321577072143555,0.6755009889602661,-3.3402673693672114e-07,0.6873908638954163,0.6413529515266418,-0.01865709386765957,0.6480268239974976,0.55023193359375,-0.025241250172257423,0.6621872782707214,0.47370609641075134,-0.0330389104783535,0.7017516493797302,0.46251457929611206,-0.03564776852726936,0.6454625129699707,0.4753793478012085,0.0033994819968938828,0.6359615921974182,0.4062403738498688,-0.02245183102786541,0.6505106091499329,0.4753616452217102,-0.03491346910595894,0.6583793759346008,0.4993740916252136,-0.0403665155172348,0.675835132598877,0.4599362313747406,0.0002892763586714864,0.6697620153427124,0.3884870409965515,-0.025905894115567207,0.6781288981437683,0.47024863958358765,-0.02827964350581169,0.6799083948135376,0.48170650005340576,-0.022092504426836967,0.7078264951705933,0.4612376391887665,-0.009148686192929745,0.7073312997817993,0.401349276304245,-0.03146001696586609,0.70823734998703,0.47596606612205505,-0.02279719151556492,0.7070047855377197,0.4852904975414276,-0.010281270369887352,0.7401559948921204,0.47236302495002747,-0.021563060581684113,0.7355108857154846,0.43127116560935974,-0.02909894473850727,0.7328630685806274,0.4811079800128937,-0.01969105564057827,0.7341520190238953,0.49463826417922974,-0.009970173239707947,0.0,0.0,0.0,0.0,0.0,0.0,0.0,0.0,0.0,0.0,0.0,0.0,0.0,0.0,0.0,0.0,0.0,0.0,0.0,0.0,0.0,0.0,0.0,0.0,0.0,0.0,0.0,0.0,0.0,0.0,0.0,0.0,0.0,0.0,0.0,0.0,0.0,0.0,0.0,0.0,0.0,0.0,0.0,0.0,0.0,0.0,0.0,0.0,0.0,0.0,0.0,0.0,0.0,0.0,0.0,0.0,0.0,0.0,0.0,0.0,0.0,0.0,0.0
1783390658.616288,0.7318779230117798,0.6738578677177429,-3.403806374535634e-07,0.6872384548187256,0.6413682103157043,-0.0183888990432024,0.6479443311691284,0.5514395833015442,-0.02478932961821556,0.6619330048561096,0.4744347929954529,-0.03240368142724037,0.7012755870819092,0.46137866377830505,-0.034844983369112015,0.6447678208351135,0.4739933907985687,0.0034270859323441982,0.6356639862060547,0.4042055606842041,-0.022179169580340385,0.6510336995124817,0.4726977050304413,-0.034453682601451874,0.6588085889816284,0.497395783662796,-0.0396997295320034,0.6755245923995972,0.4588274657726288,0.00040889301453717053,0.6696900129318237,0.3867615759372711,-0.02532692812383175,0.6788705587387085,0.46824607253074646,-0.02750677801668644,0.6803789138793945,0.48087114095687866,-0.021223897114396095,0.7077105641365051,0.4601454734802246,-0.008883190341293812,0.7076484560966492,0.4009358584880829,-0.031154833734035492,0.7094727158546448,0.4752627909183502,-0.022612737491726875,0.7081027626991272,0.4857214689254761,-0.010088006965816021,0.7402288913726807,0.4712966978549957,-0.021075837314128876,0.7363981008529663,0.42904478311538696,-0.028833994641900063,0.7343401908874512,0.47856026887893677,-0.019589729607105255,0.7354271411895752,0.4926455318927765,-0.009873288683593273,0.0,0.0,0.0,0.0,0.0,0.0,0.0,0.0,0.0,0.0,0.0,0.0,0.0,0.0,0.0,0.0,0.0,0.0,0.0,0.0,0.0,0.0,0.0,0.0,0.0,0.0,0.0,0.0,0.0,0.0,0.0,0.0,0.0,0.0,0.0,0.0,0.0,0.0,0.0,0.0,0.0,0.0,0.0,0.0,0.0,0.0,0.0,0.0,0.0,0.0,0.0,0.0,0.0,0.0,0.0,0.0,0.0,0.0,0.0,0.0,0.0,0.0,0.0
1783390658.8524811,0.7320528030395508,0.6740583181381226,-3.300654043414397e-07,0.6880391240119934,0.6422001719474792,-0.01868107169866562,0.6486990451812744,0.5525577068328857,-0.025016579777002335,0.6625075936317444,0.4760129749774933,-0.032687701284885406,0.7010783553123474,0.4654492437839508,-0.035263195633888245,0.6450883746147156,0.4729066789150238,0.004099472425878048,0.6371651887893677,0.4033793807029724,-0.02139539085328579,0.6516028046607971,0.46980181336402893,-0.033867862075567245,0.6593601107597351,0.49529528617858887,-0.03922862559556961,0.6755737066268921,0.45781123638153076,0.001036548987030983,0.6707590818405151,0.3868955075740814,-0.024815410375595093,0.6794589161872864,0.466121643781662,-0.027421073988080025,0.6814036965370178,0.47944220900535583,-0.02137141488492489,0.7077492475509644,0.45977795124053955,-0.008419027552008629,0.7087206244468689,0.40058743953704834,-0.03075815550982952,0.7100286483764648,0.4728889763355255,-0.022943010553717613,0.7083423137664795,0.48422208428382874,-0.010935178026556969,0.7402046322822571,0.4720470607280731,-0.020847821608185768,0.7378365993499756,0.4302694797515869,-0.02869250811636448,0.7350996732711792,0.4781110882759094,-0.020027706399559975,0.7354140281677246,0.4921201169490814,-0.010760690085589886,0.0,0.0,0.0,0.0,0.0,0.0,0.0,0.0,0.0,0.0,0.0,0.0,0.0,0.0,0.0,0.0,0.0,0.0,0.0,0.0,0.0,0.0,0.0,0.0,0.0,0.0,0.0,0.0,0.0,0.0,0.0,0.0,0.0,0.0,0.0,0.0,0.0,0.0,0.0,0.0,0.0,0.0,0.0,0.0,0.0,0.0,0.0,0.0,0.0,0.0,0.0,0.0,0.0,0.0,0.0,0.0,0.0,0.0,0.0,0.0,0.0,0.0,0.0
1783390659.042197,0.7319316864013672,0.6747322678565979,-3.272855906288896e-07,0.6869519948959351,0.6403678059577942,-0.019151397049427032,0.6476520299911499,0.5471222996711731,-0.025756550952792168,0.6636970043182373,0.46999236941337585,-0.03348362445831299,0.7037519216537476,0.4622931182384491,-0.03604944795370102,0.6432303190231323,0.4775163531303406,0.002906592097133398,0.6344977617263794,0.40679946541786194,-0.02239227667450905,0.6495515704154968,0.4757169485092163,-0.03460107371211052,0.6564432382583618,0.49861809611320496,-0.04022510349750519,0.6735993027687073,0.4602636992931366,0.00021722662495449185,0.6675621271133423,0.38821476697921753,-0.025125840678811073,0.6767197847366333,0.4695548415184021,-0.027054091915488243,0.6778486967086792,0.4805013835430145,-0.02094084955751896,0.705943763256073,0.46040064096450806,-0.008824726566672325,0.7049614787101746,0.39862561225891113,-0.030008338391780853,0.7069029808044434,0.4722961485385895,-0.020946679636836052,0.7058238983154297,0.4818958640098572,-0.008644449524581432,0.7385421991348267,0.470508337020874,-0.020951813086867332,0.7332776188850403,0.42938223481178284,-0.0279951523989439,0.7315890789031982,0.4777942895889282,-0.018647490069270134,0.7335219383239746,0.4911870062351227,-0.009237351827323437,0.0,0.0,0.0,0.0,0.0,0.0,0.0,0.0,0.0,0.0,0.0,0.0,0.0,0.0,0.0,0.0,0.0,0.0,0.0,0.0,0.0,0.0,0.0,0.0,0.0,0.0,0.0,0.0,0.0,0.0,0.0,0.0,0.0,0.0,0.0,0.0,0.0,0.0,0.0,0.0,0.0,0.0,0.0,0.0,0.0,0.0,0.0,0.0,0.0,0.0,0.0,0.0,0.0,0.0,0.0,0.0,0.0,0.0,0.0,0.0,0.0,0.0,0.0
1783390659.25193,0.7310711145401001,0.6742960810661316,-3.255020715187129e-07,0.6850049495697021,0.6389392018318176,-0.01800377108156681,0.6453866362571716,0.5447323322296143,-0.023905009031295776,0.6609348058700562,0.467617005109787,-0.031183762475848198,0.7004537582397461,0.46244099736213684,-0.033375028520822525,0.6422057747840881,0.4760763943195343,0.004701073281466961,0.6324910521507263,0.4059502184391022,-0.020295316353440285,0.6477163434028625,0.47409501671791077,-0.032520946115255356,0.6550893783569336,0.49840646982192993,-0.037980396300554276,0.6725326776504517,0.45922592282295227,0.0014339768094941974,0.6658698320388794,0.3865586519241333,-0.023988284170627594,0.6747539639472961,0.4671551287174225,-0.026553001254796982,0.6761046648025513,0.4797584116458893,-0.02058052457869053,0.7045717239379883,0.45943355560302734,-0.008088664151728153,0.7037875652313232,0.39880648255348206,-0.029481425881385803,0.7053481340408325,0.4723467528820038,-0.021293265745043755,0.7039842009544373,0.4828191101551056,-0.009255059994757175,0.7368420362472534,0.4697628617286682,-0.020581809803843498,0.7320528626441956,0.4288986921310425,-0.027391158044338226,0.7299599051475525,0.4778512716293335,-0.018163174390792847,0.7314786314964294,0.4920835793018341,-0.008743079379200935,0.0,0.0,0.0,0.0,0.0,0.0,0.0,0.0,0.0,0.0,0.0,0.0,0.0,0.0,0.0,0.0,0.0,0.0,0.0,0.0,0.0,0.0,0.0,0.0,0.0,0.0,0.0,0.0,0.0,0.0,0.0,0.0,0.0,0.0,0.0,0.0,0.0,0.0,0.0,0.0,0.0,0.0,0.0,0.0,0.0,0.0,0.0,0.0,0.0,0.0,0.0,0.0,0.0,0.0,0.0,0.0,0.0,0.0,0.0,0.0,0.0,0.0,0.0
1783390659.4775271,0.731158971786499,0.6755861639976501,-3.337803775593784e-07,0.6861055493354797,0.6440797448158264,-0.019108528271317482,0.6460725665092468,0.5548876523971558,-0.02612183429300785,0.6604816317558289,0.47841110825538635,-0.03440690413117409,0.6997923851013184,0.46874409914016724,-0.03749244660139084,0.6418596506118774,0.4781835377216339,0.003328128019347787,0.6307716369628906,0.40737494826316833,-0.02321508340537548,0.6475666761398315,0.47469133138656616,-0.03640897572040558,0.6562036275863647,0.5012732744216919,-0.04197217524051666,0.6720175743103027,0.46242308616638184,0.0003716156934387982,0.6654764413833618,0.39149904251098633,-0.026020096614956856,0.676316499710083,0.47166311740875244,-0.028926800936460495,0.6776906847953796,0.4858805239200592,-0.02305191196501255,0.7042263150215149,0.46320903301239014,-0.009035899303853512,0.7029123902320862,0.40345463156700134,-0.031480755656957626,0.706326425075531,0.4772922098636627,-0.02320527471601963,0.7043635249137878,0.4893301725387573,-0.010861088521778584,0.7367973923683167,0.4739370346069336,-0.0214348416775465,0.7319406867027283,0.4334172308444977,-0.029027793556451797,0.7313053607940674,0.48195552825927734,-0.01963181607425213,0.7324351668357849,0.4959173798561096,-0.009796801023185253,0.0,0.0,0.0,0.0,0.0,0.0,0.0,0.0,0.0,0.0,0.0,0.0,0.0,0.0,0.0,0.0,0.0,0.0,0.0,0.0,0.0,0.0,0.0,0.0,0.0,0.0,0.0,0.0,0.0,0.0,0.0,0.0,0.0,0.0,0.0,0.0,0.0,0.0,0.0,0.0,0.0,0.0,0.0,0.0,0.0,0.0,0.0,0.0,0.0,0.0,0.0,0.0,0.0,0.0,0.0,0.0,0.0,0.0,0.0,0.0,0.0,0.0,0.0
1783390659.665484,0.7306645512580872,0.6732186079025269,-3.2491965384906507e-07,0.6854175329208374,0.6408873796463013,-0.01848171465098858,0.6448573470115662,0.5473422408103943,-0.024423940107226372,0.6608211398124695,0.47157934308052063,-0.03163595125079155,0.700410008430481,0.46153953671455383,-0.033842962235212326,0.6416116952896118,0.47490695118904114,0.0036655100993812084,0.6311784386634827,0.40585625171661377,-0.021440450102090836,0.6480154991149902,0.4726288616657257,-0.03352212533354759,0.6563636064529419,0.4978116750717163,-0.038649581372737885,0.6719141602516174,0.4577983617782593,0.0006829352932982147,0.6655147075653076,0.3840882480144501,-0.02472740225493908,0.6756950616836548,0.46418285369873047,-0.027108659967780113,0.6771082282066345,0.47880351543426514,-0.02088424190878868,0.7041566371917725,0.4579594135284424,-0.008577755652368069,0.7036343812942505,0.3990477919578552,-0.030344493687152863,0.7063540816307068,0.4730871915817261,-0.022398097440600395,0.7046608924865723,0.484769731760025,-0.010380186140537262,0.7366676330566406,0.46797242760658264,-0.020763717591762543,0.7324803471565247,0.42761433124542236,-0.028010379523038864,0.7314739227294922,0.47638291120529175,-0.018951110541820526,0.732933521270752,0.49008578062057495,-0.009525204077363014,0.0,0.0,0.0,0.0,0.0,0.0,0.0,0.0,0.0,0.0,0.0,0.0,0.0,0.0,0.0,0.0,0.0,0.0,0.0,0.0,0.0,0.0,0.0,0.0,0.0,0.0,0.0,0.0,0.0,0.0,0.0,0.0,0.0,0.0,0.0,0.0,0.0,0.0,0.0,0.0,0.0,0.0,0.0,0.0,0.0,0.0,0.0,0.0,0.0,0.0,0.0,0.0,0.0,0.0,0.0,0.0,0.0,0.0,0.0,0.0,0.0,0.0,0.0
1783390659.855638,0.7321617603302002,0.6717164516448975,-3.280748330780625e-07,0.687688946723938,0.6383166909217834,-0.01883203722536564,0.6483234167098999,0.55048006772995,-0.02549593895673752,0.6623020172119141,0.47634822130203247,-0.033472299575805664,0.7002984285354614,0.4640344977378845,-0.03626440092921257,0.6429163217544556,0.4731540083885193,0.004258243832737207,0.6331874132156372,0.4040657579898834,-0.02150886319577694,0.6502501964569092,0.4720451831817627,-0.03393898531794548,0.658076822757721,0.4974331855773926,-0.039079006761312485,0.6731870174407959,0.457079142332077,0.0011693286942318082,0.6675198674201965,0.3845827579498291,-0.024767810478806496,0.6780112981796265,0.4655087888240814,-0.02760109305381775,0.6787155270576477,0.4788176715373993,-0.021665608510375023,0.7055312395095825,0.4575100243091583,-0.008320559747517109,0.7058731913566589,0.3989775478839874,-0.030974334105849266,0.7085264325141907,0.47422894835472107,-0.02319292351603508,0.7056754231452942,0.4853208363056183,-0.011036346666514874,0.73797607421875,0.4682236909866333,-0.020722167566418648,0.7349323630332947,0.42772164940834045,-0.028311319649219513,0.7337965965270996,0.4768994450569153,-0.019038891419768333,0.7341728210449219,0.4900865852832794,-0.009271733462810516,0.0,0.0,0.0,0.0,0.0,0.0,0.0,0.0,0.0,0.0,0.0,0.0,0.0,0.0,0.0,0.0,0.0,0.0,0.0,0.0,0.0,0.0,0.0,0.0,0.0,0.0,0.0,0.0,0.0,0.0,0.0,0.0,0.0,0.0,0.0,0.0,0.0,0.0,0.0,0.0,0.0,0.0,0.0,0.0,0.0,0.0,0.0,0.0,0.0,0.0,0.0,0.0,0.0,0.0,0.0,0.0,0.0,0.0,0.0,0.0,0.0,0.0,0.0
1783390660.007749,0.7322657704353333,0.6734958291053772,-3.312029264179728e-07,0.6886736750602722,0.640406608581543,-0.018908759579062462,0.6489390730857849,0.5496693253517151,-0.025323785841464996,0.6639432311058044,0.47385385632514954,-0.03303639218211174,0.7032998204231262,0.46481335163116455,-0.035590168088674545,0.6435679793357849,0.47288697957992554,0.0037501303013414145,0.6341445446014404,0.403438538312912,-0.021754899993538857,0.6498299837112427,0.47071513533592224,-0.03432774543762207,0.6577919125556946,0.49575939774513245,-0.039908766746520996,0.6737098693847656,0.4568387269973755,0.0008667782531119883,0.6679948568344116,0.3864305019378662,-0.024408647790551186,0.6774117946624756,0.4667315185070038,-0.026745976880192757,0.6788089871406555,0.47934845089912415,-0.020872244611382484,0.7060588002204895,0.4581400752067566,-0.008456152863800526,0.7059586644172668,0.3985876739025116,-0.030161971226334572,0.7079246640205383,0.47233402729034424,-0.022022046148777008,0.7062851786613464,0.48424822092056274,-0.010121340863406658,0.7387121319770813,0.4696131646633148,-0.020803865045309067,0.7350572943687439,0.42913442850112915,-0.02839776873588562,0.7330477833747864,0.4772118330001831,-0.019656941294670105,0.7339158654212952,0.4909316897392273,-0.010486298240721226,0.0,0.0,0.0,0.0,0.0,0.0,0.0,0.0,0.0,0.0,0.0,0.0,0.0,0.0,0.0,0.0,0.0,0.0,0.0,0.0,0.0,0.0,0.0,0.0,0.0,0.0,0.0,0.0,0.0,0.0,0.0,0.0,0.0,0.0,0.0,0.0,0.0,0.0,0.0,0.0,0.0,0.0,0.0,0.0,0.0,0.0,0.0,0.0,0.0,0.0,0.0,0.0,0.0,0.0,0.0,0.0,0.0,0.0,0.0,0.0,0.0,0.0,0.0
1783390660.233384,0.7329315543174744,0.6711516976356506,-3.357038451667904e-07,0.6878175139427185,0.6372513771057129,-0.018647782504558563,0.647908091545105,0.5462491512298584,-0.02522638626396656,0.6624134182929993,0.4694940745830536,-0.03309706225991249,0.7016242742538452,0.4580846130847931,-0.03571835532784462,0.6438683867454529,0.472876638174057,0.0035272748209536076,0.6342377066612244,0.40217703580856323,-0.022270478308200836,0.6505646109580994,0.47077295184135437,-0.03472587838768959,0.6581936478614807,0.4946613907814026,-0.04019314423203468,0.6742954850196838,0.45693376660346985,0.0005276762531138957,0.6678261756896973,0.38424932956695557,-0.02530123107135296,0.6778737306594849,0.465645432472229,-0.02758142724633217,0.6789920330047607,0.4776100218296051,-0.02152957394719124,0.7065939903259277,0.45735815167427063,-0.008826406672596931,0.7061689496040344,0.3959946930408478,-0.031069783493876457,0.708845853805542,0.4707982540130615,-0.022356869652867317,0.7073821425437927,0.4821169376373291,-0.009840034879744053,0.7391457557678223,0.467664897441864,-0.021150020882487297,0.7351152300834656,0.4245709180831909,-0.028836265206336975,0.7335748076438904,0.4738728404045105,-0.019556228071451187,0.7347234487533569,0.48872682452201843,-0.009929024614393711,0.0,0.0,0.0,0.0,0.0,0.0,0.0,0.0,0.0,0.0,0.0,0.0,0.0,0.0,0.0,0.0,0.0,0.0,0.0,0.0,0.0,0.0,0.0,0.0,0.0,0.0,0.0,0.0,0.0,0.0,0.0,0.0,0.0,0.0,0.0,0.0,0.0,0.0,0.0,0.0,0.0,0.0,0.0,0.0,0.0,0.0,0.0,0.0,0.0,0.0,0.0,0.0,0.0,0.0,0.0,0.0,0.0,0.0,0.0,0.0,0.0,0.0,0.0
1783390660.440659,0.7325714826583862,0.6695042252540588,-3.3128469567600405e-07,0.6876443028450012,0.6356712579727173,-0.01876940205693245,0.6477146148681641,0.5422737002372742,-0.02504277415573597,0.663650393486023,0.4662844240665436,-0.03254349157214165,0.7037371397018433,0.45954227447509766,-0.03486492112278938,0.6428980231285095,0.46997174620628357,0.004110822919756174,0.6344369053840637,0.4011842608451843,-0.021025169640779495,0.6496528387069702,0.4697289764881134,-0.033191341906785965,0.6564171314239502,0.49306967854499817,-0.03866012394428253,0.6734743118286133,0.4535907208919525,0.0013143400428816676,0.6677097082138062,0.38312867283821106,-0.02404046431183815,0.6770966649055481,0.464212030172348,-0.02642313577234745,0.6778883934020996,0.47501450777053833,-0.02048562653362751,0.7058905959129333,0.45385584235191345,-0.007820707745850086,0.7060386538505554,0.39503780007362366,-0.029605913907289505,0.7082884311676025,0.4691966474056244,-0.021332236006855965,0.7065175771713257,0.47897979617118835,-0.009188695810735226,0.7384753227233887,0.46400871872901917,-0.019935572519898415,0.7346489429473877,0.42144933342933655,-0.02706214413046837,0.7331697344779968,0.4704797565937042,-0.017763689160346985,0.7343820333480835,0.48448067903518677,-0.0082265455275774,0.0,0.0,0.0,0.0,0.0,0.0,0.0,0.0,0.0,0.0,0.0,0.0,0.0,0.0,0.0,0.0,0.0,0.0,0.0,0.0,0.0,0.0,0.0,0.0,0.0,0.0,0.0,0.0,0.0,0.0,0.0,0.0,0.0,0.0,0.0,0.0,0.0,0.0,0.0,0.0,0.0,0.0,0.0,0.0,0.0,0.0,0.0,0.0,0.0,0.0,0.0,0.0,0.0,0.0,0.0,0.0,0.0,0.0,0.0,0.0,0.0,0.0,0.0
1783390660.607279,0.733343243598938,0.6714048385620117,-3.269773571901169e-07,0.6884187459945679,0.6375292539596558,-0.019024530425667763,0.6482049822807312,0.5448184609413147,-0.025518976151943207,0.6631371974945068,0.46678829193115234,-0.033316757529973984,0.7029277682304382,0.4610471725463867,-0.03585147485136986,0.6427936553955078,0.4727914035320282,0.004579692613333464,0.633169949054718,0.40267664194107056,-0.021076761186122894,0.6492774486541748,0.4700263738632202,-0.03376063331961632,0.6566198468208313,0.4936067461967468,-0.039572831243276596,0.6729405522346497,0.45561477541923523,0.0016581043601036072,0.6660996675491333,0.38505035638809204,-0.02415711060166359,0.6766544580459595,0.4648200273513794,-0.026749299839138985,0.677605152130127,0.4760494828224182,-0.020918000489473343,0.7052912712097168,0.45576146245002747,-0.007777707651257515,0.7042075991630554,0.39498022198677063,-0.029813164845108986,0.7075892090797424,0.46791020035743713,-0.0215673316270113,0.7060626149177551,0.47838523983955383,-0.00948365405201912,0.7380630970001221,0.4657006561756134,-0.020283294841647148,0.733719527721405,0.424093633890152,-0.027921870350837708,0.7327196002006531,0.4721326231956482,-0.019112346693873405,0.73398756980896,0.48606815934181213,-0.00989511702209711,0.0,0.0,0.0,0.0,0.0,0.0,0.0,0.0,0.0,0.0,0.0,0.0,0.0,0.0,0.0,0.0,0.0,0.0,0.0,0.0,0.0,0.0,0.0,0.0,0.0,0.0,0.0,0.0,0.0,0.0,0.0,0.0,0.0,0.0,0.0,0.0,0.0,0.0,0.0,0.0,0.0,0.0,0.0,0.0,0.0,0.0,0.0,0.0,0.0,0.0,0.0,0.0,0.0,0.0,0.0,0.0,0.0,0.0,0.0,0.0,0.0,0.0,0.0
1783390660.818492,0.7327145338058472,0.6672065854072571,-3.387190474768431e-07,0.6870831847190857,0.6349735260009766,-0.01885686069726944,0.646245002746582,0.5412505865097046,-0.024865392595529556,0.6612730622291565,0.4629606604576111,-0.03201187402009964,0.7011674046516418,0.4559862017631531,-0.03391658142209053,0.6421257257461548,0.46953558921813965,0.0036361815873533487,0.6322500705718994,0.40105515718460083,-0.021611468866467476,0.6488059163093567,0.47011876106262207,-0.033541396260261536,0.6561307907104492,0.49158775806427,-0.038923487067222595,0.6726415753364563,0.45284467935562134,0.0008376886253245175,0.6659425497055054,0.38228803873062134,-0.02512400411069393,0.6761664748191833,0.464810848236084,-0.027383435517549515,0.6770979166030884,0.47425785660743713,-0.021175261586904526,0.7047834992408752,0.45239922404289246,-0.008279664441943169,0.7042853832244873,0.3935549557209015,-0.03065762296319008,0.7069195508956909,0.4691539704799652,-0.02220883034169674,0.7053127288818359,0.4771478772163391,-0.009819302707910538,0.7373691201210022,0.46112820506095886,-0.020380882546305656,0.7333371639251709,0.4196550250053406,-0.028072232380509377,0.7318540215492249,0.470263808965683,-0.01891549490392208,0.7331637740135193,0.4835737347602844,-0.009382913820445538,0.0,0.0,0.0,0.0,0.0,0.0,0.0,0.0,0.0,0.0,0.0,0.0,0.0,0.0,0.0,0.0,0.0,0.0,0.0,0.0,0.0,0.0,0.0,0.0,0.0,0.0,0.0,0.0,0.0,0.0,0.0,0.0,0.0,0.0,0.0,0.0,0.0,0.0,0.0,0.0,0.0,0.0,0.0,0.0,0.0,0.0,0.0,0.0,0.0,0.0,0.0,0.0,0.0,0.0,0.0,0.0,0.0,0.0,0.0,0.0,0.0,0.0,0.0
1783390660.986304,0.7322850227355957,0.6674651503562927,-3.254153000398219e-07,0.6882721781730652,0.6346207857131958,-0.01904870755970478,0.6485742330551147,0.5451887249946594,-0.0257840845733881,0.6634198427200317,0.4698635935783386,-0.0338200144469738,0.7028759717941284,0.45871853828430176,-0.036682721227407455,0.6433029174804688,0.470674604177475,0.0037148073315620422,0.6333682537078857,0.40112099051475525,-0.022233741357922554,0.649425208568573,0.468410849571228,-0.03484940901398659,0.6575676202774048,0.4928653836250305,-0.040282417088747025,0.6734038591384888,0.454056978225708,0.0007544817635789514,0.6674842238426208,0.3819008767604828,-0.025230886414647102,0.6773220896720886,0.4620650112628937,-0.027830423787236214,0.678594708442688,0.4741280674934387,-0.021881122142076492,0.7056717276573181,0.45440366864204407,-0.008660739287734032,0.7053675651550293,0.3944718539714813,-0.031076978892087936,0.7078132033348083,0.46857744455337524,-0.023046046495437622,0.705912709236145,0.47929006814956665,-0.010933436453342438,0.738242506980896,0.4644205868244171,-0.02105141617357731,0.7344643473625183,0.42257654666900635,-0.02864830754697323,0.7328290343284607,0.47117677330970764,-0.019593171775341034,0.7335737943649292,0.48467540740966797,-0.010143822059035301,0.0,0.0,0.0,0.0,0.0,0.0,0.0,0.0,0.0,0.0,0.0,0.0,0.0,0.0,0.0,0.0,0.0,0.0,0.0,0.0,0.0,0.0,0.0,0.0,0.0,0.0,0.0,0.0,0.0,0.0,0.0,0.0,0.0,0.0,0.0,0.0,0.0,0.0,0.0,0.0,0.0,0.0,0.0,0.0,0.0,0.0,0.0,0.0,0.0,0.0,0.0,0.0,0.0,0.0,0.0,0.0,0.0,0.0,0.0,0.0,0.0,0.0,0.0
1783390661.1448052,0.7331914305686951,0.6706320643424988,-3.2840850394677545e-07,0.6884616017341614,0.6375312209129333,-0.01952415332198143,0.649407684803009,0.5489137768745422,-0.026648882776498795,0.6649180054664612,0.4733796715736389,-0.03506163880228996,0.7037942409515381,0.4622553586959839,-0.03822850063443184,0.6435871720314026,0.472906231880188,0.003961735870689154,0.6332261562347412,0.4032900929450989,-0.022897668182849884,0.649360716342926,0.47112274169921875,-0.03629520907998085,0.6575075387954712,0.4966304302215576,-0.042017120867967606,0.6737003922462463,0.45696043968200684,0.0010611680336296558,0.6674531698226929,0.3859895169734955,-0.02571818418800831,0.6778199672698975,0.4665561020374298,-0.02901742421090603,0.6788872480392456,0.4792060852050781,-0.02340351790189743,0.7061076760292053,0.4574213922023773,-0.00842329952865839,0.7053133845329285,0.39733538031578064,-0.031592659652233124,0.7083249092102051,0.4721798300743103,-0.02365441806614399,0.7060853838920593,0.48390376567840576,-0.01136149000376463,0.7386572957038879,0.46774423122406006,-0.02091306820511818,0.7345799207687378,0.42614811658859253,-0.028964411467313766,0.7334741950035095,0.4752679169178009,-0.01970338448882103,0.7342094779014587,0.48944610357284546,-0.00985573511570692,0.0,0.0,0.0,0.0,0.0,0.0,0.0,0.0,0.0,0.0,0.0,0.0,0.0,0.0,0.0,0.0,0.0,0.0,0.0,0.0,0.0,0.0,0.0,0.0,0.0,0.0,0.0,0.0,0.0,0.0,0.0,0.0,0.0,0.0,0.0,0.0,0.0,0.0,0.0,0.0,0.0,0.0,0.0,0.0,0.0,0.0,0.0,0.0,0.0,0.0,0.0,0.0,0.0,0.0,0.0,0.0,0.0,0.0,0.0,0.0,0.0,0.0,0.0
1783390661.374997,0.7329592704772949,0.6726129651069641,-3.3365853369105025e-07,0.688715398311615,0.6390913128852844,-0.019494201987981796,0.6489641666412354,0.548577606678009,-0.0263674333691597,0.664131224155426,0.47183957695961,-0.03441695496439934,0.7034769058227539,0.4616507887840271,-0.037144023925065994,0.6437544226646423,0.4723859131336212,0.003566692816093564,0.6344764232635498,0.40254634618759155,-0.022961897775530815,0.6500245928764343,0.47101643681526184,-0.036079131066799164,0.6573432087898254,0.495309442281723,-0.0418909527361393,0.6739441156387329,0.4569736421108246,0.0008093743235804141,0.6680726408958435,0.3866051435470581,-0.02542486973106861,0.6776875853538513,0.4677771031856537,-0.028251735493540764,0.6783822774887085,0.47825539112091064,-0.02260124497115612,0.7062597274780273,0.45793434977531433,-0.00850063469260931,0.7059076428413391,0.3979405164718628,-0.031324658542871475,0.7083547711372375,0.4730609357357025,-0.023059699684381485,0.706386923789978,0.48354047536849976,-0.01079918909817934,0.7388415336608887,0.4684678018093109,-0.020838702097535133,0.7350494265556335,0.4260108172893524,-0.02904801070690155,0.7337177395820618,0.47553521394729614,-0.019946737214922905,0.734718382358551,0.48936328291893005,-0.010308575816452503,0.0,0.0,0.0,0.0,0.0,0.0,0.0,0.0,0.0,0.0,0.0,0.0,0.0,0.0,0.0,0.0,0.0,0.0,0.0,0.0,0.0,0.0,0.0,0.0,0.0,0.0,0.0,0.0,0.0,0.0,0.0,0.0,0.0,0.0,0.0,0.0,0.0,0.0,0.0,0.0,0.0,0.0,0.0,0.0,0.0,0.0,0.0,0.0,0.0,0.0,0.0,0.0,0.0,0.0,0.0,0.0,0.0,0.0,0.0,0.0,0.0,0.0,0.0
1783390661.6124392,0.7322933077812195,0.6664392352104187,-3.4216802191622264e-07,0.6860184669494629,0.6326404213905334,-0.018027856945991516,0.6456354260444641,0.5409080982208252,-0.023927858099341393,0.6598882079124451,0.46281421184539795,-0.031186789274215698,0.6992035508155823,0.4551396369934082,-0.03322253376245499,0.642726480960846,0.47099703550338745,0.004415762610733509,0.6317793130874634,0.4015943706035614,-0.02111516334116459,0.6474913358688354,0.4719644784927368,-0.03318047523498535,0.6547728776931763,0.4933950901031494,-0.03852815553545952,0.6731346845626831,0.4540048837661743,0.0010433662682771683,0.6647977232933044,0.3819581866264343,-0.02515551634132862,0.6744230389595032,0.4649235010147095,-0.027448240667581558,0.6761240363121033,0.4743862450122833,-0.021104585379362106,0.7051185965538025,0.45296159386634827,-0.008601336739957333,0.7025290131568909,0.3931569755077362,-0.030955316498875618,0.7051041722297668,0.4693942666053772,-0.02192104607820511,0.7045639753341675,0.47659897804260254,-0.009021135978400707,0.7374623417854309,0.46143683791160583,-0.021195439621806145,0.731687605381012,0.42033693194389343,-0.028357118368148804,0.7301315069198608,0.47184520959854126,-0.018392084166407585,0.7323761582374573,0.485119104385376,-0.008280527777969837,0.0,0.0,0.0,0.0,0.0,0.0,0.0,0.0,0.0,0.0,0.0,0.0,0.0,0.0,0.0,0.0,0.0,0.0,0.0,0.0,0.0,0.0,0.0,0.0,0.0,0.0,0.0,0.0,0.0,0.0,0.0,0.0,0.0,0.0,0.0,0.0,0.0,0.0,0.0,0.0,0.0,0.0,0.0,0.0,0.0,0.0,0.0,0.0,0.0,0.0,0.0,0.0,0.0,0.0,0.0,0.0,0.0,0.0,0.0,0.0,0.0,0.0,0.0
1783390661.836491,0.7311601042747498,0.665152370929718,-3.2815449912959593e-07,0.6859608888626099,0.6307545304298401,-0.0187323410063982,0.6469138264656067,0.5425620079040527,-0.02563507668673992,0.6609740853309631,0.46572503447532654,-0.03385138139128685,0.6995077729225159,0.45170167088508606,-0.03685588017106056,0.6431631445884705,0.4669469892978668,0.0042196232825517654,0.6329411864280701,0.3983236253261566,-0.02160479500889778,0.649677574634552,0.4665641188621521,-0.0341574102640152,0.6580445170402527,0.4904322028160095,-0.039456091821193695,0.6735970973968506,0.45137807726860046,0.0012267206329852343,0.6666340231895447,0.37957650423049927,-0.02471742406487465,0.676788330078125,0.45968446135520935,-0.02744082361459732,0.6785749793052673,0.47182199358940125,-0.021475370973348618,0.7056423425674438,0.4517377018928528,-0.00814923457801342,0.7048230767250061,0.3911019265651703,-0.03066941536962986,0.7074711918830872,0.46487924456596375,-0.022501757368445396,0.7062395215034485,0.4757191240787506,-0.010071163065731525,0.7380457520484924,0.4618317782878876,-0.020454976707696915,0.7338506579399109,0.4184269309043884,-0.02796829491853714,0.7324057817459106,0.4673084020614624,-0.018630502745509148,0.733731210231781,0.48158347606658936,-0.008805629797279835,0.0,0.0,0.0,0.0,0.0,0.0,0.0,0.0,0.0,0.0,0.0,0.0,0.0,0.0,0.0,0.0,0.0,0.0,0.0,0.0,0.0,0.0,0.0,0.0,0.0,0.0,0.0,0.0,0.0,0.0,0.0,0.0,0.0,0.0,0.0,0.0,0.0,0.0,0.0,0.0,0.0,0.0,0.0,0.0,0.0,0.0,0.0,0.0,0.0,0.0,0.0,0.0,0.0,0.0,0.0,0.0,0.0,0.0,0.0,0.0,0.0,0.0,0.0
1783390662.087453,0.7311902046203613,0.662246584892273,-3.4341431387474586e-07,0.6860510110855103,0.6283847689628601,-0.017925133928656578,0.6463308334350586,0.537083089351654,-0.023904839530587196,0.660198986530304,0.45988234877586365,-0.031292542815208435,0.6994632482528687,0.44986510276794434,-0.033416297286748886,0.6422868371009827,0.46531304717063904,0.004620276857167482,0.6319953203201294,0.3952998220920563,-0.02057517319917679,0.6480108499526978,0.4653241038322449,-0.0323953777551651,0.6552942991256714,0.4878484606742859,-0.037501607090234756,0.6724682450294495,0.44883909821510315,0.0013079378986731172,0.6652808785438538,0.3764897286891937,-0.02441665530204773,0.6751478314399719,0.4598515033721924,-0.02649901807308197,0.6764052510261536,0.47087278962135315,-0.020054083317518234,0.7043372988700867,0.4486292004585266,-0.008271035738289356,0.7031149864196777,0.38859885931015015,-0.03025716356933117,0.7055412530899048,0.46439722180366516,-0.021388834342360497,0.7043386101722717,0.4733423888683319,-0.008626730181276798,0.7366011738777161,0.4582517445087433,-0.02076881006360054,0.7318781018257141,0.4160856604576111,-0.027891291305422783,0.7302032709121704,0.46636465191841125,-0.018229573965072632,0.7316985130310059,0.4802389442920685,-0.008315456099808216,0.0,0.0,0.0,0.0,0.0,0.0,0.0,0.0,0.0,0.0,0.0,0.0,0.0,0.0,0.0,0.0,0.0,0.0,0.0,0.0,0.0,0.0,0.0,0.0,0.0,0.0,0.0,0.0,0.0,0.0,0.0,0.0,0.0,0.0,0.0,0.0,0.0,0.0,0.0,0.0,0.0,0.0,0.0,0.0,0.0,0.0,0.0,0.0,0.0,0.0,0.0,0.0,0.0,0.0,0.0,0.0,0.0,0.0,0.0,0.0,0.0,0.0,0.0
