ciel274/research-hand-sign/data/raw/hiragana/sign_language_to_3.csv
timestamp,R_joint_0_x,R_joint_0_y,R_joint_0_z,R_joint_1_x,R_joint_1_y,R_joint_1_z,R_joint_2_x,R_joint_2_y,R_joint_2_z,R_joint_3_x,R_joint_3_y,R_joint_3_z,R_joint_4_x,R_joint_4_y,R_joint_4_z,R_joint_5_x,R_joint_5_y,R_joint_5_z,R_joint_6_x,R_joint_6_y,R_joint_6_z,R_joint_7_x,R_joint_7_y,R_joint_7_z,R_joint_8_x,R_joint_8_y,R_joint_8_z,R_joint_9_x,R_joint_9_y,R_joint_9_z,R_joint_10_x,R_joint_10_y,R_joint_10_z,R_joint_11_x,R_joint_11_y,R_joint_11_z,R_joint_12_x,R_joint_12_y,R_joint_12_z,R_joint_13_x,R_joint_13_y,R_joint_13_z,R_joint_14_x,R_joint_14_y,R_joint_14_z,R_joint_15_x,R_joint_15_y,R_joint_15_z,R_joint_16_x,R_joint_16_y,R_joint_16_z,R_joint_17_x,R_joint_17_y,R_joint_17_z,R_joint_18_x,R_joint_18_y,R_joint_18_z,R_joint_19_x,R_joint_19_y,R_joint_19_z,R_joint_20_x,R_joint_20_y,R_joint_20_z,L_joint_0_x,L_joint_0_y,L_joint_0_z,L_joint_1_x,L_joint_1_y,L_joint_1_z,L_joint_2_x,L_joint_2_y,L_joint_2_z,L_joint_3_x,L_joint_3_y,L_joint_3_z,L_joint_4_x,L_joint_4_y,L_joint_4_z,L_joint_5_x,L_joint_5_y,L_joint_5_z,L_joint_6_x,L_joint_6_y,L_joint_6_z,L_joint_7_x,L_joint_7_y,L_joint_7_z,L_joint_8_x,L_joint_8_y,L_joint_8_z,L_joint_9_x,L_joint_9_y,L_joint_9_z,L_joint_10_x,L_joint_10_y,L_joint_10_z,L_joint_11_x,L_joint_11_y,L_joint_11_z,L_joint_12_x,L_joint_12_y,L_joint_12_z,L_joint_13_x,L_joint_13_y,L_joint_13_z,L_joint_14_x,L_joint_14_y,L_joint_14_z,L_joint_15_x,L_joint_15_y,L_joint_15_z,L_joint_16_x,L_joint_16_y,L_joint_16_z,L_joint_17_x,L_joint_17_y,L_joint_17_z,L_joint_18_x,L_joint_18_y,L_joint_18_z,L_joint_19_x,L_joint_19_y,L_joint_19_z,L_joint_20_x,L_joint_20_y,L_joint_20_z
1783391080.684384,0.7028383016586304,0.8550529479980469,3.989299841578031e-07,0.7229556441307068,0.7610780596733093,0.019281860440969467,0.715038537979126,0.6874365210533142,0.021545888856053352,0.6920095086097717,0.6519516110420227,0.019395222887396812,0.6695972084999084,0.6407312154769897,0.01606910116970539,0.7150405049324036,0.6394957304000854,-0.002619016682729125,0.7046969532966614,0.5433099865913391,-0.00896731298416853,0.701281726360321,0.4880150556564331,-0.012661583721637726,0.6968072652816772,0.44296059012413025,-0.014675005339086056,0.6876256465911865,0.6468425989151001,-0.015176666900515556,0.6815769672393799,0.5368010401725769,-0.021869409829378128,0.6784980893135071,0.4701102375984192,-0.025518689304590225,0.6743450164794922,0.41994598507881165,-0.02847445011138916,0.6592860817909241,0.666975736618042,-0.02383774146437645,0.6474286913871765,0.5773999094963074,-0.021843910217285156,0.6555465459823608,0.6010643243789673,-0.010697630234062672,0.6605758666992188,0.6281964182853699,-0.002758363261818886,0.6367024779319763,0.694731593132019,-0.031292304396629333,0.6266644597053528,0.6317227482795715,-0.02294735610485077,0.6356995105743408,0.6482970118522644,-0.00789699237793684,0.6416098475456238,0.6706814765930176,0.0034969195257872343,0.0,0.0,0.0,0.0,0.0,0.0,0.0,0.0,0.0,0.0,0.0,0.0,0.0,0.0,0.0,0.0,0.0,0.0,0.0,0.0,0.0,0.0,0.0,0.0,0.0,0.0,0.0,0.0,0.0,0.0,0.0,0.0,0.0,0.0,0.0,0.0,0.0,0.0,0.0,0.0,0.0,0.0,0.0,0.0,0.0,0.0,0.0,0.0,0.0,0.0,0.0,0.0,0.0,0.0,0.0,0.0,0.0,0.0,0.0,0.0,0.0,0.0,0.0
1783391080.9470131,0.7038703560829163,0.8539958596229553,3.9905339122014993e-07,0.7235419154167175,0.7593655586242676,0.016313891857862473,0.7150473594665527,0.6842902898788452,0.016586529091000557,0.6904297471046448,0.6522437930107117,0.012891652062535286,0.6667439937591553,0.6442742347717285,0.007579782512038946,0.7147386074066162,0.6417222023010254,-0.007330756168812513,0.7043368816375732,0.5455099940299988,-0.015239070169627666,0.7006141543388367,0.4902457296848297,-0.019735416397452354,0.6960282325744629,0.444470077753067,-0.022074569016695023,0.6876835823059082,0.6500135064125061,-0.019142672419548035,0.681155264377594,0.539891242980957,-0.025646669790148735,0.6782181262969971,0.4734257757663727,-0.028635142371058464,0.6737740635871887,0.42208802700042725,-0.03140069916844368,0.6596148014068604,0.6700686812400818,-0.027399836108088493,0.6475381851196289,0.578992486000061,-0.027010874822735786,0.6562748551368713,0.6022300720214844,-0.017185239121317863,0.6616626381874084,0.630246639251709,-0.010030470788478851,0.6368871331214905,0.6969091296195984,-0.03456144779920578,0.6272752285003662,0.6332654356956482,-0.028207508847117424,0.6371663808822632,0.6482462882995605,-0.014482523314654827,0.6435290575027466,0.6704617142677307,-0.0040436722338199615,0.0,0.0,0.0,0.0,0.0,0.0,0.0,0.0,0.0,0.0,0.0,0.0,0.0,0.0,0.0,0.0,0.0,0.0,0.0,0.0,0.0,0.0,0.0,0.0,0.0,0.0,0.0,0.0,0.0,0.0,0.0,0.0,0.0,0.0,0.0,0.0,0.0,0.0,0.0,0.0,0.0,0.0,0.0,0.0,0.0,0.0,0.0,0.0,0.0,0.0,0.0,0.0,0.0,0.0,0.0,0.0,0.0,0.0,0.0,0.0,0.0,0.0,0.0
1783391081.1244109,0.7047133445739746,0.8577176332473755,4.0607096707390156e-07,0.7231873869895935,0.7607637047767639,0.021958883851766586,0.7154300212860107,0.6896044015884399,0.024204649031162262,0.6935974359512329,0.6529218554496765,0.021402932703495026,0.6720747351646423,0.6410050988197327,0.017399830743670464,0.7150343060493469,0.6429219841957092,-0.002743491204455495,0.702782154083252,0.5474590063095093,-0.010751810856163502,0.6983621120452881,0.49167847633361816,-0.015333907678723335,0.6938658952713013,0.4468967616558075,-0.0177961103618145,0.6888296008110046,0.6517585515975952,-0.016931554302573204,0.680333137512207,0.5412267446517944,-0.02723669447004795,0.6762788891792297,0.4729313552379608,-0.03235519304871559,0.6722086071968079,0.42302289605140686,-0.03563029691576958,0.6608253121376038,0.6734514236450195,-0.026648063212633133,0.6466720700263977,0.5834149718284607,-0.026004396378993988,0.6540800929069519,0.6054697036743164,-0.012763801962137222,0.6591562032699585,0.6315598487854004,-0.0027446395251899958,0.6382157802581787,0.7039605975151062,-0.035009074956178665,0.6257111430168152,0.6376227736473083,-0.02640109695494175,0.6351378560066223,0.6530503630638123,-0.009168878197669983,0.6416222453117371,0.6753675937652588,0.004240581300109625,0.0,0.0,0.0,0.0,0.0,0.0,0.0,0.0,0.0,0.0,0.0,0.0,0.0,0.0,0.0,0.0,0.0,0.0,0.0,0.0,0.0,0.0,0.0,0.0,0.0,0.0,0.0,0.0,0.0,0.0,0.0,0.0,0.0,0.0,0.0,0.0,0.0,0.0,0.0,0.0,0.0,0.0,0.0,0.0,0.0,0.0,0.0,0.0,0.0,0.0,0.0,0.0,0.0,0.0,0.0,0.0,0.0,0.0,0.0,0.0,0.0,0.0,0.0
1783391081.347976,0.7035883665084839,0.8619217872619629,4.0101863874042465e-07,0.7221348881721497,0.7677003145217896,0.01842314936220646,0.713180422782898,0.6935256123542786,0.020371828228235245,0.6898751258850098,0.6587218642234802,0.01787037029862404,0.6669747829437256,0.6486665606498718,0.014220617711544037,0.7124890089035034,0.6457582116127014,-0.002532976446673274,0.701669454574585,0.5487908124923706,-0.009003769606351852,0.6974260807037354,0.49324798583984375,-0.012607648968696594,0.6924336552619934,0.4480389356613159,-0.014435817487537861,0.6858400702476501,0.653741717338562,-0.015034564770758152,0.6779119968414307,0.5443418025970459,-0.022112762555480003,0.6738183498382568,0.47684550285339355,-0.02584993466734886,0.6692031025886536,0.42587733268737793,-0.028708098456263542,0.6580098867416382,0.674448549747467,-0.023820042610168457,0.6454526782035828,0.5849302411079407,-0.022939300164580345,0.6538136601448059,0.6081422567367554,-0.012134871445596218,0.6590563654899597,0.6354800462722778,-0.004024199675768614,0.6354115009307861,0.7028303146362305,-0.0314573310315609,0.6244056820869446,0.6377753615379333,-0.024057304486632347,0.6337774991989136,0.6534408926963806,-0.009149429388344288,0.6401365399360657,0.6760700941085815,0.0023963460698723793,0.0,0.0,0.0,0.0,0.0,0.0,0.0,0.0,0.0,0.0,0.0,0.0,0.0,0.0,0.0,0.0,0.0,0.0,0.0,0.0,0.0,0.0,0.0,0.0,0.0,0.0,0.0,0.0,0.0,0.0,0.0,0.0,0.0,0.0,0.0,0.0,0.0,0.0,0.0,0.0,0.0,0.0,0.0,0.0,0.0,0.0,0.0,0.0,0.0,0.0,0.0,0.0,0.0,0.0,0.0,0.0,0.0,0.0,0.0,0.0,0.0,0.0,0.0
1783391081.6765828,0.7045354843139648,0.8630661368370056,4.0081008023662434e-07,0.7218424677848816,0.7628909349441528,0.023849528282880783,0.7138015031814575,0.692845344543457,0.026653384789824486,0.6914844512939453,0.6566519141197205,0.024048304185271263,0.6699188351631165,0.6441269516944885,0.020357435569167137,0.7149211764335632,0.6462744474411011,-0.001393813407048583,0.7028752565383911,0.550811767578125,-0.009799799881875515,0.6980669498443604,0.4933066666126251,-0.015383233316242695,0.6923935413360596,0.4471949636936188,-0.018817320466041565,0.6890048384666443,0.6548603773117065,-0.016356531530618668,0.6808096170425415,0.5432373881340027,-0.026448173448443413,0.6755326390266418,0.474196195602417,-0.032048650085926056,0.6698614954948425,0.4243084788322449,-0.03606071695685387,0.6607900857925415,0.6758779287338257,-0.02672511897981167,0.6455668210983276,0.5862871408462524,-0.02446886897087097,0.6525310277938843,0.606431245803833,-0.010893858037889004,0.6576969027519226,0.6313071846961975,-0.0012736392673105001,0.6377688050270081,0.7047684192657471,-0.03577610105276108,0.6252105832099915,0.6404126882553101,-0.025798190385103226,0.6337355971336365,0.655640184879303,-0.008667051792144775,0.6404378414154053,0.6773862838745117,0.004293428733944893,0.0,0.0,0.0,0.0,0.0,0.0,0.0,0.0,0.0,0.0,0.0,0.0,0.0,0.0,0.0,0.0,0.0,0.0,0.0,0.0,0.0,0.0,0.0,0.0,0.0,0.0,0.0,0.0,0.0,0.0,0.0,0.0,0.0,0.0,0.0,0.0,0.0,0.0,0.0,0.0,0.0,0.0,0.0,0.0,0.0,0.0,0.0,0.0,0.0,0.0,0.0,0.0,0.0,0.0,0.0,0.0,0.0,0.0,0.0,0.0,0.0,0.0,0.0
1783391081.885758,0.7046350836753845,0.8621759414672852,3.949506890421617e-07,0.7222132086753845,0.7660342454910278,0.01975010521709919,0.7126717567443848,0.6911528706550598,0.021544525399804115,0.688727855682373,0.6570249795913696,0.018823476508259773,0.6653399467468262,0.6476941704750061,0.014832289889454842,0.7122147083282471,0.6450798511505127,-0.003917891066521406,0.7008463740348816,0.5487940907478333,-0.011196152307093143,0.6963731646537781,0.49266767501831055,-0.015499419532716274,0.6913511157035828,0.44738954305648804,-0.017734533175826073,0.6852378249168396,0.6557988524436951,-0.01705462858080864,0.6775808334350586,0.5459142923355103,-0.024561002850532532,0.6737663745880127,0.4780769944190979,-0.0284603051841259,0.6692664623260498,0.42684635519981384,-0.031552545726299286,0.6573616862297058,0.6770942807197571,-0.026186693459749222,0.645679771900177,0.5869081616401672,-0.02499258704483509,0.6538239121437073,0.6085888743400574,-0.013991033658385277,0.6589150428771973,0.6347659826278687,-0.005962788593024015,0.6352202296257019,0.7044994831085205,-0.03404475376009941,0.6250877976417542,0.6386449337005615,-0.025699911639094353,0.6344603300094604,0.6535285115242004,-0.01018282026052475,0.6409200429916382,0.6757030487060547,0.001564115402288735,0.0,0.0,0.0,0.0,0.0,0.0,0.0,0.0,0.0,0.0,0.0,0.0,0.0,0.0,0.0,0.0,0.0,0.0,0.0,0.0,0.0,0.0,0.0,0.0,0.0,0.0,0.0,0.0,0.0,0.0,0.0,0.0,0.0,0.0,0.0,0.0,0.0,0.0,0.0,0.0,0.0,0.0,0.0,0.0,0.0,0.0,0.0,0.0,0.0,0.0,0.0,0.0,0.0,0.0,0.0,0.0,0.0,0.0,0.0,0.0,0.0,0.0,0.0
1783391082.042548,0.7046743035316467,0.861814558506012,3.926143676835636e-07,0.7223904728889465,0.7647234797477722,0.02109512686729431,0.7142421007156372,0.6909049153327942,0.02315177582204342,0.691643238067627,0.6491719484329224,0.02048385888338089,0.669607937335968,0.6327327489852905,0.016671421006321907,0.7138152122497559,0.6438934803009033,-0.0034809019416570663,0.7002642154693604,0.5486508011817932,-0.011559562757611275,0.6953076124191284,0.492581844329834,-0.016124257817864418,0.6899366974830627,0.44729986786842346,-0.018378794193267822,0.6877309083938599,0.6547266244888306,-0.017329126596450806,0.6782312989234924,0.5426257848739624,-0.026921004056930542,0.673219621181488,0.4745923578739166,-0.031116250902414322,0.6676638126373291,0.4247676134109497,-0.03370042145252228,0.6599618196487427,0.6765705943107605,-0.02693505957722664,0.6454452872276306,0.5868065357208252,-0.02686581015586853,0.6530312895774841,0.6068143844604492,-0.014612521044909954,0.6584348678588867,0.6324903964996338,-0.005100290756672621,0.6368285417556763,0.705956757068634,-0.035152651369571686,0.6250601410865784,0.6393953561782837,-0.027069495990872383,0.6339601278305054,0.6547648906707764,-0.010468428954482079,0.6405069828033447,0.6777704358100891,0.0025256595108658075,0.0,0.0,0.0,0.0,0.0,0.0,0.0,0.0,0.0,0.0,0.0,0.0,0.0,0.0,0.0,0.0,0.0,0.0,0.0,0.0,0.0,0.0,0.0,0.0,0.0,0.0,0.0,0.0,0.0,0.0,0.0,0.0,0.0,0.0,0.0,0.0,0.0,0.0,0.0,0.0,0.0,0.0,0.0,0.0,0.0,0.0,0.0,0.0,0.0,0.0,0.0,0.0,0.0,0.0,0.0,0.0,0.0,0.0,0.0,0.0,0.0,0.0,0.0
1783391082.248286,0.7055413126945496,0.8629724383354187,4.0662004607838753e-07,0.723159909248352,0.7654047012329102,0.021636493504047394,0.7141807675361633,0.6916685104370117,0.02369639091193676,0.6901997327804565,0.6551973223686218,0.021020637825131416,0.6668983101844788,0.6442762017250061,0.017162837088108063,0.7138833999633789,0.6442149877548218,-0.0038557436782866716,0.7004328966140747,0.5484978556632996,-0.011078168638050556,0.6957582235336304,0.492572546005249,-0.014978154562413692,0.6905076503753662,0.44758644700050354,-0.01699662394821644,0.6867050528526306,0.6552553176879883,-0.017804600298404694,0.679161548614502,0.5425291061401367,-0.02706318348646164,0.6754739284515381,0.47390636801719666,-0.031069835647940636,0.6709794402122498,0.4228445887565613,-0.03365132585167885,0.6582663655281067,0.6770266890525818,-0.027297118678689003,0.6454699039459229,0.5835158228874207,-0.026136934757232666,0.6532138586044312,0.6038594841957092,-0.01322710420936346,0.658169150352478,0.6293145418167114,-0.003553257789462805,0.6358433365821838,0.7057316899299622,-0.03539111465215683,0.6252805590629578,0.6361520886421204,-0.02584916725754738,0.6350335478782654,0.6503909230232239,-0.008416008204221725,0.6419302821159363,0.6730136275291443,0.004893024917691946,0.0,0.0,0.0,0.0,0.0,0.0,0.0,0.0,0.0,0.0,0.0,0.0,0.0,0.0,0.0,0.0,0.0,0.0,0.0,0.0,0.0,0.0,0.0,0.0,0.0,0.0,0.0,0.0,0.0,0.0,0.0,0.0,0.0,0.0,0.0,0.0,0.0,0.0,0.0,0.0,0.0,0.0,0.0,0.0,0.0,0.0,0.0,0.0,0.0,0.0,0.0,0.0,0.0,0.0,0.0,0.0,0.0,0.0,0.0,0.0,0.0,0.0,0.0
1783391082.423917,0.7055045962333679,0.865071713924408,3.9848887922744325e-07,0.7228695154190063,0.7653186321258545,0.023472139611840248,0.7146362662315369,0.6915464401245117,0.02625342272222042,0.6924274563789368,0.6518469452857971,0.023902682587504387,0.6706851124763489,0.6374084949493408,0.020500032231211662,0.7139079570770264,0.6434069275856018,-0.002095452044159174,0.7006669640541077,0.54909348487854,-0.009815654717385769,0.6957833170890808,0.4929352104663849,-0.01434464380145073,0.6908475756645203,0.44813448190689087,-0.016875097528100014,0.6875033378601074,0.6545141339302063,-0.016949618235230446,0.6786500811576843,0.5427952408790588,-0.027596915140748024,0.6742711663246155,0.4734639823436737,-0.032988324761390686,0.6698671579360962,0.4230523705482483,-0.03652186319231987,0.6595284342765808,0.6768209338188171,-0.027086695656180382,0.6458374857902527,0.5854495763778687,-0.026163160800933838,0.6534412503242493,0.6057828068733215,-0.012949050404131413,0.6588547229766846,0.6309412717819214,-0.0031355717219412327,0.6369593143463135,0.7066428065299988,-0.03572355955839157,0.6247937083244324,0.6389739513397217,-0.026131225749850273,0.6342211365699768,0.6537565588951111,-0.00838465802371502,0.640984296798706,0.6760680675506592,0.005169734358787537,0.0,0.0,0.0,0.0,0.0,0.0,0.0,0.0,0.0,0.0,0.0,0.0,0.0,0.0,0.0,0.0,0.0,0.0,0.0,0.0,0.0,0.0,0.0,0.0,0.0,0.0,0.0,0.0,0.0,0.0,0.0,0.0,0.0,0.0,0.0,0.0,0.0,0.0,0.0,0.0,0.0,0.0,0.0,0.0,0.0,0.0,0.0,0.0,0.0,0.0,0.0,0.0,0.0,0.0,0.0,0.0,0.0,0.0,0.0,0.0,0.0,0.0,0.0
1783391082.590792,0.705501139163971,0.8630065321922302,3.930541936369991e-07,0.7221031188964844,0.7636429071426392,0.022975746542215347,0.7134438753128052,0.6901344656944275,0.025301493704319,0.690705418586731,0.6517325043678284,0.022479234263300896,0.6686502695083618,0.6375097632408142,0.018541114404797554,0.7134603261947632,0.6432202458381653,-0.002702373778447509,0.700128436088562,0.5468834042549133,-0.011142903938889503,0.6954107284545898,0.49020808935165405,-0.016302770003676414,0.6908174157142639,0.44509944319725037,-0.019038816913962364,0.687361478805542,0.6547759175300598,-0.017375396564602852,0.6775324940681458,0.5425791144371033,-0.02677653543651104,0.673008382320404,0.47404196858406067,-0.031525783240795135,0.6684783101081848,0.42421334981918335,-0.03496803715825081,0.659526526927948,0.6767206788063049,-0.027592811733484268,0.6453650593757629,0.584541380405426,-0.026103783398866653,0.6529221534729004,0.6057552099227905,-0.013159815222024918,0.6582208275794983,0.6315872073173523,-0.003824879415333271,0.6368564963340759,0.7054005861282349,-0.036399733275175095,0.6252007484436035,0.6384785175323486,-0.026969797909259796,0.6343758702278137,0.6537045836448669,-0.00982323195785284,0.640889585018158,0.6756967902183533,0.00317661021836102,0.0,0.0,0.0,0.0,0.0,0.0,0.0,0.0,0.0,0.0,0.0,0.0,0.0,0.0,0.0,0.0,0.0,0.0,0.0,0.0,0.0,0.0,0.0,0.0,0.0,0.0,0.0,0.0,0.0,0.0,0.0,0.0,0.0,0.0,0.0,0.0,0.0,0.0,0.0,0.0,0.0,0.0,0.0,0.0,0.0,0.0,0.0,0.0,0.0,0.0,0.0,0.0,0.0,0.0,0.0,0.0,0.0,0.0,0.0,0.0,0.0,0.0,0.0
1783391082.771327,0.7049418091773987,0.8625487089157104,3.989157448813785e-07,0.7220443487167358,0.7628828287124634,0.02323906309902668,0.714165210723877,0.6893875002861023,0.025528714060783386,0.691972017288208,0.649645984172821,0.0225489791482687,0.6701515316963196,0.6354461312294006,0.018453482538461685,0.7138537764549255,0.642083466053009,-0.0024702944792807102,0.7006871700286865,0.5481001734733582,-0.010917650535702705,0.6957177519798279,0.49195465445518494,-0.016079802066087723,0.6909230351448059,0.44715616106987,-0.019025899469852448,0.6878270506858826,0.6531646251678467,-0.017547231167554855,0.6789563298225403,0.5425761938095093,-0.02860475704073906,0.6745304465293884,0.47343894839286804,-0.034481726586818695,0.6702432036399841,0.4230014979839325,-0.038469742983579636,0.6598502993583679,0.6755317449569702,-0.027949657291173935,0.646121084690094,0.5851144790649414,-0.02730017714202404,0.6536766886711121,0.6053951382637024,-0.014058887958526611,0.6588433384895325,0.6303962469100952,-0.004309552256017923,0.6371073126792908,0.7049708366394043,-0.036927200853824615,0.6253263354301453,0.6386800408363342,-0.027563294395804405,0.6346944570541382,0.6531009674072266,-0.009861914440989494,0.641074538230896,0.6746935844421387,0.003599663032218814,0.0,0.0,0.0,0.0,0.0,0.0,0.0,0.0,0.0,0.0,0.0,0.0,0.0,0.0,0.0,0.0,0.0,0.0,0.0,0.0,0.0,0.0,0.0,0.0,0.0,0.0,0.0,0.0,0.0,0.0,0.0,0.0,0.0,0.0,0.0,0.0,0.0,0.0,0.0,0.0,0.0,0.0,0.0,0.0,0.0,0.0,0.0,0.0,0.0,0.0,0.0,0.0,0.0,0.0,0.0,0.0,0.0,0.0,0.0,0.0,0.0,0.0,0.0
1783391082.944576,0.7057210206985474,0.8632270097732544,3.981159295562975e-07,0.7225400805473328,0.7641981840133667,0.02239838056266308,0.7136853933334351,0.690377950668335,0.02464343048632145,0.6901255249977112,0.6529489159584045,0.021821534261107445,0.667404055595398,0.6400769352912903,0.017811520025134087,0.713879406452179,0.6444492936134338,-0.002595592988654971,0.7012741565704346,0.5489792227745056,-0.010686316527426243,0.6967353224754333,0.4926360547542572,-0.015484926290810108,0.6920620203018188,0.44726836681365967,-0.018068838864564896,0.6875607967376709,0.6554104089736938,-0.01708485558629036,0.6794427633285522,0.543205201625824,-0.026829103007912636,0.6755202412605286,0.47477084398269653,-0.03156643360853195,0.6710849404335022,0.42399269342422485,-0.03480595722794533,0.6596363186836243,0.6771746873855591,-0.02716834470629692,0.6458317637443542,0.5834918022155762,-0.026624120771884918,0.6535598635673523,0.6048339605331421,-0.013966448605060577,0.6587071418762207,0.6307540535926819,-0.004440223798155785,0.6371288299560547,0.7062111496925354,-0.03579083830118179,0.6257417798042297,0.6372466683387756,-0.027053259313106537,0.6353617906570435,0.6520841717720032,-0.010041539557278156,0.6420777440071106,0.674399733543396,0.0030115898698568344,0.0,0.0,0.0,0.0,0.0,0.0,0.0,0.0,0.0,0.0,0.0,0.0,0.0,0.0,0.0,0.0,0.0,0.0,0.0,0.0,0.0,0.0,0.0,0.0,0.0,0.0,0.0,0.0,0.0,0.0,0.0,0.0,0.0,0.0,0.0,0.0,0.0,0.0,0.0,0.0,0.0,0.0,0.0,0.0,0.0,0.0,0.0,0.0,0.0,0.0,0.0,0.0,0.0,0.0,0.0,0.0,0.0,0.0,0.0,0.0,0.0,0.0,0.0
1783391083.103621,0.7058055400848389,0.8633650541305542,3.898649936218135e-07,0.7227609753608704,0.76472008228302,0.021238036453723907,0.7140177488327026,0.6890801787376404,0.02304857410490513,0.6907647252082825,0.6498297452926636,0.020002802833914757,0.6681708097457886,0.6359230279922485,0.015602554194629192,0.7140227556228638,0.6430825591087341,-0.0038080059457570314,0.7012088894844055,0.5485170483589172,-0.012954335659742355,0.6967818140983582,0.49255314469337463,-0.018925365060567856,0.6921166181564331,0.44717636704444885,-0.022196630015969276,0.6881988644599915,0.654856264591217,-0.017919428646564484,0.6791462898254395,0.5428758859634399,-0.026914702728390694,0.6748248934745789,0.47496160864830017,-0.031745124608278275,0.6697378754615784,0.42491471767425537,-0.035419076681137085,0.660499095916748,0.6770899891853333,-0.02785770781338215,0.6458311080932617,0.5845707058906555,-0.027392538264393806,0.6533045172691345,0.6054826974868774,-0.015838470309972763,0.6587347984313965,0.6318798661231995,-0.00734495697543025,0.6375268697738647,0.7058678865432739,-0.03641683980822563,0.6263066530227661,0.6382539868354797,-0.028578296303749084,0.6355046033859253,0.6535891890525818,-0.012692204676568508,0.6419827342033386,0.67597496509552,-0.0005460547399707139,0.0,0.0,0.0,0.0,0.0,0.0,0.0,0.0,0.0,0.0,0.0,0.0,0.0,0.0,0.0,0.0,0.0,0.0,0.0,0.0,0.0,0.0,0.0,0.0,0.0,0.0,0.0,0.0,0.0,0.0,0.0,0.0,0.0,0.0,0.0,0.0,0.0,0.0,0.0,0.0,0.0,0.0,0.0,0.0,0.0,0.0,0.0,0.0,0.0,0.0,0.0,0.0,0.0,0.0,0.0,0.0,0.0,0.0,0.0,0.0,0.0,0.0,0.0
1783391083.267212,0.7056287527084351,0.8641958236694336,3.9427638398592535e-07,0.7228318452835083,0.7653282284736633,0.021615754812955856,0.7141636610031128,0.6905375123023987,0.02364511787891388,0.690788984298706,0.6535911560058594,0.02070300094783306,0.6685336828231812,0.6410845518112183,0.016550809144973755,0.7143293023109436,0.6452169418334961,-0.003505632048472762,0.701530396938324,0.55007404088974,-0.01223656628280878,0.6970130205154419,0.4940600097179413,-0.01759949140250683,0.6923278570175171,0.4487306475639343,-0.020588958635926247,0.6882023811340332,0.6560031175613403,-0.0178296510130167,0.679713249206543,0.5437930226325989,-0.02745085582137108,0.6757210493087769,0.4754670262336731,-0.032307613641023636,0.6709954142570496,0.42485255002975464,-0.035864148288965225,0.6601765155792236,0.6778264045715332,-0.02789674699306488,0.6464381217956543,0.5832269787788391,-0.027317484840750694,0.6543882489204407,0.6044520139694214,-0.014841707423329353,0.6595782041549683,0.6306601166725159,-0.0056626806035637856,0.6374655961990356,0.706681489944458,-0.03663090988993645,0.6270216703414917,0.6377174258232117,-0.028239736333489418,0.6366634964942932,0.6519500613212585,-0.011772338300943375,0.6429932713508606,0.6736581325531006,0.0007555934134870768,0.0,0.0,0.0,0.0,0.0,0.0,0.0,0.0,0.0,0.0,0.0,0.0,0.0,0.0,0.0,0.0,0.0,0.0,0.0,0.0,0.0,0.0,0.0,0.0,0.0,0.0,0.0,0.0,0.0,0.0,0.0,0.0,0.0,0.0,0.0,0.0,0.0,0.0,0.0,0.0,0.0,0.0,0.0,0.0,0.0,0.0,0.0,0.0,0.0,0.0,0.0,0.0,0.0,0.0,0.0,0.0,0.0,0.0,0.0,0.0,0.0,0.0,0.0
1783391083.416935,0.7060678005218506,0.8667617440223694,4.0149288338398037e-07,0.7237196564674377,0.7680710554122925,0.020813509821891785,0.7149702906608582,0.6931923031806946,0.02281186915934086,0.6911991238594055,0.6576429009437561,0.01992831565439701,0.6684706211090088,0.6472467184066772,0.015743596479296684,0.7142715454101562,0.645673394203186,-0.0027706215623766184,0.7021294236183167,0.5507423877716064,-0.01048313733190298,0.6979267597198486,0.4948316514492035,-0.015183232724666595,0.693483829498291,0.4493454098701477,-0.017800886183977127,0.6876007914543152,0.6557846665382385,-0.016662893816828728,0.6793321371078491,0.5459150671958923,-0.02545325644314289,0.675710141658783,0.4777863025665283,-0.03020476922392845,0.6715734601020813,0.4266505241394043,-0.033713363111019135,0.6596911549568176,0.6778987050056458,-0.026390688493847847,0.6471136808395386,0.5871564745903015,-0.025775428861379623,0.655201256275177,0.6093741059303284,-0.014162058010697365,0.6603063344955444,0.6359211206436157,-0.005525865592062473,0.6374110579490662,0.707329511642456,-0.03479165956377983,0.6270880699157715,0.6411097049713135,-0.026718640699982643,0.6369248032569885,0.6563076972961426,-0.010733365081250668,0.643282413482666,0.6786673069000244,0.0015175242442637682,0.0,0.0,0.0,0.0,0.0,0.0,0.0,0.0,0.0,0.0,0.0,0.0,0.0,0.0,0.0,0.0,0.0,0.0,0.0,0.0,0.0,0.0,0.0,0.0,0.0,0.0,0.0,0.0,0.0,0.0,0.0,0.0,0.0,0.0,0.0,0.0,0.0,0.0,0.0,0.0,0.0,0.0,0.0,0.0,0.0,0.0,0.0,0.0,0.0,0.0,0.0,0.0,0.0,0.0,0.0,0.0,0.0,0.0,0.0,0.0,0.0,0.0,0.0
1783391083.570397,0.7038178443908691,0.8645074963569641,3.9062598489181255e-07,0.7212832570075989,0.768565833568573,0.022904574871063232,0.7132973670959473,0.6949713230133057,0.02605212852358818,0.692271888256073,0.6539795994758606,0.024148982018232346,0.6712751388549805,0.6374300718307495,0.02126367576420307,0.7130063772201538,0.6462152600288391,-0.0013074780581519008,0.6999751925468445,0.5483412146568298,-0.008947744965553284,0.6952786445617676,0.4915190041065216,-0.013300007209181786,0.6906177997589111,0.44637998938560486,-0.015246358700096607,0.6870213747024536,0.6568693518638611,-0.015434113331139088,0.6773480772972107,0.5434713959693909,-0.024145828559994698,0.6730239987373352,0.4744560718536377,-0.028155416250228882,0.6684104800224304,0.4249173700809479,-0.030727989971637726,0.6593736410140991,0.677910566329956,-0.025243449956178665,0.6461188793182373,0.5873801708221436,-0.023693736642599106,0.654074490070343,0.6078305840492249,-0.011093255132436752,0.6594688892364502,0.6337076425552368,-0.0016421170439571142,0.63651442527771,0.7058635354042053,-0.03359982743859291,0.6265156269073486,0.637313961982727,-0.024101197719573975,0.6355279684066772,0.6530069708824158,-0.0069806743413209915,0.6414617300033569,0.6759353280067444,0.006212128791958094,0.0,0.0,0.0,0.0,0.0,0.0,0.0,0.0,0.0,0.0,0.0,0.0,0.0,0.0,0.0,0.0,0.0,0.0,0.0,0.0,0.0,0.0,0.0,0.0,0.0,0.0,0.0,0.0,0.0,0.0,0.0,0.0,0.0,0.0,0.0,0.0,0.0,0.0,0.0,0.0,0.0,0.0,0.0,0.0,0.0,0.0,0.0,0.0,0.0,0.0,0.0,0.0,0.0,0.0,0.0,0.0,0.0,0.0,0.0,0.0,0.0,0.0,0.0
1783391083.7103739,0.7064182162284851,0.8642196655273438,3.929632157451124e-07,0.7232878804206848,0.7642977237701416,0.024538952857255936,0.7141638994216919,0.6917799115180969,0.02772025391459465,0.6903338432312012,0.6560598015785217,0.025539342314004898,0.6678478121757507,0.645168662071228,0.02228609286248684,0.7158340811729431,0.6438809633255005,-0.00047003800864331424,0.7025176286697388,0.5488540530204773,-0.007936912588775158,0.6977906227111816,0.49229222536087036,-0.012839961796998978,0.6926980018615723,0.4467878043651581,-0.015729431062936783,0.6892799139022827,0.6550172567367554,-0.01540759950876236,0.6806865334510803,0.5427900552749634,-0.024296704679727554,0.6762002110481262,0.4748716950416565,-0.02901681698858738,0.671055257320404,0.42483532428741455,-0.032477568835020065,0.660706639289856,0.6766662001609802,-0.02572666108608246,0.6464076042175293,0.5841844081878662,-0.02305980771780014,0.6536749005317688,0.6058856248855591,-0.009620137512683868,0.6585872769355774,0.6316424608230591,-0.00010005063813878223,0.6376374363899231,0.7055091261863708,-0.0345686711370945,0.6266641020774841,0.6401889324188232,-0.023703137412667274,0.6358884572982788,0.6559019088745117,-0.0061286333948373795,0.642687201499939,0.6779741048812866,0.006969235837459564,0.0,0.0,0.0,0.0,0.0,0.0,0.0,0.0,0.0,0.0,0.0,0.0,0.0,0.0,0.0,0.0,0.0,0.0,0.0,0.0,0.0,0.0,0.0,0.0,0.0,0.0,0.0,0.0,0.0,0.0,0.0,0.0,0.0,0.0,0.0,0.0,0.0,0.0,0.0,0.0,0.0,0.0,0.0,0.0,0.0,0.0,0.0,0.0,0.0,0.0,0.0,0.0,0.0,0.0,0.0,0.0,0.0,0.0,0.0,0.0,0.0,0.0,0.0
1783391083.8704371,0.706635594367981,0.8644488453865051,3.966267172472726e-07,0.7234942317008972,0.7657884955406189,0.02407919429242611,0.7150580286979675,0.6917564868927002,0.027427708730101585,0.69256991147995,0.6531580090522766,0.025475000962615013,0.6707925796508789,0.6398360133171082,0.022531114518642426,0.714969277381897,0.643417477607727,-0.0004504022072069347,0.7021638751029968,0.5482603907585144,-0.008461873978376389,0.6980596780776978,0.4919951558113098,-0.013844151981174946,0.694088339805603,0.4468553960323334,-0.01692829839885235,0.6889607310295105,0.6551550030708313,-0.015151998028159142,0.680332601070404,0.5432319641113281,-0.024728991091251373,0.6766356229782104,0.4746069014072418,-0.030244991183280945,0.6726135015487671,0.4240797758102417,-0.03425603359937668,0.6609291434288025,0.6769753694534302,-0.025278175249695778,0.6477785706520081,0.5836150646209717,-0.023526111617684364,0.6551645398139954,0.6059160828590393,-0.010463874787092209,0.6599529385566711,0.6319789886474609,-0.0010613088961690664,0.6383939385414124,0.704977810382843,-0.03393398970365524,0.6281129717826843,0.6379789113998413,-0.024088416248559952,0.6373298168182373,0.6537167429924011,-0.006843092851340771,0.6433917284011841,0.6754871010780334,0.006170447450131178,0.0,0.0,0.0,0.0,0.0,0.0,0.0,0.0,0.0,0.0,0.0,0.0,0.0,0.0,0.0,0.0,0.0,0.0,0.0,0.0,0.0,0.0,0.0,0.0,0.0,0.0,0.0,0.0,0.0,0.0,0.0,0.0,0.0,0.0,0.0,0.0,0.0,0.0,0.0,0.0,0.0,0.0,0.0,0.0,0.0,0.0,0.0,0.0,0.0,0.0,0.0,0.0,0.0,0.0,0.0,0.0,0.0,0.0,0.0,0.0,0.0,0.0,0.0
1783391084.00178,0.7054696083068848,0.8616442680358887,3.9318697986345796e-07,0.7234278917312622,0.7641921043395996,0.02095494419336319,0.7147998809814453,0.6898213028907776,0.02278781309723854,0.6921707391738892,0.652421772480011,0.019882898777723312,0.6697415113449097,0.6389946341514587,0.01573815383017063,0.7152317762374878,0.6443283557891846,-0.004101661499589682,0.702452540397644,0.5474573373794556,-0.012607338838279247,0.6980747580528259,0.4911915361881256,-0.017817767336964607,0.6936107277870178,0.44613227248191833,-0.020450066775083542,0.689232587814331,0.6562413573265076,-0.01778619922697544,0.6800705194473267,0.5436996221542358,-0.026284148916602135,0.6761702299118042,0.47534871101379395,-0.030670499429106712,0.6717188358306885,0.424832284450531,-0.03403142839670181,0.6614354252815247,0.6777198314666748,-0.027322523295879364,0.6477399468421936,0.5850755572319031,-0.02645065262913704,0.6555116772651672,0.6065359711647034,-0.014867712743580341,0.6608044505119324,0.633023202419281,-0.006432896945625544,0.638496458530426,0.7048625349998474,-0.03547535464167595,0.6279814839363098,0.6364163756370544,-0.02710762619972229,0.637021541595459,0.6518404483795166,-0.010967451147735119,0.6430433988571167,0.6741670370101929,0.0012523664627224207,0.0,0.0,0.0,0.0,0.0,0.0,0.0,0.0,0.0,0.0,0.0,0.0,0.0,0.0,0.0,0.0,0.0,0.0,0.0,0.0,0.0,0.0,0.0,0.0,0.0,0.0,0.0,0.0,0.0,0.0,0.0,0.0,0.0,0.0,0.0,0.0,0.0,0.0,0.0,0.0,0.0,0.0,0.0,0.0,0.0,0.0,0.0,0.0,0.0,0.0,0.0,0.0,0.0,0.0,0.0,0.0,0.0,0.0,0.0,0.0,0.0,0.0,0.0
1783391084.14308,0.7066552042961121,0.8637032508850098,4.013020316051552e-07,0.7239386439323425,0.7660449147224426,0.021953891962766647,0.7150945663452148,0.6919643878936768,0.024392617866396904,0.6919777989387512,0.6554564833641052,0.021730249747633934,0.6696491241455078,0.644173800945282,0.01798132248222828,0.7156246900558472,0.6435719132423401,-0.0017702705226838589,0.7029167413711548,0.5485574007034302,-0.009929802268743515,0.6984269022941589,0.4922195374965668,-0.015149731189012527,0.6934744119644165,0.4471510648727417,-0.01809309795498848,0.6895455718040466,0.6545579433441162,-0.016090769320726395,0.6812772750854492,0.5434935092926025,-0.025665361434221268,0.6772429347038269,0.4746595621109009,-0.030938714742660522,0.6724274158477783,0.42379674315452576,-0.034681882709264755,0.6615682244300842,0.6765742897987366,-0.026172256097197533,0.6477689743041992,0.5836175680160522,-0.02538163773715496,0.6550465226173401,0.6059583425521851,-0.012918151915073395,0.6598681211471558,0.6323617696762085,-0.0036020539700984955,0.6389795541763306,0.7052786350250244,-0.03492947667837143,0.6277443766593933,0.6372126340866089,-0.02608308382332325,0.6368119716644287,0.6519256234169006,-0.009417813271284103,0.6431382298469543,0.6736300587654114,0.003325423924252391,0.0,0.0,0.0,0.0,0.0,0.0,0.0,0.0,0.0,0.0,0.0,0.0,0.0,0.0,0.0,0.0,0.0,0.0,0.0,0.0,0.0,0.0,0.0,0.0,0.0,0.0,0.0,0.0,0.0,0.0,0.0,0.0,0.0,0.0,0.0,0.0,0.0,0.0,0.0,0.0,0.0,0.0,0.0,0.0,0.0,0.0,0.0,0.0,0.0,0.0,0.0,0.0,0.0,0.0,0.0,0.0,0.0,0.0,0.0,0.0,0.0,0.0,0.0
1783391084.303712,0.7072139382362366,0.8641210794448853,4.0100303522194736e-07,0.7243297696113586,0.7655127048492432,0.021729720756411552,0.7153116464614868,0.6909419894218445,0.023924577981233597,0.6920504570007324,0.654949963092804,0.021146979182958603,0.6699802279472351,0.642816960811615,0.017245138064026833,0.7159374952316284,0.6442296504974365,-0.003086826531216502,0.7033061981201172,0.5492514371871948,-0.011628026142716408,0.698986828327179,0.4929630160331726,-0.017052385956048965,0.6944920420646667,0.4476933479309082,-0.020092537626624107,0.6898593306541443,0.6557935476303101,-0.017244048416614532,0.6811202764511108,0.5445071458816528,-0.02696782536804676,0.6773320436477661,0.476108580827713,-0.032099444419145584,0.6727867722511292,0.42523229122161865,-0.0358332023024559,0.6617248058319092,0.6778520941734314,-0.027108870446681976,0.6477206945419312,0.5842582583427429,-0.02643715776503086,0.6555381417274475,0.6061509251594543,-0.013865913264453411,0.660542905330658,0.6325111985206604,-0.0045769899152219296,0.638750433921814,0.7066202163696289,-0.03563139960169792,0.6280719041824341,0.6372595429420471,-0.02692767232656479,0.6375994086265564,0.6517800092697144,-0.010150017216801643,0.6438834071159363,0.6738201379776001,0.0026194441597908735,0.0,0.0,0.0,0.0,0.0,0.0,0.0,0.0,0.0,0.0,0.0,0.0,0.0,0.0,0.0,0.0,0.0,0.0,0.0,0.0,0.0,0.0,0.0,0.0,0.0,0.0,0.0,0.0,0.0,0.0,0.0,0.0,0.0,0.0,0.0,0.0,0.0,0.0,0.0,0.0,0.0,0.0,0.0,0.0,0.0,0.0,0.0,0.0,0.0,0.0,0.0,0.0,0.0,0.0,0.0,0.0,0.0,0.0,0.0,0.0,0.0,0.0,0.0
1783391084.4440188,0.7059424519538879,0.8647878766059875,3.8896379805919423e-07,0.7226369976997375,0.769167423248291,0.01839115098118782,0.7128298878669739,0.6949344277381897,0.0200160201638937,0.6899217963218689,0.6609765887260437,0.01708301343023777,0.6673651933670044,0.6502703428268433,0.012797059491276741,0.7137173414230347,0.6474257111549377,-0.0026901892852038145,0.7018479704856873,0.550334632396698,-0.009722760878503323,0.6972178220748901,0.4946513772010803,-0.01395513117313385,0.6920888423919678,0.4495474696159363,-0.016000311821699142,0.687620997428894,0.6570345163345337,-0.015262618660926819,0.6779707670211792,0.5474298000335693,-0.021352896466851234,0.6731375455856323,0.48025017976760864,-0.024892188608646393,0.668022096157074,0.4297279715538025,-0.027860909700393677,0.6603377461433411,0.678565502166748,-0.024259058758616447,0.6462815403938293,0.58936607837677,-0.023032469674944878,0.6546462178230286,0.6126254796981812,-0.013064424507319927,0.6602882742881775,0.6402875185012817,-0.005776692181825638,0.6378594636917114,0.7068809866905212,-0.032084543257951736,0.6262092590332031,0.6425991654396057,-0.024970047175884247,0.6352980732917786,0.6581196188926697,-0.010746926069259644,0.6415379643440247,0.680221676826477,0.00017418956849724054,0.0,0.0,0.0,0.0,0.0,0.0,0.0,0.0,0.0,0.0,0.0,0.0,0.0,0.0,0.0,0.0,0.0,0.0,0.0,0.0,0.0,0.0,0.0,0.0,0.0,0.0,0.0,0.0,0.0,0.0,0.0,0.0,0.0,0.0,0.0,0.0,0.0,0.0,0.0,0.0,0.0,0.0,0.0,0.0,0.0,0.0,0.0,0.0,0.0,0.0,0.0,0.0,0.0,0.0,0.0,0.0,0.0,0.0,0.0,0.0,0.0,0.0,0.0
1783391084.5975869,0.7052981853485107,0.8646106123924255,4.02360427642634e-07,0.7226092219352722,0.7657217979431152,0.023413680493831635,0.7140492796897888,0.6928905844688416,0.026212284341454506,0.6916406154632568,0.6539850234985352,0.023979686200618744,0.6701311469078064,0.6403453946113586,0.020708994939923286,0.7135065793991089,0.6451805830001831,-0.0022906928788870573,0.7005714774131775,0.5511688590049744,-0.01018343772739172,0.6961547136306763,0.49536406993865967,-0.015129601582884789,0.6915977001190186,0.4502272605895996,-0.01792350597679615,0.687605619430542,0.6574934720993042,-0.01672605611383915,0.6787674427032471,0.5461279153823853,-0.027009090408682823,0.6746023893356323,0.4774346649646759,-0.03258371353149414,0.6699805855751038,0.42686447501182556,-0.036422669887542725,0.6598032116889954,0.6802211403846741,-0.026397574692964554,0.645924985408783,0.5888763070106506,-0.025155022740364075,0.6538743376731873,0.6102647185325623,-0.011927459388971329,0.659304141998291,0.635709822177887,-0.0022071523126214743,0.6374444961547852,0.7098391056060791,-0.03456806391477585,0.6261634826660156,0.6429110169410706,-0.02494199573993683,0.6358498930931091,0.6590490341186523,-0.007321575656533241,0.642361044883728,0.6815585494041443,0.006104170344769955,0.0,0.0,0.0,0.0,0.0,0.0,0.0,0.0,0.0,0.0,0.0,0.0,0.0,0.0,0.0,0.0,0.0,0.0,0.0,0.0,0.0,0.0,0.0,0.0,0.0,0.0,0.0,0.0,0.0,0.0,0.0,0.0,0.0,0.0,0.0,0.0,0.0,0.0,0.0,0.0,0.0,0.0,0.0,0.0,0.0,0.0,0.0,0.0,0.0,0.0,0.0,0.0,0.0,0.0,0.0,0.0,0.0,0.0,0.0,0.0,0.0,0.0,0.0
1783391084.73262,0.7056527137756348,0.8659133315086365,4.004761251508171e-07,0.7237416505813599,0.7699133157730103,0.018466927111148834,0.7140995860099792,0.6948517560958862,0.01958039030432701,0.6898038387298584,0.660115122795105,0.01644190587103367,0.6666134595870972,0.6497745513916016,0.012008599936962128,0.714497447013855,0.649859607219696,-0.005939399357885122,0.7018628716468811,0.5535244941711426,-0.01402391865849495,0.6973880529403687,0.49776580929756165,-0.018926214426755905,0.6921935081481934,0.4518374502658844,-0.021603170782327652,0.6874454021453857,0.660390317440033,-0.018521156162023544,0.6792892813682556,0.5484991073608398,-0.026054484769701958,0.6754920482635498,0.481120228767395,-0.029875943437218666,0.6704753637313843,0.4297961890697479,-0.03308103606104851,0.659098207950592,0.6818694472312927,-0.027191273868083954,0.645401120185852,0.5875964164733887,-0.026280054822564125,0.6537868976593018,0.6106202602386475,-0.015141554176807404,0.6592150926589966,0.6382749080657959,-0.007114650681614876,0.6365202069282532,0.7098585963249207,-0.03468253090977669,0.6264133453369141,0.6436823606491089,-0.027107810601592064,0.6364737153053284,0.6586208939552307,-0.01206360012292862,0.6432197093963623,0.6807533502578735,-0.0006659207283519208,0.0,0.0,0.0,0.0,0.0,0.0,0.0,0.0,0.0,0.0,0.0,0.0,0.0,0.0,0.0,0.0,0.0,0.0,0.0,0.0,0.0,0.0,0.0,0.0,0.0,0.0,0.0,0.0,0.0,0.0,0.0,0.0,0.0,0.0,0.0,0.0,0.0,0.0,0.0,0.0,0.0,0.0,0.0,0.0,0.0,0.0,0.0,0.0,0.0,0.0,0.0,0.0,0.0,0.0,0.0,0.0,0.0,0.0,0.0,0.0,0.0,0.0,0.0
1783391084.861987,0.7059675455093384,0.8677145838737488,4.016197578948777e-07,0.7238299250602722,0.7710812091827393,0.019991198554635048,0.714460551738739,0.6962486505508423,0.021819766610860825,0.6908949017524719,0.6602920293807983,0.019018039107322693,0.668152928352356,0.6494218111038208,0.01499030739068985,0.7146880626678467,0.6503757238388062,-0.003980292472988367,0.7022320032119751,0.5535843372344971,-0.011731467209756374,0.6978253722190857,0.4970475733280182,-0.016316834837198257,0.692930281162262,0.4511241018772125,-0.0187525674700737,0.6882852911949158,0.6604609489440918,-0.017236990854144096,0.6795663237571716,0.5485103726387024,-0.025173760950565338,0.6752572059631348,0.4806349277496338,-0.029223430901765823,0.669983983039856,0.430281400680542,-0.03233195096254349,0.6604740619659424,0.6820201277732849,-0.026423553004860878,0.6460689306259155,0.5900689959526062,-0.025158748030662537,0.6544303297996521,0.6133579611778259,-0.013403704389929771,0.6598724126815796,0.6407389044761658,-0.004843051545321941,0.637935221195221,0.7107509970664978,-0.03438480198383331,0.6268636584281921,0.6455760598182678,-0.0261946152895689,0.6363939642906189,0.6612225770950317,-0.010556148365139961,0.6428776979446411,0.6836543679237366,0.0013712015934288502,0.0,0.0,0.0,0.0,0.0,0.0,0.0,0.0,0.0,0.0,0.0,0.0,0.0,0.0,0.0,0.0,0.0,0.0,0.0,0.0,0.0,0.0,0.0,0.0,0.0,0.0,0.0,0.0,0.0,0.0,0.0,0.0,0.0,0.0,0.0,0.0,0.0,0.0,0.0,0.0,0.0,0.0,0.0,0.0,0.0,0.0,0.0,0.0,0.0,0.0,0.0,0.0,0.0,0.0,0.0,0.0,0.0,0.0,0.0,0.0,0.0,0.0,0.0
1783391084.997877,0.7063819766044617,0.8705949783325195,3.978446727614937e-07,0.7237458825111389,0.7722731828689575,0.022889215499162674,0.7153381109237671,0.6984531879425049,0.02568102814257145,0.6930159330368042,0.6598803997039795,0.02331984043121338,0.6717423796653748,0.64625084400177,0.019983230158686638,0.7151094675064087,0.650425374507904,-0.002093736082315445,0.7022244334220886,0.5552746653556824,-0.01045934483408928,0.6976918578147888,0.49841684103012085,-0.015821855515241623,0.6930122375488281,0.4526230990886688,-0.018991975113749504,0.6891821026802063,0.6611714959144592,-0.016668595373630524,0.6804677844047546,0.5496359467506409,-0.02700156345963478,0.6762586832046509,0.4804850220680237,-0.0327230803668499,0.671688437461853,0.4295620918273926,-0.03679676353931427,0.6611430644989014,0.6831856369972229,-0.02670019119977951,0.6468609571456909,0.5897076725959778,-0.025698218494653702,0.6547126770019531,0.6125751733779907,-0.012353855185210705,0.6600536108016968,0.6389481425285339,-0.0025934993755072355,0.6385247707366943,0.7126222848892212,-0.03537921980023384,0.626615047454834,0.6453425288200378,-0.02639312855899334,0.6361762881278992,0.6609694957733154,-0.009234405122697353,0.6426759362220764,0.6829344034194946,0.0038814726285636425,0.0,0.0,0.0,0.0,0.0,0.0,0.0,0.0,0.0,0.0,0.0,0.0,0.0,0.0,0.0,0.0,0.0,0.0,0.0,0.0,0.0,0.0,0.0,0.0,0.0,0.0,0.0,0.0,0.0,0.0,0.0,0.0,0.0,0.0,0.0,0.0,0.0,0.0,0.0,0.0,0.0,0.0,0.0,0.0,0.0,0.0,0.0,0.0,0.0,0.0,0.0,0.0,0.0,0.0,0.0,0.0,0.0,0.0,0.0,0.0,0.0,0.0,0.0
1783391085.135505,0.7061574459075928,0.8732682466506958,3.9597830436832737e-07,0.7229514122009277,0.7739030718803406,0.02468656189739704,0.7146954536437988,0.7006468176841736,0.028303438797593117,0.6932411789894104,0.6614503860473633,0.026305943727493286,0.6722775101661682,0.6468120217323303,0.023317372426390648,0.7146995663642883,0.6507037878036499,0.000730812840629369,0.7019286751747131,0.5538922548294067,-0.006798456888645887,0.6974045038223267,0.4968940317630768,-0.011633384972810745,0.6928483247756958,0.4514619708061218,-0.014396141283214092,0.6890820860862732,0.661177396774292,-0.014508009888231754,0.6796207427978516,0.5494593977928162,-0.02429172582924366,0.6753475666046143,0.48062729835510254,-0.029939167201519012,0.6709924340248108,0.4306125342845917,-0.033836472779512405,0.6613591909408569,0.6835635304450989,-0.02510148659348488,0.6463465094566345,0.5925940275192261,-0.023347342386841774,0.6543303728103638,0.6163312792778015,-0.009727811440825462,0.6598098278045654,0.6422707438468933,0.00020491177565418184,0.6388682723045349,0.714188277721405,-0.034214265644550323,0.6262838840484619,0.6470101475715637,-0.02457820065319538,0.6356602311134338,0.6645843982696533,-0.006821720395237207,0.6421099305152893,0.6874890327453613,0.006794305983930826,0.0,0.0,0.0,0.0,0.0,0.0,0.0,0.0,0.0,0.0,0.0,0.0,0.0,0.0,0.0,0.0,0.0,0.0,0.0,0.0,0.0,0.0,0.0,0.0,0.0,0.0,0.0,0.0,0.0,0.0,0.0,0.0,0.0,0.0,0.0,0.0,0.0,0.0,0.0,0.0,0.0,0.0,0.0,0.0,0.0,0.0,0.0,0.0,0.0,0.0,0.0,0.0,0.0,0.0,0.0,0.0,0.0,0.0,0.0,0.0,0.0,0.0,0.0
1783391085.2743812,0.7074017524719238,0.8737701773643494,3.968180521951581e-07,0.72309410572052,0.7730817198753357,0.02491774410009384,0.7139074206352234,0.6996570229530334,0.028152678161859512,0.691332995891571,0.6629055142402649,0.025631042197346687,0.6693267822265625,0.6505897045135498,0.021971000358462334,0.7147011756896973,0.6516948938369751,5.055264773545787e-05,0.7022062540054321,0.554690420627594,-0.007984000258147717,0.6978288292884827,0.4977974593639374,-0.013168524950742722,0.6933860182762146,0.45200979709625244,-0.016237715259194374,0.6895536184310913,0.6621901392936707,-0.015615304931998253,0.6803237795829773,0.5490726828575134,-0.02507508173584938,0.6759400367736816,0.48093074560165405,-0.030463270843029022,0.6714077591896057,0.4309837520122528,-0.03448212146759033,0.6620492935180664,0.6843288540840149,-0.026653217151761055,0.6460887789726257,0.5908685326576233,-0.0247694980353117,0.6534441709518433,0.6150005459785461,-0.011152105405926704,0.658554196357727,0.6409488320350647,-0.0014999679988250136,0.6394126415252686,0.7146853804588318,-0.0362163744866848,0.6264549493789673,0.6475812792778015,-0.026786090806126595,0.6356779932975769,0.6650065183639526,-0.009368591010570526,0.6422660946846008,0.6873447895050049,0.003800333710387349,0.0,0.0,0.0,0.0,0.0,0.0,0.0,0.0,0.0,0.0,0.0,0.0,0.0,0.0,0.0,0.0,0.0,0.0,0.0,0.0,0.0,0.0,0.0,0.0,0.0,0.0,0.0,0.0,0.0,0.0,0.0,0.0,0.0,0.0,0.0,0.0,0.0,0.0,0.0,0.0,0.0,0.0,0.0,0.0,0.0,0.0,0.0,0.0,0.0,0.0,0.0,0.0,0.0,0.0,0.0,0.0,0.0,0.0,0.0,0.0,0.0,0.0,0.0
1783391085.401983,0.7071635723114014,0.8731817603111267,3.980504175160604e-07,0.7233400344848633,0.7726199626922607,0.023291615769267082,0.7143128514289856,0.6977991461753845,0.025787601247429848,0.6915739178657532,0.6597622632980347,0.02285243384540081,0.6693916320800781,0.6461727023124695,0.018784495070576668,0.715215265750885,0.6506374478340149,-0.001358885783702135,0.7021703124046326,0.5545107126235962,-0.009620786644518375,0.6975709795951843,0.4977433383464813,-0.014864297583699226,0.6932289600372314,0.45200181007385254,-0.017934028059244156,0.6894292831420898,0.6613507270812988,-0.016500428318977356,0.6801537871360779,0.5493170619010925,-0.026338037103414536,0.6757527589797974,0.48088017106056213,-0.031984392553567886,0.6714515686035156,0.4303978979587555,-0.03614651784300804,0.6615104675292969,0.6836400628089905,-0.027145013213157654,0.6466840505599976,0.5917030572891235,-0.026044832542538643,0.6543731689453125,0.6148182153701782,-0.013158326037228107,0.6596834063529968,0.6408095359802246,-0.003922892734408379,0.6386376023292542,0.7132611274719238,-0.03638273850083351,0.6270739436149597,0.6464784145355225,-0.027399204671382904,0.636446475982666,0.663407027721405,-0.010290020145475864,0.6428746581077576,0.685973048210144,0.0026172720827162266,0.0,0.0,0.0,0.0,0.0,0.0,0.0,0.0,0.0,0.0,0.0,0.0,0.0,0.0,0.0,0.0,0.0,0.0,0.0,0.0,0.0,0.0,0.0,0.0,0.0,0.0,0.0,0.0,0.0,0.0,0.0,0.0,0.0,0.0,0.0,0.0,0.0,0.0,0.0,0.0,0.0,0.0,0.0,0.0,0.0,0.0,0.0,0.0,0.0,0.0,0.0,0.0,0.0,0.0,0.0,0.0,0.0,0.0,0.0,0.0,0.0,0.0,0.0
1783391085.5310662,0.7067973017692566,0.8724566698074341,3.8036878891034576e-07,0.7234055399894714,0.7735061049461365,0.02284291759133339,0.7141147255897522,0.6986045241355896,0.025769494473934174,0.6911165714263916,0.6602296233177185,0.023416593670845032,0.6692019104957581,0.6460896730422974,0.01996070146560669,0.7154452800750732,0.6505720615386963,-0.0009493138641119003,0.7022977471351624,0.553429365158081,-0.009332646615803242,0.6973140835762024,0.4962729215621948,-0.014869233593344688,0.6923224925994873,0.4507162272930145,-0.01797700859606266,0.6898825764656067,0.6612398624420166,-0.015392190776765347,0.6793566346168518,0.549813449382782,-0.02419738657772541,0.6742634773254395,0.4818715453147888,-0.029353391379117966,0.6690086126327515,0.43189024925231934,-0.03329174965620041,0.6623372435569763,0.6829580664634705,-0.025561779737472534,0.6458191871643066,0.5921977758407593,-0.02385854721069336,0.6534424424171448,0.6161707639694214,-0.0112935034558177,0.6589537858963013,0.6426716446876526,-0.0023408380802720785,0.6395764350891113,0.7119256258010864,-0.03440772369503975,0.6268466711044312,0.6475943326950073,-0.025529222562909126,0.6357561349868774,0.6648042798042297,-0.009224055334925652,0.6423051953315735,0.686904788017273,0.0031610282603651285,0.0,0.0,0.0,0.0,0.0,0.0,0.0,0.0,0.0,0.0,0.0,0.0,0.0,0.0,0.0,0.0,0.0,0.0,0.0,0.0,0.0,0.0,0.0,0.0,0.0,0.0,0.0,0.0,0.0,0.0,0.0,0.0,0.0,0.0,0.0,0.0,0.0,0.0,0.0,0.0,0.0,0.0,0.0,0.0,0.0,0.0,0.0,0.0,0.0,0.0,0.0,0.0,0.0,0.0,0.0,0.0,0.0,0.0,0.0,0.0,0.0,0.0,0.0
1783391085.671096,0.7067133188247681,0.8706374764442444,3.8504529698002443e-07,0.7230974435806274,0.7726457715034485,0.020947279408574104,0.7132118940353394,0.6971924304962158,0.02291317842900753,0.689551055431366,0.6605541706085205,0.019930176436901093,0.6662392616271973,0.648621141910553,0.015666812658309937,0.7149264812469482,0.6503669619560242,-0.00282408413477242,0.7023240923881531,0.5525858998298645,-0.01095488015562296,0.6974616646766663,0.49592798948287964,-0.01602921634912491,0.6922673583030701,0.4504065215587616,-0.01869017444550991,0.6890780329704285,0.661525547504425,-0.016808129847049713,0.6789456009864807,0.5500850677490234,-0.024764111265540123,0.6738930940628052,0.48235103487968445,-0.02925652079284191,0.6683430075645447,0.4316886067390442,-0.0327799990773201,0.6616601943969727,0.6834601163864136,-0.02674231119453907,0.6454448699951172,0.5937904119491577,-0.02576419524848461,0.6534993648529053,0.6180168986320496,-0.01430435385555029,0.6592721343040466,0.6445276737213135,-0.005999821703881025,0.6390558481216431,0.7122640609741211,-0.035380516201257706,0.6272191405296326,0.6477567553520203,-0.02742849662899971,0.6363126635551453,0.6651921272277832,-0.011714494787156582,0.6429120898246765,0.6874485611915588,0.00023120176047086716,0.0,0.0,0.0,0.0,0.0,0.0,0.0,0.0,0.0,0.0,0.0,0.0,0.0,0.0,0.0,0.0,0.0,0.0,0.0,0.0,0.0,0.0,0.0,0.0,0.0,0.0,0.0,0.0,0.0,0.0,0.0,0.0,0.0,0.0,0.0,0.0,0.0,0.0,0.0,0.0,0.0,0.0,0.0,0.0,0.0,0.0,0.0,0.0,0.0,0.0,0.0,0.0,0.0,0.0,0.0,0.0,0.0,0.0,0.0,0.0,0.0,0.0,0.0
1783391085.798679,0.7069225311279297,0.8724905252456665,3.9773965454514837e-07,0.7234728336334229,0.7730173468589783,0.023965712636709213,0.7148685455322266,0.699622631072998,0.02710075117647648,0.6925723552703857,0.6607826352119446,0.024752240628004074,0.6710254549980164,0.6471816897392273,0.021410370245575905,0.7152289748191833,0.6502535343170166,-0.0002038708480540663,0.7016827464103699,0.5542423725128174,-0.008384816348552704,0.6968184113502502,0.4975426197052002,-0.013788850046694279,0.6918818354606628,0.4522383511066437,-0.016901182010769844,0.689402163028717,0.6615845561027527,-0.015227684751152992,0.6798804998397827,0.5495588183403015,-0.02548670396208763,0.6754568219184875,0.48045551776885986,-0.031373847275972366,0.6706734299659729,0.43012726306915283,-0.03542468324303627,0.661414623260498,0.6838359236717224,-0.02568460814654827,0.6469306349754333,0.5914716720581055,-0.024428466334939003,0.6546921133995056,0.6140212416648865,-0.011121359653770924,0.6598614454269409,0.6399337649345398,-0.0012903743190690875,0.63869708776474,0.7131521701812744,-0.034717101603746414,0.6272324919700623,0.64548259973526,-0.025197524577379227,0.6364824175834656,0.6618787050247192,-0.007610937114804983,0.6428072452545166,0.6844711899757385,0.0058652847073972225,0.0,0.0,0.0,0.0,0.0,0.0,0.0,0.0,0.0,0.0,0.0,0.0,0.0,0.0,0.0,0.0,0.0,0.0,0.0,0.0,0.0,0.0,0.0,0.0,0.0,0.0,0.0,0.0,0.0,0.0,0.0,0.0,0.0,0.0,0.0,0.0,0.0,0.0,0.0,0.0,0.0,0.0,0.0,0.0,0.0,0.0,0.0,0.0,0.0,0.0,0.0,0.0,0.0,0.0,0.0,0.0,0.0,0.0,0.0,0.0,0.0,0.0,0.0
1783391085.938106,0.7081078886985779,0.8726175427436829,3.900693457126181e-07,0.7233431339263916,0.7710222601890564,0.0267991591244936,0.714793860912323,0.6987091302871704,0.030715029686689377,0.6930860280990601,0.6604385375976562,0.028620658442378044,0.6719469428062439,0.6465591192245483,0.025577787309885025,0.7162755131721497,0.6496086120605469,0.0014688021037727594,0.7026435136795044,0.5541813969612122,-0.006945916451513767,0.6976504921913147,0.49684464931488037,-0.012686595320701599,0.6926615834236145,0.4511362314224243,-0.01622949354350567,0.6911323070526123,0.661310613155365,-0.01494416780769825,0.6815142035484314,0.5494541525840759,-0.026252031326293945,0.6769652366638184,0.48065149784088135,-0.03272942826151848,0.67230623960495,0.4305521845817566,-0.03720046952366829,0.6634109616279602,0.6839500069618225,-0.026445355266332626,0.6469908356666565,0.5918125510215759,-0.024842729791998863,0.654278576374054,0.6148167252540588,-0.010325170122087002,0.6596586108207703,0.6395352482795715,0.00012870207137893885,0.6408392190933228,0.7140085101127625,-0.03639578819274902,0.627571165561676,0.6465712785720825,-0.026201972737908363,0.6364588737487793,0.6638601422309875,-0.007728744763880968,0.6430761218070984,0.6858605146408081,0.006263623479753733,0.0,0.0,0.0,0.0,0.0,0.0,0.0,0.0,0.0,0.0,0.0,0.0,0.0,0.0,0.0,0.0,0.0,0.0,0.0,0.0,0.0,0.0,0.0,0.0,0.0,0.0,0.0,0.0,0.0,0.0,0.0,0.0,0.0,0.0,0.0,0.0,0.0,0.0,0.0,0.0,0.0,0.0,0.0,0.0,0.0,0.0,0.0,0.0,0.0,0.0,0.0,0.0,0.0,0.0,0.0,0.0,0.0,0.0,0.0,0.0,0.0,0.0,0.0
1783391086.0712829,0.7074548006057739,0.8719155192375183,3.745691117273964e-07,0.7233400344848633,0.7727860808372498,0.02476641722023487,0.7144959568977356,0.6981825828552246,0.028445536270737648,0.6924101710319519,0.6577185988426208,0.02658356912434101,0.6707038879394531,0.6429566144943237,0.023677054792642593,0.7156175971031189,0.6490792632102966,0.0008110674098134041,0.7029215693473816,0.5519728660583496,-0.007103769574314356,0.6981285810470581,0.4947172701358795,-0.01247409824281931,0.6932529211044312,0.4490761458873749,-0.015481051057577133,0.690474808216095,0.6608635187149048,-0.014428854919970036,0.6799149513244629,0.5491336584091187,-0.023341026157140732,0.6748568415641785,0.4812956750392914,-0.028530383482575417,0.6696478128433228,0.43156981468200684,-0.03239242732524872,0.6630487442016602,0.6829456090927124,-0.025164682418107986,0.6477556824684143,0.592207670211792,-0.023360898718237877,0.6550551056861877,0.6160845160484314,-0.010338601656258106,0.660180926322937,0.6421516537666321,-0.0009985760552808642,0.6401658058166504,0.7119541168212891,-0.03439505398273468,0.6282374858856201,0.645469069480896,-0.024941306561231613,0.636849045753479,0.6638317704200745,-0.007732025347650051,0.64308762550354,0.6865972280502319,0.0053218272514641285,0.0,0.0,0.0,0.0,0.0,0.0,0.0,0.0,0.0,0.0,0.0,0.0,0.0,0.0,0.0,0.0,0.0,0.0,0.0,0.0,0.0,0.0,0.0,0.0,0.0,0.0,0.0,0.0,0.0,0.0,0.0,0.0,0.0,0.0,0.0,0.0,0.0,0.0,0.0,0.0,0.0,0.0,0.0,0.0,0.0,0.0,0.0,0.0,0.0,0.0,0.0,0.0,0.0,0.0,0.0,0.0,0.0,0.0,0.0,0.0,0.0,0.0,0.0
1783391086.19234,0.7069115042686462,0.8698152303695679,3.772094885334809e-07,0.7234500646591187,0.7715806365013123,0.021816028282046318,0.7142471671104431,0.6959385871887207,0.02447584643959999,0.6916680932044983,0.657553493976593,0.022019879892468452,0.6692501902580261,0.6437258124351501,0.018340962007641792,0.7154910564422607,0.6499003767967224,-0.001362889539450407,0.7032922506332397,0.5527232885360718,-0.009363054297864437,0.6986345648765564,0.4960375428199768,-0.014396178536117077,0.6939518451690674,0.4504547119140625,-0.017030766233801842,0.6897750496864319,0.6605362296104431,-0.015636693686246872,0.6795042157173157,0.5494550466537476,-0.023839879781007767,0.6745925545692444,0.4819871485233307,-0.028398171067237854,0.669422447681427,0.43167632818222046,-0.031871385872364044,0.6623262166976929,0.6820164918899536,-0.025834929198026657,0.6471611261367798,0.5918357968330383,-0.02512933872640133,0.6547315716743469,0.6159504055976868,-0.01354960910975933,0.6600115299224854,0.6425731778144836,-0.005014854017645121,0.6394102573394775,0.7106928825378418,-0.03465086594223976,0.6278806924819946,0.644912600517273,-0.02671700157225132,0.6365176439285278,0.6625513434410095,-0.010798444040119648,0.642715573310852,0.6852442026138306,0.0013759041903540492,0.0,0.0,0.0,0.0,0.0,0.0,0.0,0.0,0.0,0.0,0.0,0.0,0.0,0.0,0.0,0.0,0.0,0.0,0.0,0.0,0.0,0.0,0.0,0.0,0.0,0.0,0.0,0.0,0.0,0.0,0.0,0.0,0.0,0.0,0.0,0.0,0.0,0.0,0.0,0.0,0.0,0.0,0.0,0.0,0.0,0.0,0.0,0.0,0.0,0.0,0.0,0.0,0.0,0.0,0.0,0.0,0.0,0.0,0.0,0.0,0.0,0.0,0.0
1783391086.331991,0.7078726291656494,0.8711565136909485,3.9276349639294494e-07,0.7237290740013123,0.7709201574325562,0.026611246168613434,0.7153941988945007,0.6980481147766113,0.03068399615585804,0.693712055683136,0.6573291420936584,0.028929181396961212,0.6725435256958008,0.6418815851211548,0.026260050013661385,0.7162519693374634,0.6473990678787231,0.0020815106108784676,0.702897846698761,0.5513005256652832,-0.005514249671250582,0.6981942653656006,0.49425196647644043,-0.010685060173273087,0.6933857202529907,0.44894492626190186,-0.01363320928066969,0.6909263134002686,0.659276008605957,-0.013708523474633694,0.6814779043197632,0.5470262169837952,-0.023648284375667572,0.6770380139350891,0.47868722677230835,-0.029155772179365158,0.6722054481506348,0.42977190017700195,-0.03278406336903572,0.6630682349205017,0.6817705035209656,-0.024646995589137077,0.6483020186424255,0.5910764336585999,-0.021912947297096252,0.6556961536407471,0.6133546829223633,-0.007320810575038195,0.6606281399726868,0.6386000514030457,0.003219765145331621,0.6401568055152893,0.7118145823478699,-0.03403541445732117,0.6286887526512146,0.6442869305610657,-0.022526932880282402,0.6375773549079895,0.6613813042640686,-0.003551935311406851,0.6439893245697021,0.6842471361160278,0.010799892246723175,0.0,0.0,0.0,0.0,0.0,0.0,0.0,0.0,0.0,0.0,0.0,0.0,0.0,0.0,0.0,0.0,0.0,0.0,0.0,0.0,0.0,0.0,0.0,0.0,0.0,0.0,0.0,0.0,0.0,0.0,0.0,0.0,0.0,0.0,0.0,0.0,0.0,0.0,0.0,0.0,0.0,0.0,0.0,0.0,0.0,0.0,0.0,0.0,0.0,0.0,0.0,0.0,0.0,0.0,0.0,0.0,0.0,0.0,0.0,0.0,0.0,0.0,0.0
1783391086.472068,0.7073702812194824,0.8708533644676208,3.839146245354641e-07,0.7246060967445374,0.7715359330177307,0.02376524731516838,0.7155970931053162,0.6968927383422852,0.026610806584358215,0.6926913857460022,0.6597751379013062,0.0241124015301466,0.6706950068473816,0.6463723182678223,0.020499004051089287,0.7168518900871277,0.6492189168930054,-0.0017690686509013176,0.703808605670929,0.5525774359703064,-0.010032654739916325,0.6989275217056274,0.495486855506897,-0.0152483144775033,0.6940376162528992,0.4500170052051544,-0.018129056319594383,0.6907468438148499,0.6607266068458557,-0.016742637380957603,0.6811824440956116,0.54848712682724,-0.02596473880112171,0.6769212484359741,0.48004478216171265,-0.030640942975878716,0.6722100973129272,0.4298218786716461,-0.034099679440259933,0.6626033782958984,0.6823878288269043,-0.027212169021368027,0.6488640904426575,0.5894327759742737,-0.02540896274149418,0.6568392515182495,0.6116512417793274,-0.012010653503239155,0.6617640256881714,0.6378545761108398,-0.002429316285997629,0.639539361000061,0.7110186219215393,-0.03625569865107536,0.6291844844818115,0.6427004933357239,-0.026411866769194603,0.6386003494262695,0.6583796739578247,-0.008817621506750584,0.6448310613632202,0.6808817982673645,0.004419599659740925,0.0,0.0,0.0,0.0,0.0,0.0,0.0,0.0,0.0,0.0,0.0,0.0,0.0,0.0,0.0,0.0,0.0,0.0,0.0,0.0,0.0,0.0,0.0,0.0,0.0,0.0,0.0,0.0,0.0,0.0,0.0,0.0,0.0,0.0,0.0,0.0,0.0,0.0,0.0,0.0,0.0,0.0,0.0,0.0,0.0,0.0,0.0,0.0,0.0,0.0,0.0,0.0,0.0,0.0,0.0,0.0,0.0,0.0,0.0,0.0,0.0,0.0,0.0
1783391086.603683,0.7084762454032898,0.8711755871772766,3.819814367034269e-07,0.7251875400543213,0.7728612422943115,0.022387083619832993,0.7157595157623291,0.6969861388206482,0.025036122649908066,0.6922027468681335,0.6576533317565918,0.022621434181928635,0.6696543097496033,0.643069863319397,0.01908646523952484,0.7169262766838074,0.6493721604347229,-0.0017019982915371656,0.7040389180183411,0.552447497844696,-0.010107065550982952,0.699361264705658,0.49537891149520874,-0.015674568712711334,0.6944358348846436,0.44981786608695984,-0.01873561181128025,0.6911445260047913,0.6605843305587769,-0.01592903770506382,0.68158358335495,0.5487526059150696,-0.02452726848423481,0.6771045327186584,0.48086318373680115,-0.02925373613834381,0.6719315648078918,0.4308498501777649,-0.032857321202754974,0.6633367538452148,0.6820806860923767,-0.025930507108569145,0.6490940451622009,0.5904839038848877,-0.024325868114829063,0.6568363308906555,0.6128847599029541,-0.01187848299741745,0.6618677973747253,0.6394355893135071,-0.0029227109625935555,0.6401930451393127,0.7103433012962341,-0.03457989916205406,0.6295561194419861,0.64279705286026,-0.02552303485572338,0.6385681629180908,0.6588283777236938,-0.00897921808063984,0.6446443200111389,0.6814374327659607,0.0035568035673350096,0.0,0.0,0.0,0.0,0.0,0.0,0.0,0.0,0.0,0.0,0.0,0.0,0.0,0.0,0.0,0.0,0.0,0.0,0.0,0.0,0.0,0.0,0.0,0.0,0.0,0.0,0.0,0.0,0.0,0.0,0.0,0.0,0.0,0.0,0.0,0.0,0.0,0.0,0.0,0.0,0.0,0.0,0.0,0.0,0.0,0.0,0.0,0.0,0.0,0.0,0.0,0.0,0.0,0.0,0.0,0.0,0.0,0.0,0.0,0.0,0.0,0.0,0.0
