ciel274/research-hand-sign/data/raw/hiragana/sign_language_e_1.csv
timestamp,R_joint_0_x,R_joint_0_y,R_joint_0_z,R_joint_1_x,R_joint_1_y,R_joint_1_z,R_joint_2_x,R_joint_2_y,R_joint_2_z,R_joint_3_x,R_joint_3_y,R_joint_3_z,R_joint_4_x,R_joint_4_y,R_joint_4_z,R_joint_5_x,R_joint_5_y,R_joint_5_z,R_joint_6_x,R_joint_6_y,R_joint_6_z,R_joint_7_x,R_joint_7_y,R_joint_7_z,R_joint_8_x,R_joint_8_y,R_joint_8_z,R_joint_9_x,R_joint_9_y,R_joint_9_z,R_joint_10_x,R_joint_10_y,R_joint_10_z,R_joint_11_x,R_joint_11_y,R_joint_11_z,R_joint_12_x,R_joint_12_y,R_joint_12_z,R_joint_13_x,R_joint_13_y,R_joint_13_z,R_joint_14_x,R_joint_14_y,R_joint_14_z,R_joint_15_x,R_joint_15_y,R_joint_15_z,R_joint_16_x,R_joint_16_y,R_joint_16_z,R_joint_17_x,R_joint_17_y,R_joint_17_z,R_joint_18_x,R_joint_18_y,R_joint_18_z,R_joint_19_x,R_joint_19_y,R_joint_19_z,R_joint_20_x,R_joint_20_y,R_joint_20_z,L_joint_0_x,L_joint_0_y,L_joint_0_z,L_joint_1_x,L_joint_1_y,L_joint_1_z,L_joint_2_x,L_joint_2_y,L_joint_2_z,L_joint_3_x,L_joint_3_y,L_joint_3_z,L_joint_4_x,L_joint_4_y,L_joint_4_z,L_joint_5_x,L_joint_5_y,L_joint_5_z,L_joint_6_x,L_joint_6_y,L_joint_6_z,L_joint_7_x,L_joint_7_y,L_joint_7_z,L_joint_8_x,L_joint_8_y,L_joint_8_z,L_joint_9_x,L_joint_9_y,L_joint_9_z,L_joint_10_x,L_joint_10_y,L_joint_10_z,L_joint_11_x,L_joint_11_y,L_joint_11_z,L_joint_12_x,L_joint_12_y,L_joint_12_z,L_joint_13_x,L_joint_13_y,L_joint_13_z,L_joint_14_x,L_joint_14_y,L_joint_14_z,L_joint_15_x,L_joint_15_y,L_joint_15_z,L_joint_16_x,L_joint_16_y,L_joint_16_z,L_joint_17_x,L_joint_17_y,L_joint_17_z,L_joint_18_x,L_joint_18_y,L_joint_18_z,L_joint_19_x,L_joint_19_y,L_joint_19_z,L_joint_20_x,L_joint_20_y,L_joint_20_z
1783345123.386441,0.7078813314437866,0.7511737942695618,-1.0092622204638246e-07,0.6615568995475769,0.7245895862579346,-0.012808469124138355,0.6337131857872009,0.6392974853515625,-0.01793760247528553,0.6482362151145935,0.5775501132011414,-0.025074942037463188,0.6796039938926697,0.5931991338729858,-0.030836215242743492,0.6657233834266663,0.5380861163139343,0.002659819321706891,0.6652416586875916,0.4609667956829071,-0.013542445376515388,0.6568245887756348,0.4559640884399414,-0.028141498565673828,0.6527420878410339,0.4879966080188751,-0.03639860823750496,0.6904997825622559,0.533239483833313,-0.0007808179361745715,0.6924854516983032,0.44587159156799316,-0.018574314191937447,0.6821714043617249,0.4500353932380676,-0.030863383784890175,0.6789839267730713,0.4957670569419861,-0.03502131253480911,0.7130727171897888,0.5434942841529846,-0.007853174582123756,0.7165217399597168,0.46498942375183105,-0.020024901255965233,0.7069091200828552,0.4703715443611145,-0.02594563737511635,0.7056778073310852,0.5119947195053101,-0.0263103935867548,0.7375518679618835,0.5628048181533813,-0.01743321865797043,0.7375422120094299,0.49271315336227417,-0.024977143853902817,0.7290710806846619,0.48944181203842163,-0.02787606045603752,0.7261019945144653,0.5200357437133789,-0.02782614901661873,0.0,0.0,0.0,0.0,0.0,0.0,0.0,0.0,0.0,0.0,0.0,0.0,0.0,0.0,0.0,0.0,0.0,0.0,0.0,0.0,0.0,0.0,0.0,0.0,0.0,0.0,0.0,0.0,0.0,0.0,0.0,0.0,0.0,0.0,0.0,0.0,0.0,0.0,0.0,0.0,0.0,0.0,0.0,0.0,0.0,0.0,0.0,0.0,0.0,0.0,0.0,0.0,0.0,0.0,0.0,0.0,0.0,0.0,0.0,0.0,0.0,0.0,0.0
1783345123.6194072,0.70636385679245,0.751188337802887,-1.069033288558785e-07,0.6602162718772888,0.7236593961715698,-0.013992651365697384,0.632591187953949,0.6434765458106995,-0.020708879455924034,0.6491864919662476,0.5878185033798218,-0.029194753617048264,0.6813905835151672,0.6030464172363281,-0.03673854097723961,0.6636226773262024,0.5434286594390869,5.281865378492512e-05,0.662872314453125,0.4651487469673157,-0.017078347504138947,0.654915452003479,0.4618394076824188,-0.03268999606370926,0.6510783433914185,0.4950964152812958,-0.0414976142346859,0.6877424716949463,0.5384789705276489,-0.002844355534762144,0.6881427764892578,0.45086947083473206,-0.02083437331020832,0.679158091545105,0.4560052454471588,-0.03410639986395836,0.6758098602294922,0.5007637739181519,-0.039472080767154694,0.7106378078460693,0.5469761490821838,-0.009387142956256866,0.7136333584785461,0.4690913259983063,-0.02269388549029827,0.7051470279693604,0.47551798820495605,-0.0319734551012516,0.7034000754356384,0.5184381604194641,-0.034941621124744415,0.735162079334259,0.5650658011436462,-0.018215803429484367,0.7351437211036682,0.4963296353816986,-0.026480430737137794,0.7272742986679077,0.4945813715457916,-0.03110463172197342,0.7239034175872803,0.5253491401672363,-0.032812606543302536,0.0,0.0,0.0,0.0,0.0,0.0,0.0,0.0,0.0,0.0,0.0,0.0,0.0,0.0,0.0,0.0,0.0,0.0,0.0,0.0,0.0,0.0,0.0,0.0,0.0,0.0,0.0,0.0,0.0,0.0,0.0,0.0,0.0,0.0,0.0,0.0,0.0,0.0,0.0,0.0,0.0,0.0,0.0,0.0,0.0,0.0,0.0,0.0,0.0,0.0,0.0,0.0,0.0,0.0,0.0,0.0,0.0,0.0,0.0,0.0,0.0,0.0,0.0
1783345123.755436,0.7064923048019409,0.7495942711830139,-9.374023335340098e-08,0.6599861979484558,0.7235398888587952,-0.013167992234230042,0.632382333278656,0.6396551132202148,-0.018535949289798737,0.6471787691116333,0.5788809061050415,-0.02585456147789955,0.6792553663253784,0.5949597954750061,-0.03180199861526489,0.6646575331687927,0.5398682951927185,0.0015233067097142339,0.6638118624687195,0.46262049674987793,-0.015242768451571465,0.6548340916633606,0.4580569863319397,-0.029916658997535706,0.6508966684341431,0.49073415994644165,-0.038038469851017,0.6890971064567566,0.5350364446640015,-0.001771925133652985,0.6905933618545532,0.44736573100090027,-0.02032950147986412,0.6793557405471802,0.45089468359947205,-0.032531820237636566,0.6764180660247803,0.4970327615737915,-0.03634493425488472,0.7115212678909302,0.5451411604881287,-0.008713910356163979,0.7148613333702087,0.46658724546432495,-0.021673616021871567,0.704758882522583,0.47196274995803833,-0.027522865682840347,0.7039496302604675,0.5142359137535095,-0.027469586580991745,0.7359869480133057,0.5638514757156372,-0.018168587237596512,0.736277163028717,0.493777334690094,-0.02655445598065853,0.72746342420578,0.4901176691055298,-0.029682809486985207,0.7244613766670227,0.5207546353340149,-0.029474467039108276,0.0,0.0,0.0,0.0,0.0,0.0,0.0,0.0,0.0,0.0,0.0,0.0,0.0,0.0,0.0,0.0,0.0,0.0,0.0,0.0,0.0,0.0,0.0,0.0,0.0,0.0,0.0,0.0,0.0,0.0,0.0,0.0,0.0,0.0,0.0,0.0,0.0,0.0,0.0,0.0,0.0,0.0,0.0,0.0,0.0,0.0,0.0,0.0,0.0,0.0,0.0,0.0,0.0,0.0,0.0,0.0,0.0,0.0,0.0,0.0,0.0,0.0,0.0
1783345123.940712,0.7068944573402405,0.7498032450675964,-1.0260233551662168e-07,0.6606619358062744,0.723662793636322,-0.012578273192048073,0.6328732371330261,0.6397635340690613,-0.017635803669691086,0.6467310786247253,0.5794153213500977,-0.02474563755095005,0.6783889532089233,0.5959413051605225,-0.030489569529891014,0.6646302938461304,0.5386413335800171,0.002938467776402831,0.6638227701187134,0.46096548438072205,-0.013030397705733776,0.6551333665847778,0.4567183554172516,-0.0273189228028059,0.6510801911354065,0.4896583557128906,-0.035328127443790436,0.6890688538551331,0.5336414575576782,-0.0004917531623505056,0.6903952360153198,0.44719675183296204,-0.0179720688611269,0.6798387169837952,0.4506922960281372,-0.03001938946545124,0.6766208410263062,0.49640876054763794,-0.03406606614589691,0.7115439772605896,0.5434328317642212,-0.007554778829216957,0.7142472863197327,0.4657418727874756,-0.019611457362771034,0.7045583128929138,0.47033068537712097,-0.02559988759458065,0.7033073902130127,0.51204913854599,-0.02605101466178894,0.7359092235565186,0.5619862675666809,-0.01708872802555561,0.7351408004760742,0.4931941330432892,-0.024763355031609535,0.7267966866493225,0.4899309575557709,-0.027820341289043427,0.7240553498268127,0.5202295780181885,-0.027854373678565025,0.0,0.0,0.0,0.0,0.0,0.0,0.0,0.0,0.0,0.0,0.0,0.0,0.0,0.0,0.0,0.0,0.0,0.0,0.0,0.0,0.0,0.0,0.0,0.0,0.0,0.0,0.0,0.0,0.0,0.0,0.0,0.0,0.0,0.0,0.0,0.0,0.0,0.0,0.0,0.0,0.0,0.0,0.0,0.0,0.0,0.0,0.0,0.0,0.0,0.0,0.0,0.0,0.0,0.0,0.0,0.0,0.0,0.0,0.0,0.0,0.0,0.0,0.0
1783345124.168142,0.7067956328392029,0.7470125555992126,-1.0101301484155556e-07,0.6604986786842346,0.7213842868804932,-0.013103206641972065,0.6325961947441101,0.637328028678894,-0.018527928739786148,0.6471238136291504,0.5764732956886292,-0.025951096788048744,0.6788414120674133,0.5930046439170837,-0.032086748629808426,0.6644603610038757,0.5374447703361511,0.0018886617617681623,0.6631414294242859,0.45966634154319763,-0.014653872698545456,0.6546606421470642,0.45516446232795715,-0.029321791604161263,0.650644063949585,0.48828789591789246,-0.0375165194272995,0.6889020800590515,0.5322905778884888,-0.0014167705085128546,0.6897892355918884,0.44511234760284424,-0.01973988115787506,0.6796897053718567,0.4490971565246582,-0.032357197254896164,0.6768020391464233,0.49544697999954224,-0.03665142506361008,0.7113094925880432,0.5419976711273193,-0.008351110853254795,0.7138921022415161,0.4636748135089874,-0.021115032956004143,0.7046515941619873,0.4690415859222412,-0.027674496173858643,0.7036150693893433,0.5113793611526489,-0.02836601622402668,0.7357197999954224,0.5605080723762512,-0.0177589301019907,0.7351159453392029,0.4911712408065796,-0.025907354429364204,0.7270253300666809,0.4881173074245453,-0.029364487156271935,0.7243323922157288,0.5188453793525696,-0.029665913432836533,0.0,0.0,0.0,0.0,0.0,0.0,0.0,0.0,0.0,0.0,0.0,0.0,0.0,0.0,0.0,0.0,0.0,0.0,0.0,0.0,0.0,0.0,0.0,0.0,0.0,0.0,0.0,0.0,0.0,0.0,0.0,0.0,0.0,0.0,0.0,0.0,0.0,0.0,0.0,0.0,0.0,0.0,0.0,0.0,0.0,0.0,0.0,0.0,0.0,0.0,0.0,0.0,0.0,0.0,0.0,0.0,0.0,0.0,0.0,0.0,0.0,0.0,0.0
1783345124.358189,0.7061468958854675,0.7470839023590088,-9.98003315544338e-08,0.6596514582633972,0.7213239669799805,-0.0134275546297431,0.6316764950752258,0.6380361318588257,-0.019071822986006737,0.6467838287353516,0.578980565071106,-0.02660571224987507,0.6790072321891785,0.5949637293815613,-0.032923609018325806,0.6633901000022888,0.5374610424041748,0.002006509806960821,0.6621365547180176,0.45934122800827026,-0.014360453002154827,0.6537818312644958,0.4555814564228058,-0.02922353893518448,0.6500018239021301,0.48907196521759033,-0.03754797577857971,0.6874673962593079,0.5323327779769897,-0.0009622103534638882,0.6877967119216919,0.4459359645843506,-0.018393348902463913,0.6782180666923523,0.44954025745391846,-0.030870217829942703,0.6753210425376892,0.4943678379058838,-0.035420920699834824,0.7099000215530396,0.5415423512458801,-0.0076524605974555016,0.7118757367134094,0.4640597105026245,-0.0200226828455925,0.7030219435691833,0.4679524004459381,-0.02749711275100708,0.7019002437591553,0.5094491243362427,-0.029127666726708412,0.7341862320899963,0.5596235394477844,-0.016795028001070023,0.733323872089386,0.49089741706848145,-0.024744734168052673,0.725398063659668,0.48755529522895813,-0.028629910200834274,0.7225950956344604,0.5177563428878784,-0.02947944775223732,0.0,0.0,0.0,0.0,0.0,0.0,0.0,0.0,0.0,0.0,0.0,0.0,0.0,0.0,0.0,0.0,0.0,0.0,0.0,0.0,0.0,0.0,0.0,0.0,0.0,0.0,0.0,0.0,0.0,0.0,0.0,0.0,0.0,0.0,0.0,0.0,0.0,0.0,0.0,0.0,0.0,0.0,0.0,0.0,0.0,0.0,0.0,0.0,0.0,0.0,0.0,0.0,0.0,0.0,0.0,0.0,0.0,0.0,0.0,0.0,0.0,0.0,0.0
1783345124.5580878,0.7054909467697144,0.7475929260253906,-9.612944040782168e-08,0.6589886546134949,0.722366452217102,-0.013090625405311584,0.6310187578201294,0.6401255130767822,-0.018509333953261375,0.645660400390625,0.5809563398361206,-0.025869673117995262,0.6773069500923157,0.5948839783668518,-0.03200140595436096,0.6627934575080872,0.538697361946106,0.002053631003946066,0.6618269681930542,0.46174356341362,-0.01414850540459156,0.6534473896026611,0.4564904272556305,-0.028726039454340935,0.649611234664917,0.4885067939758301,-0.03690338134765625,0.6872610449790955,0.5333310961723328,-0.0011511293705552816,0.6882649064064026,0.44665348529815674,-0.018838632851839066,0.6781158447265625,0.44976606965065,-0.03123343177139759,0.6749609708786011,0.49493536353111267,-0.035617463290691376,0.7098971605300903,0.5426490306854248,-0.007983336225152016,0.7128483653068542,0.4654107987880707,-0.020509108901023865,0.703298807144165,0.47060051560401917,-0.027241110801696777,0.7018698453903198,0.5127550363540649,-0.02820488065481186,0.734361469745636,0.5610255002975464,-0.017247293144464493,0.7339542508125305,0.4928780198097229,-0.02529238350689411,0.7254018187522888,0.4899514615535736,-0.028761500492691994,0.7222045660018921,0.5201577544212341,-0.029155103489756584,0.0,0.0,0.0,0.0,0.0,0.0,0.0,0.0,0.0,0.0,0.0,0.0,0.0,0.0,0.0,0.0,0.0,0.0,0.0,0.0,0.0,0.0,0.0,0.0,0.0,0.0,0.0,0.0,0.0,0.0,0.0,0.0,0.0,0.0,0.0,0.0,0.0,0.0,0.0,0.0,0.0,0.0,0.0,0.0,0.0,0.0,0.0,0.0,0.0,0.0,0.0,0.0,0.0,0.0,0.0,0.0,0.0,0.0,0.0,0.0,0.0,0.0,0.0
1783345124.70578,0.7056991457939148,0.7482500672340393,-9.601201611530996e-08,0.6592603921890259,0.7235427498817444,-0.013280716724693775,0.6312109231948853,0.6418256759643555,-0.018715502694249153,0.6455575823783875,0.5822853446006775,-0.026073524728417397,0.6768102049827576,0.5948510766029358,-0.0321875736117363,0.663283109664917,0.5399394035339355,0.0021490745712071657,0.6623958945274353,0.46315860748291016,-0.014109843410551548,0.6539257764816284,0.4571043848991394,-0.028793152421712875,0.6498164534568787,0.4884559214115143,-0.03700849041342735,0.6876010894775391,0.5346947312355042,-0.0009702274110168219,0.6883124709129333,0.4482887089252472,-0.018755145370960236,0.6781973838806152,0.45051953196525574,-0.031387027353048325,0.6749817132949829,0.4950920045375824,-0.03595255687832832,0.7101953625679016,0.5438851118087769,-0.007746899966150522,0.7130656242370605,0.46694913506507874,-0.02060297131538391,0.703718364238739,0.47202667593955994,-0.02763947658240795,0.702238917350769,0.5142762064933777,-0.028740182518959045,0.7346230149269104,0.5620906352996826,-0.016945619136095047,0.7344059348106384,0.4938971698284149,-0.02536492794752121,0.7259628176689148,0.4913807809352875,-0.02900863252580166,0.7226045727729797,0.5222110152244568,-0.029452763497829437,0.0,0.0,0.0,0.0,0.0,0.0,0.0,0.0,0.0,0.0,0.0,0.0,0.0,0.0,0.0,0.0,0.0,0.0,0.0,0.0,0.0,0.0,0.0,0.0,0.0,0.0,0.0,0.0,0.0,0.0,0.0,0.0,0.0,0.0,0.0,0.0,0.0,0.0,0.0,0.0,0.0,0.0,0.0,0.0,0.0,0.0,0.0,0.0,0.0,0.0,0.0,0.0,0.0,0.0,0.0,0.0,0.0,0.0,0.0,0.0,0.0,0.0,0.0
1783345124.865404,0.7055721879005432,0.748098611831665,-9.255877131408852e-08,0.6588575839996338,0.7225090861320496,-0.012845245189964771,0.6311403512954712,0.6394706964492798,-0.017885785549879074,0.6457891464233398,0.5792450308799744,-0.024904927238821983,0.6778228282928467,0.5956262350082397,-0.030638432130217552,0.6623687744140625,0.5386446714401245,0.0030537904240190983,0.6612914800643921,0.46261852979660034,-0.012775495648384094,0.652634859085083,0.45692190527915955,-0.027179228141903877,0.6485100388526917,0.48808491230010986,-0.03528507426381111,0.6867141127586365,0.5331093072891235,-0.00014611755614168942,0.6876367330551147,0.4473036825656891,-0.01760278083384037,0.6776489019393921,0.4504901170730591,-0.02986118383705616,0.6748956441879272,0.49532854557037354,-0.03401690721511841,0.7092362642288208,0.5424656271934509,-0.006995036732405424,0.7115347385406494,0.4658532440662384,-0.01927013508975506,0.7023255228996277,0.47048017382621765,-0.02587306872010231,0.7014942765235901,0.5119144320487976,-0.02663804590702057,0.733777642250061,0.5607066750526428,-0.01629502698779106,0.7331680655479431,0.4918529987335205,-0.024164509028196335,0.7250490784645081,0.48873546719551086,-0.027554428204894066,0.722407341003418,0.5192055702209473,-0.027807265520095825,0.0,0.0,0.0,0.0,0.0,0.0,0.0,0.0,0.0,0.0,0.0,0.0,0.0,0.0,0.0,0.0,0.0,0.0,0.0,0.0,0.0,0.0,0.0,0.0,0.0,0.0,0.0,0.0,0.0,0.0,0.0,0.0,0.0,0.0,0.0,0.0,0.0,0.0,0.0,0.0,0.0,0.0,0.0,0.0,0.0,0.0,0.0,0.0,0.0,0.0,0.0,0.0,0.0,0.0,0.0,0.0,0.0,0.0,0.0,0.0,0.0,0.0,0.0
1783345124.9971251,0.7045222520828247,0.7469853758811951,-9.384759636077433e-08,0.6578813791275024,0.7215024828910828,-0.013050644658505917,0.6301144957542419,0.6384925246238708,-0.01810615137219429,0.6449388265609741,0.5776991248130798,-0.025073859840631485,0.677313506603241,0.5937395095825195,-0.030822083353996277,0.6614443063735962,0.5388869047164917,0.002636292949318886,0.6607404947280884,0.4627412259578705,-0.013193467631936073,0.6517452597618103,0.4565064311027527,-0.027569320052862167,0.6475591063499451,0.4873479902744293,-0.03564447537064552,0.6856369376182556,0.5328753590583801,-0.00039062078576534986,0.686573326587677,0.4465850293636322,-0.017861895263195038,0.6762620210647583,0.44987285137176514,-0.030189597979187965,0.6733744740486145,0.4949302077293396,-0.034419652074575424,0.708070695400238,0.5415627956390381,-0.007028513588011265,0.7102766633033752,0.4645244777202606,-0.01927252486348152,0.7009258270263672,0.46928808093070984,-0.026112360879778862,0.7002426385879517,0.5109423995018005,-0.02710873633623123,0.7325537204742432,0.5593312978744507,-0.016112444922327995,0.7314783334732056,0.4901858866214752,-0.023921627551317215,0.7234007716178894,0.48793143033981323,-0.02739099971950054,0.72113037109375,0.5193637609481812,-0.02778552658855915,0.0,0.0,0.0,0.0,0.0,0.0,0.0,0.0,0.0,0.0,0.0,0.0,0.0,0.0,0.0,0.0,0.0,0.0,0.0,0.0,0.0,0.0,0.0,0.0,0.0,0.0,0.0,0.0,0.0,0.0,0.0,0.0,0.0,0.0,0.0,0.0,0.0,0.0,0.0,0.0,0.0,0.0,0.0,0.0,0.0,0.0,0.0,0.0,0.0,0.0,0.0,0.0,0.0,0.0,0.0,0.0,0.0,0.0,0.0,0.0,0.0,0.0,0.0
1783345125.125941,0.7044742703437805,0.747113049030304,-9.855421723159452e-08,0.6579042673110962,0.7224278450012207,-0.012983737513422966,0.629923403263092,0.6389245390892029,-0.018020832911133766,0.6442834734916687,0.5780544281005859,-0.025000570341944695,0.6763056516647339,0.5937209129333496,-0.030653484165668488,0.660707414150238,0.5379908084869385,0.0028257735539227724,0.6596832871437073,0.4613856077194214,-0.013196360319852829,0.6508477330207825,0.4562370777130127,-0.027680670842528343,0.6469601392745972,0.4879803955554962,-0.035837166011333466,0.6850479245185852,0.5322234034538269,-0.00031305462471209466,0.6858441829681396,0.44596466422080994,-0.018048971891403198,0.675527811050415,0.4499379098415375,-0.03039989247918129,0.6729655265808105,0.49525541067123413,-0.03456516191363335,0.7075198292732239,0.5413948893547058,-0.007113462779670954,0.7097917199134827,0.46464869379997253,-0.019498350098729134,0.70026034116745,0.46979397535324097,-0.026125170290470123,0.6996379494667053,0.5115553736686707,-0.026903323829174042,0.7320634126663208,0.5594177842140198,-0.0163879431784153,0.7310165166854858,0.4910697937011719,-0.024349624291062355,0.7225943207740784,0.48808151483535767,-0.027899712324142456,0.7201221585273743,0.5185424089431763,-0.028270624577999115,0.0,0.0,0.0,0.0,0.0,0.0,0.0,0.0,0.0,0.0,0.0,0.0,0.0,0.0,0.0,0.0,0.0,0.0,0.0,0.0,0.0,0.0,0.0,0.0,0.0,0.0,0.0,0.0,0.0,0.0,0.0,0.0,0.0,0.0,0.0,0.0,0.0,0.0,0.0,0.0,0.0,0.0,0.0,0.0,0.0,0.0,0.0,0.0,0.0,0.0,0.0,0.0,0.0,0.0,0.0,0.0,0.0,0.0,0.0,0.0,0.0,0.0,0.0
1783345125.2620711,0.7045966982841492,0.7472089529037476,-9.609039608449166e-08,0.6578364372253418,0.7231631278991699,-0.013121502473950386,0.6295581459999084,0.6394028067588806,-0.01812710240483284,0.6441612839698792,0.5789651870727539,-0.025048155337572098,0.675893247127533,0.5936312675476074,-0.030731065198779106,0.660343587398529,0.5378329157829285,0.002787061734125018,0.6590484380722046,0.4618315100669861,-0.013149933889508247,0.650568425655365,0.45592767000198364,-0.027693450450897217,0.6469166874885559,0.487045019865036,-0.035920243710279465,0.6847124695777893,0.5318048000335693,-0.0003683254180941731,0.6851786375045776,0.44550251960754395,-0.018132684752345085,0.6753530502319336,0.4490516185760498,-0.030752230435609818,0.6728761792182922,0.4941433072090149,-0.035141777247190475,0.7073180079460144,0.5408799648284912,-0.0071960617788136005,0.7094464302062988,0.46430665254592896,-0.0199067834764719,0.7003654837608337,0.4695233702659607,-0.02713749185204506,0.6998605132102966,0.5115318298339844,-0.0283054132014513,0.7318043112754822,0.5590113997459412,-0.016451161354780197,0.7305601239204407,0.49066758155822754,-0.024735547602176666,0.7223085761070251,0.48804280161857605,-0.028614122420549393,0.719935417175293,0.5188100337982178,-0.029245777055621147,0.0,0.0,0.0,0.0,0.0,0.0,0.0,0.0,0.0,0.0,0.0,0.0,0.0,0.0,0.0,0.0,0.0,0.0,0.0,0.0,0.0,0.0,0.0,0.0,0.0,0.0,0.0,0.0,0.0,0.0,0.0,0.0,0.0,0.0,0.0,0.0,0.0,0.0,0.0,0.0,0.0,0.0,0.0,0.0,0.0,0.0,0.0,0.0,0.0,0.0,0.0,0.0,0.0,0.0,0.0,0.0,0.0,0.0,0.0,0.0,0.0,0.0,0.0
1783345125.399414,0.7040536999702454,0.7467817068099976,-9.950664292546207e-08,0.6575704216957092,0.7215198874473572,-0.012852905318140984,0.6292997002601624,0.6385201811790466,-0.017888005822896957,0.6437735557556152,0.5786722898483276,-0.024897713214159012,0.675456702709198,0.5928910970687866,-0.03070671111345291,0.6604565978050232,0.5374528765678406,0.002813628176227212,0.6592950224876404,0.46134117245674133,-0.01328729372471571,0.6502628922462463,0.4556422531604767,-0.027875201776623726,0.6461052894592285,0.48676300048828125,-0.03603293001651764,0.684562623500824,0.5316868424415588,-0.00046587380347773433,0.684848427772522,0.4456084668636322,-0.018062105402350426,0.6747727990150452,0.44890525937080383,-0.03037642128765583,0.6721241474151611,0.4937048554420471,-0.03457071632146835,0.707158088684082,0.5407264232635498,-0.007409120909869671,0.7091864347457886,0.46397992968559265,-0.020107097923755646,0.7000948786735535,0.46888911724090576,-0.02707608789205551,0.6994771361351013,0.5105380415916443,-0.028039200231432915,0.7315812706947327,0.5587663650512695,-0.016754617914557457,0.7302775382995605,0.4904584288597107,-0.025037143379449844,0.7219066023826599,0.4879331886768341,-0.028641903772950172,0.7194452285766602,0.5185866951942444,-0.029009409248828888,0.0,0.0,0.0,0.0,0.0,0.0,0.0,0.0,0.0,0.0,0.0,0.0,0.0,0.0,0.0,0.0,0.0,0.0,0.0,0.0,0.0,0.0,0.0,0.0,0.0,0.0,0.0,0.0,0.0,0.0,0.0,0.0,0.0,0.0,0.0,0.0,0.0,0.0,0.0,0.0,0.0,0.0,0.0,0.0,0.0,0.0,0.0,0.0,0.0,0.0,0.0,0.0,0.0,0.0,0.0,0.0,0.0,0.0,0.0,0.0,0.0,0.0,0.0
1783345125.534954,0.7040112018585205,0.7464436292648315,-1.0072299261310036e-07,0.6576707363128662,0.7215768694877625,-0.012875274755060673,0.629323422908783,0.6390437483787537,-0.01795005239546299,0.6436014175415039,0.5794727802276611,-0.024976421147584915,0.6748674511909485,0.5925841927528381,-0.03083033114671707,0.6604872345924377,0.5377955436706543,0.002549296012148261,0.6596704721450806,0.46146321296691895,-0.013726831413805485,0.6503953337669373,0.4552464187145233,-0.028380965813994408,0.6460351347923279,0.4860886037349701,-0.036523960530757904,0.6845672130584717,0.5321899652481079,-0.0007075931061990559,0.6848315596580505,0.44551512598991394,-0.018521688878536224,0.6747150421142578,0.44910112023353577,-0.030982278287410736,0.6722244024276733,0.4939706325531006,-0.03521694242954254,0.7071795463562012,0.5410611033439636,-0.007605271879583597,0.7091917991638184,0.46391451358795166,-0.02056347206234932,0.699987530708313,0.46893733739852905,-0.02781989425420761,0.6995870471000671,0.5108634233474731,-0.028923198580741882,0.7316359281539917,0.5589358806610107,-0.0168650783598423,0.7302646636962891,0.49066394567489624,-0.025323186069726944,0.7217475771903992,0.48786333203315735,-0.029128732159733772,0.7193840742111206,0.5184042453765869,-0.02962922491133213,0.0,0.0,0.0,0.0,0.0,0.0,0.0,0.0,0.0,0.0,0.0,0.0,0.0,0.0,0.0,0.0,0.0,0.0,0.0,0.0,0.0,0.0,0.0,0.0,0.0,0.0,0.0,0.0,0.0,0.0,0.0,0.0,0.0,0.0,0.0,0.0,0.0,0.0,0.0,0.0,0.0,0.0,0.0,0.0,0.0,0.0,0.0,0.0,0.0,0.0,0.0,0.0,0.0,0.0,0.0,0.0,0.0,0.0,0.0,0.0,0.0,0.0,0.0
1783345125.66941,0.7038403153419495,0.7462286949157715,-1.0043814313576149e-07,0.657451331615448,0.7209458351135254,-0.012758443132042885,0.6291686296463013,0.6384803652763367,-0.01775991916656494,0.6432774066925049,0.5783496499061584,-0.02472986839711666,0.6747131943702698,0.5920053124427795,-0.03051016665995121,0.6605654954910278,0.5379062294960022,0.0027314622420817614,0.6598291993141174,0.4616195857524872,-0.013392927125096321,0.6504952907562256,0.45533064007759094,-0.027880487963557243,0.6460458040237427,0.4859986901283264,-0.03592029586434364,0.6846190690994263,0.5322667360305786,-0.0004956439370289445,0.6848843693733215,0.445970356464386,-0.018159182742238045,0.67473965883255,0.44933009147644043,-0.03046010434627533,0.6722230911254883,0.4940325617790222,-0.03459671884775162,0.7071956396102905,0.5410774350166321,-0.0073466538451612,0.7091665267944336,0.46432769298553467,-0.020223459228873253,0.7000336647033691,0.4694978892803192,-0.027297254651784897,0.6995939612388611,0.5114406943321228,-0.02824450470507145,0.7316446304321289,0.5588169097900391,-0.01655310019850731,0.73024982213974,0.4906497001647949,-0.024949321523308754,0.7218625545501709,0.4879499077796936,-0.028635140508413315,0.7195523977279663,0.5186518430709839,-0.029014434665441513,0.0,0.0,0.0,0.0,0.0,0.0,0.0,0.0,0.0,0.0,0.0,0.0,0.0,0.0,0.0,0.0,0.0,0.0,0.0,0.0,0.0,0.0,0.0,0.0,0.0,0.0,0.0,0.0,0.0,0.0,0.0,0.0,0.0,0.0,0.0,0.0,0.0,0.0,0.0,0.0,0.0,0.0,0.0,0.0,0.0,0.0,0.0,0.0,0.0,0.0,0.0,0.0,0.0,0.0,0.0,0.0,0.0,0.0,0.0,0.0,0.0,0.0,0.0
1783345125.799783,0.7040266394615173,0.7460815906524658,-1.0068235667404224e-07,0.6575336456298828,0.7206335663795471,-0.012555337511003017,0.6292517185211182,0.638253390789032,-0.01743076555430889,0.6430124044418335,0.5778413414955139,-0.02432374842464924,0.6744033098220825,0.591719388961792,-0.029982339590787888,0.6604840159416199,0.5379036068916321,0.0030265178065747023,0.6597039699554443,0.46164050698280334,-0.013055232353508472,0.6505476832389832,0.4554039239883423,-0.027525033801794052,0.6460863947868347,0.48651260137557983,-0.035552993416786194,0.6845681071281433,0.5322895646095276,-0.0003091423714067787,0.6849750876426697,0.44565317034721375,-0.018129795789718628,0.6748603582382202,0.4492419958114624,-0.030627256259322166,0.6723804473876953,0.49457335472106934,-0.034826092422008514,0.7070568799972534,0.5412188768386841,-0.007233825977891684,0.7091500163078308,0.46395933628082275,-0.020059572532773018,0.6999627947807312,0.469027042388916,-0.02710786834359169,0.6995024085044861,0.5111209750175476,-0.028002114966511726,0.7315914034843445,0.5591014623641968,-0.016512306407094002,0.7304877042770386,0.4903218448162079,-0.024814117699861526,0.7221837639808655,0.48695072531700134,-0.028483979403972626,0.7198019623756409,0.5175185799598694,-0.028828265145421028,0.0,0.0,0.0,0.0,0.0,0.0,0.0,0.0,0.0,0.0,0.0,0.0,0.0,0.0,0.0,0.0,0.0,0.0,0.0,0.0,0.0,0.0,0.0,0.0,0.0,0.0,0.0,0.0,0.0,0.0,0.0,0.0,0.0,0.0,0.0,0.0,0.0,0.0,0.0,0.0,0.0,0.0,0.0,0.0,0.0,0.0,0.0,0.0,0.0,0.0,0.0,0.0,0.0,0.0,0.0,0.0,0.0,0.0,0.0,0.0,0.0,0.0,0.0
1783345125.928096,0.7034798860549927,0.7456543445587158,-9.836607972601996e-08,0.6572797894477844,0.7202147245407104,-0.012603347189724445,0.6292027235031128,0.6376213431358337,-0.017575999721884727,0.6433202028274536,0.577529788017273,-0.02453339472413063,0.6749147772789001,0.5924195647239685,-0.03027455136179924,0.6602722406387329,0.5374473333358765,0.0026258775033056736,0.6595813035964966,0.46181753277778625,-0.013392004184424877,0.650737464427948,0.45522260665893555,-0.027801228687167168,0.6465369462966919,0.4861184060573578,-0.03585503622889519,0.6844179630279541,0.5315725207328796,-0.00070697016781196,0.6850388050079346,0.4454703629016876,-0.01840260624885559,0.675090491771698,0.448942095041275,-0.03076198883354664,0.6726587414741516,0.49428117275238037,-0.03495331108570099,0.7069317102432251,0.5405160188674927,-0.007592818699777126,0.7091110944747925,0.4636516273021698,-0.020176958292722702,0.6999627947807312,0.46879252791404724,-0.026912633329629898,0.6995725631713867,0.5107718110084534,-0.027705151587724686,0.7314043641090393,0.5586360692977905,-0.016863424330949783,0.7302145957946777,0.4900342524051666,-0.024986224249005318,0.7218597531318665,0.4867403507232666,-0.028475556522607803,0.7195162773132324,0.5172061920166016,-0.02875683270394802,0.0,0.0,0.0,0.0,0.0,0.0,0.0,0.0,0.0,0.0,0.0,0.0,0.0,0.0,0.0,0.0,0.0,0.0,0.0,0.0,0.0,0.0,0.0,0.0,0.0,0.0,0.0,0.0,0.0,0.0,0.0,0.0,0.0,0.0,0.0,0.0,0.0,0.0,0.0,0.0,0.0,0.0,0.0,0.0,0.0,0.0,0.0,0.0,0.0,0.0,0.0,0.0,0.0,0.0,0.0,0.0,0.0,0.0,0.0,0.0,0.0,0.0,0.0
1783345126.109528,0.7039181590080261,0.7438626885414124,-9.712209703138797e-08,0.6574373245239258,0.7190231084823608,-0.01258799247443676,0.6289809942245483,0.6361413598060608,-0.0175278652459383,0.6421801447868347,0.5749273896217346,-0.024550925940275192,0.6731207966804504,0.5905839800834656,-0.030339999124407768,0.660417377948761,0.5361213684082031,0.003245457774028182,0.6592409610748291,0.46086376905441284,-0.012612502090632915,0.6503779292106628,0.4542798399925232,-0.027082787826657295,0.6463809609413147,0.48473626375198364,-0.03529277443885803,0.6843885779380798,0.5297099947929382,-0.0001957860222319141,0.6848452687263489,0.4432782530784607,-0.017944907769560814,0.6747102737426758,0.4469345510005951,-0.030545754358172417,0.6722588539123535,0.49220994114875793,-0.03489713370800018,0.7066407203674316,0.5384280681610107,-0.007205027621239424,0.7085574269294739,0.46123257279396057,-0.019555773586034775,0.6992015838623047,0.4667607843875885,-0.026239968836307526,0.698684811592102,0.5085820555686951,-0.0270534660667181,0.731045126914978,0.5563917756080627,-0.01664249785244465,0.7298992872238159,0.4870966076850891,-0.024311836808919907,0.7214443683624268,0.48430341482162476,-0.027608880773186684,0.7188289165496826,0.5155119895935059,-0.027869204059243202,0.0,0.0,0.0,0.0,0.0,0.0,0.0,0.0,0.0,0.0,0.0,0.0,0.0,0.0,0.0,0.0,0.0,0.0,0.0,0.0,0.0,0.0,0.0,0.0,0.0,0.0,0.0,0.0,0.0,0.0,0.0,0.0,0.0,0.0,0.0,0.0,0.0,0.0,0.0,0.0,0.0,0.0,0.0,0.0,0.0,0.0,0.0,0.0,0.0,0.0,0.0,0.0,0.0,0.0,0.0,0.0,0.0,0.0,0.0,0.0,0.0,0.0,0.0
1783345126.302586,0.6984536647796631,0.729960560798645,-1.0726113686132521e-07,0.6526702046394348,0.7059817910194397,-0.012752464972436428,0.6239485740661621,0.6293613910675049,-0.018290746957063675,0.634484589099884,0.5697581171989441,-0.025752859190106392,0.6642139554023743,0.5826372504234314,-0.03165607899427414,0.656102180480957,0.5252593755722046,0.0025110426358878613,0.6557319760322571,0.4486929178237915,-0.013498025946319103,0.6444149613380432,0.44987183809280396,-0.02755221724510193,0.6397758722305298,0.48446983098983765,-0.03534398227930069,0.6792752146720886,0.5197214484214783,-0.0008727119420655072,0.6809903383255005,0.43033093214035034,-0.01792914979159832,0.6676663756370544,0.43776795268058777,-0.029359005391597748,0.664218008518219,0.4838520288467407,-0.03313964232802391,0.7011798024177551,0.5271509289741516,-0.007945758290588856,0.7055285573005676,0.44767075777053833,-0.019426772370934486,0.6918494701385498,0.45268306136131287,-0.026090068742632866,0.6892992258071899,0.4937264621257782,-0.027396317571401596,0.7255860567092896,0.5435115694999695,-0.017516687512397766,0.7275951504707336,0.47404131293296814,-0.02387538179755211,0.7166465520858765,0.4712611734867096,-0.027171626687049866,0.7121595740318298,0.5026167631149292,-0.028018958866596222,0.0,0.0,0.0,0.0,0.0,0.0,0.0,0.0,0.0,0.0,0.0,0.0,0.0,0.0,0.0,0.0,0.0,0.0,0.0,0.0,0.0,0.0,0.0,0.0,0.0,0.0,0.0,0.0,0.0,0.0,0.0,0.0,0.0,0.0,0.0,0.0,0.0,0.0,0.0,0.0,0.0,0.0,0.0,0.0,0.0,0.0,0.0,0.0,0.0,0.0,0.0,0.0,0.0,0.0,0.0,0.0,0.0,0.0,0.0,0.0,0.0,0.0,0.0
1783345126.42345,0.6965304613113403,0.7268630266189575,-1.2522099268608144e-07,0.651080846786499,0.7044227123260498,-0.012975540943443775,0.6226733326911926,0.632748007774353,-0.019981548190116882,0.6288073062896729,0.5739878416061401,-0.029232250526547432,0.6579286456108093,0.586943507194519,-0.0365067794919014,0.6535871624946594,0.5277194976806641,0.000483516079839319,0.6545827388763428,0.44523224234580994,-0.017427364364266396,0.6393200159072876,0.44912272691726685,-0.03106793761253357,0.6352027058601379,0.4864792227745056,-0.03832397237420082,0.6756534576416016,0.5226560235023499,-0.0034985048696398735,0.6800115704536438,0.42911389470100403,-0.023731669411063194,0.6614392995834351,0.4410591125488281,-0.03425656259059906,0.6580874919891357,0.4894765317440033,-0.03646920993924141,0.6962112784385681,0.5292665362358093,-0.011233176104724407,0.7021438479423523,0.44575896859169006,-0.02427859790623188,0.6833681464195251,0.45571768283843994,-0.02833413891494274,0.6797873973846436,0.49757692217826843,-0.0272318534553051,0.7194422483444214,0.5439906716346741,-0.02161417156457901,0.7227187752723694,0.4745161235332489,-0.028355570510029793,0.7075189352035522,0.47408926486968994,-0.03043348528444767,0.7008505463600159,0.5064634680747986,-0.029984062537550926,0.0,0.0,0.0,0.0,0.0,0.0,0.0,0.0,0.0,0.0,0.0,0.0,0.0,0.0,0.0,0.0,0.0,0.0,0.0,0.0,0.0,0.0,0.0,0.0,0.0,0.0,0.0,0.0,0.0,0.0,0.0,0.0,0.0,0.0,0.0,0.0,0.0,0.0,0.0,0.0,0.0,0.0,0.0,0.0,0.0,0.0,0.0,0.0,0.0,0.0,0.0,0.0,0.0,0.0,0.0,0.0,0.0,0.0,0.0,0.0,0.0,0.0,0.0
1783345126.5609338,0.6960530877113342,0.7195757627487183,-1.311744313170493e-07,0.6510451436042786,0.7002084255218506,-0.012588409706950188,0.6232897639274597,0.6308561563491821,-0.01975989155471325,0.627962052822113,0.5722635984420776,-0.029178816825151443,0.6551023125648499,0.5844751596450806,-0.036797866225242615,0.6531836986541748,0.5252095460891724,0.00021319344523362815,0.655698835849762,0.4406158924102783,-0.017310258001089096,0.6399387121200562,0.4472929537296295,-0.030949335545301437,0.6356834769248962,0.4847632944583893,-0.03837939724326134,0.6746129393577576,0.5205166935920715,-0.004104370251297951,0.6813054084777832,0.4244929254055023,-0.02365751937031746,0.6617593169212341,0.43904775381088257,-0.03401366248726845,0.6582773327827454,0.48605525493621826,-0.0365184061229229,0.6945394277572632,0.5265263319015503,-0.012099322862923145,0.7025220990180969,0.44235512614250183,-0.024697937071323395,0.6828885078430176,0.45284876227378845,-0.030117958784103394,0.6796330809593201,0.4945985972881317,-0.030487630516290665,0.7170560956001282,0.5401903986930847,-0.022652585059404373,0.7210545539855957,0.4712420105934143,-0.028892170637845993,0.7053645253181458,0.4706633687019348,-0.03168180212378502,0.6994059681892395,0.5024093985557556,-0.03231676667928696,0.0,0.0,0.0,0.0,0.0,0.0,0.0,0.0,0.0,0.0,0.0,0.0,0.0,0.0,0.0,0.0,0.0,0.0,0.0,0.0,0.0,0.0,0.0,0.0,0.0,0.0,0.0,0.0,0.0,0.0,0.0,0.0,0.0,0.0,0.0,0.0,0.0,0.0,0.0,0.0,0.0,0.0,0.0,0.0,0.0,0.0,0.0,0.0,0.0,0.0,0.0,0.0,0.0,0.0,0.0,0.0,0.0,0.0,0.0,0.0,0.0,0.0,0.0
1783345126.704797,0.6929551362991333,0.7164713740348816,-1.1634811158955927e-07,0.6492931246757507,0.6964689493179321,-0.011787489987909794,0.6229766607284546,0.6295799612998962,-0.019078297540545464,0.6251137852668762,0.5707164406776428,-0.028728310018777847,0.6509076356887817,0.5837977528572083,-0.03607896342873573,0.652034342288971,0.5234938263893127,0.0015831415075808764,0.6565850973129272,0.4399968087673187,-0.015990516170859337,0.6387514472007751,0.44620248675346375,-0.028962377458810806,0.6334891319274902,0.48132577538490295,-0.03582562133669853,0.6720139384269714,0.5188631415367126,-0.003284603590145707,0.6822084188461304,0.4213760495185852,-0.02303166873753071,0.6597143411636353,0.43476369976997375,-0.03160954639315605,0.6545500755310059,0.48001474142074585,-0.03252550587058067,0.6903648376464844,0.5245228409767151,-0.011959072202444077,0.701515257358551,0.439728319644928,-0.02416512370109558,0.6790870428085327,0.44971978664398193,-0.02663278393447399,0.673541784286499,0.4887339174747467,-0.024690618738532066,0.7118014693260193,0.5379016995429993,-0.023356975987553596,0.7175320386886597,0.46869519352912903,-0.028518809005618095,0.7001672387123108,0.4675757586956024,-0.0293800737708807,0.6925144791603088,0.4979094862937927,-0.028445329517126083,0.0,0.0,0.0,0.0,0.0,0.0,0.0,0.0,0.0,0.0,0.0,0.0,0.0,0.0,0.0,0.0,0.0,0.0,0.0,0.0,0.0,0.0,0.0,0.0,0.0,0.0,0.0,0.0,0.0,0.0,0.0,0.0,0.0,0.0,0.0,0.0,0.0,0.0,0.0,0.0,0.0,0.0,0.0,0.0,0.0,0.0,0.0,0.0,0.0,0.0,0.0,0.0,0.0,0.0,0.0,0.0,0.0,0.0,0.0,0.0,0.0,0.0,0.0
1783345126.865761,0.689552366733551,0.7112776041030884,-1.0411408624122487e-07,0.649185299873352,0.6925328373908997,-0.008523506112396717,0.6244712471961975,0.6295027732849121,-0.014421170577406883,0.6219215989112854,0.5728775858879089,-0.023511800915002823,0.643513560295105,0.5852386951446533,-0.02964388206601143,0.6497833132743835,0.5238111615180969,0.004788776393979788,0.6556177139282227,0.4414978325366974,-0.012202473357319832,0.6367344856262207,0.44509372115135193,-0.022881006821990013,0.631690502166748,0.48013556003570557,-0.02772282250225544,0.6676892042160034,0.5183135867118835,-0.0012126509100198746,0.6798974275588989,0.4206330478191376,-0.020844414830207825,0.6562077403068542,0.4320428669452667,-0.02672319859266281,0.65128093957901,0.4748111367225647,-0.025265423581004143,0.6835113763809204,0.5215794444084167,-0.010852685198187828,0.696876049041748,0.4357687532901764,-0.021840110421180725,0.6736289262771606,0.4472339153289795,-0.018466651439666748,0.6674695611000061,0.48389121890068054,-0.012090541422367096,0.7024303078651428,0.5310463309288025,-0.02328423410654068,0.7087740898132324,0.4625857472419739,-0.027287956327199936,0.6917381286621094,0.46090981364250183,-0.02515319176018238,0.6842688918113708,0.4896620810031891,-0.021476656198501587,0.0,0.0,0.0,0.0,0.0,0.0,0.0,0.0,0.0,0.0,0.0,0.0,0.0,0.0,0.0,0.0,0.0,0.0,0.0,0.0,0.0,0.0,0.0,0.0,0.0,0.0,0.0,0.0,0.0,0.0,0.0,0.0,0.0,0.0,0.0,0.0,0.0,0.0,0.0,0.0,0.0,0.0,0.0,0.0,0.0,0.0,0.0,0.0,0.0,0.0,0.0,0.0,0.0,0.0,0.0,0.0,0.0,0.0,0.0,0.0,0.0,0.0,0.0
1783345127.006144,0.6895008683204651,0.711222767829895,-1.0144258766331404e-07,0.6492499113082886,0.6932795643806458,-0.0069222524762153625,0.6249613761901855,0.6319542527198792,-0.01220940612256527,0.6213622093200684,0.5748564600944519,-0.021225357428193092,0.6411842703819275,0.584355890750885,-0.02737334929406643,0.6460869908332825,0.5258771777153015,0.009872774593532085,0.650635302066803,0.44719040393829346,-0.006036148406565189,0.6316025257110596,0.45057010650634766,-0.01710820384323597,0.6270478367805481,0.4838995933532715,-0.022433405742049217,0.6625123023986816,0.518854558467865,0.0031390206422656775,0.6726768016815186,0.42516592144966125,-0.014473672024905682,0.6495993137359619,0.436188668012619,-0.02048247866332531,0.6452397108078003,0.4766026437282562,-0.01964021846652031,0.6773236393928528,0.5206763744354248,-0.007379489950835705,0.689741849899292,0.4360944926738739,-0.01691758632659912,0.666810154914856,0.4460495114326477,-0.013914402574300766,0.6606616377830505,0.48139506578445435,-0.00833518523722887,0.6953474879264832,0.5286410450935364,-0.020652474835515022,0.700718879699707,0.46217137575149536,-0.02378508821129799,0.6834042072296143,0.4589094817638397,-0.021613560616970062,0.6754244565963745,0.48516184091567993,-0.018194984644651413,0.0,0.0,0.0,0.0,0.0,0.0,0.0,0.0,0.0,0.0,0.0,0.0,0.0,0.0,0.0,0.0,0.0,0.0,0.0,0.0,0.0,0.0,0.0,0.0,0.0,0.0,0.0,0.0,0.0,0.0,0.0,0.0,0.0,0.0,0.0,0.0,0.0,0.0,0.0,0.0,0.0,0.0,0.0,0.0,0.0,0.0,0.0,0.0,0.0,0.0,0.0,0.0,0.0,0.0,0.0,0.0,0.0,0.0,0.0,0.0,0.0,0.0,0.0
1783345127.1500359,0.6918434500694275,0.7103124856948853,-7.389099465626714e-08,0.6530500650405884,0.6895833015441895,-0.002729961182922125,0.6301680207252502,0.6295121312141418,-0.005775627214461565,0.6209043860435486,0.5745020508766174,-0.013674898073077202,0.637509822845459,0.5829682946205139,-0.018528345972299576,0.6476673483848572,0.5277554392814636,0.017522616311907768,0.6528932452201843,0.4494311511516571,0.0037570702843368053,0.6322643160820007,0.44864723086357117,-0.006236555054783821,0.6273226737976074,0.4759058952331543,-0.011579419486224651,0.6610747575759888,0.5211151242256165,0.008970453403890133,0.6712804436683655,0.42803430557250977,-0.007534232921898365,0.645565927028656,0.4344991147518158,-0.01461902353912592,0.640791118144989,0.4678105115890503,-0.01564786583185196,0.6729773879051208,0.5224318504333496,-0.003268789267167449,0.6867421865463257,0.435303658246994,-0.01131241675466299,0.660797655582428,0.4417356252670288,-0.008705990388989449,0.652256965637207,0.4708956480026245,-0.004302259534597397,0.68741375207901,0.5275764465332031,-0.01803676411509514,0.6925160884857178,0.4607515335083008,-0.019388260319828987,0.6751607656478882,0.4524136483669281,-0.017549272626638412,0.6664541959762573,0.47072815895080566,-0.015230150893330574,0.0,0.0,0.0,0.0,0.0,0.0,0.0,0.0,0.0,0.0,0.0,0.0,0.0,0.0,0.0,0.0,0.0,0.0,0.0,0.0,0.0,0.0,0.0,0.0,0.0,0.0,0.0,0.0,0.0,0.0,0.0,0.0,0.0,0.0,0.0,0.0,0.0,0.0,0.0,0.0,0.0,0.0,0.0,0.0,0.0,0.0,0.0,0.0,0.0,0.0,0.0,0.0,0.0,0.0,0.0,0.0,0.0,0.0,0.0,0.0,0.0,0.0,0.0
1783345127.302372,0.6964205503463745,0.7089173197746277,-1.0541312178702356e-07,0.6571807265281677,0.6844226717948914,0.003039250150322914,0.6372728943824768,0.6237950325012207,0.004922742489725351,0.6254429817199707,0.5732749104499817,0.0014943191781640053,0.6367056369781494,0.5781276822090149,0.0013152619358152151,0.6539495587348938,0.5270671248435974,0.026543326675891876,0.6591660976409912,0.45363014936447144,0.01445838250219822,0.6364878416061401,0.4494975507259369,0.005888573359698057,0.6306577920913696,0.47342196106910706,0.0016273538349196315,0.6644973754882812,0.5204657912254333,0.016396338120102882,0.6727964878082275,0.42988428473472595,0.00031470879912376404,0.6459739208221436,0.43173789978027344,-0.006656325422227383,0.6409810781478882,0.46302303671836853,-0.007389392238110304,0.6727454662322998,0.5199406147003174,0.002653030911460519,0.6845740079879761,0.4357450604438782,-0.005597184412181377,0.658051073551178,0.43690255284309387,-0.0032024849206209183,0.649340033531189,0.4612787961959839,0.0015286707784980536,0.681681215763092,0.5217954516410828,-0.013106622733175755,0.6855306029319763,0.459019273519516,-0.016247253865003586,0.6702814698219299,0.4399203956127167,-0.01648627780377865,0.6635350584983826,0.44625163078308105,-0.015146044082939625,0.0,0.0,0.0,0.0,0.0,0.0,0.0,0.0,0.0,0.0,0.0,0.0,0.0,0.0,0.0,0.0,0.0,0.0,0.0,0.0,0.0,0.0,0.0,0.0,0.0,0.0,0.0,0.0,0.0,0.0,0.0,0.0,0.0,0.0,0.0,0.0,0.0,0.0,0.0,0.0,0.0,0.0,0.0,0.0,0.0,0.0,0.0,0.0,0.0,0.0,0.0,0.0,0.0,0.0,0.0,0.0,0.0,0.0,0.0,0.0,0.0,0.0,0.0
1783345127.428965,0.7024685740470886,0.7034091949462891,-1.1303977487386874e-07,0.6609928011894226,0.6754593253135681,0.013860775157809258,0.6429978013038635,0.6184168457984924,0.02198672480881214,0.6314809918403625,0.5739144086837769,0.02278789132833481,0.6380802392959595,0.5713822245597839,0.025973202660679817,0.6583474278450012,0.5270193219184875,0.04164690524339676,0.6561257243156433,0.4606022238731384,0.0363507941365242,0.6379147171974182,0.453580379486084,0.031820058822631836,0.6361822485923767,0.4738111197948456,0.029968613758683205,0.6670361161231995,0.5185093283653259,0.02778596803545952,0.6708858609199524,0.4330764412879944,0.01766011118888855,0.6488175392150879,0.42914554476737976,0.012775205075740814,0.646007239818573,0.45477986335754395,0.013197081163525581,0.6736936569213867,0.5156933665275574,0.011018822900950909,0.6814749240875244,0.43347814679145813,0.00710916006937623,0.6603377461433411,0.42900174856185913,0.011282427236437798,0.6556360125541687,0.4470558762550354,0.016833391040563583,0.6795836091041565,0.5139143466949463,-0.006809080485254526,0.6799492239952087,0.45296046137809753,-0.007398984394967556,0.6682872176170349,0.43007907271385193,-0.005819074809551239,0.6653734445571899,0.42962682247161865,-0.003184731351211667,0.0,0.0,0.0,0.0,0.0,0.0,0.0,0.0,0.0,0.0,0.0,0.0,0.0,0.0,0.0,0.0,0.0,0.0,0.0,0.0,0.0,0.0,0.0,0.0,0.0,0.0,0.0,0.0,0.0,0.0,0.0,0.0,0.0,0.0,0.0,0.0,0.0,0.0,0.0,0.0,0.0,0.0,0.0,0.0,0.0,0.0,0.0,0.0,0.0,0.0,0.0,0.0,0.0,0.0,0.0,0.0,0.0,0.0,0.0,0.0,0.0,0.0,0.0
1783345127.552521,0.7010865211486816,0.7001561522483826,-1.2764233758844057e-07,0.6609599590301514,0.6668455600738525,0.01430632546544075,0.6462979912757874,0.6118951439857483,0.021694490686058998,0.6363952159881592,0.5729277729988098,0.02155233547091484,0.6402198076248169,0.5693126916885376,0.02376544289290905,0.6624805331230164,0.5246992707252502,0.040596939623355865,0.6605673432350159,0.4569002687931061,0.033878225833177567,0.6400380730628967,0.452387273311615,0.028757872059941292,0.6372561454772949,0.47312504053115845,0.02682598866522312,0.6700960993766785,0.5180256962776184,0.026115955784916878,0.6728442907333374,0.427799254655838,0.014495004899799824,0.6481122970581055,0.43138086795806885,0.009851236827671528,0.6442839503288269,0.45958366990089417,0.01070308219641447,0.6749415397644043,0.5153577327728271,0.008643938228487968,0.6821195483207703,0.42821165919303894,0.0032477581407874823,0.6574828624725342,0.4309397041797638,0.006433435250073671,0.6512411236763,0.45259878039360046,0.011542312800884247,0.6777403950691223,0.515039324760437,-0.009764372371137142,0.6778296828269958,0.45026615262031555,-0.010466903448104858,0.6624385118484497,0.4347769021987915,-0.008923405781388283,0.6574399471282959,0.44227904081344604,-0.006551378406584263,0.0,0.0,0.0,0.0,0.0,0.0,0.0,0.0,0.0,0.0,0.0,0.0,0.0,0.0,0.0,0.0,0.0,0.0,0.0,0.0,0.0,0.0,0.0,0.0,0.0,0.0,0.0,0.0,0.0,0.0,0.0,0.0,0.0,0.0,0.0,0.0,0.0,0.0,0.0,0.0,0.0,0.0,0.0,0.0,0.0,0.0,0.0,0.0,0.0,0.0,0.0,0.0,0.0,0.0,0.0,0.0,0.0,0.0,0.0,0.0,0.0,0.0,0.0
1783345127.694608,0.7067193388938904,0.6971607208251953,-2.0540736045404628e-07,0.6640883088111877,0.6589562296867371,0.022436417639255524,0.6514207124710083,0.6090325117111206,0.031991031020879745,0.6418464183807373,0.5731635093688965,0.03251253440976143,0.6403749585151672,0.5631800293922424,0.03452085703611374,0.6685670614242554,0.520530104637146,0.04693875461816788,0.6630552411079407,0.45223382115364075,0.04279952496290207,0.6423153877258301,0.4530581831932068,0.03897351026535034,0.6394374370574951,0.47391292452812195,0.03784090280532837,0.6754741668701172,0.5133130550384521,0.028766242787241936,0.6724290251731873,0.4235090911388397,0.021882038563489914,0.6469814777374268,0.43402475118637085,0.019892467185854912,0.6435767412185669,0.4645448625087738,0.021550236269831657,0.6786099672317505,0.512048602104187,0.00809957180172205,0.6808879375457764,0.42294663190841675,0.005191307049244642,0.6549860835075378,0.43186432123184204,0.00783916749060154,0.6503960490226746,0.4589807987213135,0.011394470930099487,0.6772865653038025,0.5139989256858826,-0.012569903396070004,0.6760460734367371,0.44541695713996887,-0.012109997682273388,0.6594644784927368,0.43777161836624146,-0.01028378400951624,0.6553970575332642,0.4544163942337036,-0.008530506864190102,0.0,0.0,0.0,0.0,0.0,0.0,0.0,0.0,0.0,0.0,0.0,0.0,0.0,0.0,0.0,0.0,0.0,0.0,0.0,0.0,0.0,0.0,0.0,0.0,0.0,0.0,0.0,0.0,0.0,0.0,0.0,0.0,0.0,0.0,0.0,0.0,0.0,0.0,0.0,0.0,0.0,0.0,0.0,0.0,0.0,0.0,0.0,0.0,0.0,0.0,0.0,0.0,0.0,0.0,0.0,0.0,0.0,0.0,0.0,0.0,0.0,0.0,0.0
1783345127.8266199,0.7150560617446899,0.6962181329727173,-2.555501055212517e-07,0.6713904142379761,0.6583450436592102,0.03230741620063782,0.6600529551506042,0.6118146777153015,0.04692947864532471,0.6517314910888672,0.5780946612358093,0.052151869982481,0.6464687585830688,0.5571527481079102,0.05839075520634651,0.6739311814308167,0.5227663516998291,0.053843602538108826,0.6649117469787598,0.45533519983291626,0.0549187995493412,0.6469753384590149,0.4532329738140106,0.05414612218737602,0.6447529792785645,0.46900084614753723,0.05488119646906853,0.6800998449325562,0.5151751637458801,0.03369469940662384,0.6703349351882935,0.4305841624736786,0.033688995987176895,0.6487431526184082,0.4335559606552124,0.03429929167032242,0.6465590000152588,0.45498767495155334,0.03592604026198387,0.6816693544387817,0.5139226913452148,0.012194107286632061,0.678203284740448,0.4273588955402374,0.014227423816919327,0.6569818258285522,0.42831721901893616,0.017495987936854362,0.654472291469574,0.44722071290016174,0.01982288993895054,0.6781454682350159,0.5143857598304749,-0.00803456548601389,0.6741433143615723,0.44488659501075745,-0.004986223299056292,0.6603363752365112,0.43244507908821106,-0.002448044950142503,0.6573795080184937,0.44142773747444153,-0.0009954444831237197,0.0,0.0,0.0,0.0,0.0,0.0,0.0,0.0,0.0,0.0,0.0,0.0,0.0,0.0,0.0,0.0,0.0,0.0,0.0,0.0,0.0,0.0,0.0,0.0,0.0,0.0,0.0,0.0,0.0,0.0,0.0,0.0,0.0,0.0,0.0,0.0,0.0,0.0,0.0,0.0,0.0,0.0,0.0,0.0,0.0,0.0,0.0,0.0,0.0,0.0,0.0,0.0,0.0,0.0,0.0,0.0,0.0,0.0,0.0,0.0,0.0,0.0,0.0
1783345127.9635541,0.7186543941497803,0.6978212594985962,-2.909920056026749e-07,0.6807860732078552,0.6560762524604797,0.037268850952386856,0.6696378588676453,0.6094310879707336,0.05593245476484299,0.6609688401222229,0.5786715745925903,0.06572062522172928,0.656688392162323,0.551784873008728,0.07649076730012894,0.68952876329422,0.5237181782722473,0.05543334782123566,0.6750315427780151,0.4569896161556244,0.061463985592126846,0.6563059687614441,0.45507338643074036,0.06527183949947357,0.6537050008773804,0.4703373908996582,0.06914045661687851,0.692197322845459,0.5158268809318542,0.035809434950351715,0.6744095683097839,0.436168909072876,0.04091355949640274,0.6544878482818604,0.43563929200172424,0.045022979378700256,0.654016375541687,0.45265713334083557,0.04864970222115517,0.6887907385826111,0.5161933302879333,0.015795953571796417,0.6762872934341431,0.4347374141216278,0.01897929608821869,0.6574365496635437,0.43403416872024536,0.022217100486159325,0.6576511859893799,0.4501069188117981,0.02466847002506256,0.6773360967636108,0.5195545554161072,-0.0017355915624648333,0.665043294429779,0.45899540185928345,-0.0012508844956755638,0.6539456248283386,0.44848406314849854,-0.00027829522150568664,0.6556410193443298,0.4563167989253998,0.0009717696229927242,0.0,0.0,0.0,0.0,0.0,0.0,0.0,0.0,0.0,0.0,0.0,0.0,0.0,0.0,0.0,0.0,0.0,0.0,0.0,0.0,0.0,0.0,0.0,0.0,0.0,0.0,0.0,0.0,0.0,0.0,0.0,0.0,0.0,0.0,0.0,0.0,0.0,0.0,0.0,0.0,0.0,0.0,0.0,0.0,0.0,0.0,0.0,0.0,0.0,0.0,0.0,0.0,0.0,0.0,0.0,0.0,0.0,0.0,0.0,0.0,0.0,0.0,0.0
1783345128.088444,0.7176899313926697,0.6941058039665222,-2.8244159011592274e-07,0.6976030468940735,0.6378804445266724,0.04490630701184273,0.6846548318862915,0.5905558466911316,0.0642523467540741,0.674869179725647,0.5580540299415588,0.07322575896978378,0.6667773723602295,0.5267011523246765,0.08203030377626419,0.6915393471717834,0.5243020057678223,0.054798685014247894,0.6795217394828796,0.45123496651649475,0.06317943334579468,0.6642794609069824,0.4489707350730896,0.06863146275281906,0.6628482937812805,0.46482932567596436,0.07293258607387543,0.6898338198661804,0.517173707485199,0.03142349794507027,0.6764712333679199,0.43389612436294556,0.03995659202337265,0.6618380546569824,0.4330274164676666,0.0463726632297039,0.6628946661949158,0.44885462522506714,0.050555966794490814,0.6833524703979492,0.5180035829544067,0.00912072416394949,0.6721268892288208,0.43344032764434814,0.017103072255849838,0.6584851145744324,0.4351958930492401,0.024148065596818924,0.6595251560211182,0.4513852894306183,0.027425188571214676,0.6728877425193787,0.5218042135238647,-0.0101602328941226,0.6622304320335388,0.4562952220439911,-0.004907175898551941,0.6532378792762756,0.44735634326934814,0.00022362243907991797,0.654568076133728,0.4564034044742584,0.0032985771540552378,0.0,0.0,0.0,0.0,0.0,0.0,0.0,0.0,0.0,0.0,0.0,0.0,0.0,0.0,0.0,0.0,0.0,0.0,0.0,0.0,0.0,0.0,0.0,0.0,0.0,0.0,0.0,0.0,0.0,0.0,0.0,0.0,0.0,0.0,0.0,0.0,0.0,0.0,0.0,0.0,0.0,0.0,0.0,0.0,0.0,0.0,0.0,0.0,0.0,0.0,0.0,0.0,0.0,0.0,0.0,0.0,0.0,0.0,0.0,0.0,0.0,0.0,0.0
1783345128.234966,0.7170907855033875,0.6838504076004028,-1.6407720693223382e-07,0.7091677784919739,0.6036804914474487,0.04134922847151756,0.6980223655700684,0.550383448600769,0.05551764369010925,0.6881863474845886,0.5128248929977417,0.05981921777129173,0.67985999584198,0.4814285337924957,0.06312276422977448,0.694684624671936,0.5123259425163269,0.040396798402071,0.6796080470085144,0.44529053568840027,0.04451298713684082,0.6724295020103455,0.4351494610309601,0.04695531353354454,0.675122857093811,0.43759119510650635,0.0490323007106781,0.6889731884002686,0.5120415091514587,0.017350832000374794,0.6735509037971497,0.43397554755210876,0.02306227572262287,0.6675018072128296,0.42517033219337463,0.028239941224455833,0.6736275553703308,0.4316101372241974,0.031012875959277153,0.6800823211669922,0.5209392309188843,-0.0038666855543851852,0.6682534217834473,0.43794581294059753,0.0034233785700052977,0.6629979014396667,0.4346403181552887,0.01167162973433733,0.6697614192962646,0.44565194845199585,0.015144585631787777,0.6699267029762268,0.5337620973587036,-0.02232576161623001,0.6603814959526062,0.4709237515926361,-0.015835091471672058,0.6579073667526245,0.4583876430988312,-0.00862560048699379,0.6634445786476135,0.46110597252845764,-0.004368264693766832,0.0,0.0,0.0,0.0,0.0,0.0,0.0,0.0,0.0,0.0,0.0,0.0,0.0,0.0,0.0,0.0,0.0,0.0,0.0,0.0,0.0,0.0,0.0,0.0,0.0,0.0,0.0,0.0,0.0,0.0,0.0,0.0,0.0,0.0,0.0,0.0,0.0,0.0,0.0,0.0,0.0,0.0,0.0,0.0,0.0,0.0,0.0,0.0,0.0,0.0,0.0,0.0,0.0,0.0,0.0,0.0,0.0,0.0,0.0,0.0,0.0,0.0,0.0
1783345128.385839,0.0,0.0,0.0,0.0,0.0,0.0,0.0,0.0,0.0,0.0,0.0,0.0,0.0,0.0,0.0,0.0,0.0,0.0,0.0,0.0,0.0,0.0,0.0,0.0,0.0,0.0,0.0,0.0,0.0,0.0,0.0,0.0,0.0,0.0,0.0,0.0,0.0,0.0,0.0,0.0,0.0,0.0,0.0,0.0,0.0,0.0,0.0,0.0,0.0,0.0,0.0,0.0,0.0,0.0,0.0,0.0,0.0,0.0,0.0,0.0,0.0,0.0,0.0,0.0,0.0,0.0,0.0,0.0,0.0,0.0,0.0,0.0,0.0,0.0,0.0,0.0,0.0,0.0,0.0,0.0,0.0,0.0,0.0,0.0,0.0,0.0,0.0,0.0,0.0,0.0,0.0,0.0,0.0,0.0,0.0,0.0,0.0,0.0,0.0,0.0,0.0,0.0,0.0,0.0,0.0,0.0,0.0,0.0,0.0,0.0,0.0,0.0,0.0,0.0,0.0,0.0,0.0,0.0,0.0,0.0,0.0,0.0,0.0,0.0,0.0,0.0
1783345128.516021,0.7120206356048584,0.6725109219551086,-1.6390301027513487e-07,0.6795159578323364,0.6408638954162598,0.027510041370987892,0.6692653894424438,0.595818817615509,0.03939189016819,0.6601749062538147,0.5709952712059021,0.04440494626760483,0.6560990810394287,0.5497824549674988,0.05081422999501228,0.6871547698974609,0.5170061588287354,0.034588273614645004,0.675291895866394,0.44681480526924133,0.03399883583188057,0.6630343198776245,0.43622466921806335,0.035653796046972275,0.6639564037322998,0.4462527334690094,0.038953036069869995,0.6891329884529114,0.5102123618125916,0.018050014972686768,0.676227867603302,0.4274998605251312,0.016066189855337143,0.6619259715080261,0.41942453384399414,0.02020525000989437,0.6644277572631836,0.43400558829307556,0.02597065456211567,0.6859553456306458,0.511646568775177,0.001219308702275157,0.6742936372756958,0.42891228199005127,-0.0009833886288106441,0.6610946655273438,0.4213707447052002,0.005305502098053694,0.6652904748916626,0.43498149514198303,0.012194443494081497,0.6760510802268982,0.5175390243530273,-0.013959878124296665,0.6640796661376953,0.45701655745506287,-0.016673652455210686,0.6552122235298157,0.4453577697277069,-0.01408639270812273,0.6592242121696472,0.4547283947467804,-0.009867432527244091,0.0,0.0,0.0,0.0,0.0,0.0,0.0,0.0,0.0,0.0,0.0,0.0,0.0,0.0,0.0,0.0,0.0,0.0,0.0,0.0,0.0,0.0,0.0,0.0,0.0,0.0,0.0,0.0,0.0,0.0,0.0,0.0,0.0,0.0,0.0,0.0,0.0,0.0,0.0,0.0,0.0,0.0,0.0,0.0,0.0,0.0,0.0,0.0,0.0,0.0,0.0,0.0,0.0,0.0,0.0,0.0,0.0,0.0,0.0,0.0,0.0,0.0,0.0
1783345128.6549819,0.7083969712257385,0.6800102591514587,-1.4135778769741592e-07,0.671671986579895,0.6535102725028992,0.014984617941081524,0.6574492454528809,0.6033151149749756,0.019658664241433144,0.6475669741630554,0.5666566491127014,0.017410283908247948,0.6460853219032288,0.5575103759765625,0.016485005617141724,0.6740144491195679,0.511445939540863,0.03287237510085106,0.6646277904510498,0.44461286067962646,0.028649630025029182,0.6485812664031982,0.4441837966442108,0.024687476456165314,0.6479676365852356,0.4643012285232544,0.02330855280160904,0.6802946329116821,0.5044913291931152,0.018718698993325233,0.6724863052368164,0.42220357060432434,0.014654796570539474,0.6525311470031738,0.42809146642684937,0.013277270831167698,0.6511476039886475,0.4543563425540924,0.014145685359835625,0.6832050085067749,0.5037125945091248,0.0025666060391813517,0.679384708404541,0.42242515087127686,0.0014531059423461556,0.6592413783073425,0.4249288737773895,0.003892748849466443,0.6577050089836121,0.4479314386844635,0.006367515306919813,0.6818419694900513,0.5062476992607117,-0.013933070935308933,0.6790032386779785,0.44112512469291687,-0.012335628271102905,0.667497456073761,0.42419710755348206,-0.010175690054893494,0.6664883494377136,0.4295567572116852,-0.008607560768723488,0.0,0.0,0.0,0.0,0.0,0.0,0.0,0.0,0.0,0.0,0.0,0.0,0.0,0.0,0.0,0.0,0.0,0.0,0.0,0.0,0.0,0.0,0.0,0.0,0.0,0.0,0.0,0.0,0.0,0.0,0.0,0.0,0.0,0.0,0.0,0.0,0.0,0.0,0.0,0.0,0.0,0.0,0.0,0.0,0.0,0.0,0.0,0.0,0.0,0.0,0.0,0.0,0.0,0.0,0.0,0.0,0.0,0.0,0.0,0.0,0.0,0.0,0.0
1783345128.796135,0.69535231590271,0.6806764602661133,-1.428933700253765e-07,0.656359851360321,0.6570513248443604,0.012301673181355,0.6400493383407593,0.6059829592704773,0.018672537058591843,0.6300585865974426,0.5644720196723938,0.01812880113720894,0.6376951932907104,0.5620610117912292,0.020043861120939255,0.6581695675849915,0.5054894089698792,0.038352180272340775,0.6579035520553589,0.43827617168426514,0.031828347593545914,0.6368573307991028,0.43735945224761963,0.027115991339087486,0.6344608068466187,0.46524909138679504,0.025949964299798012,0.667984127998352,0.49817872047424316,0.02497714012861252,0.6738516688346863,0.41254475712776184,0.015023570507764816,0.647644579410553,0.41676199436187744,0.01175098866224289,0.6429402828216553,0.45048534870147705,0.013795400969684124,0.6751556396484375,0.4961479604244232,0.008497167378664017,0.6842045187950134,0.4159027934074402,0.0032776498701423407,0.6573732495307922,0.4177324175834656,0.006249670870602131,0.649442732334137,0.4431377947330475,0.011486899107694626,0.6800023317337036,0.49601802229881287,-0.00900094024837017,0.6805105805397034,0.4379013180732727,-0.011815986596047878,0.6636061668395996,0.4240367114543915,-0.011568075977265835,0.6576676368713379,0.43358755111694336,-0.009364297613501549,0.0,0.0,0.0,0.0,0.0,0.0,0.0,0.0,0.0,0.0,0.0,0.0,0.0,0.0,0.0,0.0,0.0,0.0,0.0,0.0,0.0,0.0,0.0,0.0,0.0,0.0,0.0,0.0,0.0,0.0,0.0,0.0,0.0,0.0,0.0,0.0,0.0,0.0,0.0,0.0,0.0,0.0,0.0,0.0,0.0,0.0,0.0,0.0,0.0,0.0,0.0,0.0,0.0,0.0,0.0,0.0,0.0,0.0,0.0,0.0,0.0,0.0,0.0
1783345128.932415,0.6863871812820435,0.6842663884162903,-8.396482797934368e-08,0.6447272300720215,0.6741012930870056,-0.008603960275650024,0.6179341673851013,0.6143099069595337,-0.011335053481161594,0.6132217645645142,0.5556514263153076,-0.017447905614972115,0.6345070600509644,0.5626153349876404,-0.020355096086859703,0.6354874968528748,0.5143802165985107,0.015067481435835361,0.6363685131072998,0.4417128562927246,0.001158070401288569,0.6207424998283386,0.4452839493751526,-0.009173222817480564,0.6171584725379944,0.47472089529037476,-0.01374437939375639,0.6531962156295776,0.5021633505821228,0.011006870307028294,0.6563008427619934,0.4175424575805664,-0.004557727836072445,0.6365064382553101,0.4283752143383026,-0.010825417935848236,0.6344283223152161,0.4671487808227539,-0.00974884070456028,0.6688718795776367,0.49870985746383667,0.0026353332214057446,0.6756019592285156,0.4195304214954376,-0.005750550888478756,0.6553773283958435,0.42951592803001404,-0.0029312619008123875,0.6507930159568787,0.46337994933128357,0.0034715039655566216,0.6869040727615356,0.4997551143169403,-0.00875261053442955,0.6900086402893066,0.43611302971839905,-0.01186043955385685,0.6744648814201355,0.4321581721305847,-0.01062582153826952,0.6673212647438049,0.45611879229545593,-0.007018597796559334,0.0,0.0,0.0,0.0,0.0,0.0,0.0,0.0,0.0,0.0,0.0,0.0,0.0,0.0,0.0,0.0,0.0,0.0,0.0,0.0,0.0,0.0,0.0,0.0,0.0,0.0,0.0,0.0,0.0,0.0,0.0,0.0,0.0,0.0,0.0,0.0,0.0,0.0,0.0,0.0,0.0,0.0,0.0,0.0,0.0,0.0,0.0,0.0,0.0,0.0,0.0,0.0,0.0,0.0,0.0,0.0,0.0,0.0,0.0,0.0,0.0,0.0,0.0
1783345129.0579169,0.6816035509109497,0.6836813688278198,-8.790118499746313e-08,0.6377240419387817,0.6749274134635925,-0.010514755733311176,0.6081001162528992,0.6146280169487,-0.014708896167576313,0.6075043082237244,0.5554689764976501,-0.021283520385622978,0.6320451498031616,0.5576883554458618,-0.025252409279346466,0.6294695138931274,0.5069447159767151,0.008715041913092136,0.6291387677192688,0.43085992336273193,-0.005779788363724947,0.6148781776428223,0.43895891308784485,-0.01741621270775795,0.611821711063385,0.4713786244392395,-0.023286810144782066,0.6490731835365295,0.49626782536506653,0.005143149755895138,0.65010666847229,0.4084564447402954,-0.011022982187569141,0.6334172487258911,0.4230705499649048,-0.018682202324271202,0.6330093145370483,0.46527165174484253,-0.019023347645998,0.6674673557281494,0.49553006887435913,-0.0024173755664378405,0.6705616116523743,0.41770416498184204,-0.012337328866124153,0.6538142561912537,0.4320150315761566,-0.013353817164897919,0.652596652507782,0.46942684054374695,-0.010105923749506474,0.6886958479881287,0.5012513399124146,-0.012694609351456165,0.6900838613510132,0.4360186457633972,-0.01649785414338112,0.6759201288223267,0.439666211605072,-0.016264159232378006,0.6715484261512756,0.4708639979362488,-0.014133421704173088,0.0,0.0,0.0,0.0,0.0,0.0,0.0,0.0,0.0,0.0,0.0,0.0,0.0,0.0,0.0,0.0,0.0,0.0,0.0,0.0,0.0,0.0,0.0,0.0,0.0,0.0,0.0,0.0,0.0,0.0,0.0,0.0,0.0,0.0,0.0,0.0,0.0,0.0,0.0,0.0,0.0,0.0,0.0,0.0,0.0,0.0,0.0,0.0,0.0,0.0,0.0,0.0,0.0,0.0,0.0,0.0,0.0,0.0,0.0,0.0,0.0,0.0,0.0
1783345129.1986969,0.6809337735176086,0.6864287257194519,-8.574978949127399e-08,0.6342628598213196,0.6763870716094971,-0.014010108076035976,0.603046178817749,0.6167527437210083,-0.020542992278933525,0.6042694449424744,0.5533357858657837,-0.02900642901659012,0.6343891024589539,0.5578514337539673,-0.03530478850007057,0.6256868839263916,0.5065882205963135,0.005193942692130804,0.6230157017707825,0.4325457513332367,-0.011196876876056194,0.6097902059555054,0.43405887484550476,-0.025103168562054634,0.6064669489860535,0.46658387780189514,-0.03260624036192894,0.6476263999938965,0.4954875409603119,0.0026626999024301767,0.6467147469520569,0.41136062145233154,-0.015898680314421654,0.6314272284507751,0.4204992353916168,-0.027829773724079132,0.6304146647453308,0.4642695188522339,-0.03138043358922005,0.6678415536880493,0.4961208701133728,-0.003944036550819874,0.6685165762901306,0.4215725064277649,-0.016296111047267914,0.6540497541427612,0.42729416489601135,-0.021995026618242264,0.6538111567497253,0.46589571237564087,-0.021712565794587135,0.6908625960350037,0.5026010870933533,-0.013313227333128452,0.6895454525947571,0.4379887878894806,-0.020255744457244873,0.6764764189720154,0.43288975954055786,-0.023928267881274223,0.6715678572654724,0.4611091613769531,-0.024264464154839516,0.0,0.0,0.0,0.0,0.0,0.0,0.0,0.0,0.0,0.0,0.0,0.0,0.0,0.0,0.0,0.0,0.0,0.0,0.0,0.0,0.0,0.0,0.0,0.0,0.0,0.0,0.0,0.0,0.0,0.0,0.0,0.0,0.0,0.0,0.0,0.0,0.0,0.0,0.0,0.0,0.0,0.0,0.0,0.0,0.0,0.0,0.0,0.0,0.0,0.0,0.0,0.0,0.0,0.0,0.0,0.0,0.0,0.0,0.0,0.0,0.0,0.0,0.0
1783345129.3599832,0.6843274831771851,0.6883426904678345,-8.820377672691393e-08,0.63514643907547,0.6767147183418274,-0.012709591537714005,0.6024734377861023,0.6171815991401672,-0.01885133609175682,0.605233371257782,0.5545280575752258,-0.02710266411304474,0.6362087726593018,0.5557557344436646,-0.03370734304189682,0.6259241104125977,0.5065151453018188,0.006213607266545296,0.6210600733757019,0.434069961309433,-0.010368844494223595,0.6084858179092407,0.43274885416030884,-0.025068333372473717,0.6046776175498962,0.4639201760292053,-0.03297914192080498,0.6484200954437256,0.49596190452575684,0.0031970601994544268,0.6445143818855286,0.4138350486755371,-0.01468968391418457,0.63138347864151,0.42130589485168457,-0.026754280552268028,0.6306349635124207,0.4641188383102417,-0.030536459758877754,0.6697146892547607,0.4967084228992462,-0.0038072692696005106,0.6678467988967896,0.42253270745277405,-0.01746482588350773,0.6544808149337769,0.42853057384490967,-0.024425078183412552,0.6550282835960388,0.46954673528671265,-0.02462734840810299,0.693785548210144,0.5038892030715942,-0.013197298161685467,0.6892428994178772,0.4396466016769409,-0.022376930341124535,0.6767950057983398,0.4340403378009796,-0.026861639693379402,0.6731446385383606,0.46165740489959717,-0.02722509577870369,0.0,0.0,0.0,0.0,0.0,0.0,0.0,0.0,0.0,0.0,0.0,0.0,0.0,0.0,0.0,0.0,0.0,0.0,0.0,0.0,0.0,0.0,0.0,0.0,0.0,0.0,0.0,0.0,0.0,0.0,0.0,0.0,0.0,0.0,0.0,0.0,0.0,0.0,0.0,0.0,0.0,0.0,0.0,0.0,0.0,0.0,0.0,0.0,0.0,0.0,0.0,0.0,0.0,0.0,0.0,0.0,0.0,0.0,0.0,0.0,0.0,0.0,0.0
1783345129.60721,0.6853153109550476,0.6896092891693115,-6.850002165492697e-08,0.6363946795463562,0.6740403175354004,-0.011869247071444988,0.6024392247200012,0.6138286590576172,-0.017036164179444313,0.6070093512535095,0.5507311224937439,-0.024109598249197006,0.63755863904953,0.5472322702407837,-0.029747260734438896,0.6232197880744934,0.5056638717651367,0.006610718555748463,0.6176350116729736,0.43561577796936035,-0.008455525152385235,0.6075897812843323,0.43039965629577637,-0.023149287328124046,0.6032068133354187,0.45798081159591675,-0.03134121373295784,0.6462189555168152,0.4932408928871155,0.0037176574114710093,0.6397301554679871,0.414457768201828,-0.01158325094729662,0.6307147145271301,0.41634121537208557,-0.02423330768942833,0.6302551627159119,0.45604729652404785,-0.029343007132411003,0.6687985062599182,0.49275654554367065,-0.002845743205398321,0.6643152832984924,0.42183277010917664,-0.015325226821005344,0.6551159024238586,0.42466455698013306,-0.024225829169154167,0.6565446257591248,0.46562114357948303,-0.026309922337532043,0.6944511532783508,0.5006967186927795,-0.011541403830051422,0.6883441805839539,0.43612608313560486,-0.020526913926005363,0.6779016256332397,0.42852306365966797,-0.025711556896567345,0.6746719479560852,0.4559559226036072,-0.026834148913621902,0.0,0.0,0.0,0.0,0.0,0.0,0.0,0.0,0.0,0.0,0.0,0.0,0.0,0.0,0.0,0.0,0.0,0.0,0.0,0.0,0.0,0.0,0.0,0.0,0.0,0.0,0.0,0.0,0.0,0.0,0.0,0.0,0.0,0.0,0.0,0.0,0.0,0.0,0.0,0.0,0.0,0.0,0.0,0.0,0.0,0.0,0.0,0.0,0.0,0.0,0.0,0.0,0.0,0.0,0.0,0.0,0.0,0.0,0.0,0.0,0.0,0.0,0.0
1783345129.818536,0.6866756677627563,0.6869005560874939,-5.0613802926591234e-08,0.6398902535438538,0.6723227500915527,-0.012668642215430737,0.6061112284660339,0.6052835583686829,-0.018100587651133537,0.6165003180503845,0.5412009358406067,-0.025072962045669556,0.6465039253234863,0.5351464152336121,-0.030709095299243927,0.621379554271698,0.4966347813606262,0.003145246533676982,0.614327609539032,0.424797385931015,-0.012805701233446598,0.607551097869873,0.41711875796318054,-0.028623128309845924,0.6047255992889404,0.4450511336326599,-0.037481363862752914,0.6460049748420715,0.4854081869125366,0.0004559850785881281,0.6382466554641724,0.4056686460971832,-0.015480311587452888,0.6335738301277161,0.40456998348236084,-0.029552392661571503,0.6345376372337341,0.44417256116867065,-0.03592079505324364,0.6707335114479065,0.48692935705184937,-0.005730742588639259,0.6645572781562805,0.4136553704738617,-0.01910531148314476,0.6590410470962524,0.4157348573207855,-0.029765987768769264,0.6607166528701782,0.4585769474506378,-0.03340083360671997,0.6972980499267578,0.4963321387767792,-0.013908417895436287,0.6904592514038086,0.43032827973365784,-0.024440428242087364,0.6828675866127014,0.4249814450740814,-0.030691251158714294,0.680594265460968,0.454700767993927,-0.03271551430225372,0.0,0.0,0.0,0.0,0.0,0.0,0.0,0.0,0.0,0.0,0.0,0.0,0.0,0.0,0.0,0.0,0.0,0.0,0.0,0.0,0.0,0.0,0.0,0.0,0.0,0.0,0.0,0.0,0.0,0.0,0.0,0.0,0.0,0.0,0.0,0.0,0.0,0.0,0.0,0.0,0.0,0.0,0.0,0.0,0.0,0.0,0.0,0.0,0.0,0.0,0.0,0.0,0.0,0.0,0.0,0.0,0.0,0.0,0.0,0.0,0.0,0.0,0.0
1783345130.10019,0.6924574971199036,0.6899057030677795,-5.387079937690942e-08,0.6425483822822571,0.6726605296134949,-0.013269993476569653,0.6098857522010803,0.6043761372566223,-0.018349960446357727,0.6226745247840881,0.5413511395454407,-0.02486252970993519,0.653272807598114,0.5373650789260864,-0.030333386734128,0.6277961134910583,0.49439558386802673,0.0034963535144925117,0.6209972500801086,0.4221648573875427,-0.01223153155297041,0.6147196888923645,0.4116700291633606,-0.028443265706300735,0.6120747923851013,0.4395768642425537,-0.037690769881010056,0.6526104807853699,0.4848228991031647,0.0010225004516541958,0.6447637677192688,0.4031839072704315,-0.01538744568824768,0.6404501795768738,0.3998104929924011,-0.030959488824009895,0.6410959362983704,0.43923500180244446,-0.03848389536142349,0.67706298828125,0.4879399836063385,-0.00495303887873888,0.6717327237129211,0.41145727038383484,-0.019063806161284447,0.6663851737976074,0.4104265868663788,-0.031431201845407486,0.6679757833480835,0.4533013701438904,-0.0361848808825016,0.703382670879364,0.4988769292831421,-0.01288794819265604,0.6971232891082764,0.4299796223640442,-0.0248771570622921,0.6900973916053772,0.4224887192249298,-0.032533712685108185,0.6885577440261841,0.45260608196258545,-0.03542501851916313,0.0,0.0,0.0,0.0,0.0,0.0,0.0,0.0,0.0,0.0,0.0,0.0,0.0,0.0,0.0,0.0,0.0,0.0,0.0,0.0,0.0,0.0,0.0,0.0,0.0,0.0,0.0,0.0,0.0,0.0,0.0,0.0,0.0,0.0,0.0,0.0,0.0,0.0,0.0,0.0,0.0,0.0,0.0,0.0,0.0,0.0,0.0,0.0,0.0,0.0,0.0,0.0,0.0,0.0,0.0,0.0,0.0,0.0,0.0,0.0,0.0,0.0,0.0
1783345130.336533,0.697403073310852,0.6940679550170898,-4.975601441969957e-08,0.6470655798912048,0.6733470559120178,-0.012484627775847912,0.6147014498710632,0.6035007834434509,-0.01778227463364601,0.6273666620254517,0.5409607887268066,-0.024761544540524483,0.6590690612792969,0.5400727391242981,-0.030719146132469177,0.6352854371070862,0.4926646053791046,0.003586472012102604,0.6291069388389587,0.42130139470100403,-0.012217294424772263,0.6217462420463562,0.410173624753952,-0.028640713542699814,0.6183052659034729,0.4371704161167145,-0.03830313682556152,0.6597333550453186,0.48350560665130615,0.0004997316864319146,0.6540614366531372,0.4014367163181305,-0.01602664217352867,0.6473695039749146,0.3959095776081085,-0.03160669282078743,0.6463168263435364,0.4343400001525879,-0.03938894718885422,0.684158444404602,0.48758530616760254,-0.005990654230117798,0.6803374886512756,0.40962332487106323,-0.019457871094346046,0.6730268001556396,0.40730732679367065,-0.030902009457349777,0.6728470325469971,0.44975799322128296,-0.035320159047842026,0.7106812000274658,0.4999508261680603,-0.014518165029585361,0.7057915925979614,0.42914631962776184,-0.025739062577486038,0.6975576877593994,0.420063853263855,-0.03278230503201485,0.6941428184509277,0.45028555393218994,-0.03541572391986847,0.0,0.0,0.0,0.0,0.0,0.0,0.0,0.0,0.0,0.0,0.0,0.0,0.0,0.0,0.0,0.0,0.0,0.0,0.0,0.0,0.0,0.0,0.0,0.0,0.0,0.0,0.0,0.0,0.0,0.0,0.0,0.0,0.0,0.0,0.0,0.0,0.0,0.0,0.0,0.0,0.0,0.0,0.0,0.0,0.0,0.0,0.0,0.0,0.0,0.0,0.0,0.0,0.0,0.0,0.0,0.0,0.0,0.0,0.0,0.0,0.0,0.0,0.0
1783345130.504863,0.6977038383483887,0.6946637630462646,-5.349614085048415e-08,0.6483957171440125,0.674657940864563,-0.013079426251351833,0.6158822774887085,0.6018238663673401,-0.018430959433317184,0.6290525197982788,0.5395248532295227,-0.025316156446933746,0.6616330146789551,0.5417520403862,-0.03113693557679653,0.6373615860939026,0.4935718774795532,0.002198205329477787,0.6321584582328796,0.42011553049087524,-0.013858973979949951,0.625545859336853,0.4095715284347534,-0.02959420159459114,0.6227141618728638,0.4385605454444885,-0.038549602031707764,0.6625869870185852,0.4841834604740143,-0.0006066468777135015,0.6579199433326721,0.40047213435173035,-0.017683004960417747,0.6520663499832153,0.3978468179702759,-0.03242173790931702,0.6514650583267212,0.4394528865814209,-0.03912687301635742,0.6867424249649048,0.48815226554870605,-0.00686994893476367,0.6843171119689941,0.4103803336620331,-0.02012479677796364,0.6773802042007446,0.41010940074920654,-0.03064298816025257,0.6775701642036438,0.45231911540031433,-0.03431893512606621,0.7129860520362854,0.5010285973548889,-0.015291143208742142,0.708686351776123,0.4310939311981201,-0.02575748786330223,0.7009742259979248,0.42335501313209534,-0.032262176275253296,0.6981960535049438,0.45216935873031616,-0.03461012616753578,0.0,0.0,0.0,0.0,0.0,0.0,0.0,0.0,0.0,0.0,0.0,0.0,0.0,0.0,0.0,0.0,0.0,0.0,0.0,0.0,0.0,0.0,0.0,0.0,0.0,0.0,0.0,0.0,0.0,0.0,0.0,0.0,0.0,0.0,0.0,0.0,0.0,0.0,0.0,0.0,0.0,0.0,0.0,0.0,0.0,0.0,0.0,0.0,0.0,0.0,0.0,0.0,0.0,0.0,0.0,0.0,0.0,0.0,0.0,0.0,0.0,0.0,0.0
