ciel274/research-hand-sign/data/raw/hiragana/sign_language_o_2.csv
timestamp,R_joint_0_x,R_joint_0_y,R_joint_0_z,R_joint_1_x,R_joint_1_y,R_joint_1_z,R_joint_2_x,R_joint_2_y,R_joint_2_z,R_joint_3_x,R_joint_3_y,R_joint_3_z,R_joint_4_x,R_joint_4_y,R_joint_4_z,R_joint_5_x,R_joint_5_y,R_joint_5_z,R_joint_6_x,R_joint_6_y,R_joint_6_z,R_joint_7_x,R_joint_7_y,R_joint_7_z,R_joint_8_x,R_joint_8_y,R_joint_8_z,R_joint_9_x,R_joint_9_y,R_joint_9_z,R_joint_10_x,R_joint_10_y,R_joint_10_z,R_joint_11_x,R_joint_11_y,R_joint_11_z,R_joint_12_x,R_joint_12_y,R_joint_12_z,R_joint_13_x,R_joint_13_y,R_joint_13_z,R_joint_14_x,R_joint_14_y,R_joint_14_z,R_joint_15_x,R_joint_15_y,R_joint_15_z,R_joint_16_x,R_joint_16_y,R_joint_16_z,R_joint_17_x,R_joint_17_y,R_joint_17_z,R_joint_18_x,R_joint_18_y,R_joint_18_z,R_joint_19_x,R_joint_19_y,R_joint_19_z,R_joint_20_x,R_joint_20_y,R_joint_20_z,L_joint_0_x,L_joint_0_y,L_joint_0_z,L_joint_1_x,L_joint_1_y,L_joint_1_z,L_joint_2_x,L_joint_2_y,L_joint_2_z,L_joint_3_x,L_joint_3_y,L_joint_3_z,L_joint_4_x,L_joint_4_y,L_joint_4_z,L_joint_5_x,L_joint_5_y,L_joint_5_z,L_joint_6_x,L_joint_6_y,L_joint_6_z,L_joint_7_x,L_joint_7_y,L_joint_7_z,L_joint_8_x,L_joint_8_y,L_joint_8_z,L_joint_9_x,L_joint_9_y,L_joint_9_z,L_joint_10_x,L_joint_10_y,L_joint_10_z,L_joint_11_x,L_joint_11_y,L_joint_11_z,L_joint_12_x,L_joint_12_y,L_joint_12_z,L_joint_13_x,L_joint_13_y,L_joint_13_z,L_joint_14_x,L_joint_14_y,L_joint_14_z,L_joint_15_x,L_joint_15_y,L_joint_15_z,L_joint_16_x,L_joint_16_y,L_joint_16_z,L_joint_17_x,L_joint_17_y,L_joint_17_z,L_joint_18_x,L_joint_18_y,L_joint_18_z,L_joint_19_x,L_joint_19_y,L_joint_19_z,L_joint_20_x,L_joint_20_y,L_joint_20_z
1783345167.799638,0.7432359457015991,0.7728967666625977,-3.8458549056485936e-07,0.6927652359008789,0.7359719276428223,0.020530346781015396,0.6570090055465698,0.6814680695533752,0.027240479364991188,0.6305381059646606,0.6492248177528381,0.023948661983013153,0.6215906739234924,0.6138080954551697,0.02153615467250347,0.6966997981071472,0.5828196406364441,0.04711669683456421,0.6704561114311218,0.5230702757835388,0.040368229150772095,0.6422330737113953,0.534090518951416,0.030598033219575882,0.6276596784591675,0.563639760017395,0.025344068184494972,0.7066053748130798,0.5724518299102783,0.027656102553009987,0.6710720062255859,0.5032116770744324,0.021325038745999336,0.6375398635864258,0.5264100432395935,0.012721284292638302,0.6251822710037231,0.5691043138504028,0.008494595997035503,0.7124282717704773,0.5708615183830261,0.005472375079989433,0.6769994497299194,0.4961930811405182,-0.00032514036865904927,0.6412164568901062,0.5221896767616272,-0.003892884822562337,0.6283181309700012,0.5666433572769165,-0.0046785324811935425,0.7103044390678406,0.5768677592277527,-0.016253400593996048,0.6795487403869629,0.5143525004386902,-0.01933210901916027,0.6500476598739624,0.5250950455665588,-0.018495310097932816,0.6351817846298218,0.5609816908836365,-0.016925804316997528,0.0,0.0,0.0,0.0,0.0,0.0,0.0,0.0,0.0,0.0,0.0,0.0,0.0,0.0,0.0,0.0,0.0,0.0,0.0,0.0,0.0,0.0,0.0,0.0,0.0,0.0,0.0,0.0,0.0,0.0,0.0,0.0,0.0,0.0,0.0,0.0,0.0,0.0,0.0,0.0,0.0,0.0,0.0,0.0,0.0,0.0,0.0,0.0,0.0,0.0,0.0,0.0,0.0,0.0,0.0,0.0,0.0,0.0,0.0,0.0,0.0,0.0,0.0
1783345168.195441,0.7414737939834595,0.7762408256530762,-3.737841041129286e-07,0.6924910545349121,0.7416126132011414,0.018373822793364525,0.6561139822006226,0.6870352029800415,0.024206416681408882,0.6297951340675354,0.6540293097496033,0.020687974989414215,0.6220394968986511,0.6174106597900391,0.01823173649609089,0.6972094178199768,0.5861155986785889,0.043634749948978424,0.6707572340965271,0.5255126953125,0.03605950251221657,0.6418100595474243,0.5362158417701721,0.026053907349705696,0.6269328594207764,0.5664575695991516,0.02087320387363434,0.7068693041801453,0.5762307047843933,0.02544238604605198,0.6716799736022949,0.5059937238693237,0.018221184611320496,0.6374964118003845,0.5294740200042725,0.00918971374630928,0.6247289180755615,0.5727588534355164,0.0049718040972948074,0.7122498154640198,0.5749156475067139,0.004572840873152018,0.6771963238716125,0.499341756105423,-0.002143493155017495,0.6411650776863098,0.5256901979446411,-0.006441458128392696,0.6281557679176331,0.5704761147499084,-0.007312223315238953,0.7095587253570557,0.5812568664550781,-0.01586075685918331,0.6786824464797974,0.5178207159042358,-0.019618522375822067,0.6496302485466003,0.5292195677757263,-0.0192553773522377,0.6354942917823792,0.5655840635299683,-0.017701400443911552,0.0,0.0,0.0,0.0,0.0,0.0,0.0,0.0,0.0,0.0,0.0,0.0,0.0,0.0,0.0,0.0,0.0,0.0,0.0,0.0,0.0,0.0,0.0,0.0,0.0,0.0,0.0,0.0,0.0,0.0,0.0,0.0,0.0,0.0,0.0,0.0,0.0,0.0,0.0,0.0,0.0,0.0,0.0,0.0,0.0,0.0,0.0,0.0,0.0,0.0,0.0,0.0,0.0,0.0,0.0,0.0,0.0,0.0,0.0,0.0,0.0,0.0,0.0
1783345168.483052,0.7431907653808594,0.7736126780509949,-3.7059712099107855e-07,0.6929380297660828,0.7398169040679932,0.018228692933917046,0.6560766100883484,0.6856627464294434,0.023962855339050293,0.6291313171386719,0.6527532935142517,0.02049892768263817,0.6215538382530212,0.616135835647583,0.018083881586790085,0.695493221282959,0.5850602984428406,0.04365251585841179,0.6703780293464661,0.5257247090339661,0.03675113618373871,0.6419646739959717,0.5355249643325806,0.026845445856451988,0.6258107423782349,0.5634945034980774,0.021307041868567467,0.7056903839111328,0.574937641620636,0.025558432564139366,0.6711753606796265,0.5055899024009705,0.019155332818627357,0.6376815438270569,0.5269837975502014,0.010063942521810532,0.6237344741821289,0.5678589940071106,0.0052805086597800255,0.7117103338241577,0.5735359787940979,0.004861087538301945,0.6770985722541809,0.4994255602359772,-0.001134091173298657,0.6412705779075623,0.5239583849906921,-0.005542562808841467,0.6266621947288513,0.5666471719741821,-0.0070589883252978325,0.7094842791557312,0.580299973487854,-0.015431812033057213,0.6781830191612244,0.5182218551635742,-0.018711645156145096,0.6485347747802734,0.5291776061058044,-0.018313484266400337,0.6326694488525391,0.5641716718673706,-0.01716679334640503,0.0,0.0,0.0,0.0,0.0,0.0,0.0,0.0,0.0,0.0,0.0,0.0,0.0,0.0,0.0,0.0,0.0,0.0,0.0,0.0,0.0,0.0,0.0,0.0,0.0,0.0,0.0,0.0,0.0,0.0,0.0,0.0,0.0,0.0,0.0,0.0,0.0,0.0,0.0,0.0,0.0,0.0,0.0,0.0,0.0,0.0,0.0,0.0,0.0,0.0,0.0,0.0,0.0,0.0,0.0,0.0,0.0,0.0,0.0,0.0,0.0,0.0,0.0
1783345168.674677,0.7404746413230896,0.7718453407287598,-3.6354686017148197e-07,0.6909008622169495,0.7385267615318298,0.017866378650069237,0.6544942855834961,0.685322105884552,0.023846032097935677,0.6277475357055664,0.6522316932678223,0.020678211003541946,0.6202635169029236,0.6157580018043518,0.0186209324747324,0.6931294202804565,0.5853114128112793,0.04454585164785385,0.6681683659553528,0.526183545589447,0.03802602365612984,0.6402794718742371,0.5358011722564697,0.028530055657029152,0.6248356699943542,0.5632582902908325,0.023368556052446365,0.7030362486839294,0.5746755003929138,0.026860574260354042,0.6689113974571228,0.505603015422821,0.02014530822634697,0.6364861130714417,0.5273382663726807,0.011116699315607548,0.6234580278396606,0.5689331293106079,0.006872996687889099,0.7094497680664062,0.5721359252929688,0.006510388571768999,0.6751176118850708,0.499260276556015,0.000229583602049388,0.6401539444923401,0.5243561267852783,-0.004213082604110241,0.6263789534568787,0.5676047205924988,-0.005282361526042223,0.7085329294204712,0.5770114064216614,-0.013461925089359283,0.677269697189331,0.5165237188339233,-0.017054956406354904,0.6477048397064209,0.5276845097541809,-0.016983719542622566,0.632123589515686,0.562678873538971,-0.015736568719148636,0.0,0.0,0.0,0.0,0.0,0.0,0.0,0.0,0.0,0.0,0.0,0.0,0.0,0.0,0.0,0.0,0.0,0.0,0.0,0.0,0.0,0.0,0.0,0.0,0.0,0.0,0.0,0.0,0.0,0.0,0.0,0.0,0.0,0.0,0.0,0.0,0.0,0.0,0.0,0.0,0.0,0.0,0.0,0.0,0.0,0.0,0.0,0.0,0.0,0.0,0.0,0.0,0.0,0.0,0.0,0.0,0.0,0.0,0.0,0.0,0.0,0.0,0.0
1783345168.8158588,0.739496648311615,0.770297110080719,-3.633787173384917e-07,0.6908456683158875,0.7384474277496338,0.01741057075560093,0.6541702151298523,0.6849187612533569,0.023142104968428612,0.6272990107536316,0.6524057984352112,0.01971016451716423,0.6199812889099121,0.615651547908783,0.017487332224845886,0.6921975612640381,0.5846194624900818,0.04406363517045975,0.6673789024353027,0.5251706838607788,0.03701229766011238,0.639884352684021,0.5351252555847168,0.027348890900611877,0.6251689195632935,0.564311683177948,0.022272981703281403,0.7020293474197388,0.5739180445671082,0.02649041637778282,0.6683585047721863,0.5050418972969055,0.01974484696984291,0.6357824206352234,0.5262113213539124,0.011111765168607235,0.6231603026390076,0.5689980387687683,0.007202186621725559,0.708605945110321,0.5713515281677246,0.006114527117460966,0.6745675802230835,0.49869784712791443,-0.00017607954214327037,0.63942551612854,0.5237185955047607,-0.0041291313245892525,0.6260713934898376,0.5677503943443298,-0.004769337363541126,0.7080332040786743,0.5762994289398193,-0.01397527102380991,0.6774404644966125,0.5153416991233826,-0.017615973949432373,0.6477031111717224,0.5265325903892517,-0.01727447845041752,0.6322365403175354,0.5624864101409912,-0.01572079211473465,0.0,0.0,0.0,0.0,0.0,0.0,0.0,0.0,0.0,0.0,0.0,0.0,0.0,0.0,0.0,0.0,0.0,0.0,0.0,0.0,0.0,0.0,0.0,0.0,0.0,0.0,0.0,0.0,0.0,0.0,0.0,0.0,0.0,0.0,0.0,0.0,0.0,0.0,0.0,0.0,0.0,0.0,0.0,0.0,0.0,0.0,0.0,0.0,0.0,0.0,0.0,0.0,0.0,0.0,0.0,0.0,0.0,0.0,0.0,0.0,0.0,0.0,0.0
1783345169.004215,0.7387615442276001,0.7694354057312012,-3.513780200137262e-07,0.6912375092506409,0.7388210296630859,0.015196730382740498,0.6542849540710449,0.6851730346679688,0.02007202059030533,0.6273161768913269,0.6527877449989319,0.016257042065262794,0.6201111078262329,0.6159684658050537,0.013896821066737175,0.6911633610725403,0.5842392444610596,0.04176893085241318,0.667709469795227,0.5239433646202087,0.03398878127336502,0.6404852867126465,0.5337744355201721,0.02406635880470276,0.6258739829063416,0.5631800293922424,0.018939945846796036,0.7006807327270508,0.574016273021698,0.025371508672833443,0.6689568161964417,0.5040249824523926,0.017969205975532532,0.636750340461731,0.5256152153015137,0.009358507581055164,0.6242179274559021,0.5682581067085266,0.005690484307706356,0.7074504494667053,0.5712341666221619,0.006039123982191086,0.675009548664093,0.49796974658966064,-0.0005847109714522958,0.640594482421875,0.5231732726097107,-0.004393802955746651,0.6276394724845886,0.5674372315406799,-0.0047507379204034805,0.7075904011726379,0.5758312344551086,-0.013203160837292671,0.6778929829597473,0.5154457688331604,-0.0167641993612051,0.6486411690711975,0.5270865559577942,-0.016268866136670113,0.6336976289749146,0.5632244944572449,-0.01450343057513237,0.0,0.0,0.0,0.0,0.0,0.0,0.0,0.0,0.0,0.0,0.0,0.0,0.0,0.0,0.0,0.0,0.0,0.0,0.0,0.0,0.0,0.0,0.0,0.0,0.0,0.0,0.0,0.0,0.0,0.0,0.0,0.0,0.0,0.0,0.0,0.0,0.0,0.0,0.0,0.0,0.0,0.0,0.0,0.0,0.0,0.0,0.0,0.0,0.0,0.0,0.0,0.0,0.0,0.0,0.0,0.0,0.0,0.0,0.0,0.0,0.0,0.0,0.0
1783345169.2355149,0.7385216355323792,0.7692017555236816,-3.114625428679574e-07,0.6911911964416504,0.7404286861419678,0.0121588921174407,0.6527382135391235,0.6870875954627991,0.016938593238592148,0.6251586675643921,0.653826892375946,0.01343184057623148,0.6194913983345032,0.6175461411476135,0.011766323819756508,0.6852573752403259,0.5871468782424927,0.04131390154361725,0.6638172268867493,0.5250356197357178,0.03341947868466377,0.6384912729263306,0.5338658690452576,0.02361467108130455,0.6257197260856628,0.5621298551559448,0.018498415127396584,0.6942819356918335,0.5774455666542053,0.026700785383582115,0.6666640639305115,0.5049743056297302,0.0178790632635355,0.6363173723220825,0.5241389274597168,0.008286137133836746,0.6247268319129944,0.5661503076553345,0.004487880039960146,0.702892005443573,0.5738310217857361,0.00881540309637785,0.6744565963745117,0.49980437755584717,0.000983655103482306,0.64144366979599,0.523339033126831,-0.004187849350273609,0.6293078660964966,0.5677067041397095,-0.004834359511733055,0.7075401544570923,0.5761422514915466,-0.009236670099198818,0.6809713244438171,0.5154706835746765,-0.013351991772651672,0.6524312496185303,0.5258147120475769,-0.014079279266297817,0.63828444480896,0.5616481304168701,-0.012971232645213604,0.0,0.0,0.0,0.0,0.0,0.0,0.0,0.0,0.0,0.0,0.0,0.0,0.0,0.0,0.0,0.0,0.0,0.0,0.0,0.0,0.0,0.0,0.0,0.0,0.0,0.0,0.0,0.0,0.0,0.0,0.0,0.0,0.0,0.0,0.0,0.0,0.0,0.0,0.0,0.0,0.0,0.0,0.0,0.0,0.0,0.0,0.0,0.0,0.0,0.0,0.0,0.0,0.0,0.0,0.0,0.0,0.0,0.0,0.0,0.0,0.0,0.0,0.0
1783345169.426677,0.7313061356544495,0.7679839730262756,-3.136617010568443e-07,0.6854156255722046,0.74698805809021,0.005169466137886047,0.6451206207275391,0.6957662105560303,0.006639769300818443,0.6163633465766907,0.6589046716690063,0.0012531462125480175,0.6119499802589417,0.6189583539962769,-0.0019759484566748142,0.669625997543335,0.5939609408378601,0.03154592961072922,0.6470252275466919,0.5319250226020813,0.019339658319950104,0.6233857870101929,0.5476049780845642,0.008026384748518467,0.6153460144996643,0.579189658164978,0.002628204645588994,0.6792253851890564,0.5825203657150269,0.020188692957162857,0.6514981389045715,0.5098045468330383,0.006478797644376755,0.623656153678894,0.5363208651542664,-0.0032179602421820164,0.6170677542686462,0.5815846920013428,-0.0054426915012300014,0.6916502714157104,0.5772385001182556,0.0051734899170696735,0.6658885478973389,0.504857063293457,-0.006082246080040932,0.6355958580970764,0.5312745571136475,-0.010994442738592625,0.6267377138137817,0.5758573412895203,-0.010089508257806301,0.704454243183136,0.5777022242546082,-0.01060214452445507,0.6820061802864075,0.517338216304779,-0.01665664277970791,0.6547325253486633,0.524818480014801,-0.018304916098713875,0.6412409543991089,0.5556889772415161,-0.01701132208108902,0.0,0.0,0.0,0.0,0.0,0.0,0.0,0.0,0.0,0.0,0.0,0.0,0.0,0.0,0.0,0.0,0.0,0.0,0.0,0.0,0.0,0.0,0.0,0.0,0.0,0.0,0.0,0.0,0.0,0.0,0.0,0.0,0.0,0.0,0.0,0.0,0.0,0.0,0.0,0.0,0.0,0.0,0.0,0.0,0.0,0.0,0.0,0.0,0.0,0.0,0.0,0.0,0.0,0.0,0.0,0.0,0.0,0.0,0.0,0.0,0.0,0.0,0.0
1783345169.6194859,0.7276277542114258,0.7685375213623047,-2.8956094411114464e-07,0.6834198236465454,0.7497154474258423,0.00024692591978237033,0.6405179500579834,0.6976445317268372,-0.0005754719022661448,0.6097063422203064,0.6589607000350952,-0.007098324131220579,0.6052703857421875,0.614665687084198,-0.011065894737839699,0.6624173521995544,0.5972124338150024,0.02541978470981121,0.639211893081665,0.5353684425354004,0.009976672008633614,0.6159235835075378,0.5504650473594666,-0.002961784368380904,0.6085166335105896,0.5831679105758667,-0.008614729158580303,0.6735827922821045,0.5836367607116699,0.016439249739050865,0.6465266942977905,0.5090095400810242,0.00026297621661797166,0.6192078590393066,0.5351366400718689,-0.00905127264559269,0.6136865615844727,0.5841181874275208,-0.009947415441274643,0.6880722045898438,0.5773123502731323,0.003385171527042985,0.6649683117866516,0.5028049945831299,-0.009289192967116833,0.6354799270629883,0.5268155336380005,-0.012734943069517612,0.626943051815033,0.5719791054725647,-0.009824506938457489,0.703953206539154,0.5772036910057068,-0.010919599793851376,0.6840782165527344,0.5155690908432007,-0.018036337569355965,0.6569421887397766,0.5198032855987549,-0.019480589777231216,0.6425062417984009,0.5483991503715515,-0.01712794043123722,0.0,0.0,0.0,0.0,0.0,0.0,0.0,0.0,0.0,0.0,0.0,0.0,0.0,0.0,0.0,0.0,0.0,0.0,0.0,0.0,0.0,0.0,0.0,0.0,0.0,0.0,0.0,0.0,0.0,0.0,0.0,0.0,0.0,0.0,0.0,0.0,0.0,0.0,0.0,0.0,0.0,0.0,0.0,0.0,0.0,0.0,0.0,0.0,0.0,0.0,0.0,0.0,0.0,0.0,0.0,0.0,0.0,0.0,0.0,0.0,0.0,0.0,0.0
1783345169.8721879,0.7207940220832825,0.7650831937789917,-2.0770386299773236e-07,0.6769774556159973,0.7531527280807495,-0.006760788150131702,0.6319848895072937,0.7030488848686218,-0.010798824951052666,0.598283588886261,0.6598933935165405,-0.01856285147368908,0.6005071401596069,0.6128510236740112,-0.023654606193304062,0.6478372812271118,0.6046862006187439,0.017649253830313683,0.6236672401428223,0.5443291068077087,-0.0003546896914485842,0.6049739718437195,0.548947274684906,-0.016043027862906456,0.6010492444038391,0.5746062994003296,-0.023435385897755623,0.6614557504653931,0.5865471959114075,0.01304113119840622,0.6376832723617554,0.5114263892173767,-0.004742151591926813,0.6178116798400879,0.5264632105827332,-0.016086095944046974,0.6157641410827637,0.5706244707107544,-0.018506966531276703,0.6793117523193359,0.5772193074226379,0.004159591626375914,0.6582688689231873,0.5027104020118713,-0.008399375714361668,0.6363835334777832,0.5174821615219116,-0.01253447588533163,0.6314404010772705,0.5577136874198914,-0.010473281145095825,0.7001113891601562,0.5757583975791931,-0.0065309577621519566,0.6810651421546936,0.5142524838447571,-0.012886548414826393,0.6585341095924377,0.5144307613372803,-0.014640423469245434,0.6466901898384094,0.5403170585632324,-0.012864903546869755,0.0,0.0,0.0,0.0,0.0,0.0,0.0,0.0,0.0,0.0,0.0,0.0,0.0,0.0,0.0,0.0,0.0,0.0,0.0,0.0,0.0,0.0,0.0,0.0,0.0,0.0,0.0,0.0,0.0,0.0,0.0,0.0,0.0,0.0,0.0,0.0,0.0,0.0,0.0,0.0,0.0,0.0,0.0,0.0,0.0,0.0,0.0,0.0,0.0,0.0,0.0,0.0,0.0,0.0,0.0,0.0,0.0,0.0,0.0,0.0,0.0,0.0,0.0
1783345170.053261,0.7192911505699158,0.7637815475463867,-1.74038888189898e-07,0.677051305770874,0.7556516528129578,-0.009233436547219753,0.6310897469520569,0.7024261951446533,-0.013880981132388115,0.596264123916626,0.6561177372932434,-0.021998008713126183,0.6046755313873291,0.6113089323043823,-0.027391180396080017,0.6433572173118591,0.6032764911651611,0.01486673392355442,0.6203417181968689,0.5419154167175293,-0.004060349892824888,0.6028021574020386,0.5462492108345032,-0.01979646272957325,0.6007304787635803,0.5714898705482483,-0.027263710275292397,0.6587920188903809,0.5845092535018921,0.010709093883633614,0.6364426016807556,0.5045738816261292,-0.010604439303278923,0.6184220910072327,0.5217468738555908,-0.023787936195731163,0.6198928952217102,0.5686647295951843,-0.026074456050992012,0.6777437925338745,0.5757712125778198,0.0023289069067686796,0.6572351455688477,0.49877655506134033,-0.01196723710745573,0.6381585001945496,0.5153048038482666,-0.01652577891945839,0.6371124982833862,0.5562215447425842,-0.013630666770040989,0.7001171112060547,0.5737766027450562,-0.008116061799228191,0.6797987222671509,0.5104240775108337,-0.01491721160709858,0.660387396812439,0.5091968178749084,-0.01696416363120079,0.6528364419937134,0.5342081785202026,-0.014869549311697483,0.0,0.0,0.0,0.0,0.0,0.0,0.0,0.0,0.0,0.0,0.0,0.0,0.0,0.0,0.0,0.0,0.0,0.0,0.0,0.0,0.0,0.0,0.0,0.0,0.0,0.0,0.0,0.0,0.0,0.0,0.0,0.0,0.0,0.0,0.0,0.0,0.0,0.0,0.0,0.0,0.0,0.0,0.0,0.0,0.0,0.0,0.0,0.0,0.0,0.0,0.0,0.0,0.0,0.0,0.0,0.0,0.0,0.0,0.0,0.0,0.0,0.0,0.0
1783345170.19405,0.720276951789856,0.7655944228172302,-1.6518289669420483e-07,0.6783438920974731,0.7557355165481567,-0.007870306260883808,0.6321380734443665,0.6988691687583923,-0.01131210383027792,0.5985590815544128,0.6508780717849731,-0.01844838634133339,0.6057195067405701,0.6101781725883484,-0.023185815662145615,0.6428175568580627,0.5999339818954468,0.015953317284584045,0.6212301254272461,0.5364598631858826,-0.002014074707403779,0.6054582595825195,0.5373806953430176,-0.017811890691518784,0.6045662760734558,0.5633437633514404,-0.025598442181944847,0.6594575047492981,0.5820551514625549,0.010980280116200447,0.6374717950820923,0.5020013451576233,-0.00913258921355009,0.6208105683326721,0.5133160948753357,-0.022951867431402206,0.6229871511459351,0.5590453147888184,-0.026376832276582718,0.6794952154159546,0.5740841031074524,0.0019885562360286713,0.658687174320221,0.4958219826221466,-0.011467491276562214,0.64100581407547,0.5070163011550903,-0.016360288485884666,0.6409599184989929,0.5474079847335815,-0.014267870225012302,0.7031739950180054,0.5720300078392029,-0.008991963230073452,0.682870090007782,0.5074552893638611,-0.015907974913716316,0.6650750041007996,0.5025235414505005,-0.018153082579374313,0.6589864492416382,0.5266956686973572,-0.01643780618906021,0.0,0.0,0.0,0.0,0.0,0.0,0.0,0.0,0.0,0.0,0.0,0.0,0.0,0.0,0.0,0.0,0.0,0.0,0.0,0.0,0.0,0.0,0.0,0.0,0.0,0.0,0.0,0.0,0.0,0.0,0.0,0.0,0.0,0.0,0.0,0.0,0.0,0.0,0.0,0.0,0.0,0.0,0.0,0.0,0.0,0.0,0.0,0.0,0.0,0.0,0.0,0.0,0.0,0.0,0.0,0.0,0.0,0.0,0.0,0.0,0.0,0.0,0.0
1783345170.3387258,0.7226964235305786,0.7633076906204224,-1.6526377066838904e-07,0.6806580424308777,0.75528484582901,-0.009636260569095612,0.6334884166717529,0.6959943771362305,-0.013630101457238197,0.5996750593185425,0.6436477899551392,-0.021129576489329338,0.6103103756904602,0.6019665598869324,-0.026086442172527313,0.640985906124115,0.5991222858428955,0.013850175775587559,0.6190692782402039,0.5300707221031189,-0.005037974566221237,0.6070052981376648,0.5332108736038208,-0.0212937630712986,0.6106082201004028,0.5636687278747559,-0.02931535802781582,0.6593925356864929,0.5805193781852722,0.00963677279651165,0.6383959650993347,0.4973985254764557,-0.011077221482992172,0.624877393245697,0.5109224915504456,-0.02587474137544632,0.6297560334205627,0.5570967197418213,-0.03009546920657158,0.6805113554000854,0.5723230242729187,0.0013986589619889855,0.6605361700057983,0.49209272861480713,-0.011888819746673107,0.6459704041481018,0.5044412016868591,-0.017023231834173203,0.6487714648246765,0.545259952545166,-0.015349108725786209,0.7051093578338623,0.5693185925483704,-0.009020378813147545,0.6847894787788391,0.5039247870445251,-0.015556277707219124,0.669082522392273,0.500108540058136,-0.01786070503294468,0.6658859252929688,0.5257484316825867,-0.01639353111386299,0.0,0.0,0.0,0.0,0.0,0.0,0.0,0.0,0.0,0.0,0.0,0.0,0.0,0.0,0.0,0.0,0.0,0.0,0.0,0.0,0.0,0.0,0.0,0.0,0.0,0.0,0.0,0.0,0.0,0.0,0.0,0.0,0.0,0.0,0.0,0.0,0.0,0.0,0.0,0.0,0.0,0.0,0.0,0.0,0.0,0.0,0.0,0.0,0.0,0.0,0.0,0.0,0.0,0.0,0.0,0.0,0.0,0.0,0.0,0.0,0.0,0.0,0.0
1783345170.5911648,0.7249012589454651,0.7659461498260498,-1.7257093531952705e-07,0.6824020743370056,0.7557703852653503,-0.010328613221645355,0.6369369626045227,0.6938782930374146,-0.014691665768623352,0.60630863904953,0.6374095678329468,-0.022179951891303062,0.6159412264823914,0.589015543460846,-0.02766530215740204,0.6431661248207092,0.6004401445388794,0.012075032107532024,0.6215795278549194,0.5273975729942322,-0.0071583278477191925,0.6138305068016052,0.5273863077163696,-0.025135140866041183,0.6203910708427429,0.5596285462379456,-0.034474924206733704,0.6621752977371216,0.5816478133201599,0.008183227851986885,0.6425503492355347,0.4950949549674988,-0.0124965850263834,0.6336656808853149,0.5050232410430908,-0.031061822548508644,0.6404764652252197,0.5489768981933594,-0.03900950774550438,0.6839771270751953,0.5729065537452698,0.0005756336613558233,0.6662514209747314,0.4907103478908539,-0.012805737555027008,0.6544207334518433,0.4967893362045288,-0.023893142119050026,0.6585270762443542,0.5374422073364258,-0.027666311711072922,0.7098771333694458,0.5703727006912231,-0.008909504860639572,0.6922420263290405,0.5059422850608826,-0.015670722350478172,0.6779701709747314,0.4970534145832062,-0.021303493529558182,0.6751099824905396,0.5199050307273865,-0.023452330380678177,0.0,0.0,0.0,0.0,0.0,0.0,0.0,0.0,0.0,0.0,0.0,0.0,0.0,0.0,0.0,0.0,0.0,0.0,0.0,0.0,0.0,0.0,0.0,0.0,0.0,0.0,0.0,0.0,0.0,0.0,0.0,0.0,0.0,0.0,0.0,0.0,0.0,0.0,0.0,0.0,0.0,0.0,0.0,0.0,0.0,0.0,0.0,0.0,0.0,0.0,0.0,0.0,0.0,0.0,0.0,0.0,0.0,0.0,0.0,0.0,0.0,0.0,0.0
1783345170.766386,0.7270938754081726,0.7665475606918335,-1.6754536602547887e-07,0.6841951012611389,0.7561509609222412,-0.010051681660115719,0.6386438012123108,0.691430926322937,-0.01349587645381689,0.6076757907867432,0.635471522808075,-0.020106524229049683,0.6159030795097351,0.5882822275161743,-0.024594632908701897,0.6463897824287415,0.5985794067382812,0.013054201379418373,0.6246590614318848,0.5251132845878601,-0.005384833086282015,0.6141678690910339,0.524503767490387,-0.022166283801198006,0.6185713410377502,0.5547295212745667,-0.030567849054932594,0.6649553775787354,0.5803560614585876,0.00913583766669035,0.6454933881759644,0.49267035722732544,-0.010820594616234303,0.6344879269599915,0.5031867623329163,-0.02778846025466919,0.6399227380752563,0.5475308895111084,-0.03431062772870064,0.6863390803337097,0.5716233849525452,0.0013433971907943487,0.6686285138130188,0.48889824748039246,-0.012119555845856667,0.6548171043395996,0.4968741238117218,-0.022316480055451393,0.6584141850471497,0.5377286672592163,-0.025011641904711723,0.7113326787948608,0.5688257217407227,-0.008334608748555183,0.6937077641487122,0.5006023049354553,-0.015249107964336872,0.6782568097114563,0.4951070249080658,-0.02040521614253521,0.6757490634918213,0.5223098993301392,-0.02189186029136181,0.0,0.0,0.0,0.0,0.0,0.0,0.0,0.0,0.0,0.0,0.0,0.0,0.0,0.0,0.0,0.0,0.0,0.0,0.0,0.0,0.0,0.0,0.0,0.0,0.0,0.0,0.0,0.0,0.0,0.0,0.0,0.0,0.0,0.0,0.0,0.0,0.0,0.0,0.0,0.0,0.0,0.0,0.0,0.0,0.0,0.0,0.0,0.0,0.0,0.0,0.0,0.0,0.0,0.0,0.0,0.0,0.0,0.0,0.0,0.0,0.0,0.0,0.0
1783345170.8935318,0.7258913516998291,0.7685171961784363,-1.6814176717616647e-07,0.682559072971344,0.7546827793121338,-0.007954579778015614,0.6377965211868286,0.6904131770133972,-0.010054657235741615,0.6063775420188904,0.6371074318885803,-0.015515638515353203,0.6116328835487366,0.5964074730873108,-0.01873015984892845,0.6475338935852051,0.5955462455749512,0.016577662900090218,0.6263520121574402,0.5243735313415527,-0.0010405122302472591,0.6137893199920654,0.5259009003639221,-0.01670011878013611,0.6155068874359131,0.5563117861747742,-0.023938292637467384,0.6649681925773621,0.577057421207428,0.012403642758727074,0.6450331211090088,0.49198850989341736,-0.005956938490271568,0.6323713660240173,0.5011339783668518,-0.020095575600862503,0.6360656023025513,0.5457800626754761,-0.02411327138543129,0.6857421398162842,0.5691747069358826,0.004254614934325218,0.6677564382553101,0.48942995071411133,-0.007788578514009714,0.6534594893455505,0.49583274126052856,-0.01446439977735281,0.6552876830101013,0.5347338318824768,-0.014305555261671543,0.7099694609642029,0.5676786303520203,-0.005817451514303684,0.6926671862602234,0.5028217434883118,-0.011929724365472794,0.677557647228241,0.4964975118637085,-0.014920905232429504,0.6742722392082214,0.5208735466003418,-0.014168566092848778,0.0,0.0,0.0,0.0,0.0,0.0,0.0,0.0,0.0,0.0,0.0,0.0,0.0,0.0,0.0,0.0,0.0,0.0,0.0,0.0,0.0,0.0,0.0,0.0,0.0,0.0,0.0,0.0,0.0,0.0,0.0,0.0,0.0,0.0,0.0,0.0,0.0,0.0,0.0,0.0,0.0,0.0,0.0,0.0,0.0,0.0,0.0,0.0,0.0,0.0,0.0,0.0,0.0,0.0,0.0,0.0,0.0,0.0,0.0,0.0,0.0,0.0,0.0
1783345171.0354419,0.7255569100379944,0.766808807849884,-1.8634045773069374e-07,0.6829701662063599,0.752424418926239,-0.008346314541995525,0.6373170614242554,0.6892495155334473,-0.012096132151782513,0.6031612157821655,0.6380579471588135,-0.019459277391433716,0.6088292002677917,0.5950110554695129,-0.02409188449382782,0.6500945091247559,0.5930335521697998,0.01512894406914711,0.6282995343208313,0.5212032198905945,-0.003725574817508459,0.6114353537559509,0.5266780257225037,-0.01895000785589218,0.6108143329620361,0.5578544735908508,-0.025810565799474716,0.6661527156829834,0.5756587982177734,0.01053792703896761,0.6460145711898804,0.48861685395240784,-0.009472312405705452,0.6280218362808228,0.503400981426239,-0.02171676978468895,0.6293314695358276,0.5513545870780945,-0.023872049525380135,0.6858147382736206,0.5684722661972046,0.001696170773357153,0.6673751473426819,0.4870905876159668,-0.011241821572184563,0.6478797793388367,0.49978598952293396,-0.015294498763978481,0.6461646556854248,0.5405986309051514,-0.01284882239997387,0.7087358832359314,0.5669397115707397,-0.009252377785742283,0.6905655860900879,0.49989861249923706,-0.015413308516144753,0.6717862486839294,0.496978759765625,-0.017095502465963364,0.664868175983429,0.5231969952583313,-0.015138093382120132,0.0,0.0,0.0,0.0,0.0,0.0,0.0,0.0,0.0,0.0,0.0,0.0,0.0,0.0,0.0,0.0,0.0,0.0,0.0,0.0,0.0,0.0,0.0,0.0,0.0,0.0,0.0,0.0,0.0,0.0,0.0,0.0,0.0,0.0,0.0,0.0,0.0,0.0,0.0,0.0,0.0,0.0,0.0,0.0,0.0,0.0,0.0,0.0,0.0,0.0,0.0,0.0,0.0,0.0,0.0,0.0,0.0,0.0,0.0,0.0,0.0,0.0,0.0
1783345171.1655018,0.7288135290145874,0.7673923373222351,-2.3354851919066277e-07,0.6858218312263489,0.7507821917533875,-0.006731931120157242,0.639507532119751,0.6877611875534058,-0.009152697399258614,0.6047555208206177,0.6405429840087891,-0.015422468073666096,0.6077607274055481,0.598854660987854,-0.018817968666553497,0.6580905318260193,0.5918950438499451,0.01748376525938511,0.635612428188324,0.5248820185661316,-1.645191696297843e-05,0.614960789680481,0.532711386680603,-0.01479532290250063,0.6101879477500916,0.5644157528877258,-0.02169152721762657,0.6720787882804871,0.5761484503746033,0.0124388812109828,0.6494745016098022,0.49477890133857727,-0.006272907834500074,0.6264498829841614,0.5076116919517517,-0.018578078597784042,0.6236525774002075,0.5546062588691711,-0.02156938798725605,0.6898825764656067,0.5697256922721863,0.0031935691367834806,0.6700729727745056,0.49068957567214966,-0.009196657687425613,0.6461368799209595,0.502500593662262,-0.013294488191604614,0.6402695178985596,0.5434716939926147,-0.011234913021326065,0.7105575203895569,0.5684677958488464,-0.008013361133635044,0.692366898059845,0.5019659996032715,-0.014456041157245636,0.6708740592002869,0.49845701456069946,-0.01646922342479229,0.6603853702545166,0.5262746214866638,-0.014865969307720661,0.0,0.0,0.0,0.0,0.0,0.0,0.0,0.0,0.0,0.0,0.0,0.0,0.0,0.0,0.0,0.0,0.0,0.0,0.0,0.0,0.0,0.0,0.0,0.0,0.0,0.0,0.0,0.0,0.0,0.0,0.0,0.0,0.0,0.0,0.0,0.0,0.0,0.0,0.0,0.0,0.0,0.0,0.0,0.0,0.0,0.0,0.0,0.0,0.0,0.0,0.0,0.0,0.0,0.0,0.0,0.0,0.0,0.0,0.0,0.0,0.0,0.0,0.0
1783345171.296725,0.7290306091308594,0.765254020690918,-2.618243399865605e-07,0.6863389611244202,0.7461324334144592,-0.0044550467282533646,0.643027663230896,0.6840936541557312,-0.0053849657997488976,0.6108213067054749,0.6389455795288086,-0.010533410124480724,0.6100631356239319,0.5965362787246704,-0.013193173334002495,0.6640798449516296,0.5924553275108337,0.019077032804489136,0.6418201923370361,0.5330343842506409,0.002644895575940609,0.6198716163635254,0.5382144451141357,-0.011334078386425972,0.6133072972297668,0.5649364590644836,-0.017643684521317482,0.6767574548721313,0.5764797925949097,0.013311942107975483,0.6529958248138428,0.4990290105342865,-0.004511063918471336,0.6283029317855835,0.5115775465965271,-0.016140662133693695,0.6240313053131104,0.5581623315811157,-0.018551187589764595,0.69340580701828,0.5682396292686462,0.003631921485066414,0.6744723320007324,0.49146270751953125,-0.009173705242574215,0.64918053150177,0.5044260621070862,-0.013542262837290764,0.6426133513450623,0.5460754036903381,-0.011223666369915009,0.7127705812454224,0.5659863352775574,-0.007696183864027262,0.6963167190551758,0.5003112554550171,-0.014919592067599297,0.6730730533599854,0.49619409441947937,-0.017187437042593956,0.6606780886650085,0.5242147445678711,-0.015371447429060936,0.0,0.0,0.0,0.0,0.0,0.0,0.0,0.0,0.0,0.0,0.0,0.0,0.0,0.0,0.0,0.0,0.0,0.0,0.0,0.0,0.0,0.0,0.0,0.0,0.0,0.0,0.0,0.0,0.0,0.0,0.0,0.0,0.0,0.0,0.0,0.0,0.0,0.0,0.0,0.0,0.0,0.0,0.0,0.0,0.0,0.0,0.0,0.0,0.0,0.0,0.0,0.0,0.0,0.0,0.0,0.0,0.0,0.0,0.0,0.0,0.0,0.0,0.0
1783345171.4305222,0.7308919429779053,0.7665788531303406,-2.38555173837085e-07,0.6883636713027954,0.743850827217102,-0.0014336012536659837,0.6456576585769653,0.6830746531486511,-0.0013867398956790566,0.613509476184845,0.6387932300567627,-0.006320131942629814,0.6124645471572876,0.5995074510574341,-0.00903029553592205,0.6695783138275146,0.591367244720459,0.024994753301143646,0.6485244035720825,0.5349712371826172,0.011459331959486008,0.6265096664428711,0.5349825620651245,-0.0017727696103975177,0.6161967515945435,0.5541871190071106,-0.008461168967187405,0.6819443106651306,0.5750905871391296,0.017587700858712196,0.6597466468811035,0.5003384351730347,0.0022311252541840076,0.6343387365341187,0.509809672832489,-0.009226527996361256,0.6260815262794495,0.5527057647705078,-0.012165301479399204,0.6970974206924438,0.5672680139541626,0.006391943898051977,0.6779558658599854,0.4921184182167053,-0.004129117354750633,0.6512614488601685,0.5043819546699524,-0.008281465619802475,0.6412771344184875,0.544921875,-0.00649105291813612,0.7139014601707458,0.5665580630302429,-0.006317203398793936,0.6970601677894592,0.5025472640991211,-0.011249233037233353,0.6726906895637512,0.4984726011753082,-0.012567425146698952,0.6579555869102478,0.5237054824829102,-0.01071033626794815,0.0,0.0,0.0,0.0,0.0,0.0,0.0,0.0,0.0,0.0,0.0,0.0,0.0,0.0,0.0,0.0,0.0,0.0,0.0,0.0,0.0,0.0,0.0,0.0,0.0,0.0,0.0,0.0,0.0,0.0,0.0,0.0,0.0,0.0,0.0,0.0,0.0,0.0,0.0,0.0,0.0,0.0,0.0,0.0,0.0,0.0,0.0,0.0,0.0,0.0,0.0,0.0,0.0,0.0,0.0,0.0,0.0,0.0,0.0,0.0,0.0,0.0,0.0
1783345171.564706,0.729600191116333,0.7628448605537415,-2.5104171186285384e-07,0.6878049969673157,0.739462673664093,0.0006495153065770864,0.647083044052124,0.679109513759613,0.0014218012802302837,0.6168606281280518,0.6368440985679626,-0.0032997040543705225,0.6156193614006042,0.5977978110313416,-0.005712582729756832,0.6733936667442322,0.5891472697257996,0.026405081152915955,0.6524059176445007,0.5284997224807739,0.013063205406069756,0.6294202208518982,0.5311028957366943,0.0008216366986744106,0.619917631149292,0.5553056001663208,-0.004787306301295757,0.6847714185714722,0.5747482180595398,0.01814749836921692,0.6628561615943909,0.49728187918663025,0.0034694334026426077,0.6355747580528259,0.5092935562133789,-0.006767988204956055,0.6268573999404907,0.5542381405830383,-0.008846142329275608,0.6985041499137878,0.5675039291381836,0.006126173306256533,0.6792049407958984,0.49226829409599304,-0.004193565342575312,0.6505009531974792,0.5081115365028381,-0.008240322582423687,0.6403706669807434,0.5509934425354004,-0.006382810417562723,0.7131168246269226,0.5660685300827026,-0.00717196287587285,0.6966928839683533,0.5021048188209534,-0.0121727604418993,0.671705961227417,0.5014541745185852,-0.013587931171059608,0.6572878956794739,0.5295722484588623,-0.011799274012446404,0.0,0.0,0.0,0.0,0.0,0.0,0.0,0.0,0.0,0.0,0.0,0.0,0.0,0.0,0.0,0.0,0.0,0.0,0.0,0.0,0.0,0.0,0.0,0.0,0.0,0.0,0.0,0.0,0.0,0.0,0.0,0.0,0.0,0.0,0.0,0.0,0.0,0.0,0.0,0.0,0.0,0.0,0.0,0.0,0.0,0.0,0.0,0.0,0.0,0.0,0.0,0.0,0.0,0.0,0.0,0.0,0.0,0.0,0.0,0.0,0.0,0.0,0.0
1783345171.694419,0.7315300107002258,0.7622568607330322,-2.7460393425826624e-07,0.6892507076263428,0.7365893125534058,0.004429128486663103,0.6506340503692627,0.6771566271781921,0.007157147396355867,0.6225341558456421,0.6358811855316162,0.003605424892157316,0.6179589033126831,0.5964576601982117,0.0023196558468043804,0.6791729927062988,0.5870057344436646,0.03232494741678238,0.6591470837593079,0.5264325737953186,0.022023353725671768,0.6346117854118347,0.529735267162323,0.011459718458354473,0.623420000076294,0.5530924201011658,0.006425913423299789,0.6893633008003235,0.5742882490158081,0.022162683308124542,0.6671547293663025,0.49850156903266907,0.010661965236067772,0.6376276612281799,0.511233389377594,0.0017450257437303662,0.6267304420471191,0.5546506643295288,-0.00017643123283050954,0.7014387249946594,0.5681947469711304,0.008318019099533558,0.6815937757492065,0.4924861192703247,-0.00023033357865642756,0.6497043967247009,0.5069847702980042,-0.003865359118208289,0.6369127035140991,0.548114001750946,-0.002411892404779792,0.7134748101234436,0.5671674013137817,-0.006568131502717733,0.6963223218917847,0.5046101808547974,-0.011421194300055504,0.6697005033493042,0.5045618414878845,-0.012861266732215881,0.6542967557907104,0.5326657295227051,-0.011316727846860886,0.0,0.0,0.0,0.0,0.0,0.0,0.0,0.0,0.0,0.0,0.0,0.0,0.0,0.0,0.0,0.0,0.0,0.0,0.0,0.0,0.0,0.0,0.0,0.0,0.0,0.0,0.0,0.0,0.0,0.0,0.0,0.0,0.0,0.0,0.0,0.0,0.0,0.0,0.0,0.0,0.0,0.0,0.0,0.0,0.0,0.0,0.0,0.0,0.0,0.0,0.0,0.0,0.0,0.0,0.0,0.0,0.0,0.0,0.0,0.0,0.0,0.0,0.0
1783345171.825836,0.7332438826560974,0.761311948299408,-2.709303998926771e-07,0.6904997229576111,0.7326887845993042,0.009202529676258564,0.6539429426193237,0.6749054193496704,0.013277499005198479,0.6271410584449768,0.6362271904945374,0.009983555413782597,0.6223384737968445,0.6001034379005432,0.00879110861569643,0.684546947479248,0.5825678706169128,0.038751330226659775,0.6661194562911987,0.5196018815040588,0.030482321977615356,0.6419667601585388,0.5241296291351318,0.020784463733434677,0.6299250721931458,0.5504096746444702,0.01623864844441414,0.6936690807342529,0.5725776553153992,0.026244182139635086,0.6719459891319275,0.4977740943431854,0.017548058182001114,0.642633318901062,0.5107734799385071,0.009218903258442879,0.630734384059906,0.5524802207946777,0.00693718995898962,0.7035834193229675,0.5677582621574402,0.010266982018947601,0.6830264329910278,0.493115097284317,0.003972826991230249,0.6512653827667236,0.5082926154136658,0.0007927347905933857,0.6381449699401855,0.5487375259399414,0.0017804309027269483,0.7120689749717712,0.5665725469589233,-0.006402141880244017,0.6935638189315796,0.5041676759719849,-0.009283803403377533,0.6663157939910889,0.5055140852928162,-0.00951051153242588,0.6505578756332397,0.5342828035354614,-0.007703580893576145,0.0,0.0,0.0,0.0,0.0,0.0,0.0,0.0,0.0,0.0,0.0,0.0,0.0,0.0,0.0,0.0,0.0,0.0,0.0,0.0,0.0,0.0,0.0,0.0,0.0,0.0,0.0,0.0,0.0,0.0,0.0,0.0,0.0,0.0,0.0,0.0,0.0,0.0,0.0,0.0,0.0,0.0,0.0,0.0,0.0,0.0,0.0,0.0,0.0,0.0,0.0,0.0,0.0,0.0,0.0,0.0,0.0,0.0,0.0,0.0,0.0,0.0,0.0
1783345171.9693289,0.7346426248550415,0.761759877204895,-3.264576093897631e-07,0.690977931022644,0.725426197052002,0.017739633098244667,0.6576946973800659,0.6684893369674683,0.023279372602701187,0.6322715878486633,0.6351032853126526,0.019600411877036095,0.6246490478515625,0.5984249711036682,0.017404383048415184,0.6991316080093384,0.5781244039535522,0.04464714229106903,0.6758599877357483,0.5159066319465637,0.03745254501700401,0.6484545469284058,0.5233232975006104,0.028422236442565918,0.633902907371521,0.5520217418670654,0.02452920563519001,0.7082787156105042,0.569928765296936,0.02744782529771328,0.6785708069801331,0.49666160345077515,0.02086390182375908,0.6458534598350525,0.5152498483657837,0.013607282191514969,0.6326175928115845,0.5558400750160217,0.01158603373914957,0.7143053412437439,0.5671910643577576,0.007416620384901762,0.686206042766571,0.4901236891746521,0.0034624491818249226,0.6515862941741943,0.508645236492157,0.0022181456442922354,0.6373084783554077,0.5474579930305481,0.0037758294492959976,0.7139757871627808,0.5690833330154419,-0.012565034441649914,0.6889305710792542,0.5087338089942932,-0.012882357463240623,0.6605762243270874,0.5121082663536072,-0.010737166740000248,0.6446390151977539,0.5388928055763245,-0.007694712840020657,0.0,0.0,0.0,0.0,0.0,0.0,0.0,0.0,0.0,0.0,0.0,0.0,0.0,0.0,0.0,0.0,0.0,0.0,0.0,0.0,0.0,0.0,0.0,0.0,0.0,0.0,0.0,0.0,0.0,0.0,0.0,0.0,0.0,0.0,0.0,0.0,0.0,0.0,0.0,0.0,0.0,0.0,0.0,0.0,0.0,0.0,0.0,0.0,0.0,0.0,0.0,0.0,0.0,0.0,0.0,0.0,0.0,0.0,0.0,0.0,0.0,0.0,0.0
1783345172.102485,0.7359118461608887,0.7625870704650879,-4.2711792502814205e-07,0.6908222436904907,0.7194459438323975,0.02563050203025341,0.6650012731552124,0.6640397310256958,0.029655056074261665,0.6414899826049805,0.6348505616188049,0.02435249090194702,0.6297352910041809,0.6015658974647522,0.01922566071152687,0.7178268432617188,0.5705583691596985,0.03244578465819359,0.6830817461013794,0.5054053068161011,0.02356177568435669,0.6514073610305786,0.5212970972061157,0.015772957354784012,0.6375130414962769,0.5575940012931824,0.013016749173402786,0.7273709177970886,0.5673956274986267,0.011498956009745598,0.6821644902229309,0.48891034722328186,0.006214989349246025,0.6449165344238281,0.5151975154876709,0.002947004744783044,0.6333217620849609,0.5599924325942993,0.002095250878483057,0.7260894179344177,0.5744680166244507,-0.010243824683129787,0.6845865845680237,0.4896653890609741,-0.012534981593489647,0.6482988595962524,0.5120554566383362,-0.00891946442425251,0.6359230875968933,0.5514395236968994,-0.0058798459358513355,0.7119354009628296,0.586604654788971,-0.030769353732466698,0.6792317032814026,0.5178613066673279,-0.03179122507572174,0.6524348855018616,0.5201444625854492,-0.027166031301021576,0.6385753750801086,0.5463148355484009,-0.022781291976571083,0.0,0.0,0.0,0.0,0.0,0.0,0.0,0.0,0.0,0.0,0.0,0.0,0.0,0.0,0.0,0.0,0.0,0.0,0.0,0.0,0.0,0.0,0.0,0.0,0.0,0.0,0.0,0.0,0.0,0.0,0.0,0.0,0.0,0.0,0.0,0.0,0.0,0.0,0.0,0.0,0.0,0.0,0.0,0.0,0.0,0.0,0.0,0.0,0.0,0.0,0.0,0.0,0.0,0.0,0.0,0.0,0.0,0.0,0.0,0.0,0.0,0.0,0.0
1783345172.23691,0.7398712038993835,0.7640800476074219,-4.4476266225501604e-07,0.6966001987457275,0.7199062705039978,0.02157851867377758,0.6744704842567444,0.6629067659378052,0.025933783501386642,0.6530129313468933,0.6285134553909302,0.022461125627160072,0.6367952227592468,0.5966406464576721,0.018456153571605682,0.7217545509338379,0.563380241394043,0.026082638651132584,0.6826041340827942,0.5006486177444458,0.019351007416844368,0.6537030339241028,0.5189783573150635,0.012450102716684341,0.6429740190505981,0.5560297966003418,0.009512201882898808,0.7291367053985596,0.5610452890396118,0.00889020785689354,0.6795955300331116,0.48947423696517944,0.006189902778714895,0.6473573446273804,0.5160646438598633,0.0029771572444587946,0.6384856104850769,0.5562176704406738,0.0008530771592631936,0.7256121635437012,0.5711697936058044,-0.00865991786122322,0.6816096901893616,0.48817306756973267,-0.01200161688029766,0.6502529978752136,0.5136274695396423,-0.01034889742732048,0.6413165330886841,0.5536544322967529,-0.008832584135234356,0.7095577120780945,0.5866665840148926,-0.02483227662742138,0.6765117049217224,0.5139105319976807,-0.027925333008170128,0.6546320915222168,0.5207670331001282,-0.0243748240172863,0.645323634147644,0.5515568256378174,-0.02076774835586548,0.0,0.0,0.0,0.0,0.0,0.0,0.0,0.0,0.0,0.0,0.0,0.0,0.0,0.0,0.0,0.0,0.0,0.0,0.0,0.0,0.0,0.0,0.0,0.0,0.0,0.0,0.0,0.0,0.0,0.0,0.0,0.0,0.0,0.0,0.0,0.0,0.0,0.0,0.0,0.0,0.0,0.0,0.0,0.0,0.0,0.0,0.0,0.0,0.0,0.0,0.0,0.0,0.0,0.0,0.0,0.0,0.0,0.0,0.0,0.0,0.0,0.0,0.0
1783345172.401418,0.7391017079353333,0.7609632611274719,-4.320245636790787e-07,0.6985426545143127,0.7052263021469116,0.021481765434145927,0.6812120676040649,0.6526588797569275,0.026570092886686325,0.6634613275527954,0.6247879266738892,0.024639014154672623,0.650083601474762,0.5951977968215942,0.022418323904275894,0.7276074886322021,0.5625067949295044,0.023783568292856216,0.6844862699508667,0.49994638562202454,0.017033260315656662,0.6550055146217346,0.5184385180473328,0.010848023928701878,0.6454682350158691,0.5518773794174194,0.00867707934230566,0.7293797135353088,0.5612519383430481,0.008499393239617348,0.6812628507614136,0.4879298806190491,0.00469171954318881,0.6514201760292053,0.5184103846549988,0.0012494194088503718,0.6443160176277161,0.5559727549552917,-0.0005508408066816628,0.7218995094299316,0.5702735781669617,-0.0065376353450119495,0.6773941516876221,0.49088582396507263,-0.009983640164136887,0.6491049528121948,0.5204188227653503,-0.008647836744785309,0.642702043056488,0.5577873587608337,-0.00721618952229619,0.702438473701477,0.5847345590591431,-0.01993376947939396,0.6669682860374451,0.5169245600700378,-0.022113442420959473,0.6456722617149353,0.5284188985824585,-0.01811869442462921,0.6380540132522583,0.5573307275772095,-0.014246117323637009,0.0,0.0,0.0,0.0,0.0,0.0,0.0,0.0,0.0,0.0,0.0,0.0,0.0,0.0,0.0,0.0,0.0,0.0,0.0,0.0,0.0,0.0,0.0,0.0,0.0,0.0,0.0,0.0,0.0,0.0,0.0,0.0,0.0,0.0,0.0,0.0,0.0,0.0,0.0,0.0,0.0,0.0,0.0,0.0,0.0,0.0,0.0,0.0,0.0,0.0,0.0,0.0,0.0,0.0,0.0,0.0,0.0,0.0,0.0,0.0,0.0,0.0,0.0
1783345172.534673,0.7398532032966614,0.7571631669998169,-4.213681847886619e-07,0.7159539461135864,0.6957522630691528,0.031213752925395966,0.6989700794219971,0.643984854221344,0.040660202503204346,0.6776772737503052,0.6094208359718323,0.041300758719444275,0.6599120497703552,0.5844306945800781,0.04067255184054375,0.7389760613441467,0.5710201263427734,0.032246287912130356,0.6948372721672058,0.5113664865493774,0.03049694374203682,0.6663933992385864,0.5290891528129578,0.027312155812978745,0.6572808623313904,0.5534576773643494,0.025972304865717888,0.7329010367393494,0.5624092221260071,0.012367012910544872,0.6907458901405334,0.48334741592407227,0.012552943080663681,0.6629663705825806,0.5134004950523376,0.01251225546002388,0.6567723751068115,0.5487112402915955,0.012717144563794136,0.718747615814209,0.5694854855537415,-0.006177989300340414,0.681708812713623,0.4827699661254883,-0.004976311698555946,0.6555509567260742,0.5165129899978638,-2.436001886962913e-05,0.649539589881897,0.5496951341629028,0.002641035709530115,0.6951881647109985,0.5863997340202332,-0.022493619471788406,0.6679595112800598,0.5127238035202026,-0.020949499681591988,0.6487053036689758,0.5286224484443665,-0.014134974218904972,0.6418523788452148,0.5561453700065613,-0.009273017756640911,0.0,0.0,0.0,0.0,0.0,0.0,0.0,0.0,0.0,0.0,0.0,0.0,0.0,0.0,0.0,0.0,0.0,0.0,0.0,0.0,0.0,0.0,0.0,0.0,0.0,0.0,0.0,0.0,0.0,0.0,0.0,0.0,0.0,0.0,0.0,0.0,0.0,0.0,0.0,0.0,0.0,0.0,0.0,0.0,0.0,0.0,0.0,0.0,0.0,0.0,0.0,0.0,0.0,0.0,0.0,0.0,0.0,0.0,0.0,0.0,0.0,0.0,0.0
1783345172.665693,0.7430275678634644,0.7496667504310608,-3.5504911011230433e-07,0.7456755042076111,0.6575578451156616,0.0400414802134037,0.7347208857536316,0.5997496247291565,0.05292901396751404,0.7154126167297363,0.5653544068336487,0.05540456250309944,0.693734884262085,0.5542068481445312,0.054932765662670135,0.7478615045547485,0.5659313201904297,0.03657480329275131,0.706671953201294,0.5087417960166931,0.03638084977865219,0.6812745928764343,0.5194359421730042,0.03540334850549698,0.6708466410636902,0.5359193086624146,0.03572413697838783,0.7334285974502563,0.5599453449249268,0.013014683499932289,0.6973174810409546,0.4801618456840515,0.01648593693971634,0.6766130924224854,0.5026707649230957,0.021246278658509254,0.6721116304397583,0.5316455364227295,0.024604709818959236,0.714654266834259,0.5680579543113708,-0.00846734456717968,0.684596836566925,0.4815523624420166,-0.003383561735972762,0.664689838886261,0.5087445974349976,0.005433622281998396,0.6607549786567688,0.536643385887146,0.009972178377211094,0.69094318151474,0.585027277469635,-0.027089470997452736,0.6657207012176514,0.5149741768836975,-0.023603610694408417,0.6505674123764038,0.5267090201377869,-0.01511023286730051,0.6442540287971497,0.5463250875473022,-0.009010245092213154,0.0,0.0,0.0,0.0,0.0,0.0,0.0,0.0,0.0,0.0,0.0,0.0,0.0,0.0,0.0,0.0,0.0,0.0,0.0,0.0,0.0,0.0,0.0,0.0,0.0,0.0,0.0,0.0,0.0,0.0,0.0,0.0,0.0,0.0,0.0,0.0,0.0,0.0,0.0,0.0,0.0,0.0,0.0,0.0,0.0,0.0,0.0,0.0,0.0,0.0,0.0,0.0,0.0,0.0,0.0,0.0,0.0,0.0,0.0,0.0,0.0,0.0,0.0
1783345172.806782,0.741985023021698,0.7395301461219788,-3.0212851243049954e-07,0.7500678300857544,0.648959755897522,0.03380656987428665,0.7424203157424927,0.5913404822349548,0.043900102376937866,0.7232838273048401,0.5567038059234619,0.04507537558674812,0.7018908858299255,0.5461791157722473,0.04350993409752846,0.7526340484619141,0.5622972846031189,0.02802339568734169,0.7159265279769897,0.5034248232841492,0.02769583649933338,0.693846583366394,0.5131283402442932,0.02696511521935463,0.6853175759315491,0.5271168351173401,0.027096489444375038,0.7343723773956299,0.5569844245910645,0.007673368323594332,0.704143762588501,0.4791734218597412,0.011537388898432255,0.6868758201599121,0.4999772310256958,0.015934636816382408,0.6841551661491394,0.5256654024124146,0.018400568515062332,0.7136400938034058,0.5648512840270996,-0.010552053339779377,0.6890979409217834,0.4785470962524414,-0.005370164755731821,0.6727932095527649,0.5043998956680298,0.0025570213329046965,0.6701596975326538,0.5314790606498718,0.005978406872600317,0.6900860071182251,0.5813249349594116,-0.02625790797173977,0.6692199110984802,0.5107212662696838,-0.023160286247730255,0.6565018892288208,0.5238715410232544,-0.014966625720262527,0.6506472229957581,0.545149564743042,-0.009215286001563072,0.0,0.0,0.0,0.0,0.0,0.0,0.0,0.0,0.0,0.0,0.0,0.0,0.0,0.0,0.0,0.0,0.0,0.0,0.0,0.0,0.0,0.0,0.0,0.0,0.0,0.0,0.0,0.0,0.0,0.0,0.0,0.0,0.0,0.0,0.0,0.0,0.0,0.0,0.0,0.0,0.0,0.0,0.0,0.0,0.0,0.0,0.0,0.0,0.0,0.0,0.0,0.0,0.0,0.0,0.0,0.0,0.0,0.0,0.0,0.0,0.0,0.0,0.0
1783345172.963858,0.743988037109375,0.7357404828071594,-3.0110220450296765e-07,0.755526065826416,0.6473050117492676,0.03366359323263168,0.7481787800788879,0.5912506580352783,0.04420851916074753,0.7293844223022461,0.555716872215271,0.046102993190288544,0.7080919146537781,0.5449161529541016,0.04532555490732193,0.7582184672355652,0.5592169165611267,0.027852827683091164,0.7222090363502502,0.5016113519668579,0.028394395485520363,0.6993142366409302,0.5105811357498169,0.028790494427084923,0.6897088289260864,0.5253807902336121,0.02979295141994953,0.7392805218696594,0.5534576177597046,0.008177024312317371,0.7091700434684753,0.47719869017601013,0.012137873098254204,0.690098762512207,0.4979388117790222,0.01707291230559349,0.6852396726608276,0.5227855443954468,0.020352983847260475,0.7181655764579773,0.5608673691749573,-0.009233840741217136,0.6938052773475647,0.4765543043613434,-0.0039518969133496284,0.6758890748023987,0.5021165013313293,0.004539592657238245,0.6714130640029907,0.5288248658180237,0.008811759762465954,0.6943175196647644,0.5790877938270569,-0.024067347869277,0.6744553446769714,0.509181797504425,-0.02011149562895298,0.6613332033157349,0.5224891901016235,-0.010951387695968151,0.6552438735961914,0.543648898601532,-0.004228450823575258,0.0,0.0,0.0,0.0,0.0,0.0,0.0,0.0,0.0,0.0,0.0,0.0,0.0,0.0,0.0,0.0,0.0,0.0,0.0,0.0,0.0,0.0,0.0,0.0,0.0,0.0,0.0,0.0,0.0,0.0,0.0,0.0,0.0,0.0,0.0,0.0,0.0,0.0,0.0,0.0,0.0,0.0,0.0,0.0,0.0,0.0,0.0,0.0,0.0,0.0,0.0,0.0,0.0,0.0,0.0,0.0,0.0,0.0,0.0,0.0,0.0,0.0,0.0
1783345173.095776,0.7447077035903931,0.735617995262146,-3.133898189844331e-07,0.7563242316246033,0.6488854885101318,0.03534534573554993,0.7497557401657104,0.5911760926246643,0.04718506336212158,0.730352520942688,0.5558616518974304,0.05033312365412712,0.7086606025695801,0.5459213852882385,0.05071846768260002,0.7580158114433289,0.5594385266304016,0.02887163683772087,0.7209205627441406,0.4994770884513855,0.031140435487031937,0.6981483101844788,0.510498046875,0.03303511068224907,0.6896078586578369,0.5264326333999634,0.03480014204978943,0.7396567463874817,0.5546455979347229,0.008760940283536911,0.70857173204422,0.4760183095932007,0.014341261237859726,0.6890855431556702,0.4976121187210083,0.02031843736767769,0.6844986081123352,0.5241020321846008,0.023936087265610695,0.719383955001831,0.5624259114265442,-0.008866501972079277,0.693808376789093,0.476692259311676,-0.0024411422200500965,0.6746159791946411,0.5024448037147522,0.005995621904730797,0.6699603199958801,0.5296919941902161,0.009834765456616879,0.6966712474822998,0.5797328352928162,-0.023730581626296043,0.6761695146560669,0.5070677399635315,-0.01980298012495041,0.661759614944458,0.5193476676940918,-0.011359397321939468,0.6550351977348328,0.540886402130127,-0.005370592698454857,0.0,0.0,0.0,0.0,0.0,0.0,0.0,0.0,0.0,0.0,0.0,0.0,0.0,0.0,0.0,0.0,0.0,0.0,0.0,0.0,0.0,0.0,0.0,0.0,0.0,0.0,0.0,0.0,0.0,0.0,0.0,0.0,0.0,0.0,0.0,0.0,0.0,0.0,0.0,0.0,0.0,0.0,0.0,0.0,0.0,0.0,0.0,0.0,0.0,0.0,0.0,0.0,0.0,0.0,0.0,0.0,0.0,0.0,0.0,0.0,0.0,0.0,0.0
1783345173.231127,0.7468088865280151,0.7371302247047424,-3.389367293493706e-07,0.7553198337554932,0.6526889204978943,0.036840301007032394,0.7467469573020935,0.5939866304397583,0.050029903650283813,0.7276098728179932,0.5596850514411926,0.054120175540447235,0.7070262432098389,0.5488658547401428,0.055511269718408585,0.7561837434768677,0.5588313937187195,0.03251150995492935,0.717851996421814,0.4981101155281067,0.03466732054948807,0.693619966506958,0.5115534067153931,0.035776253789663315,0.6850610971450806,0.5306649208068848,0.037148553878068924,0.7401369214057922,0.5539799332618713,0.012059099040925503,0.706576406955719,0.4758285880088806,0.017965586856007576,0.6852940917015076,0.4984967112541199,0.023221010342240334,0.6806761622428894,0.5271140336990356,0.026269467547535896,0.7207911610603333,0.5611116290092468,-0.006076596677303314,0.6928744316101074,0.4773959517478943,0.000429819046985358,0.6718980073928833,0.5043255090713501,0.007706614211201668,0.6667051315307617,0.5329691171646118,0.010761518031358719,0.6978775858879089,0.5772545337677002,-0.02135005034506321,0.6751941442489624,0.5066283345222473,-0.01739458553493023,0.6593983173370361,0.5202857255935669,-0.00976994726806879,0.6521918177604675,0.5428524613380432,-0.004454949405044317,0.0,0.0,0.0,0.0,0.0,0.0,0.0,0.0,0.0,0.0,0.0,0.0,0.0,0.0,0.0,0.0,0.0,0.0,0.0,0.0,0.0,0.0,0.0,0.0,0.0,0.0,0.0,0.0,0.0,0.0,0.0,0.0,0.0,0.0,0.0,0.0,0.0,0.0,0.0,0.0,0.0,0.0,0.0,0.0,0.0,0.0,0.0,0.0,0.0,0.0,0.0,0.0,0.0,0.0,0.0,0.0,0.0,0.0,0.0,0.0,0.0,0.0,0.0
1783345173.3623,0.7495530843734741,0.751003086566925,-4.2640243691494106e-07,0.7271181344985962,0.6864845156669617,0.035155896097421646,0.7104530930519104,0.6305528879165649,0.047315631061792374,0.6889222860336304,0.5965307950973511,0.05067804083228111,0.6712155342102051,0.5725770592689514,0.05246042460203171,0.747368574142456,0.5629636645317078,0.033599961549043655,0.7031410336494446,0.5028801560401917,0.035659100860357285,0.6759741306304932,0.5238044857978821,0.035311829298734665,0.6667840480804443,0.5493035316467285,0.03554923087358475,0.7412589192390442,0.5559567809104919,0.01338968425989151,0.6999531388282776,0.4807426929473877,0.018363291397690773,0.6735860705375671,0.510905921459198,0.021240517497062683,0.6660062670707703,0.544634997844696,0.022834518924355507,0.7267335653305054,0.5643154382705688,-0.004761470016092062,0.6909306645393372,0.48058462142944336,0.0005831310409121215,0.6662540435791016,0.5124778151512146,0.0071038734167814255,0.6578368544578552,0.5423147678375244,0.010011738166213036,0.7024628520011902,0.583372175693512,-0.020263204351067543,0.6758513450622559,0.5110757946968079,-0.01681739278137684,0.6573185324668884,0.5253206491470337,-0.009134833700954914,0.6483205556869507,0.549393355846405,-0.0036627224180847406,0.0,0.0,0.0,0.0,0.0,0.0,0.0,0.0,0.0,0.0,0.0,0.0,0.0,0.0,0.0,0.0,0.0,0.0,0.0,0.0,0.0,0.0,0.0,0.0,0.0,0.0,0.0,0.0,0.0,0.0,0.0,0.0,0.0,0.0,0.0,0.0,0.0,0.0,0.0,0.0,0.0,0.0,0.0,0.0,0.0,0.0,0.0,0.0,0.0,0.0,0.0,0.0,0.0,0.0,0.0,0.0,0.0,0.0,0.0,0.0,0.0,0.0,0.0
1783345173.504565,0.7454038858413696,0.7519316077232361,-4.186212834156322e-07,0.7059037685394287,0.6955180168151855,0.02996879257261753,0.6906854510307312,0.6462727189064026,0.038827795535326004,0.6737822890281677,0.6180772185325623,0.03975275158882141,0.6614910364151001,0.5922136306762695,0.03972889482975006,0.735744833946228,0.5597072243690491,0.02957102842628956,0.6915148496627808,0.49630579352378845,0.027783041819930077,0.6624658107757568,0.5174426436424255,0.024661557748913765,0.6538376212120056,0.5494198799133301,0.023800868541002274,0.7352612018585205,0.5562471151351929,0.0116004329174757,0.6888266205787659,0.4820481538772583,0.012767397798597813,0.6599519848823547,0.5118234157562256,0.012026866897940636,0.6534818410873413,0.5469892621040344,0.01138577051460743,0.7254602313041687,0.5654435157775879,-0.004960785619914532,0.682209849357605,0.4888640344142914,-0.00282897986471653,0.6553424000740051,0.5178822875022888,0.0004087329434696585,0.647946834564209,0.5485694408416748,0.00161790254060179,0.7044735550880432,0.5819971561431885,-0.019199170172214508,0.670281171798706,0.5175493955612183,-0.017115095630288124,0.6507526636123657,0.531259298324585,-0.011358949355781078,0.6433560252189636,0.5565356016159058,-0.00711510656401515,0.0,0.0,0.0,0.0,0.0,0.0,0.0,0.0,0.0,0.0,0.0,0.0,0.0,0.0,0.0,0.0,0.0,0.0,0.0,0.0,0.0,0.0,0.0,0.0,0.0,0.0,0.0,0.0,0.0,0.0,0.0,0.0,0.0,0.0,0.0,0.0,0.0,0.0,0.0,0.0,0.0,0.0,0.0,0.0,0.0,0.0,0.0,0.0,0.0,0.0,0.0,0.0,0.0,0.0,0.0,0.0,0.0,0.0,0.0,0.0,0.0,0.0,0.0
1783345173.635534,0.7433643341064453,0.7513464093208313,-4.0408019685855834e-07,0.6999674439430237,0.6999680399894714,0.020832130685448647,0.6820206046104431,0.6517807245254517,0.02399909682571888,0.6642086505889893,0.6230863332748413,0.020182743668556213,0.649601936340332,0.5935056805610657,0.01575816236436367,0.7274788022041321,0.5541104078292847,0.021616987884044647,0.6833825707435608,0.4956413507461548,0.01428327988833189,0.6544692516326904,0.516484797000885,0.007142062298953533,0.6452621221542358,0.5502009391784668,0.004125477280467749,0.7301117181777954,0.5548651814460754,0.005829700268805027,0.6802064180374146,0.48749828338623047,0.0017006135312840343,0.651037335395813,0.5209174752235413,-0.0018505753250792623,0.6455489993095398,0.5593132972717285,-0.0038868174888193607,0.7231753468513489,0.5667254328727722,-0.009688293561339378,0.6775017380714417,0.4886769950389862,-0.013463685289025307,0.6496151089668274,0.5182634592056274,-0.011797655373811722,0.6438207626342773,0.5551585555076599,-0.010232817381620407,0.7047159671783447,0.5852141976356506,-0.02363155409693718,0.668388843536377,0.5154678821563721,-0.026112325489521027,0.6485555171966553,0.5282292366027832,-0.021311022341251373,0.6428117752075195,0.559109628200531,-0.016703344881534576,0.0,0.0,0.0,0.0,0.0,0.0,0.0,0.0,0.0,0.0,0.0,0.0,0.0,0.0,0.0,0.0,0.0,0.0,0.0,0.0,0.0,0.0,0.0,0.0,0.0,0.0,0.0,0.0,0.0,0.0,0.0,0.0,0.0,0.0,0.0,0.0,0.0,0.0,0.0,0.0,0.0,0.0,0.0,0.0,0.0,0.0,0.0,0.0,0.0,0.0,0.0,0.0,0.0,0.0,0.0,0.0,0.0,0.0,0.0,0.0,0.0,0.0,0.0
1783345173.801777,0.739021897315979,0.7491743564605713,-4.261628987478616e-07,0.6969221234321594,0.7058031558990479,0.0237880926579237,0.6768277883529663,0.6558009386062622,0.02876400388777256,0.6556301116943359,0.6239138245582581,0.025853507220745087,0.6409727334976196,0.5918934941291809,0.022006308659911156,0.7211253643035889,0.559912919998169,0.02545185014605522,0.6785835027694702,0.5006411671638489,0.020627139136195183,0.6513746380805969,0.5208142399787903,0.015075916424393654,0.6429018974304199,0.5526952147483826,0.012504542246460915,0.7255280613899231,0.5561307668685913,0.008192409761250019,0.6760173439979553,0.4887716770172119,0.006265214178711176,0.6468658447265625,0.5202629566192627,0.003395423060283065,0.6413906812667847,0.557671844959259,0.0009729873854666948,0.7202862501144409,0.5655975937843323,-0.008573242463171482,0.676231861114502,0.48689568042755127,-0.010620716959238052,0.648534893989563,0.515855610370636,-0.008586380630731583,0.6432055234909058,0.5536870956420898,-0.007652060128748417,0.7034539580345154,0.5815251469612122,-0.023587219417095184,0.6686402559280396,0.5123589038848877,-0.025362517684698105,0.64791339635849,0.5245999693870544,-0.020841555669903755,0.6412209868431091,0.556581437587738,-0.017121560871601105,0.0,0.0,0.0,0.0,0.0,0.0,0.0,0.0,0.0,0.0,0.0,0.0,0.0,0.0,0.0,0.0,0.0,0.0,0.0,0.0,0.0,0.0,0.0,0.0,0.0,0.0,0.0,0.0,0.0,0.0,0.0,0.0,0.0,0.0,0.0,0.0,0.0,0.0,0.0,0.0,0.0,0.0,0.0,0.0,0.0,0.0,0.0,0.0,0.0,0.0,0.0,0.0,0.0,0.0,0.0,0.0,0.0,0.0,0.0,0.0,0.0,0.0,0.0
1783345173.9344552,0.73293137550354,0.7530803680419922,-4.179242978352704e-07,0.6902910470962524,0.7143864631652832,0.01791270822286606,0.665824830532074,0.6638091802597046,0.020380700007081032,0.6437457203865051,0.6338110566139221,0.015777459368109703,0.6297987103462219,0.6025659441947937,0.010831802152097225,0.7154168486595154,0.5629695057868958,0.02303849160671234,0.6738123893737793,0.5072356462478638,0.015392323024570942,0.6445873379707336,0.5272598266601562,0.007840286940336227,0.6344913244247437,0.5614272952079773,0.004385856911540031,0.7219663262367249,0.5592221021652222,0.007574514485895634,0.6723223924636841,0.49278244376182556,0.002779803704470396,0.6397769451141357,0.5248101949691772,-0.0009612840367481112,0.6322710514068604,0.5656890869140625,-0.0029087464790791273,0.7183703780174255,0.5677295923233032,-0.008453423157334328,0.6757473945617676,0.4888409972190857,-0.012922560796141624,0.6440726518630981,0.516036331653595,-0.01115775853395462,0.6358615756034851,0.5553840398788452,-0.009201317094266415,0.702995777130127,0.5822865962982178,-0.02338835969567299,0.6696993112564087,0.5124408006668091,-0.026989931240677834,0.6464325189590454,0.5215432643890381,-0.023171616718173027,0.6367343068122864,0.5513890385627747,-0.019061440601944923,0.0,0.0,0.0,0.0,0.0,0.0,0.0,0.0,0.0,0.0,0.0,0.0,0.0,0.0,0.0,0.0,0.0,0.0,0.0,0.0,0.0,0.0,0.0,0.0,0.0,0.0,0.0,0.0,0.0,0.0,0.0,0.0,0.0,0.0,0.0,0.0,0.0,0.0,0.0,0.0,0.0,0.0,0.0,0.0,0.0,0.0,0.0,0.0,0.0,0.0,0.0,0.0,0.0,0.0,0.0,0.0,0.0,0.0,0.0,0.0,0.0,0.0,0.0
1783345174.061748,0.7253632545471191,0.7622830867767334,-4.0550409607931215e-07,0.6812769174575806,0.7234218716621399,0.01823819801211357,0.6527114510536194,0.6719773411750793,0.020962992683053017,0.6296994686126709,0.6428799629211426,0.015260319225490093,0.6175829172134399,0.6062478423118591,0.00968617107719183,0.7007954120635986,0.5759190917015076,0.03310387209057808,0.6662739515304565,0.5216013789176941,0.0240328311920166,0.6361053586006165,0.5366093516349792,0.013803120702505112,0.6221820116043091,0.5716013312339783,0.008931176736950874,0.7088425755500793,0.5692629218101501,0.015408720821142197,0.6669519543647766,0.49915605783462524,0.009817645885050297,0.6311035752296448,0.5236218571662903,0.0034359151031821966,0.6182865500450134,0.5651127099990845,0.00025898549938574433,0.7090194225311279,0.572682797908783,-0.004126142244786024,0.6726850867271423,0.4927433729171753,-0.008286220021545887,0.6369446516036987,0.5153419971466064,-0.008830207400023937,0.6235306859016418,0.5548255443572998,-0.008307771757245064,0.698460042476654,0.5822009444236755,-0.023069648072123528,0.6690430641174316,0.5159352421760559,-0.02480221726000309,0.6422641277313232,0.5220345258712769,-0.02165106125175953,0.6278685927391052,0.5493093729019165,-0.018412260338664055,0.0,0.0,0.0,0.0,0.0,0.0,0.0,0.0,0.0,0.0,0.0,0.0,0.0,0.0,0.0,0.0,0.0,0.0,0.0,0.0,0.0,0.0,0.0,0.0,0.0,0.0,0.0,0.0,0.0,0.0,0.0,0.0,0.0,0.0,0.0,0.0,0.0,0.0,0.0,0.0,0.0,0.0,0.0,0.0,0.0,0.0,0.0,0.0,0.0,0.0,0.0,0.0,0.0,0.0,0.0,0.0,0.0,0.0,0.0,0.0,0.0,0.0,0.0
1783345174.194284,0.7198854684829712,0.7643511891365051,-3.7655769347111345e-07,0.6768009066581726,0.7337749004364014,0.007616197690367699,0.6431328058242798,0.6811322569847107,0.008925547823309898,0.6171171069145203,0.648909866809845,0.0031892447732388973,0.6101179718971252,0.6121435761451721,-0.0007978840149007738,0.6770637035369873,0.5854638814926147,0.030984623357653618,0.6515240669250488,0.5274620056152344,0.01940169557929039,0.625607430934906,0.5440552830696106,0.00749294413253665,0.6152556538581848,0.5807076096534729,0.0017866318812593818,0.6854000687599182,0.576165497303009,0.01839619129896164,0.654011070728302,0.5048661828041077,0.007434824947267771,0.6230524182319641,0.5321605801582336,-0.002579969586804509,0.6133737564086914,0.5781591534614563,-0.006401897873729467,0.6918469667434692,0.572730302810669,0.0025983178056776524,0.6630903482437134,0.4979729950428009,-0.006383645813912153,0.6300860643386841,0.5257889032363892,-0.011275169439613819,0.6194888353347778,0.570986807346344,-0.011666380800306797,0.6925578713417053,0.5754097104072571,-0.013611789792776108,0.6684281229972839,0.5108600854873657,-0.017285862937569618,0.6405035853385925,0.5200884938240051,-0.01688104309141636,0.6268242597579956,0.5532814860343933,-0.015111458487808704,0.0,0.0,0.0,0.0,0.0,0.0,0.0,0.0,0.0,0.0,0.0,0.0,0.0,0.0,0.0,0.0,0.0,0.0,0.0,0.0,0.0,0.0,0.0,0.0,0.0,0.0,0.0,0.0,0.0,0.0,0.0,0.0,0.0,0.0,0.0,0.0,0.0,0.0,0.0,0.0,0.0,0.0,0.0,0.0,0.0,0.0,0.0,0.0,0.0,0.0,0.0,0.0,0.0,0.0,0.0,0.0,0.0,0.0,0.0,0.0,0.0,0.0,0.0
1783345174.340369,0.7192757725715637,0.7636182308197021,-3.249523103932006e-07,0.6759139895439148,0.7368277907371521,0.01159590482711792,0.6392929553985596,0.6828831434249878,0.017043832689523697,0.6125447154045105,0.6494878530502319,0.014691933989524841,0.6052026748657227,0.6145548820495605,0.014245868660509586,0.6689459085464478,0.5908392071723938,0.0399642288684845,0.6486350297927856,0.5317591428756714,0.032634343951940536,0.6244845390319824,0.5406967401504517,0.02388043887913227,0.6127840280532837,0.5697219371795654,0.01996552012860775,0.6765134930610657,0.5805186629295349,0.02659516967833042,0.6504061818122864,0.5121426582336426,0.018366269767284393,0.6213672161102295,0.5306749939918518,0.010278832167387009,0.6104095578193665,0.5721327066421509,0.00801011361181736,0.6842958927154541,0.5746845006942749,0.010008933953940868,0.6586207747459412,0.504005491733551,0.0029475069604814053,0.6273019909858704,0.524429976940155,-0.0011270373361185193,0.6153431534767151,0.5660364031791687,-0.0007362606702372432,0.689802348613739,0.57262122631073,-0.006806911900639534,0.6677275896072388,0.5129272937774658,-0.010412752628326416,0.6405484080314636,0.518018901348114,-0.010980028659105301,0.6258160471916199,0.5496981143951416,-0.009500651620328426,0.0,0.0,0.0,0.0,0.0,0.0,0.0,0.0,0.0,0.0,0.0,0.0,0.0,0.0,0.0,0.0,0.0,0.0,0.0,0.0,0.0,0.0,0.0,0.0,0.0,0.0,0.0,0.0,0.0,0.0,0.0,0.0,0.0,0.0,0.0,0.0,0.0,0.0,0.0,0.0,0.0,0.0,0.0,0.0,0.0,0.0,0.0,0.0,0.0,0.0,0.0,0.0,0.0,0.0,0.0,0.0,0.0,0.0,0.0,0.0,0.0,0.0,0.0
1783345174.491349,0.7163156867027283,0.7610355019569397,-2.9988211736053927e-07,0.6735693216323853,0.7355615496635437,0.010063137859106064,0.637638509273529,0.6858387589454651,0.014576994813978672,0.6109839081764221,0.6515091061592102,0.011623303405940533,0.6054162979125977,0.6171033382415771,0.010522990487515926,0.6671050786972046,0.5935547351837158,0.039186906069517136,0.6455346941947937,0.5365722179412842,0.031410884112119675,0.6216546893119812,0.5442593693733215,0.022101061418652534,0.6105074286460876,0.5704022645950317,0.017806269228458405,0.6749789714813232,0.5822950005531311,0.026837266981601715,0.6478045582771301,0.5151253938674927,0.01789981871843338,0.6196576952934265,0.5343800783157349,0.009089861065149307,0.6100314259529114,0.5756345391273499,0.00649609137326479,0.6830925345420837,0.5753638744354248,0.011251462623476982,0.6577603816986084,0.5069763660430908,0.004623150918632746,0.6276666522026062,0.5273179411888123,0.0009859001729637384,0.6166926622390747,0.5681556463241577,0.0017143634613603354,0.6899269819259644,0.5719121098518372,-0.00478773657232523,0.6689820289611816,0.5145471692085266,-0.007459705229848623,0.6427056193351746,0.5177358388900757,-0.007734702434390783,0.628214418888092,0.5460920929908752,-0.006043558474630117,0.0,0.0,0.0,0.0,0.0,0.0,0.0,0.0,0.0,0.0,0.0,0.0,0.0,0.0,0.0,0.0,0.0,0.0,0.0,0.0,0.0,0.0,0.0,0.0,0.0,0.0,0.0,0.0,0.0,0.0,0.0,0.0,0.0,0.0,0.0,0.0,0.0,0.0,0.0,0.0,0.0,0.0,0.0,0.0,0.0,0.0,0.0,0.0,0.0,0.0,0.0,0.0,0.0,0.0,0.0,0.0,0.0,0.0,0.0,0.0,0.0,0.0,0.0
1783345174.6210382,0.7161719799041748,0.7598270773887634,-2.8861560963377997e-07,0.6736580729484558,0.7366278767585754,0.009671208448708057,0.6372684240341187,0.6856578588485718,0.014146151952445507,0.6103954315185547,0.6510135531425476,0.011297370307147503,0.6063118577003479,0.6160783767700195,0.010391565971076488,0.6667807698249817,0.5928978323936462,0.03930477052927017,0.6453918814659119,0.5367289781570435,0.03168158233165741,0.6218470931053162,0.5442730188369751,0.02224772237241268,0.6109094619750977,0.570439875125885,0.017790399491786957,0.675051748752594,0.5813725590705872,0.02708452194929123,0.649127721786499,0.5133440494537354,0.01806723326444626,0.620802104473114,0.5324612855911255,0.008872794918715954,0.6107214093208313,0.5748503804206848,0.006123723462224007,0.6835722327232361,0.5746977925300598,0.011630972847342491,0.6595290303230286,0.504892885684967,0.005446672439575195,0.6292058825492859,0.5246130228042603,0.0015400589909404516,0.6178974509239197,0.5654193758964539,0.0020414760801941156,0.690412700176239,0.5720095038414001,-0.004347596317529678,0.6694244742393494,0.5145010352134705,-0.006516750436276197,0.6430050134658813,0.5180198550224304,-0.0068736569955945015,0.6287001967430115,0.5459830164909363,-0.0053171636536717415,0.0,0.0,0.0,0.0,0.0,0.0,0.0,0.0,0.0,0.0,0.0,0.0,0.0,0.0,0.0,0.0,0.0,0.0,0.0,0.0,0.0,0.0,0.0,0.0,0.0,0.0,0.0,0.0,0.0,0.0,0.0,0.0,0.0,0.0,0.0,0.0,0.0,0.0,0.0,0.0,0.0,0.0,0.0,0.0,0.0,0.0,0.0,0.0,0.0,0.0,0.0,0.0,0.0,0.0,0.0,0.0,0.0,0.0,0.0,0.0,0.0,0.0,0.0
1783345174.7673862,0.7155612707138062,0.7595980167388916,-2.963701035696431e-07,0.672694981098175,0.7355504035949707,0.010075470432639122,0.6366360783576965,0.6863012909889221,0.014405423775315285,0.6103237271308899,0.652327835559845,0.011085618287324905,0.6053102612495422,0.6168171763420105,0.009508133865892887,0.6647565960884094,0.5931975841522217,0.039969541132450104,0.6434032917022705,0.5378936529159546,0.03206061199307442,0.6204373836517334,0.5477702021598816,0.022337930276989937,0.6100577712059021,0.5752422213554382,0.017687173560261726,0.6729340553283691,0.5817844867706299,0.027240807190537453,0.6461645364761353,0.5154104232788086,0.018076663836836815,0.6186448335647583,0.5368130803108215,0.00878000445663929,0.6095432043075562,0.5793678164482117,0.0059772939421236515,0.6820465922355652,0.5751262307167053,0.011229815892875195,0.6573996543884277,0.5063376426696777,0.004406871739774942,0.6275591850280762,0.5278298258781433,0.0004225187876727432,0.6168503165245056,0.5692456364631653,0.0010213751811534166,0.6902707815170288,0.5725765228271484,-0.005261370446532965,0.6694470643997192,0.5142104029655457,-0.007843347266316414,0.6429188251495361,0.518669605255127,-0.007972728461027145,0.6284788250923157,0.5473487377166748,-0.006183357909321785,0.0,0.0,0.0,0.0,0.0,0.0,0.0,0.0,0.0,0.0,0.0,0.0,0.0,0.0,0.0,0.0,0.0,0.0,0.0,0.0,0.0,0.0,0.0,0.0,0.0,0.0,0.0,0.0,0.0,0.0,0.0,0.0,0.0,0.0,0.0,0.0,0.0,0.0,0.0,0.0,0.0,0.0,0.0,0.0,0.0,0.0,0.0,0.0,0.0,0.0,0.0,0.0,0.0,0.0,0.0,0.0,0.0,0.0,0.0,0.0,0.0,0.0,0.0
1783345174.9009962,0.7161871194839478,0.7617666721343994,-2.9741153184659197e-07,0.6747500896453857,0.7367940545082092,0.009288950823247433,0.639771044254303,0.683999240398407,0.013283721171319485,0.6141589283943176,0.6496410965919495,0.010173375718295574,0.6092106103897095,0.6157314777374268,0.009043737314641476,0.6703858375549316,0.5933688282966614,0.03594798594713211,0.6484985947608948,0.5364813804626465,0.026792192831635475,0.6244412064552307,0.5442529320716858,0.016898326575756073,0.6140307784080505,0.5713557600975037,0.012520264834165573,0.6787946224212646,0.5826429724693298,0.023862609639763832,0.6529567837715149,0.5146561861038208,0.014243481680750847,0.6241835951805115,0.5323119759559631,0.0058658006601035595,0.6144214272499084,0.5745913982391357,0.003799394704401493,0.6872260570526123,0.5770725607872009,0.008561117574572563,0.6636202335357666,0.5076658725738525,0.00169135513715446,0.6322857737541199,0.5257346630096436,-0.001516801305115223,0.6207287311553955,0.5657798051834106,-0.00029664370231330395,0.6936737298965454,0.5755382776260376,-0.007274493109434843,0.6744364500045776,0.5166337490081787,-0.010230095125734806,0.6472283601760864,0.5173723697662354,-0.010542553849518299,0.6317712664604187,0.5435312390327454,-0.0086955102160573,0.0,0.0,0.0,0.0,0.0,0.0,0.0,0.0,0.0,0.0,0.0,0.0,0.0,0.0,0.0,0.0,0.0,0.0,0.0,0.0,0.0,0.0,0.0,0.0,0.0,0.0,0.0,0.0,0.0,0.0,0.0,0.0,0.0,0.0,0.0,0.0,0.0,0.0,0.0,0.0,0.0,0.0,0.0,0.0,0.0,0.0,0.0,0.0,0.0,0.0,0.0,0.0,0.0,0.0,0.0,0.0,0.0,0.0,0.0,0.0,0.0,0.0,0.0
1783345175.03249,0.7186428904533386,0.7636336088180542,-3.102119592313102e-07,0.6782304644584656,0.7323108315467834,0.01115543395280838,0.6474164724349976,0.6771683692932129,0.015023448504507542,0.6241350173950195,0.6438136696815491,0.011382995173335075,0.6203950643539429,0.6112048029899597,0.009639606811106205,0.6841007471084595,0.5880062580108643,0.03678838908672333,0.6632844805717468,0.5283106565475464,0.027959614992141724,0.6383859515190125,0.5372036695480347,0.018220214173197746,0.6266472935676575,0.5670843124389648,0.013973075896501541,0.6925585865974426,0.5792009830474854,0.02360178902745247,0.6684349775314331,0.5089191198348999,0.01607624441385269,0.6383759379386902,0.5251478552818298,0.008807264268398285,0.6263949871063232,0.5642149448394775,0.006810779683291912,0.6989662051200867,0.5761228799819946,0.007320323958992958,0.6751583218574524,0.503031849861145,0.002240585396066308,0.6428148746490479,0.5197327136993408,0.00015342894766945392,0.6297632455825806,0.5576322674751282,0.0013763407478109002,0.7000513672828674,0.5783836841583252,-0.009415281005203724,0.6792268753051758,0.5187475681304932,-0.010850782506167889,0.6520182490348816,0.5196242332458496,-0.00979409459978342,0.6366140842437744,0.54481440782547,-0.007419326342642307,0.0,0.0,0.0,0.0,0.0,0.0,0.0,0.0,0.0,0.0,0.0,0.0,0.0,0.0,0.0,0.0,0.0,0.0,0.0,0.0,0.0,0.0,0.0,0.0,0.0,0.0,0.0,0.0,0.0,0.0,0.0,0.0,0.0,0.0,0.0,0.0,0.0,0.0,0.0,0.0,0.0,0.0,0.0,0.0,0.0,0.0,0.0,0.0,0.0,0.0,0.0,0.0,0.0,0.0,0.0,0.0,0.0,0.0,0.0,0.0,0.0,0.0,0.0
1783345175.1606631,0.7216089963912964,0.7663193941116333,-3.738462339697435e-07,0.6808869242668152,0.7320019602775574,0.015756884589791298,0.6507527232170105,0.6747539043426514,0.021141087636351585,0.6274464130401611,0.642455518245697,0.018056422472000122,0.619827926158905,0.6110140681266785,0.01634932868182659,0.6936157941818237,0.5853137969970703,0.04055480286478996,0.6688270568847656,0.5264079570770264,0.033294208347797394,0.6419014930725098,0.5381567478179932,0.02429955080151558,0.6292706727981567,0.5713611245155334,0.02048395201563835,0.7028468251228333,0.5766938924789429,0.02490835264325142,0.6717895269393921,0.5077918171882629,0.01871839538216591,0.6393982768058777,0.5298848152160645,0.011485164053738117,0.6275522112846375,0.5712037086486816,0.009247866459190845,0.7076338529586792,0.5745582580566406,0.006607180926948786,0.6784024834632874,0.5000526309013367,0.0024583060294389725,0.64471036195755,0.520540177822113,0.0008630749071016908,0.6320863962173462,0.5593021512031555,0.00207699672318995,0.7046834230422974,0.5773177742958069,-0.01160086877644062,0.6804712414741516,0.5143953561782837,-0.01191746722906828,0.6536216139793396,0.5176579356193542,-0.009255457669496536,0.6390463709831238,0.5449544191360474,-0.005968109704554081,0.0,0.0,0.0,0.0,0.0,0.0,0.0,0.0,0.0,0.0,0.0,0.0,0.0,0.0,0.0,0.0,0.0,0.0,0.0,0.0,0.0,0.0,0.0,0.0,0.0,0.0,0.0,0.0,0.0,0.0,0.0,0.0,0.0,0.0,0.0,0.0,0.0,0.0,0.0,0.0,0.0,0.0,0.0,0.0,0.0,0.0,0.0,0.0,0.0,0.0,0.0,0.0,0.0,0.0,0.0,0.0,0.0,0.0,0.0,0.0,0.0,0.0,0.0
1783345175.304723,0.7251882553100586,0.7670701146125793,-3.675344828479865e-07,0.6815367937088013,0.7320832014083862,0.013267268426716328,0.6509736180305481,0.6756458282470703,0.01822694204747677,0.6281209588050842,0.6418374180793762,0.015248959884047508,0.6186687350273132,0.6066250205039978,0.013592089526355267,0.6892872452735901,0.5842112302780151,0.038829781115055084,0.668119490146637,0.5268388390541077,0.0317092128098011,0.6426042914390564,0.537548303604126,0.022302668541669846,0.628903865814209,0.5687193274497986,0.017693504691123962,0.6983255743980408,0.5752881169319153,0.024251991882920265,0.670381486415863,0.5068756341934204,0.017470913007855415,0.6393238306045532,0.5285465717315674,0.009119460359215736,0.6261669993400574,0.5690670609474182,0.005766693502664566,0.7040789723396301,0.5732353329658508,0.006845364347100258,0.6773748993873596,0.499105304479599,0.0006170100532472134,0.6441683769226074,0.5212739109992981,-0.0036224452778697014,0.6301931738853455,0.5621636509895325,-0.0042563630267977715,0.7029733657836914,0.5767988562583923,-0.010503689758479595,0.6791733503341675,0.5140011310577393,-0.013189290650188923,0.6520911455154419,0.5213379263877869,-0.012464151717722416,0.6367775797843933,0.5531397461891174,-0.010679321363568306,0.0,0.0,0.0,0.0,0.0,0.0,0.0,0.0,0.0,0.0,0.0,0.0,0.0,0.0,0.0,0.0,0.0,0.0,0.0,0.0,0.0,0.0,0.0,0.0,0.0,0.0,0.0,0.0,0.0,0.0,0.0,0.0,0.0,0.0,0.0,0.0,0.0,0.0,0.0,0.0,0.0,0.0,0.0,0.0,0.0,0.0,0.0,0.0,0.0,0.0,0.0,0.0,0.0,0.0,0.0,0.0,0.0,0.0,0.0,0.0,0.0,0.0,0.0
1783345175.4599922,0.7240718007087708,0.7676839828491211,-3.516811659665109e-07,0.6815056800842285,0.7321445345878601,0.015902964398264885,0.6510947346687317,0.6758402585983276,0.020674580708146095,0.6277971863746643,0.643093466758728,0.017061883583664894,0.6183263063430786,0.6084470152854919,0.014744611456990242,0.6915403008460999,0.5830463767051697,0.039148565381765366,0.6690244078636169,0.5231024026870728,0.031797878444194794,0.6420648097991943,0.532589316368103,0.022868195548653603,0.6275059580802917,0.5633000731468201,0.019023621454834938,0.7010138034820557,0.574128270149231,0.023242898285388947,0.670371413230896,0.5042933225631714,0.01695914939045906,0.6383440494537354,0.5248499512672424,0.010270685888826847,0.6256072521209717,0.5657311677932739,0.008263367228209972,0.7057551145553589,0.5725656747817993,0.0047240364365279675,0.6754175424575806,0.49925073981285095,0.00016929158300627023,0.6418543457984924,0.5190087556838989,-0.0012698586797341704,0.6281132102012634,0.5577914118766785,-0.000151494299643673,0.7027713656425476,0.5765464901924133,-0.013677580282092094,0.677052915096283,0.5155916213989258,-0.014941200613975525,0.6510292887687683,0.5195116400718689,-0.012749197892844677,0.6367986798286438,0.5473225712776184,-0.009779369458556175,0.0,0.0,0.0,0.0,0.0,0.0,0.0,0.0,0.0,0.0,0.0,0.0,0.0,0.0,0.0,0.0,0.0,0.0,0.0,0.0,0.0,0.0,0.0,0.0,0.0,0.0,0.0,0.0,0.0,0.0,0.0,0.0,0.0,0.0,0.0,0.0,0.0,0.0,0.0,0.0,0.0,0.0,0.0,0.0,0.0,0.0,0.0,0.0,0.0,0.0,0.0,0.0,0.0,0.0,0.0,0.0,0.0,0.0,0.0,0.0,0.0,0.0,0.0
1783345175.638813,0.724694013595581,0.7672906517982483,-3.6516368595584936e-07,0.6812602281570435,0.7319289445877075,0.015434009954333305,0.6507608294487,0.674740731716156,0.020260125398635864,0.6277005672454834,0.6415839195251465,0.016972415149211884,0.6171699166297913,0.606543242931366,0.015029422007501125,0.6925515532493591,0.5798315405845642,0.03846815228462219,0.6698552966117859,0.520397961139679,0.031376272439956665,0.6423779726028442,0.5316292643547058,0.02243424579501152,0.6276110410690308,0.5632962584495544,0.018396038562059402,0.7018729448318481,0.5715926289558411,0.02284369058907032,0.6707492470741272,0.5013588070869446,0.016939125955104828,0.6383506059646606,0.5238562822341919,0.010328132659196854,0.6256186962127686,0.5648094415664673,0.008128909394145012,0.7059880495071411,0.571125864982605,0.004610314033925533,0.6753052473068237,0.4973278045654297,-0.00018310565792489797,0.6412723064422607,0.5184606909751892,-0.002338531194254756,0.6274491548538208,0.5577118396759033,-0.0018969542579725385,0.7017860412597656,0.5765488147735596,-0.01346216257661581,0.6758257150650024,0.5148337483406067,-0.015093416906893253,0.6493217349052429,0.520785927772522,-0.013253984972834587,0.6348588466644287,0.5504205226898193,-0.010728038847446442,0.0,0.0,0.0,0.0,0.0,0.0,0.0,0.0,0.0,0.0,0.0,0.0,0.0,0.0,0.0,0.0,0.0,0.0,0.0,0.0,0.0,0.0,0.0,0.0,0.0,0.0,0.0,0.0,0.0,0.0,0.0,0.0,0.0,0.0,0.0,0.0,0.0,0.0,0.0,0.0,0.0,0.0,0.0,0.0,0.0,0.0,0.0,0.0,0.0,0.0,0.0,0.0,0.0,0.0,0.0,0.0,0.0,0.0,0.0,0.0,0.0,0.0,0.0
1783345175.935748,0.7254085540771484,0.763873279094696,-3.689521008709562e-07,0.6812910437583923,0.7297946214675903,0.015016552060842514,0.6508665084838867,0.6725409626960754,0.019541291519999504,0.627554178237915,0.6393944621086121,0.016122983768582344,0.6163733601570129,0.6049766540527344,0.014026408083736897,0.6926743388175964,0.5771633982658386,0.03718249127268791,0.669831395149231,0.5176271200180054,0.0298366267234087,0.6419859528541565,0.5282164812088013,0.02071041613817215,0.6270654201507568,0.5591767430305481,0.01636122353374958,0.7017166018486023,0.5688934922218323,0.02168172411620617,0.6705017685890198,0.4980350732803345,0.015635794028639793,0.6376871466636658,0.5203104019165039,0.008857960812747478,0.6247575879096985,0.5609857439994812,0.0062318299897015095,0.7054117321968079,0.568699836730957,0.003611928317695856,0.6747643947601318,0.4941500723361969,-0.0013474482111632824,0.6402626633644104,0.515457808971405,-0.0039034851361066103,0.62593674659729,0.554854691028595,-0.004063979722559452,0.7006055116653442,0.5747844576835632,-0.014310955069959164,0.6745489239692688,0.5127578973770142,-0.016246818006038666,0.6478406190872192,0.5194294452667236,-0.014844789169728756,0.633095920085907,0.549627959728241,-0.012898326851427555,0.0,0.0,0.0,0.0,0.0,0.0,0.0,0.0,0.0,0.0,0.0,0.0,0.0,0.0,0.0,0.0,0.0,0.0,0.0,0.0,0.0,0.0,0.0,0.0,0.0,0.0,0.0,0.0,0.0,0.0,0.0,0.0,0.0,0.0,0.0,0.0,0.0,0.0,0.0,0.0,0.0,0.0,0.0,0.0,0.0,0.0,0.0,0.0,0.0,0.0,0.0,0.0,0.0,0.0,0.0,0.0,0.0,0.0,0.0,0.0,0.0,0.0,0.0
