ciel274/research-hand-sign/data/raw/hiragana/sign_language_ki_2.csv
timestamp,R_joint_0_x,R_joint_0_y,R_joint_0_z,R_joint_1_x,R_joint_1_y,R_joint_1_z,R_joint_2_x,R_joint_2_y,R_joint_2_z,R_joint_3_x,R_joint_3_y,R_joint_3_z,R_joint_4_x,R_joint_4_y,R_joint_4_z,R_joint_5_x,R_joint_5_y,R_joint_5_z,R_joint_6_x,R_joint_6_y,R_joint_6_z,R_joint_7_x,R_joint_7_y,R_joint_7_z,R_joint_8_x,R_joint_8_y,R_joint_8_z,R_joint_9_x,R_joint_9_y,R_joint_9_z,R_joint_10_x,R_joint_10_y,R_joint_10_z,R_joint_11_x,R_joint_11_y,R_joint_11_z,R_joint_12_x,R_joint_12_y,R_joint_12_z,R_joint_13_x,R_joint_13_y,R_joint_13_z,R_joint_14_x,R_joint_14_y,R_joint_14_z,R_joint_15_x,R_joint_15_y,R_joint_15_z,R_joint_16_x,R_joint_16_y,R_joint_16_z,R_joint_17_x,R_joint_17_y,R_joint_17_z,R_joint_18_x,R_joint_18_y,R_joint_18_z,R_joint_19_x,R_joint_19_y,R_joint_19_z,R_joint_20_x,R_joint_20_y,R_joint_20_z,L_joint_0_x,L_joint_0_y,L_joint_0_z,L_joint_1_x,L_joint_1_y,L_joint_1_z,L_joint_2_x,L_joint_2_y,L_joint_2_z,L_joint_3_x,L_joint_3_y,L_joint_3_z,L_joint_4_x,L_joint_4_y,L_joint_4_z,L_joint_5_x,L_joint_5_y,L_joint_5_z,L_joint_6_x,L_joint_6_y,L_joint_6_z,L_joint_7_x,L_joint_7_y,L_joint_7_z,L_joint_8_x,L_joint_8_y,L_joint_8_z,L_joint_9_x,L_joint_9_y,L_joint_9_z,L_joint_10_x,L_joint_10_y,L_joint_10_z,L_joint_11_x,L_joint_11_y,L_joint_11_z,L_joint_12_x,L_joint_12_y,L_joint_12_z,L_joint_13_x,L_joint_13_y,L_joint_13_z,L_joint_14_x,L_joint_14_y,L_joint_14_z,L_joint_15_x,L_joint_15_y,L_joint_15_z,L_joint_16_x,L_joint_16_y,L_joint_16_z,L_joint_17_x,L_joint_17_y,L_joint_17_z,L_joint_18_x,L_joint_18_y,L_joint_18_z,L_joint_19_x,L_joint_19_y,L_joint_19_z,L_joint_20_x,L_joint_20_y,L_joint_20_z
1783390536.20658,0.7091444730758667,0.7695893049240112,-1.0177185316706527e-07,0.6672663688659668,0.7405319809913635,-0.01288982480764389,0.6408410668373108,0.6633426547050476,-0.01858021877706051,0.65169358253479,0.6014809012413025,-0.025837739929556847,0.6735253930091858,0.5648595690727234,-0.03203640505671501,0.6429128050804138,0.5667197108268738,-0.009286434389650822,0.6280608773231506,0.4711807072162628,-0.023106547072529793,0.6200715899467468,0.41370171308517456,-0.030873581767082214,0.6131901144981384,0.36011195182800293,-0.0366063229739666,0.6695075631141663,0.5591219067573547,-0.012343691661953926,0.6602751612663269,0.5034343004226685,-0.04547782614827156,0.6622292399406433,0.5715046525001526,-0.05554954707622528,0.6653392314910889,0.6245692372322083,-0.05344287306070328,0.6969670653343201,0.5591888427734375,-0.01698356308043003,0.6904265284538269,0.5048381686210632,-0.04639256373047829,0.6863348484039307,0.5753836035728455,-0.043784938752651215,0.68389892578125,0.629152238368988,-0.03220237419009209,0.7228401303291321,0.5613012313842773,-0.023003974929451942,0.7203946113586426,0.4831089377403259,-0.041255973279476166,0.7165680527687073,0.4323844909667969,-0.04309561848640442,0.7126157879829407,0.379243403673172,-0.03956981375813484,0.0,0.0,0.0,0.0,0.0,0.0,0.0,0.0,0.0,0.0,0.0,0.0,0.0,0.0,0.0,0.0,0.0,0.0,0.0,0.0,0.0,0.0,0.0,0.0,0.0,0.0,0.0,0.0,0.0,0.0,0.0,0.0,0.0,0.0,0.0,0.0,0.0,0.0,0.0,0.0,0.0,0.0,0.0,0.0,0.0,0.0,0.0,0.0,0.0,0.0,0.0,0.0,0.0,0.0,0.0,0.0,0.0,0.0,0.0,0.0,0.0,0.0,0.0
1783390536.381334,0.7098621129989624,0.7747836709022522,-1.0230572655700598e-07,0.6683674454689026,0.7480586767196655,-0.014885024167597294,0.6416736245155334,0.668398380279541,-0.021271327510476112,0.6522889137268066,0.6044245362281799,-0.028770988807082176,0.6734929084777832,0.5658579468727112,-0.034985415637493134,0.6439133286476135,0.5695568323135376,-0.011020638048648834,0.6284925937652588,0.4741005599498749,-0.025484729558229446,0.6206234693527222,0.4168158769607544,-0.03305087983608246,0.6145216226577759,0.3637969195842743,-0.03843902051448822,0.6710243225097656,0.5614551305770874,-0.013307120651006699,0.6617768406867981,0.5031286478042603,-0.04749172553420067,0.6637598872184753,0.5721747875213623,-0.057244040071964264,0.6670091152191162,0.6256354451179504,-0.05441786348819733,0.6985752582550049,0.5621225237846375,-0.017485346645116806,0.6913767457008362,0.5091185569763184,-0.04837872087955475,0.6867234110832214,0.5817625522613525,-0.0460430309176445,0.6836151480674744,0.6358860731124878,-0.034146375954151154,0.7242928743362427,0.5648746490478516,-0.023123586550354958,0.7214834690093994,0.4863532781600952,-0.04258919134736061,0.7172721028327942,0.43620994687080383,-0.04504849389195442,0.7126326560974121,0.3827269971370697,-0.0417669340968132,0.0,0.0,0.0,0.0,0.0,0.0,0.0,0.0,0.0,0.0,0.0,0.0,0.0,0.0,0.0,0.0,0.0,0.0,0.0,0.0,0.0,0.0,0.0,0.0,0.0,0.0,0.0,0.0,0.0,0.0,0.0,0.0,0.0,0.0,0.0,0.0,0.0,0.0,0.0,0.0,0.0,0.0,0.0,0.0,0.0,0.0,0.0,0.0,0.0,0.0,0.0,0.0,0.0,0.0,0.0,0.0,0.0,0.0,0.0,0.0,0.0,0.0,0.0
1783390536.529886,0.7116546630859375,0.785677433013916,-1.1141553812876737e-07,0.6711706519126892,0.7610216736793518,-0.015203094109892845,0.6443113684654236,0.684232771396637,-0.022213660180568695,0.6545995473861694,0.6246595978736877,-0.030390026047825813,0.6771369576454163,0.5915631651878357,-0.0373799204826355,0.6461107730865479,0.5776183605194092,-0.012127106077969074,0.632591724395752,0.48110711574554443,-0.027298683300614357,0.6253713369369507,0.42235666513442993,-0.03527249023318291,0.6193668842315674,0.3680812120437622,-0.04079941287636757,0.6738623976707458,0.5707257986068726,-0.0143849803134799,0.6658140420913696,0.5136871337890625,-0.04892110452055931,0.6680822968482971,0.5842021107673645,-0.058703333139419556,0.6711817979812622,0.6378322839736938,-0.055835627019405365,0.7016192674636841,0.5712680816650391,-0.01848992146551609,0.6951773762702942,0.5166654586791992,-0.049434538930654526,0.6910523176193237,0.5884906649589539,-0.0472613200545311,0.6882203221321106,0.6421812772750854,-0.03535303473472595,0.7274026870727539,0.5735242366790771,-0.024032345041632652,0.7250635623931885,0.49379998445510864,-0.042871326208114624,0.720990777015686,0.4438513517379761,-0.04500660300254822,0.7162747979164124,0.390715628862381,-0.041466936469078064,0.0,0.0,0.0,0.0,0.0,0.0,0.0,0.0,0.0,0.0,0.0,0.0,0.0,0.0,0.0,0.0,0.0,0.0,0.0,0.0,0.0,0.0,0.0,0.0,0.0,0.0,0.0,0.0,0.0,0.0,0.0,0.0,0.0,0.0,0.0,0.0,0.0,0.0,0.0,0.0,0.0,0.0,0.0,0.0,0.0,0.0,0.0,0.0,0.0,0.0,0.0,0.0,0.0,0.0,0.0,0.0,0.0,0.0,0.0,0.0,0.0,0.0,0.0
1783390536.692766,0.7132026553153992,0.7941332459449768,-1.0885695189699618e-07,0.672759473323822,0.7692937850952148,-0.016092762351036072,0.6461859345436096,0.6949450373649597,-0.024126697331666946,0.6560946106910706,0.6365325450897217,-0.03319615498185158,0.6774152517318726,0.602085292339325,-0.041070811450481415,0.648157000541687,0.5866042375564575,-0.013882812112569809,0.6345255970954895,0.489653080701828,-0.029542500153183937,0.6266024112701416,0.4307134747505188,-0.03776981681585312,0.6196966171264648,0.37645605206489563,-0.04343158379197121,0.6761086583137512,0.5795910358428955,-0.01596599444746971,0.6675643920898438,0.5229209065437317,-0.050886370241642,0.6696984767913818,0.5940975546836853,-0.0607478953897953,0.6726920008659363,0.6488081812858582,-0.0579545833170414,0.7039653658866882,0.5801405310630798,-0.019912760704755783,0.6977464556694031,0.524915874004364,-0.0512155182659626,0.6935446858406067,0.5965593457221985,-0.04899143427610397,0.6904294490814209,0.650366485118866,-0.03705897554755211,0.729704737663269,0.5827164053916931,-0.025334566831588745,0.7276430130004883,0.5023985505104065,-0.044185806065797806,0.7240093350410461,0.4519784450531006,-0.04609148949384689,0.7195245027542114,0.3980545699596405,-0.04241301119327545,0.0,0.0,0.0,0.0,0.0,0.0,0.0,0.0,0.0,0.0,0.0,0.0,0.0,0.0,0.0,0.0,0.0,0.0,0.0,0.0,0.0,0.0,0.0,0.0,0.0,0.0,0.0,0.0,0.0,0.0,0.0,0.0,0.0,0.0,0.0,0.0,0.0,0.0,0.0,0.0,0.0,0.0,0.0,0.0,0.0,0.0,0.0,0.0,0.0,0.0,0.0,0.0,0.0,0.0,0.0,0.0,0.0,0.0,0.0,0.0,0.0,0.0,0.0
1783390536.81566,0.7135580778121948,0.7958241105079651,-1.1107461261872231e-07,0.6728208661079407,0.7680858969688416,-0.014974696561694145,0.6468123197555542,0.6889374256134033,-0.021911459043622017,0.6585025191307068,0.6259166598320007,-0.03011087141931057,0.68019700050354,0.5887507200241089,-0.03714047372341156,0.6496877074241638,0.5879248976707458,-0.011584490537643433,0.6351715326309204,0.49109169840812683,-0.02609618380665779,0.6272132992744446,0.43301787972450256,-0.03352288156747818,0.6206989288330078,0.37929391860961914,-0.03885919973254204,0.6774962544441223,0.5806621313095093,-0.01414989773184061,0.6689910888671875,0.5259140133857727,-0.048756059259176254,0.6703927516937256,0.5980572700500488,-0.05846353992819786,0.6729042530059814,0.6533778309822083,-0.05557771027088165,0.7053567171096802,0.5821717977523804,-0.018545137718319893,0.6992883682250977,0.5282291769981384,-0.049542393535375595,0.6942930817604065,0.599926233291626,-0.046851228922605515,0.6905764937400818,0.6538242697715759,-0.034746211022138596,0.7311828136444092,0.5855416655540466,-0.024416936561465263,0.7301748991012573,0.5055959820747375,-0.04355820268392563,0.7267864942550659,0.4534691572189331,-0.04556559771299362,0.7223119139671326,0.39800605177879333,-0.04200331121683121,0.0,0.0,0.0,0.0,0.0,0.0,0.0,0.0,0.0,0.0,0.0,0.0,0.0,0.0,0.0,0.0,0.0,0.0,0.0,0.0,0.0,0.0,0.0,0.0,0.0,0.0,0.0,0.0,0.0,0.0,0.0,0.0,0.0,0.0,0.0,0.0,0.0,0.0,0.0,0.0,0.0,0.0,0.0,0.0,0.0,0.0,0.0,0.0,0.0,0.0,0.0,0.0,0.0,0.0,0.0,0.0,0.0,0.0,0.0,0.0,0.0,0.0,0.0
1783390536.953509,0.7126888036727905,0.7923967838287354,-1.0903766423098205e-07,0.6713805198669434,0.7610889077186584,-0.013584195636212826,0.6463047862052917,0.6825894117355347,-0.02004312165081501,0.6606268882751465,0.6223342418670654,-0.027852073311805725,0.6854835748672485,0.5890645980834961,-0.034678056836128235,0.6494070887565613,0.5861161351203918,-0.011574219912290573,0.6354536414146423,0.48857420682907104,-0.025749562308192253,0.6276459693908691,0.4298401176929474,-0.033448267728090286,0.6207422018051147,0.37570902705192566,-0.03919953852891922,0.6771138906478882,0.5795316100120544,-0.014383561909198761,0.6686825156211853,0.525202751159668,-0.04781007021665573,0.6705845594406128,0.5974929332733154,-0.057028260082006454,0.673066258430481,0.6527391076087952,-0.05434517562389374,0.7052225470542908,0.5812823176383972,-0.018768668174743652,0.7000431418418884,0.5250178575515747,-0.0481417216360569,0.6956440210342407,0.5952532291412354,-0.04463370516896248,0.692183256149292,0.6488991379737854,-0.03258521854877472,0.7311788201332092,0.5848584175109863,-0.024609491229057312,0.7299379110336304,0.5054579377174377,-0.04293687269091606,0.726614773273468,0.4532882273197174,-0.04450412094593048,0.7227159738540649,0.3983592987060547,-0.0408535934984684,0.0,0.0,0.0,0.0,0.0,0.0,0.0,0.0,0.0,0.0,0.0,0.0,0.0,0.0,0.0,0.0,0.0,0.0,0.0,0.0,0.0,0.0,0.0,0.0,0.0,0.0,0.0,0.0,0.0,0.0,0.0,0.0,0.0,0.0,0.0,0.0,0.0,0.0,0.0,0.0,0.0,0.0,0.0,0.0,0.0,0.0,0.0,0.0,0.0,0.0,0.0,0.0,0.0,0.0,0.0,0.0,0.0,0.0,0.0,0.0,0.0,0.0,0.0
1783390537.0902631,0.7126564383506775,0.7956430315971375,-1.2350005818007048e-07,0.6710132360458374,0.7655841708183289,-0.015190351754426956,0.6463988423347473,0.6851422786712646,-0.022116560488939285,0.6606451869010925,0.622927725315094,-0.030080756172537804,0.6852246522903442,0.5883952975273132,-0.03698436915874481,0.6490210294723511,0.5910362005233765,-0.012980455532670021,0.6311654448509216,0.4951934814453125,-0.02754567191004753,0.6203787922859192,0.4378066658973694,-0.03531211242079735,0.6111385226249695,0.3842233121395111,-0.04106687754392624,0.677270770072937,0.582137942314148,-0.015181047841906548,0.6685855388641357,0.5255197882652283,-0.04920661076903343,0.6702604293823242,0.5967994928359985,-0.058709997683763504,0.67270427942276,0.6520963907241821,-0.05597430467605591,0.7056149840354919,0.5827534794807434,-0.019068801775574684,0.7003689408302307,0.5242536664009094,-0.049217402935028076,0.6956015229225159,0.5952807664871216,-0.04609726369380951,0.6919190883636475,0.6504899859428406,-0.034059710800647736,0.7314041256904602,0.5857102870941162,-0.02451293170452118,0.7292523384094238,0.5067471265792847,-0.04321499913930893,0.7258347868919373,0.4550153315067291,-0.04496460407972336,0.722023606300354,0.400301456451416,-0.04138646274805069,0.0,0.0,0.0,0.0,0.0,0.0,0.0,0.0,0.0,0.0,0.0,0.0,0.0,0.0,0.0,0.0,0.0,0.0,0.0,0.0,0.0,0.0,0.0,0.0,0.0,0.0,0.0,0.0,0.0,0.0,0.0,0.0,0.0,0.0,0.0,0.0,0.0,0.0,0.0,0.0,0.0,0.0,0.0,0.0,0.0,0.0,0.0,0.0,0.0,0.0,0.0,0.0,0.0,0.0,0.0,0.0,0.0,0.0,0.0,0.0,0.0,0.0,0.0
1783390537.551161,0.7144669890403748,0.797327995300293,-1.1999780724636366e-07,0.6728746294975281,0.7671723961830139,-0.015568078495562077,0.647966206073761,0.6881561279296875,-0.023113003000617027,0.6631522178649902,0.6254943609237671,-0.031703174114227295,0.6884069442749023,0.5922826528549194,-0.039214760065078735,0.649408757686615,0.5920161604881287,-0.013095076195895672,0.6312137842178345,0.4979138672351837,-0.02745208889245987,0.6201643347740173,0.4413485825061798,-0.03463895246386528,0.610964834690094,0.3892083764076233,-0.03991343826055527,0.6782218217849731,0.5827771425247192,-0.01517229713499546,0.6707003116607666,0.5281030535697937,-0.04890036582946777,0.6729549169540405,0.6008796691894531,-0.05773232504725456,0.6752475500106812,0.6564760208129883,-0.05445336550474167,0.7066400051116943,0.5831509828567505,-0.01905236206948757,0.7020018100738525,0.526523232460022,-0.04911930114030838,0.6976945996284485,0.5974559187889099,-0.04592785984277725,0.6939764022827148,0.6522094011306763,-0.03379276394844055,0.7321034669876099,0.5860549807548523,-0.02449752204120159,0.7302126288414001,0.5074909329414368,-0.04320701211690903,0.726802408695221,0.4559040069580078,-0.0451405830681324,0.7224889993667603,0.40095722675323486,-0.04169192165136337,0.0,0.0,0.0,0.0,0.0,0.0,0.0,0.0,0.0,0.0,0.0,0.0,0.0,0.0,0.0,0.0,0.0,0.0,0.0,0.0,0.0,0.0,0.0,0.0,0.0,0.0,0.0,0.0,0.0,0.0,0.0,0.0,0.0,0.0,0.0,0.0,0.0,0.0,0.0,0.0,0.0,0.0,0.0,0.0,0.0,0.0,0.0,0.0,0.0,0.0,0.0,0.0,0.0,0.0,0.0,0.0,0.0,0.0,0.0,0.0,0.0,0.0,0.0
1783390537.923149,0.7154069542884827,0.7983992099761963,-1.1203493954781152e-07,0.673821210861206,0.7656710743904114,-0.01571536250412464,0.6501891613006592,0.6862695813179016,-0.022966843098402023,0.665398359298706,0.621432363986969,-0.031213916838169098,0.6893088221549988,0.5844698548316956,-0.038235392421483994,0.6506941318511963,0.5910651087760925,-0.01198358554393053,0.6324025988578796,0.4964871406555176,-0.027138689532876015,0.6211730241775513,0.4384496212005615,-0.035163044929504395,0.61162930727005,0.38444146513938904,-0.040934331715106964,0.6801332235336304,0.581509530544281,-0.013820543885231018,0.6723638772964478,0.5268462896347046,-0.0482570119202137,0.6764041185379028,0.598558783531189,-0.05767281353473663,0.6801316142082214,0.6534520983695984,-0.054602231830358505,0.7093827128410339,0.5822058320045471,-0.0175901148468256,0.7044388055801392,0.5273122787475586,-0.04863248020410538,0.7016422152519226,0.5994486808776855,-0.04534786194562912,0.6991176009178162,0.6540852189064026,-0.03266119211912155,0.7360884547233582,0.5857642292976379,-0.02292405627667904,0.7354416251182556,0.5075581669807434,-0.04227551445364952,0.7331700325012207,0.4563623368740082,-0.04410059005022049,0.729534924030304,0.401416540145874,-0.04019380733370781,0.0,0.0,0.0,0.0,0.0,0.0,0.0,0.0,0.0,0.0,0.0,0.0,0.0,0.0,0.0,0.0,0.0,0.0,0.0,0.0,0.0,0.0,0.0,0.0,0.0,0.0,0.0,0.0,0.0,0.0,0.0,0.0,0.0,0.0,0.0,0.0,0.0,0.0,0.0,0.0,0.0,0.0,0.0,0.0,0.0,0.0,0.0,0.0,0.0,0.0,0.0,0.0,0.0,0.0,0.0,0.0,0.0,0.0,0.0,0.0,0.0,0.0,0.0
1783390538.25439,0.7174017429351807,0.7952280640602112,-1.3744443094765302e-07,0.6762959957122803,0.762722909450531,-0.014362671412527561,0.6534265875816345,0.6799870133399963,-0.02032366953790188,0.6684805750846863,0.6125549077987671,-0.027503563091158867,0.6906076669692993,0.5730361342430115,-0.033333998173475266,0.6522437334060669,0.5899270176887512,-0.010608959943056107,0.6335964798927307,0.4949086308479309,-0.02510603331029415,0.6220263838768005,0.4370589554309845,-0.03258171305060387,0.6117585301399231,0.38397619128227234,-0.038059432059526443,0.6809419393539429,0.5793931484222412,-0.012901101261377335,0.6721421480178833,0.5253135561943054,-0.046759407967329025,0.6764929890632629,0.5980557203292847,-0.055643003433942795,0.6803480982780457,0.6537402868270874,-0.05240214616060257,0.7102657556533813,0.5792410373687744,-0.01703222282230854,0.7055262923240662,0.5225128531455994,-0.04717298969626427,0.7022057175636292,0.5936713814735413,-0.04313255846500397,0.6988086104393005,0.6482818722724915,-0.030404528602957726,0.7366489768028259,0.5821459293365479,-0.022716756910085678,0.7362430095672607,0.5034279227256775,-0.04166897013783455,0.7338767051696777,0.4515148997306824,-0.043242473155260086,0.7302706837654114,0.39666548371315,-0.03939076513051987,0.0,0.0,0.0,0.0,0.0,0.0,0.0,0.0,0.0,0.0,0.0,0.0,0.0,0.0,0.0,0.0,0.0,0.0,0.0,0.0,0.0,0.0,0.0,0.0,0.0,0.0,0.0,0.0,0.0,0.0,0.0,0.0,0.0,0.0,0.0,0.0,0.0,0.0,0.0,0.0,0.0,0.0,0.0,0.0,0.0,0.0,0.0,0.0,0.0,0.0,0.0,0.0,0.0,0.0,0.0,0.0,0.0,0.0,0.0,0.0,0.0,0.0,0.0
1783390538.4431229,0.7187400460243225,0.8182803988456726,-1.4288760041836213e-07,0.6782369613647461,0.7913675904273987,-0.017266100272536278,0.654659628868103,0.7183201909065247,-0.026002144441008568,0.6684508919715881,0.6582083106040955,-0.03549930080771446,0.6905975341796875,0.6178207993507385,-0.043915845453739166,0.6518503427505493,0.6103298664093018,-0.01575993187725544,0.6330798864364624,0.5159373879432678,-0.03258470445871353,0.6231412887573242,0.45732787251472473,-0.04211074858903885,0.6136593222618103,0.402912437915802,-0.048615019768476486,0.6812078952789307,0.6011902689933777,-0.017457643523812294,0.6751864552497864,0.5473357439041138,-0.05300520732998848,0.6798653602600098,0.6179438829421997,-0.06433084607124329,0.6818113923072815,0.6744141578674316,-0.06294474005699158,0.710577130317688,0.6009519696235657,-0.02106887847185135,0.7069310545921326,0.5445973873138428,-0.05351096764206886,0.7041565775871277,0.6153851747512817,-0.0525406189262867,0.7002835273742676,0.6697517037391663,-0.04158202186226845,0.7370870113372803,0.603929877281189,-0.02615540288388729,0.7361404299736023,0.5241928100585938,-0.046331822872161865,0.7344077229499817,0.4723777770996094,-0.04919818416237831,0.7313995361328125,0.4173920750617981,-0.04622932896018028,0.0,0.0,0.0,0.0,0.0,0.0,0.0,0.0,0.0,0.0,0.0,0.0,0.0,0.0,0.0,0.0,0.0,0.0,0.0,0.0,0.0,0.0,0.0,0.0,0.0,0.0,0.0,0.0,0.0,0.0,0.0,0.0,0.0,0.0,0.0,0.0,0.0,0.0,0.0,0.0,0.0,0.0,0.0,0.0,0.0,0.0,0.0,0.0,0.0,0.0,0.0,0.0,0.0,0.0,0.0,0.0,0.0,0.0,0.0,0.0,0.0,0.0,0.0
1783390538.59476,0.7177999019622803,0.8264452815055847,-1.3737040660544153e-07,0.6760022640228271,0.7952941060066223,-0.016069522127509117,0.654136061668396,0.7155776023864746,-0.02340676449239254,0.6684212684631348,0.6509643793106079,-0.031731847673654556,0.6906411647796631,0.6110538244247437,-0.03882438689470291,0.6535947322845459,0.6211214065551758,-0.013653083704411983,0.6340979337692261,0.5270158052444458,-0.029702670872211456,0.6222958564758301,0.4704503118991852,-0.03821799159049988,0.6118031144142151,0.4164242446422577,-0.04417882487177849,0.6832826733589172,0.6100749969482422,-0.015659159049391747,0.6750346422195435,0.5541316866874695,-0.05077444016933441,0.6790727376937866,0.6255587935447693,-0.06073646992444992,0.6823269724845886,0.6807792782783508,-0.05831591784954071,0.7130399942398071,0.6095676422119141,-0.01960945315659046,0.7085438370704651,0.5525327920913696,-0.05193721875548363,0.704980731010437,0.62663334608078,-0.049432337284088135,0.7012551426887512,0.6828263401985168,-0.03729107230901718,0.7398825883865356,0.6120818257331848,-0.025051213800907135,0.7404165267944336,0.5326412916183472,-0.04541871324181557,0.7396035194396973,0.47991785407066345,-0.04797031357884407,0.7371921539306641,0.4233112335205078,-0.04470730200409889,0.0,0.0,0.0,0.0,0.0,0.0,0.0,0.0,0.0,0.0,0.0,0.0,0.0,0.0,0.0,0.0,0.0,0.0,0.0,0.0,0.0,0.0,0.0,0.0,0.0,0.0,0.0,0.0,0.0,0.0,0.0,0.0,0.0,0.0,0.0,0.0,0.0,0.0,0.0,0.0,0.0,0.0,0.0,0.0,0.0,0.0,0.0,0.0,0.0,0.0,0.0,0.0,0.0,0.0,0.0,0.0,0.0,0.0,0.0,0.0,0.0,0.0,0.0
1783390538.752461,0.717941403388977,0.8246942758560181,-8.65584013354237e-08,0.6768003702163696,0.7912242412567139,-0.016513457521796227,0.6548969745635986,0.7068852782249451,-0.023207729682326317,0.6720162034034729,0.6416484117507935,-0.030421491712331772,0.6967279314994812,0.6047974228858948,-0.03607878088951111,0.6538944244384766,0.6130934953689575,-0.012065785005688667,0.6353869438171387,0.5228822231292725,-0.026073984801769257,0.6225332617759705,0.4689079523086548,-0.033094439655542374,0.6114419102668762,0.41897067427635193,-0.03892666846513748,0.6851842999458313,0.6017513275146484,-0.013146533630788326,0.6781841516494751,0.5501492023468018,-0.04637664929032326,0.6816621422767639,0.6260683536529541,-0.054432738572359085,0.684492826461792,0.681290328502655,-0.05132925137877464,0.7165790796279907,0.6037531495094299,-0.016483215615153313,0.715566873550415,0.5461990237236023,-0.04788403585553169,0.7106764316558838,0.6191887259483337,-0.04470182955265045,0.7061129212379456,0.6748287081718445,-0.032963741570711136,0.7443168759346008,0.6110360026359558,-0.021387971937656403,0.7575799226760864,0.5356215834617615,-0.04388533905148506,0.7673742771148682,0.4839295446872711,-0.04878131300210953,0.7748149037361145,0.4271934926509857,-0.047273457050323486,0.0,0.0,0.0,0.0,0.0,0.0,0.0,0.0,0.0,0.0,0.0,0.0,0.0,0.0,0.0,0.0,0.0,0.0,0.0,0.0,0.0,0.0,0.0,0.0,0.0,0.0,0.0,0.0,0.0,0.0,0.0,0.0,0.0,0.0,0.0,0.0,0.0,0.0,0.0,0.0,0.0,0.0,0.0,0.0,0.0,0.0,0.0,0.0,0.0,0.0,0.0,0.0,0.0,0.0,0.0,0.0,0.0,0.0,0.0,0.0,0.0,0.0,0.0
1783390538.882559,0.7205193638801575,0.82277911901474,-7.926036005301285e-08,0.6799302101135254,0.7937678694725037,-0.01669451966881752,0.6588366627693176,0.7184274792671204,-0.024317463859915733,0.6734908223152161,0.6591752171516418,-0.031854044646024704,0.6941264271736145,0.6205219030380249,-0.037580378353595734,0.6539202928543091,0.6138628721237183,-0.015931876376271248,0.634084165096283,0.5227215886116028,-0.0322970375418663,0.6218792200088501,0.4683822691440582,-0.041591472923755646,0.6117087602615356,0.4167068898677826,-0.04929385334253311,0.6853349208831787,0.6037065386772156,-0.01705203950405121,0.6776956915855408,0.5486901998519897,-0.05219096317887306,0.6831262111663818,0.6228850483894348,-0.06197056546807289,0.6873630285263062,0.6752251386642456,-0.06081774830818176,0.7169896364212036,0.6063451766967773,-0.02027265913784504,0.7155449986457825,0.5478416681289673,-0.05321384221315384,0.7100406289100647,0.6189377307891846,-0.05152522400021553,0.7054823040962219,0.6727679371833801,-0.041491683572530746,0.7452242970466614,0.6143311858177185,-0.024872606620192528,0.7627524137496948,0.5387433767318726,-0.05069904774427414,0.7755641341209412,0.48598358035087585,-0.05855922773480415,0.7849211692810059,0.4275692403316498,-0.05941571295261383,0.0,0.0,0.0,0.0,0.0,0.0,0.0,0.0,0.0,0.0,0.0,0.0,0.0,0.0,0.0,0.0,0.0,0.0,0.0,0.0,0.0,0.0,0.0,0.0,0.0,0.0,0.0,0.0,0.0,0.0,0.0,0.0,0.0,0.0,0.0,0.0,0.0,0.0,0.0,0.0,0.0,0.0,0.0,0.0,0.0,0.0,0.0,0.0,0.0,0.0,0.0,0.0,0.0,0.0,0.0,0.0,0.0,0.0,0.0,0.0,0.0,0.0,0.0
1783390539.025729,0.7207244634628296,0.8240219354629517,-6.510792616154504e-08,0.680449903011322,0.7966985106468201,-0.017622051760554314,0.65859454870224,0.7221018671989441,-0.026099244132637978,0.6730071306228638,0.6616110801696777,-0.03428017348051071,0.6941766142845154,0.6235966682434082,-0.04091336578130722,0.6546644568443298,0.617625892162323,-0.018096428364515305,0.6340579390525818,0.5275068879127502,-0.034789733588695526,0.6212572455406189,0.4733619689941406,-0.04484384134411812,0.6107334494590759,0.4217829704284668,-0.05355518311262131,0.6860134601593018,0.6051936149597168,-0.019166484475135803,0.6781588196754456,0.5467086434364319,-0.05424610525369644,0.6833562254905701,0.6201592087745667,-0.06443876773118973,0.6874452233314514,0.6721788048744202,-0.06400687247514725,0.717619001865387,0.6077504754066467,-0.022274473682045937,0.7156267762184143,0.5478453636169434,-0.05464232340455055,0.7104228734970093,0.6173751950263977,-0.05339301750063896,0.7064275741577148,0.6716420650482178,-0.044369056820869446,0.7457361221313477,0.6176567077636719,-0.02689758688211441,0.7633813619613647,0.5421030521392822,-0.05336957424879074,0.7761731743812561,0.48966994881629944,-0.06224466860294342,0.7858664989471436,0.43253636360168457,-0.06414404511451721,0.0,0.0,0.0,0.0,0.0,0.0,0.0,0.0,0.0,0.0,0.0,0.0,0.0,0.0,0.0,0.0,0.0,0.0,0.0,0.0,0.0,0.0,0.0,0.0,0.0,0.0,0.0,0.0,0.0,0.0,0.0,0.0,0.0,0.0,0.0,0.0,0.0,0.0,0.0,0.0,0.0,0.0,0.0,0.0,0.0,0.0,0.0,0.0,0.0,0.0,0.0,0.0,0.0,0.0,0.0,0.0,0.0,0.0,0.0,0.0,0.0,0.0,0.0
1783390539.156802,0.7236530184745789,0.8217971920967102,-6.399022822733968e-08,0.682772159576416,0.7938141822814941,-0.016698576509952545,0.6605757474899292,0.7191153168678284,-0.024440566077828407,0.6755822896957397,0.6597656011581421,-0.03197820112109184,0.6984740495681763,0.6238670349121094,-0.03788364306092262,0.656381368637085,0.6147279143333435,-0.01693860813975334,0.6367473602294922,0.5250478982925415,-0.033202365040779114,0.6247100830078125,0.47090333700180054,-0.04275713860988617,0.6147282123565674,0.4192834496498108,-0.05089928209781647,0.6880514621734619,0.603691816329956,-0.01801062934100628,0.6810466647148132,0.5487495064735413,-0.05288708582520485,0.6861408352851868,0.6221319437026978,-0.06278866529464722,0.6902235150337219,0.6748652458190918,-0.06201250106096268,0.7199820876121521,0.6060652732849121,-0.021068468689918518,0.718130350112915,0.5476372838020325,-0.053630679845809937,0.7125059366226196,0.6172835230827332,-0.052558783441782,0.7082343697547913,0.6706544160842896,-0.04330268129706383,0.748553454875946,0.6146693229675293,-0.025472436100244522,0.7659829258918762,0.5401543974876404,-0.0514795258641243,0.7791857123374939,0.48816579580307007,-0.05997131019830704,0.7893804311752319,0.4307170808315277,-0.06142512336373329,0.0,0.0,0.0,0.0,0.0,0.0,0.0,0.0,0.0,0.0,0.0,0.0,0.0,0.0,0.0,0.0,0.0,0.0,0.0,0.0,0.0,0.0,0.0,0.0,0.0,0.0,0.0,0.0,0.0,0.0,0.0,0.0,0.0,0.0,0.0,0.0,0.0,0.0,0.0,0.0,0.0,0.0,0.0,0.0,0.0,0.0,0.0,0.0,0.0,0.0,0.0,0.0,0.0,0.0,0.0,0.0,0.0,0.0,0.0,0.0,0.0,0.0,0.0
1783390539.316215,0.7254236936569214,0.8180186152458191,-6.822415343776811e-08,0.6842628121376038,0.7888857126235962,-0.016027115285396576,0.663034975528717,0.7123216390609741,-0.02301609516143799,0.6769590377807617,0.6516647934913635,-0.029961584135890007,0.6977635622024536,0.6145603060722351,-0.03539476543664932,0.6577297449111938,0.6115843653678894,-0.01582707092165947,0.637389600276947,0.5221800804138184,-0.03177792578935623,0.6251226663589478,0.46785473823547363,-0.04093750938773155,0.6152637004852295,0.41654473543167114,-0.04860134795308113,0.6896259784698486,0.5995455384254456,-0.016873633489012718,0.6826663017272949,0.5440489649772644,-0.05135739967226982,0.688126802444458,0.6164225935935974,-0.061173535883426666,0.6924375295639038,0.6690161228179932,-0.06023406237363815,0.7217746376991272,0.6011601686477661,-0.019876588135957718,0.7199258804321289,0.5409976243972778,-0.05226100981235504,0.7146467566490173,0.6103469729423523,-0.051492538303136826,0.7107974290847778,0.6646658182144165,-0.04237896203994751,0.7501777410507202,0.6093551516532898,-0.024130329489707947,0.7672998905181885,0.5344786643981934,-0.050227317959070206,0.7798998355865479,0.48197826743125916,-0.059036415070295334,0.7895789742469788,0.42446619272232056,-0.06065753474831581,0.0,0.0,0.0,0.0,0.0,0.0,0.0,0.0,0.0,0.0,0.0,0.0,0.0,0.0,0.0,0.0,0.0,0.0,0.0,0.0,0.0,0.0,0.0,0.0,0.0,0.0,0.0,0.0,0.0,0.0,0.0,0.0,0.0,0.0,0.0,0.0,0.0,0.0,0.0,0.0,0.0,0.0,0.0,0.0,0.0,0.0,0.0,0.0,0.0,0.0,0.0,0.0,0.0,0.0,0.0,0.0,0.0,0.0,0.0,0.0,0.0,0.0,0.0
1783390539.455742,0.7252666354179382,0.8151564598083496,-7.106562094350011e-08,0.6827162504196167,0.7850806713104248,-0.01569359563291073,0.6581593751907349,0.7086466550827026,-0.022649100050330162,0.6649918556213379,0.6468549966812134,-0.030094409361481667,0.6801485419273376,0.6079695820808411,-0.036165155470371246,0.6561784148216248,0.611838698387146,-0.013048769906163216,0.6326895952224731,0.5233210921287537,-0.02935910038650036,0.6176317930221558,0.4681989550590515,-0.03969467803835869,0.6051045656204224,0.416544109582901,-0.04792248457670212,0.6867016553878784,0.5984566807746887,-0.01501877885311842,0.6763929128646851,0.538390576839447,-0.04973464459180832,0.6782335042953491,0.6084004044532776,-0.060673344880342484,0.6804354190826416,0.6624090075492859,-0.05989589914679527,0.7174819707870483,0.5978533625602722,-0.019022660329937935,0.7124431729316711,0.5355131030082703,-0.050737738609313965,0.7074291706085205,0.6068036556243896,-0.0485960952937603,0.7050878405570984,0.6644132733345032,-0.03793491795659065,0.7452569603919983,0.6035345196723938,-0.02457156404852867,0.758048415184021,0.5263807773590088,-0.047583628445863724,0.7674727439880371,0.4729475677013397,-0.05325201153755188,0.775317907333374,0.41622355580329895,-0.05259191617369652,0.0,0.0,0.0,0.0,0.0,0.0,0.0,0.0,0.0,0.0,0.0,0.0,0.0,0.0,0.0,0.0,0.0,0.0,0.0,0.0,0.0,0.0,0.0,0.0,0.0,0.0,0.0,0.0,0.0,0.0,0.0,0.0,0.0,0.0,0.0,0.0,0.0,0.0,0.0,0.0,0.0,0.0,0.0,0.0,0.0,0.0,0.0,0.0,0.0,0.0,0.0,0.0,0.0,0.0,0.0,0.0,0.0,0.0,0.0,0.0,0.0,0.0,0.0
1783390539.588803,0.7242260575294495,0.8157098293304443,-7.929184420163438e-08,0.6818249225616455,0.7862541675567627,-0.0152257289737463,0.6584759950637817,0.7101318836212158,-0.02173672989010811,0.6686239242553711,0.6486619114875793,-0.028597179800271988,0.6868125796318054,0.6087543964385986,-0.033909719437360764,0.6545344591140747,0.6135861873626709,-0.01284081395715475,0.6317943334579468,0.525690495967865,-0.02860400266945362,0.6169548630714417,0.4724811911582947,-0.03803524002432823,0.6047083735466003,0.4222172796726227,-0.04574061185121536,0.6844007968902588,0.6007486581802368,-0.01469599362462759,0.6740329265594482,0.542945921421051,-0.049310117959976196,0.6795704364776611,0.6127750277519226,-0.05987275391817093,0.6848064064979553,0.6656571626663208,-0.05905018001794815,0.7152059674263,0.600187361240387,-0.01853095553815365,0.7100197672843933,0.5382437705993652,-0.05017467215657234,0.7064327001571655,0.6090259552001953,-0.04834449663758278,0.7048904895782471,0.665360689163208,-0.0382629930973053,0.7430844902992249,0.6054813861846924,-0.023805372416973114,0.7568433880805969,0.5284481048583984,-0.047635577619075775,0.7658742070198059,0.4739416241645813,-0.05448221415281296,0.7721119523048401,0.41506052017211914,-0.054894108325242996,0.0,0.0,0.0,0.0,0.0,0.0,0.0,0.0,0.0,0.0,0.0,0.0,0.0,0.0,0.0,0.0,0.0,0.0,0.0,0.0,0.0,0.0,0.0,0.0,0.0,0.0,0.0,0.0,0.0,0.0,0.0,0.0,0.0,0.0,0.0,0.0,0.0,0.0,0.0,0.0,0.0,0.0,0.0,0.0,0.0,0.0,0.0,0.0,0.0,0.0,0.0,0.0,0.0,0.0,0.0,0.0,0.0,0.0,0.0,0.0,0.0,0.0,0.0
1783390539.721148,0.726430356502533,0.8161114454269409,-7.343750496602297e-08,0.6835020780563354,0.7864741683006287,-0.014804657548666,0.6595219969749451,0.7106556296348572,-0.021103831008076668,0.6708948016166687,0.6491105556488037,-0.027787907049059868,0.6915550827980042,0.6104902029037476,-0.03312722221016884,0.654973566532135,0.6135664582252502,-0.013326241634786129,0.6328333616256714,0.5245504379272461,-0.029438793659210205,0.6192697286605835,0.47048434615135193,-0.038961756974458694,0.6081326007843018,0.41907429695129395,-0.04675319790840149,0.6852400302886963,0.6003230810165405,-0.01515868492424488,0.6756626963615417,0.5438957810401917,-0.049794599413871765,0.6819981336593628,0.6148362755775452,-0.06007989123463631,0.6872934103012085,0.6670913696289062,-0.05929975211620331,0.7164263129234314,0.5991683602333069,-0.018995605409145355,0.7117584347724915,0.5375556945800781,-0.05100783333182335,0.707950234413147,0.60690838098526,-0.04984656721353531,0.7057446241378784,0.6620464324951172,-0.040305014699697495,0.7443205714225769,0.6039921045303345,-0.02414354309439659,0.7581430673599243,0.5258509516716003,-0.04885952174663544,0.7674451470375061,0.47063663601875305,-0.056671541184186935,0.7735697627067566,0.41151049733161926,-0.057765379548072815,0.0,0.0,0.0,0.0,0.0,0.0,0.0,0.0,0.0,0.0,0.0,0.0,0.0,0.0,0.0,0.0,0.0,0.0,0.0,0.0,0.0,0.0,0.0,0.0,0.0,0.0,0.0,0.0,0.0,0.0,0.0,0.0,0.0,0.0,0.0,0.0,0.0,0.0,0.0,0.0,0.0,0.0,0.0,0.0,0.0,0.0,0.0,0.0,0.0,0.0,0.0,0.0,0.0,0.0,0.0,0.0,0.0,0.0,0.0,0.0,0.0,0.0,0.0
1783390539.883779,0.7239096164703369,0.8140567541122437,-6.062359148018004e-08,0.6817036867141724,0.78409343957901,-0.013735600747168064,0.6588572859764099,0.7083268165588379,-0.019560793414711952,0.6688059568405151,0.6490669250488281,-0.026038218289613724,0.6869176626205444,0.6135128736495972,-0.03125448524951935,0.6537080407142639,0.6125076413154602,-0.011745608411729336,0.6315962076187134,0.5228772163391113,-0.027268314734101295,0.617487370967865,0.4677629768848419,-0.037054672837257385,0.6059072017669678,0.4163264334201813,-0.04492483288049698,0.6834290623664856,0.5997267365455627,-0.013912889175117016,0.6739775538444519,0.5403152704238892,-0.047707926481962204,0.6789528727531433,0.6072772145271301,-0.05860239639878273,0.6835184097290039,0.6592316627502441,-0.058171842247247696,0.7142665982246399,0.598170816898346,-0.017808903008699417,0.7092559337615967,0.5341541171073914,-0.04834865406155586,0.7058969140052795,0.603124737739563,-0.04670136049389839,0.7047069668769836,0.6589871048927307,-0.03689024597406387,0.7422230839729309,0.6024436950683594,-0.023045554757118225,0.7548409700393677,0.524609386920929,-0.04593033716082573,0.7630918025970459,0.4699576497077942,-0.052315015345811844,0.7691059112548828,0.41145089268684387,-0.0523715540766716,0.0,0.0,0.0,0.0,0.0,0.0,0.0,0.0,0.0,0.0,0.0,0.0,0.0,0.0,0.0,0.0,0.0,0.0,0.0,0.0,0.0,0.0,0.0,0.0,0.0,0.0,0.0,0.0,0.0,0.0,0.0,0.0,0.0,0.0,0.0,0.0,0.0,0.0,0.0,0.0,0.0,0.0,0.0,0.0,0.0,0.0,0.0,0.0,0.0,0.0,0.0,0.0,0.0,0.0,0.0,0.0,0.0,0.0,0.0,0.0,0.0,0.0,0.0
1783390540.030538,0.7228894233703613,0.8149271607398987,-6.941925789760717e-08,0.6803337931632996,0.7865837216377258,-0.015366652049124241,0.6572667956352234,0.7136475443840027,-0.02209860272705555,0.668201208114624,0.6549931168556213,-0.029049629345536232,0.6878705620765686,0.6178316473960876,-0.0345584899187088,0.652878999710083,0.6139389276504517,-0.013948789797723293,0.6308707594871521,0.5245395302772522,-0.030265141278505325,0.6169998645782471,0.46955153346061707,-0.040333814918994904,0.6057643294334412,0.4174499213695526,-0.04845141991972923,0.6827487349510193,0.6009799838066101,-0.015671949833631516,0.6731825470924377,0.5415976047515869,-0.05051257088780403,0.6783946752548218,0.6112356781959534,-0.06132490187883377,0.6832005381584167,0.6639198064804077,-0.0607062391936779,0.7135639190673828,0.599810779094696,-0.019299589097499847,0.709064245223999,0.5365956425666809,-0.05093180388212204,0.705337405204773,0.6066954135894775,-0.04946577921509743,0.7034945487976074,0.6622796058654785,-0.03964119777083397,0.7413860559463501,0.6044701933860779,-0.024359941482543945,0.7542313933372498,0.5268861651420593,-0.048445411026477814,0.762542724609375,0.47261980175971985,-0.05555389076471329,0.768317699432373,0.4139242172241211,-0.05604708194732666,0.0,0.0,0.0,0.0,0.0,0.0,0.0,0.0,0.0,0.0,0.0,0.0,0.0,0.0,0.0,0.0,0.0,0.0,0.0,0.0,0.0,0.0,0.0,0.0,0.0,0.0,0.0,0.0,0.0,0.0,0.0,0.0,0.0,0.0,0.0,0.0,0.0,0.0,0.0,0.0,0.0,0.0,0.0,0.0,0.0,0.0,0.0,0.0,0.0,0.0,0.0,0.0,0.0,0.0,0.0,0.0,0.0,0.0,0.0,0.0,0.0,0.0,0.0
1783390540.200306,0.7246683239936829,0.8158912658691406,-6.730436297175402e-08,0.6825283169746399,0.7871208190917969,-0.015902681276202202,0.6588274836540222,0.7154003381729126,-0.0234935712069273,0.6695178151130676,0.6567733287811279,-0.031422123312950134,0.6892450451850891,0.6185071468353271,-0.03782040253281593,0.6541655659675598,0.6119762063026428,-0.014753656461834908,0.6328015923500061,0.5221362709999084,-0.03144708275794983,0.6203098893165588,0.4683230519294739,-0.04132763296365738,0.6096780896186829,0.41747647523880005,-0.04918899014592171,0.6847904920578003,0.6001107692718506,-0.016521699726581573,0.675807774066925,0.5466221570968628,-0.05203910171985626,0.6819683313369751,0.6182917356491089,-0.06277482211589813,0.686994731426239,0.6701223254203796,-0.06211879849433899,0.7161594033241272,0.5995979905128479,-0.02033577859401703,0.7123209238052368,0.5407863855361938,-0.05325103551149368,0.7086362838745117,0.6108476519584656,-0.05221311002969742,0.7059416770935059,0.6654696464538574,-0.042419396340847015,0.7443197965621948,0.6047741174697876,-0.02552950754761696,0.7576984763145447,0.5274001955986023,-0.05047908052802086,0.7662644386291504,0.47306227684020996,-0.057813286781311035,0.7719835042953491,0.41441383957862854,-0.0582754984498024,0.0,0.0,0.0,0.0,0.0,0.0,0.0,0.0,0.0,0.0,0.0,0.0,0.0,0.0,0.0,0.0,0.0,0.0,0.0,0.0,0.0,0.0,0.0,0.0,0.0,0.0,0.0,0.0,0.0,0.0,0.0,0.0,0.0,0.0,0.0,0.0,0.0,0.0,0.0,0.0,0.0,0.0,0.0,0.0,0.0,0.0,0.0,0.0,0.0,0.0,0.0,0.0,0.0,0.0,0.0,0.0,0.0,0.0,0.0,0.0,0.0,0.0,0.0
1783390540.445817,0.7244963645935059,0.8216306567192078,-7.357689923992439e-08,0.6814687252044678,0.7916774749755859,-0.015336190350353718,0.6575195789337158,0.7174928188323975,-0.02252369560301304,0.6709300875663757,0.6579383611679077,-0.029941873624920845,0.6939506530761719,0.6220191717147827,-0.036046843975782394,0.6543377637863159,0.6176185011863708,-0.014784308150410652,0.6321280598640442,0.526150107383728,-0.030940240249037743,0.6186271905899048,0.47158557176589966,-0.0410676933825016,0.6070994138717651,0.4195917248725891,-0.04947851970791817,0.6840478181838989,0.605457067489624,-0.016647275537252426,0.674399197101593,0.5478401184082031,-0.05074768885970116,0.6804537773132324,0.618764340877533,-0.06104535609483719,0.6855128407478333,0.6697683334350586,-0.06058014556765556,0.7145808935165405,0.6052359342575073,-0.020382873713970184,0.7101611495018005,0.543715238571167,-0.051002491265535355,0.7066622972488403,0.6135254502296448,-0.048780735582113266,0.7047074437141418,0.6686572432518005,-0.03895340859889984,0.7423007488250732,0.6103461980819702,-0.0256540235131979,0.7553606033325195,0.530884861946106,-0.049168311059474945,0.7634968161582947,0.47598978877067566,-0.05579478666186333,0.7687201499938965,0.41715142130851746,-0.05621474236249924,0.0,0.0,0.0,0.0,0.0,0.0,0.0,0.0,0.0,0.0,0.0,0.0,0.0,0.0,0.0,0.0,0.0,0.0,0.0,0.0,0.0,0.0,0.0,0.0,0.0,0.0,0.0,0.0,0.0,0.0,0.0,0.0,0.0,0.0,0.0,0.0,0.0,0.0,0.0,0.0,0.0,0.0,0.0,0.0,0.0,0.0,0.0,0.0,0.0,0.0,0.0,0.0,0.0,0.0,0.0,0.0,0.0,0.0,0.0,0.0,0.0,0.0,0.0
1783390540.587738,0.7241246700286865,0.8227111101150513,-6.764159365957312e-08,0.6813335418701172,0.7930623292922974,-0.016433287411928177,0.6581010222434998,0.7206168174743652,-0.024453118443489075,0.6703128218650818,0.6627046465873718,-0.03290167450904846,0.6917770504951477,0.626617431640625,-0.0399780198931694,0.6540645956993103,0.6194537281990051,-0.015012834221124649,0.6317496299743652,0.5288836359977722,-0.03163198009133339,0.6190104484558105,0.4753459393978119,-0.04128801450133324,0.6086804270744324,0.42376968264579773,-0.04894884675741196,0.6843519806861877,0.6078214049339294,-0.016810022294521332,0.6761459708213806,0.5521256327629089,-0.05263553932309151,0.6821568012237549,0.6243584752082825,-0.06331346184015274,0.686773955821991,0.6760962009429932,-0.06238553673028946,0.7150959968566895,0.6076099276542664,-0.0206956397742033,0.7116144895553589,0.5477280616760254,-0.05342476814985275,0.7080842852592468,0.6184015274047852,-0.05214428901672363,0.7054027915000916,0.6732273101806641,-0.04208531975746155,0.7426204681396484,0.6127629280090332,-0.026110637933015823,0.7555652260780334,0.5343858599662781,-0.05050361156463623,0.7635708451271057,0.47942811250686646,-0.05756507068872452,0.7685164213180542,0.42023980617523193,-0.05792050436139107,0.0,0.0,0.0,0.0,0.0,0.0,0.0,0.0,0.0,0.0,0.0,0.0,0.0,0.0,0.0,0.0,0.0,0.0,0.0,0.0,0.0,0.0,0.0,0.0,0.0,0.0,0.0,0.0,0.0,0.0,0.0,0.0,0.0,0.0,0.0,0.0,0.0,0.0,0.0,0.0,0.0,0.0,0.0,0.0,0.0,0.0,0.0,0.0,0.0,0.0,0.0,0.0,0.0,0.0,0.0,0.0,0.0,0.0,0.0,0.0,0.0,0.0,0.0
1783390540.726924,0.7250587940216064,0.8250800967216492,-7.14356502840019e-08,0.6824055910110474,0.7950381636619568,-0.015670087188482285,0.6592912077903748,0.7207632064819336,-0.02318015694618225,0.6720216870307922,0.6609646081924438,-0.03108239360153675,0.6937828063964844,0.624302864074707,-0.037569209933280945,0.6543576717376709,0.6202525496482849,-0.014750436879694462,0.6329666376113892,0.5296122431755066,-0.03142992779612541,0.6204726099967957,0.47536689043045044,-0.04143892973661423,0.6098139882087708,0.42370498180389404,-0.04940284416079521,0.6849039793014526,0.6083102822303772,-0.016563456505537033,0.6763598322868347,0.5532305836677551,-0.05174960196018219,0.682689905166626,0.6252762079238892,-0.06206244230270386,0.6874796748161316,0.6770148873329163,-0.06110229715704918,0.7160449624061584,0.6081582307815552,-0.020371640101075172,0.7124090194702148,0.5490076541900635,-0.0523369275033474,0.7087863683700562,0.6192165613174438,-0.050411585718393326,0.7059813737869263,0.6738945245742798,-0.04015219956636429,0.7437797784805298,0.6135186553001404,-0.025670280680060387,0.7564574480056763,0.5349348187446594,-0.049544937908649445,0.764374315738678,0.48017796874046326,-0.05602026730775833,0.7692914009094238,0.42114153504371643,-0.056012652814388275,0.0,0.0,0.0,0.0,0.0,0.0,0.0,0.0,0.0,0.0,0.0,0.0,0.0,0.0,0.0,0.0,0.0,0.0,0.0,0.0,0.0,0.0,0.0,0.0,0.0,0.0,0.0,0.0,0.0,0.0,0.0,0.0,0.0,0.0,0.0,0.0,0.0,0.0,0.0,0.0,0.0,0.0,0.0,0.0,0.0,0.0,0.0,0.0,0.0,0.0,0.0,0.0,0.0,0.0,0.0,0.0,0.0,0.0,0.0,0.0,0.0,0.0,0.0
1783390540.887419,0.7252902984619141,0.8243216276168823,-6.211128322775039e-08,0.6830530166625977,0.7951737642288208,-0.016629403457045555,0.6595209836959839,0.7212014198303223,-0.024613413959741592,0.6717208027839661,0.6596826314926147,-0.033058516681194305,0.6924163699150085,0.6207752823829651,-0.040229275822639465,0.6548820734024048,0.6204662919044495,-0.0148214902728796,0.6331052780151367,0.5292105674743652,-0.031391773372888565,0.6202085614204407,0.4747772216796875,-0.04113437980413437,0.6094807386398315,0.422610342502594,-0.04889966547489166,0.6851087212562561,0.6074734926223755,-0.016505533829331398,0.676412045955658,0.5521107316017151,-0.05220097303390503,0.6820541620254517,0.6237180829048157,-0.06323642283678055,0.6865627765655518,0.6755660176277161,-0.06260558217763901,0.7157993912696838,0.6066715121269226,-0.02028546668589115,0.7126150727272034,0.5473628044128418,-0.05285816267132759,0.7087425589561462,0.6167525053024292,-0.05199892073869705,0.705713152885437,0.6709474921226501,-0.04226607829332352,0.7432736754417419,0.6119371652603149,-0.025599006563425064,0.7558098435401917,0.5329404473304749,-0.049434345215559006,0.7640358209609985,0.47789454460144043,-0.05631352588534355,0.7693461179733276,0.41931667923927307,-0.056598976254463196,0.0,0.0,0.0,0.0,0.0,0.0,0.0,0.0,0.0,0.0,0.0,0.0,0.0,0.0,0.0,0.0,0.0,0.0,0.0,0.0,0.0,0.0,0.0,0.0,0.0,0.0,0.0,0.0,0.0,0.0,0.0,0.0,0.0,0.0,0.0,0.0,0.0,0.0,0.0,0.0,0.0,0.0,0.0,0.0,0.0,0.0,0.0,0.0,0.0,0.0,0.0,0.0,0.0,0.0,0.0,0.0,0.0,0.0,0.0,0.0,0.0,0.0,0.0
1783390541.027633,0.7251744270324707,0.8244906663894653,-6.022096954438894e-08,0.6829718947410583,0.7958095669746399,-0.016293436288833618,0.6592928767204285,0.7218382954597473,-0.024129223078489304,0.6722118854522705,0.6620163321495056,-0.032467253506183624,0.6947367191314697,0.6258098483085632,-0.03955528885126114,0.6545606851577759,0.6192233562469482,-0.014335842803120613,0.632857084274292,0.5283793807029724,-0.030547913163900375,0.6200753450393677,0.4742256999015808,-0.040058497339487076,0.6096148490905762,0.4221348166465759,-0.04766571894288063,0.6847817897796631,0.6069066524505615,-0.01615779660642147,0.6762758493423462,0.5505419969558716,-0.051560524851083755,0.6816005706787109,0.6217950582504272,-0.06252620369195938,0.6859171390533447,0.6739541292190552,-0.06180153787136078,0.7156118750572205,0.6065632104873657,-0.020018169656395912,0.712438702583313,0.5465086102485657,-0.052468009293079376,0.7087181806564331,0.616450846195221,-0.051567621529102325,0.7057857513427734,0.6708310842514038,-0.04168747365474701,0.7432870268821716,0.6118742823600769,-0.02535848878324032,0.7555056214332581,0.5327140688896179,-0.04889495298266411,0.7636192440986633,0.47792327404022217,-0.055500343441963196,0.7687702775001526,0.41926783323287964,-0.0555664524435997,0.0,0.0,0.0,0.0,0.0,0.0,0.0,0.0,0.0,0.0,0.0,0.0,0.0,0.0,0.0,0.0,0.0,0.0,0.0,0.0,0.0,0.0,0.0,0.0,0.0,0.0,0.0,0.0,0.0,0.0,0.0,0.0,0.0,0.0,0.0,0.0,0.0,0.0,0.0,0.0,0.0,0.0,0.0,0.0,0.0,0.0,0.0,0.0,0.0,0.0,0.0,0.0,0.0,0.0,0.0,0.0,0.0,0.0,0.0,0.0,0.0,0.0,0.0
1783390541.187377,0.7246805429458618,0.8243001103401184,-6.785302986145325e-08,0.6823387742042542,0.7943184971809387,-0.015443013980984688,0.6589784026145935,0.7188178300857544,-0.022633925080299377,0.6722769141197205,0.6588804721832275,-0.030422255396842957,0.69499671459198,0.6242788434028625,-0.0369597002863884,0.6536949276924133,0.618990421295166,-0.013453979045152664,0.631870448589325,0.5286704897880554,-0.028987662866711617,0.6191220879554749,0.4752063453197479,-0.03786258026957512,0.6087646484375,0.4237711429595947,-0.04499385133385658,0.6841505169868469,0.6067217588424683,-0.015441890805959702,0.6758448481559753,0.5512300729751587,-0.050402335822582245,0.6815741658210754,0.622819721698761,-0.06091095507144928,0.6865035891532898,0.6754297614097595,-0.05980322137475014,0.715210497379303,0.606549084186554,-0.01937921531498432,0.712037205696106,0.5474667549133301,-0.05140814185142517,0.7082136869430542,0.6174035668373108,-0.05036187171936035,0.7054524421691895,0.6718130707740784,-0.04038415849208832,0.7430545687675476,0.6119030117988586,-0.024723459035158157,0.7550612092018127,0.5328181385993958,-0.04780445992946625,0.7629016041755676,0.4783080220222473,-0.05419225990772247,0.767986536026001,0.4202881455421448,-0.054137811064720154,0.0,0.0,0.0,0.0,0.0,0.0,0.0,0.0,0.0,0.0,0.0,0.0,0.0,0.0,0.0,0.0,0.0,0.0,0.0,0.0,0.0,0.0,0.0,0.0,0.0,0.0,0.0,0.0,0.0,0.0,0.0,0.0,0.0,0.0,0.0,0.0,0.0,0.0,0.0,0.0,0.0,0.0,0.0,0.0,0.0,0.0,0.0,0.0,0.0,0.0,0.0,0.0,0.0,0.0,0.0,0.0,0.0,0.0,0.0,0.0,0.0,0.0,0.0
1783390541.316322,0.7239078283309937,0.8222994208335876,-7.53706075329319e-08,0.681523859500885,0.7927644848823547,-0.01481905672699213,0.6582194566726685,0.7169172167778015,-0.021445466205477715,0.6691930294036865,0.6561633348464966,-0.028491970151662827,0.6894453167915344,0.6216313242912292,-0.03422689437866211,0.6520493626594543,0.619035005569458,-0.013560537248849869,0.6306939721107483,0.5283051133155823,-0.02954394556581974,0.6174055933952332,0.47328096628189087,-0.039294466376304626,0.6063928604125977,0.42107093334198,-0.04711074009537697,0.6821448802947998,0.6058474779129028,-0.01539165060967207,0.6734185814857483,0.5485423803329468,-0.04964051395654678,0.6794267892837524,0.6200459599494934,-0.05960626155138016,0.6843211650848389,0.6733829379081726,-0.05837563797831535,0.7130373120307922,0.6043834686279297,-0.019067080691456795,0.7088824510574341,0.5414601564407349,-0.049614317715168,0.7056195139884949,0.6099011301994324,-0.04729193076491356,0.7037383913993835,0.6643592715263367,-0.03695434704422951,0.7407518029212952,0.6088508367538452,-0.02420101687312126,0.7519018054008484,0.5294629335403442,-0.04653152450919151,0.7593236565589905,0.474932461977005,-0.05223376303911209,0.7643365859985352,0.41683968901634216,-0.051830489188432693,0.0,0.0,0.0,0.0,0.0,0.0,0.0,0.0,0.0,0.0,0.0,0.0,0.0,0.0,0.0,0.0,0.0,0.0,0.0,0.0,0.0,0.0,0.0,0.0,0.0,0.0,0.0,0.0,0.0,0.0,0.0,0.0,0.0,0.0,0.0,0.0,0.0,0.0,0.0,0.0,0.0,0.0,0.0,0.0,0.0,0.0,0.0,0.0,0.0,0.0,0.0,0.0,0.0,0.0,0.0,0.0,0.0,0.0,0.0,0.0,0.0,0.0,0.0
1783390541.456296,0.7219403982162476,0.8181377649307251,-7.001475665902035e-08,0.6797547340393066,0.7885569930076599,-0.014224279671907425,0.6564714312553406,0.7130158543586731,-0.02039828896522522,0.6683046817779541,0.6540778875350952,-0.0271975789219141,0.6886122822761536,0.6204742193222046,-0.03280753642320633,0.6508429646492004,0.6163806319236755,-0.012335432693362236,0.6292065978050232,0.5260657668113708,-0.02773555926978588,0.6159299612045288,0.4712490737438202,-0.036921847611665726,0.6049224734306335,0.41966089606285095,-0.04428005963563919,0.6808769106864929,0.6036332249641418,-0.014358704909682274,0.6719487905502319,0.5473467707633972,-0.04862804710865021,0.6780544519424438,0.6177306771278381,-0.058916427195072174,0.6831116676330566,0.6704631447792053,-0.057791195809841156,0.7116594314575195,0.6020816564559937,-0.01819017343223095,0.7076379656791687,0.5406109094619751,-0.04911106824874878,0.7044321894645691,0.6090607047080994,-0.04740843176841736,0.7023333311080933,0.6632196307182312,-0.03727443888783455,0.7392138838768005,0.6061127781867981,-0.023366723209619522,0.750377893447876,0.5277054905891418,-0.04583578184247017,0.7578341960906982,0.4734211266040802,-0.05171767994761467,0.7626027464866638,0.41518938541412354,-0.05134451761841774,0.0,0.0,0.0,0.0,0.0,0.0,0.0,0.0,0.0,0.0,0.0,0.0,0.0,0.0,0.0,0.0,0.0,0.0,0.0,0.0,0.0,0.0,0.0,0.0,0.0,0.0,0.0,0.0,0.0,0.0,0.0,0.0,0.0,0.0,0.0,0.0,0.0,0.0,0.0,0.0,0.0,0.0,0.0,0.0,0.0,0.0,0.0,0.0,0.0,0.0,0.0,0.0,0.0,0.0,0.0,0.0,0.0,0.0,0.0,0.0,0.0,0.0,0.0
1783390541.585707,0.7224330902099609,0.817534327507019,-6.958232745546411e-08,0.6797771453857422,0.7883923053741455,-0.015510275959968567,0.6555869579315186,0.7139735221862793,-0.022639859467744827,0.6669709086418152,0.6528058052062988,-0.030326608568429947,0.687926709651947,0.6142265796661377,-0.03670431300997734,0.6511237621307373,0.615355372428894,-0.013214964419603348,0.6288022994995117,0.5262402296066284,-0.029342971742153168,0.6152779459953308,0.47232815623283386,-0.03888222947716713,0.6041490435600281,0.4207848906517029,-0.046488843858242035,0.6809098720550537,0.6023193597793579,-0.015195517800748348,0.6719129681587219,0.5457261800765991,-0.05039038509130478,0.677685022354126,0.6162953972816467,-0.06114484742283821,0.6824408173561096,0.6686199307441711,-0.0602521114051342,0.711440920829773,0.6010203957557678,-0.019215721637010574,0.7071329355239868,0.5412918329238892,-0.05137789994478226,0.7038862705230713,0.6105642914772034,-0.050252120941877365,0.7017156481742859,0.6648847460746765,-0.04028422385454178,0.738971471786499,0.6053903102874756,-0.024676736444234848,0.7505863308906555,0.5265122652053833,-0.04799149930477142,0.758108913898468,0.47185319662094116,-0.054476723074913025,0.7626270055770874,0.4134514033794403,-0.05453619360923767,0.0,0.0,0.0,0.0,0.0,0.0,0.0,0.0,0.0,0.0,0.0,0.0,0.0,0.0,0.0,0.0,0.0,0.0,0.0,0.0,0.0,0.0,0.0,0.0,0.0,0.0,0.0,0.0,0.0,0.0,0.0,0.0,0.0,0.0,0.0,0.0,0.0,0.0,0.0,0.0,0.0,0.0,0.0,0.0,0.0,0.0,0.0,0.0,0.0,0.0,0.0,0.0,0.0,0.0,0.0,0.0,0.0,0.0,0.0,0.0,0.0,0.0,0.0
1783390541.724498,0.7215047478675842,0.8190125226974487,-6.800019747288388e-08,0.6792595386505127,0.7898257970809937,-0.015639416873455048,0.656029999256134,0.7154839038848877,-0.023038560524582863,0.6690164804458618,0.6557022929191589,-0.030990606173872948,0.6912254095077515,0.6196314096450806,-0.03765545412898064,0.6510016322135925,0.6166665554046631,-0.013865882530808449,0.6293025612831116,0.5275269150733948,-0.029811928048729897,0.6167312264442444,0.47485825419425964,-0.03900543600320816,0.6064366102218628,0.4240510165691376,-0.046335428953170776,0.6812924742698669,0.604260265827179,-0.015792138874530792,0.672983705997467,0.548236072063446,-0.0509323887526989,0.6785228848457336,0.6196863055229187,-0.06160175800323486,0.6828641295433044,0.6715489029884338,-0.06066000834107399,0.7121061086654663,0.6034952998161316,-0.019693683832883835,0.7086830139160156,0.5441443920135498,-0.052068669348955154,0.7050850987434387,0.6145182847976685,-0.05114557221531868,0.7022120356559753,0.6692026853561401,-0.04124772548675537,0.7395266890525818,0.6080700755119324,-0.024983305484056473,0.7515015602111816,0.5291996598243713,-0.048632603138685226,0.759221613407135,0.4742354154586792,-0.05533828213810921,0.7639341950416565,0.41523465514183044,-0.05546923354268074,0.0,0.0,0.0,0.0,0.0,0.0,0.0,0.0,0.0,0.0,0.0,0.0,0.0,0.0,0.0,0.0,0.0,0.0,0.0,0.0,0.0,0.0,0.0,0.0,0.0,0.0,0.0,0.0,0.0,0.0,0.0,0.0,0.0,0.0,0.0,0.0,0.0,0.0,0.0,0.0,0.0,0.0,0.0,0.0,0.0,0.0,0.0,0.0,0.0,0.0,0.0,0.0,0.0,0.0,0.0,0.0,0.0,0.0,0.0,0.0,0.0,0.0,0.0
1783390541.850352,0.721069872379303,0.8198948502540588,-7.216086572725544e-08,0.6786253452301025,0.7904453873634338,-0.015792416408658028,0.655335009098053,0.715264081954956,-0.022990847006440163,0.6684954166412354,0.6551482081413269,-0.030581684783101082,0.6911803483963013,0.6202700138092041,-0.03694679215550423,0.6514421105384827,0.6176484823226929,-0.01450891513377428,0.6301088333129883,0.5282917618751526,-0.030532920733094215,0.617525041103363,0.474759966135025,-0.03966478630900383,0.607008695602417,0.42357972264289856,-0.04701501131057739,0.6815071702003479,0.604843258857727,-0.016279470175504684,0.6729238033294678,0.5495826005935669,-0.051570869982242584,0.6793813109397888,0.6221917271614075,-0.06177043542265892,0.6843011379241943,0.6748446822166443,-0.06042804941534996,0.712300181388855,0.604167640209198,-0.02005542628467083,0.7087767720222473,0.5460242629051208,-0.05234792083501816,0.7053244113922119,0.6159665584564209,-0.05107389762997627,0.702401876449585,0.6705183386802673,-0.04100367799401283,0.7396798729896545,0.6089110970497131,-0.025259224697947502,0.7518795132637024,0.5299994945526123,-0.049101322889328,0.7598806023597717,0.47502386569976807,-0.055937979370355606,0.7645983099937439,0.4161725342273712,-0.056217871606349945,0.0,0.0,0.0,0.0,0.0,0.0,0.0,0.0,0.0,0.0,0.0,0.0,0.0,0.0,0.0,0.0,0.0,0.0,0.0,0.0,0.0,0.0,0.0,0.0,0.0,0.0,0.0,0.0,0.0,0.0,0.0,0.0,0.0,0.0,0.0,0.0,0.0,0.0,0.0,0.0,0.0,0.0,0.0,0.0,0.0,0.0,0.0,0.0,0.0,0.0,0.0,0.0,0.0,0.0,0.0,0.0,0.0,0.0,0.0,0.0,0.0,0.0,0.0
1783390541.981718,0.7214855551719666,0.8199483156204224,-5.754515086664469e-08,0.6796199083328247,0.7919086217880249,-0.017017759382724762,0.6561790704727173,0.7192521095275879,-0.025460239499807358,0.6689673066139221,0.6586003303527832,-0.03410813957452774,0.6907159686088562,0.6210564970970154,-0.041375938802957535,0.6515647768974304,0.6179988384246826,-0.016030671074986458,0.6305762529373169,0.5288603901863098,-0.03266790136694908,0.6183246970176697,0.47507545351982117,-0.04237547144293785,0.607962965965271,0.4238138794898987,-0.050097014755010605,0.6817038059234619,0.6052888631820679,-0.017377592623233795,0.6731520295143127,0.5501176714897156,-0.05272514000535011,0.6795793175697327,0.6224325299263,-0.06309087574481964,0.6843640804290771,0.6749343276023865,-0.06203356385231018,0.7125530242919922,0.6045905947685242,-0.020801246166229248,0.7087713479995728,0.5462098121643066,-0.05313434451818466,0.7052997350692749,0.6161400079727173,-0.051707517355680466,0.7024176120758057,0.6704899668693542,-0.04163030534982681,0.739952802658081,0.6095379590988159,-0.025748683139681816,0.7523666024208069,0.5309545993804932,-0.049299512058496475,0.7604765892028809,0.4763987064361572,-0.05581258609890938,0.7652190327644348,0.41758203506469727,-0.05591854080557823,0.0,0.0,0.0,0.0,0.0,0.0,0.0,0.0,0.0,0.0,0.0,0.0,0.0,0.0,0.0,0.0,0.0,0.0,0.0,0.0,0.0,0.0,0.0,0.0,0.0,0.0,0.0,0.0,0.0,0.0,0.0,0.0,0.0,0.0,0.0,0.0,0.0,0.0,0.0,0.0,0.0,0.0,0.0,0.0,0.0,0.0,0.0,0.0,0.0,0.0,0.0,0.0,0.0,0.0,0.0,0.0,0.0,0.0,0.0,0.0,0.0,0.0,0.0
1783390542.125807,0.7212346792221069,0.8203266263008118,-7.364657506059302e-08,0.678933322429657,0.7907531261444092,-0.015444250777363777,0.6556757688522339,0.7151626944541931,-0.022225214168429375,0.6682462096214294,0.65260910987854,-0.029425067827105522,0.6891724467277527,0.614137589931488,-0.03526533022522926,0.6519668698310852,0.6170583367347717,-0.013311178423464298,0.6316700577735901,0.5287211537361145,-0.029171695932745934,0.6194977164268494,0.47532299160957336,-0.03826358914375305,0.6091026663780212,0.42438843846321106,-0.04552353918552399,0.6819887161254883,0.6047071218490601,-0.015045245178043842,0.6733434796333313,0.5489433407783508,-0.0500338189303875,0.6794174313545227,0.6202258467674255,-0.060433804988861084,0.6840887069702148,0.6727632284164429,-0.059243470430374146,0.7128096222877502,0.6039889454841614,-0.018787609413266182,0.7087490558624268,0.5447293519973755,-0.05109640210866928,0.7051694393157959,0.6141775846481323,-0.05003198981285095,0.7024208307266235,0.6681855320930481,-0.04001763090491295,0.7402558922767639,0.6088775992393494,-0.023876948282122612,0.7526112794876099,0.5308041572570801,-0.04749884828925133,0.7606416344642639,0.47664129734039307,-0.05425934121012688,0.765370786190033,0.41820964217185974,-0.05443420633673668,0.0,0.0,0.0,0.0,0.0,0.0,0.0,0.0,0.0,0.0,0.0,0.0,0.0,0.0,0.0,0.0,0.0,0.0,0.0,0.0,0.0,0.0,0.0,0.0,0.0,0.0,0.0,0.0,0.0,0.0,0.0,0.0,0.0,0.0,0.0,0.0,0.0,0.0,0.0,0.0,0.0,0.0,0.0,0.0,0.0,0.0,0.0,0.0,0.0,0.0,0.0,0.0,0.0,0.0,0.0,0.0,0.0,0.0,0.0,0.0,0.0,0.0,0.0
1783390542.2598798,0.7225091457366943,0.8226438164710999,-5.941734926295794e-08,0.680741548538208,0.7936645746231079,-0.015704385936260223,0.6579026579856873,0.7196973562240601,-0.023311985656619072,0.67144376039505,0.6590155363082886,-0.03136688843369484,0.6938157081604004,0.6219295859336853,-0.03798333927989006,0.6523265838623047,0.6180123090744019,-0.013889876194298267,0.6322656273841858,0.5283353924751282,-0.029971854761242867,0.6209834814071655,0.4746246039867401,-0.0395614318549633,0.6115515232086182,0.42349037528038025,-0.04718555137515068,0.6828334331512451,0.6065326929092407,-0.015670498833060265,0.6745252013206482,0.5513527989387512,-0.050323035567998886,0.6804265975952148,0.6221858263015747,-0.06088041141629219,0.6850020885467529,0.6736388206481934,-0.06008842960000038,0.7139050364494324,0.6063219308853149,-0.019430330023169518,0.7101748585700989,0.5469173192977905,-0.051249757409095764,0.706497073173523,0.6171301603317261,-0.04984071105718613,0.7037620544433594,0.6716926693916321,-0.03981525078415871,0.7415689826011658,0.6113482713699341,-0.024616850540041924,0.753943681716919,0.5334421992301941,-0.0477486327290535,0.7619394659996033,0.47909507155418396,-0.05402437970042229,0.7668823003768921,0.4201939105987549,-0.05393955856561661,0.0,0.0,0.0,0.0,0.0,0.0,0.0,0.0,0.0,0.0,0.0,0.0,0.0,0.0,0.0,0.0,0.0,0.0,0.0,0.0,0.0,0.0,0.0,0.0,0.0,0.0,0.0,0.0,0.0,0.0,0.0,0.0,0.0,0.0,0.0,0.0,0.0,0.0,0.0,0.0,0.0,0.0,0.0,0.0,0.0,0.0,0.0,0.0,0.0,0.0,0.0,0.0,0.0,0.0,0.0,0.0,0.0,0.0,0.0,0.0,0.0,0.0,0.0
1783390542.4268632,0.7201632261276245,0.8285673260688782,-7.223754749929867e-08,0.6776394844055176,0.7980811595916748,-0.014772010035812855,0.6546428799629211,0.7236726880073547,-0.02161618135869503,0.6653690338134766,0.6630590558052063,-0.029155634343624115,0.6835336685180664,0.6235459446907043,-0.03542254492640495,0.6514744758605957,0.6246423125267029,-0.012417944148182869,0.6305913925170898,0.5352284908294678,-0.02859729342162609,0.6177721619606018,0.48092806339263916,-0.03863610327243805,0.6072994470596313,0.4287211000919342,-0.04657718539237976,0.6809658408164978,0.6121346354484558,-0.014929677359759808,0.671931803226471,0.5530812740325928,-0.04985679313540459,0.6768857836723328,0.6231011152267456,-0.06098968908190727,0.6814812421798706,0.67570561170578,-0.060439903289079666,0.7115625739097595,0.6112728118896484,-0.019368451088666916,0.7069577574729919,0.5495045185089111,-0.050916220992803574,0.7032617926597595,0.6191149353981018,-0.04932238906621933,0.7014220356941223,0.6743527054786682,-0.039233624935150146,0.7393705248832703,0.6159673929214478,-0.025265812873840332,0.7509220242500305,0.5364363789558411,-0.047925252467393875,0.758391261100769,0.4818967878818512,-0.053691599518060684,0.7633591294288635,0.4239131808280945,-0.05332253500819206,0.0,0.0,0.0,0.0,0.0,0.0,0.0,0.0,0.0,0.0,0.0,0.0,0.0,0.0,0.0,0.0,0.0,0.0,0.0,0.0,0.0,0.0,0.0,0.0,0.0,0.0,0.0,0.0,0.0,0.0,0.0,0.0,0.0,0.0,0.0,0.0,0.0,0.0,0.0,0.0,0.0,0.0,0.0,0.0,0.0,0.0,0.0,0.0,0.0,0.0,0.0,0.0,0.0,0.0,0.0,0.0,0.0,0.0,0.0,0.0,0.0,0.0,0.0
1783390542.550126,0.7197638154029846,0.8246249556541443,-4.871074210655024e-08,0.6776168942451477,0.7970319986343384,-0.016133489087224007,0.6540729999542236,0.7266284227371216,-0.024273021146655083,0.6648563742637634,0.6697733402252197,-0.03290140628814697,0.6854020953178406,0.6345306038856506,-0.04027291759848595,0.6497295498847961,0.6236222386360168,-0.014557842165231705,0.629172682762146,0.5336459875106812,-0.03084486536681652,0.6168405413627625,0.4788305163383484,-0.04067192226648331,0.606800377368927,0.42671313881874084,-0.04839863255620003,0.6797670722007751,0.6119838953018188,-0.016414035111665726,0.6713005900382996,0.55495285987854,-0.051764991134405136,0.6764785647392273,0.6262675523757935,-0.06291971355676651,0.6808310747146606,0.6802478432655334,-0.06224571913480759,0.710372805595398,0.6110733151435852,-0.020198507234454155,0.706613302230835,0.5506115555763245,-0.05216960981488228,0.7026296854019165,0.6200308799743652,-0.05116098001599312,0.6997054219245911,0.6747978329658508,-0.04125608876347542,0.7377561330795288,0.6157153248786926,-0.025443101301789284,0.7494229674339294,0.5369991064071655,-0.04801778867840767,0.7575185894966125,0.48227959871292114,-0.0539599172770977,0.7626482844352722,0.4236384928226471,-0.05365907773375511,0.0,0.0,0.0,0.0,0.0,0.0,0.0,0.0,0.0,0.0,0.0,0.0,0.0,0.0,0.0,0.0,0.0,0.0,0.0,0.0,0.0,0.0,0.0,0.0,0.0,0.0,0.0,0.0,0.0,0.0,0.0,0.0,0.0,0.0,0.0,0.0,0.0,0.0,0.0,0.0,0.0,0.0,0.0,0.0,0.0,0.0,0.0,0.0,0.0,0.0,0.0,0.0,0.0,0.0,0.0,0.0,0.0,0.0,0.0,0.0,0.0,0.0,0.0
1783390542.6861398,0.7208148241043091,0.826298177242279,-6.734003221708917e-08,0.6788657307624817,0.797216534614563,-0.015369783155620098,0.6553913950920105,0.7243834137916565,-0.022810855880379677,0.6680028438568115,0.6658544540405273,-0.03077714331448078,0.6907480955123901,0.6307535767555237,-0.03736169636249542,0.6508560180664062,0.6225523352622986,-0.01379842683672905,0.6303777694702148,0.5328465700149536,-0.029637973755598068,0.6182971596717834,0.48021671175956726,-0.03871255740523338,0.6079491972923279,0.4300288259983063,-0.045998573303222656,0.6808470487594604,0.6105542182922363,-0.015779195353388786,0.6710265278816223,0.5557196140289307,-0.05027082934975624,0.6777271032333374,0.6269015669822693,-0.06034106761217117,0.683410108089447,0.6776940226554871,-0.05916862562298775,0.7116865515708923,0.6099318861961365,-0.019733309745788574,0.7076656222343445,0.5511801242828369,-0.05167754739522934,0.704574704170227,0.621864378452301,-0.05005987361073494,0.7021815180778503,0.6760534048080444,-0.03982773423194885,0.7392627000808716,0.6147565841674805,-0.02508212998509407,0.7511780261993408,0.5365621447563171,-0.04850080609321594,0.7588810920715332,0.481962114572525,-0.054797329008579254,0.7635487914085388,0.4228529930114746,-0.05469150468707085,0.0,0.0,0.0,0.0,0.0,0.0,0.0,0.0,0.0,0.0,0.0,0.0,0.0,0.0,0.0,0.0,0.0,0.0,0.0,0.0,0.0,0.0,0.0,0.0,0.0,0.0,0.0,0.0,0.0,0.0,0.0,0.0,0.0,0.0,0.0,0.0,0.0,0.0,0.0,0.0,0.0,0.0,0.0,0.0,0.0,0.0,0.0,0.0,0.0,0.0,0.0,0.0,0.0,0.0,0.0,0.0,0.0,0.0,0.0,0.0,0.0,0.0,0.0
1783390542.8205,0.7207369208335876,0.8244490027427673,-6.847119493613718e-08,0.6796647906303406,0.7952992916107178,-0.015100453048944473,0.6568713188171387,0.7233295440673828,-0.022501051425933838,0.6691768765449524,0.6652090549468994,-0.030572662129998207,0.6910659670829773,0.6298486590385437,-0.0372823141515255,0.6509745121002197,0.620650053024292,-0.013173235580325127,0.6307086944580078,0.5321048498153687,-0.0288497656583786,0.6188837289810181,0.4794348478317261,-0.03752988204360008,0.6091830730438232,0.4293788969516754,-0.04429847002029419,0.6810281276702881,0.609332799911499,-0.015361969359219074,0.6721729040145874,0.5538075566291809,-0.05020565539598465,0.678692638874054,0.6254153847694397,-0.06037085875868797,0.6840519309043884,0.6776029467582703,-0.05889970064163208,0.7120252847671509,0.609146773815155,-0.01949433609843254,0.7082090973854065,0.551020085811615,-0.05185389146208763,0.7052714228630066,0.621304988861084,-0.05059211701154709,0.7028087377548218,0.6751185655593872,-0.04021240398287773,0.7398122549057007,0.6141374111175537,-0.02493169531226158,0.751603901386261,0.5353763103485107,-0.047982338815927505,0.7596139311790466,0.48078131675720215,-0.053993310779333115,0.7642438411712646,0.42197179794311523,-0.05355708301067352,0.0,0.0,0.0,0.0,0.0,0.0,0.0,0.0,0.0,0.0,0.0,0.0,0.0,0.0,0.0,0.0,0.0,0.0,0.0,0.0,0.0,0.0,0.0,0.0,0.0,0.0,0.0,0.0,0.0,0.0,0.0,0.0,0.0,0.0,0.0,0.0,0.0,0.0,0.0,0.0,0.0,0.0,0.0,0.0,0.0,0.0,0.0,0.0,0.0,0.0,0.0,0.0,0.0,0.0,0.0,0.0,0.0,0.0,0.0,0.0,0.0,0.0,0.0
1783390542.95185,0.719618022441864,0.8243075013160706,-4.313284307499998e-08,0.6776843667030334,0.7958134412765503,-0.015385392121970654,0.6543992161750793,0.725042998790741,-0.023575495928525925,0.6668820977210999,0.6706411242485046,-0.032491277903318405,0.689448893070221,0.640364408493042,-0.04026457294821739,0.6503353714942932,0.62114417552948,-0.014085378497838974,0.6301393508911133,0.5302835702896118,-0.030229147523641586,0.618204653263092,0.47585856914520264,-0.03997774049639702,0.6086621880531311,0.42427363991737366,-0.047748733311891556,0.6802714467048645,0.6098856329917908,-0.01651163212954998,0.671478271484375,0.5541412234306335,-0.051751431077718735,0.6770159602165222,0.6262328028678894,-0.0627366453409195,0.6818698048591614,0.6791059970855713,-0.061987124383449554,0.7110046148300171,0.6092753410339355,-0.020834311842918396,0.7074242234230042,0.5489224195480347,-0.05232388898730278,0.7031552791595459,0.6170802116394043,-0.0512567013502121,0.6999172568321228,0.671099066734314,-0.04149876907467842,0.7384390234947205,0.6139662861824036,-0.026611825451254845,0.750199019908905,0.5349186062812805,-0.04899381101131439,0.758205771446228,0.48040318489074707,-0.054903794080019,0.7631735801696777,0.42210933566093445,-0.05462665110826492,0.0,0.0,0.0,0.0,0.0,0.0,0.0,0.0,0.0,0.0,0.0,0.0,0.0,0.0,0.0,0.0,0.0,0.0,0.0,0.0,0.0,0.0,0.0,0.0,0.0,0.0,0.0,0.0,0.0,0.0,0.0,0.0,0.0,0.0,0.0,0.0,0.0,0.0,0.0,0.0,0.0,0.0,0.0,0.0,0.0,0.0,0.0,0.0,0.0,0.0,0.0,0.0,0.0,0.0,0.0,0.0,0.0,0.0,0.0,0.0,0.0,0.0,0.0
