ciel274/research-hand-sign/data/raw/hiragana/sign_language_wa_3.csv
timestamp,R_joint_0_x,R_joint_0_y,R_joint_0_z,R_joint_1_x,R_joint_1_y,R_joint_1_z,R_joint_2_x,R_joint_2_y,R_joint_2_z,R_joint_3_x,R_joint_3_y,R_joint_3_z,R_joint_4_x,R_joint_4_y,R_joint_4_z,R_joint_5_x,R_joint_5_y,R_joint_5_z,R_joint_6_x,R_joint_6_y,R_joint_6_z,R_joint_7_x,R_joint_7_y,R_joint_7_z,R_joint_8_x,R_joint_8_y,R_joint_8_z,R_joint_9_x,R_joint_9_y,R_joint_9_z,R_joint_10_x,R_joint_10_y,R_joint_10_z,R_joint_11_x,R_joint_11_y,R_joint_11_z,R_joint_12_x,R_joint_12_y,R_joint_12_z,R_joint_13_x,R_joint_13_y,R_joint_13_z,R_joint_14_x,R_joint_14_y,R_joint_14_z,R_joint_15_x,R_joint_15_y,R_joint_15_z,R_joint_16_x,R_joint_16_y,R_joint_16_z,R_joint_17_x,R_joint_17_y,R_joint_17_z,R_joint_18_x,R_joint_18_y,R_joint_18_z,R_joint_19_x,R_joint_19_y,R_joint_19_z,R_joint_20_x,R_joint_20_y,R_joint_20_z,L_joint_0_x,L_joint_0_y,L_joint_0_z,L_joint_1_x,L_joint_1_y,L_joint_1_z,L_joint_2_x,L_joint_2_y,L_joint_2_z,L_joint_3_x,L_joint_3_y,L_joint_3_z,L_joint_4_x,L_joint_4_y,L_joint_4_z,L_joint_5_x,L_joint_5_y,L_joint_5_z,L_joint_6_x,L_joint_6_y,L_joint_6_z,L_joint_7_x,L_joint_7_y,L_joint_7_z,L_joint_8_x,L_joint_8_y,L_joint_8_z,L_joint_9_x,L_joint_9_y,L_joint_9_z,L_joint_10_x,L_joint_10_y,L_joint_10_z,L_joint_11_x,L_joint_11_y,L_joint_11_z,L_joint_12_x,L_joint_12_y,L_joint_12_z,L_joint_13_x,L_joint_13_y,L_joint_13_z,L_joint_14_x,L_joint_14_y,L_joint_14_z,L_joint_15_x,L_joint_15_y,L_joint_15_z,L_joint_16_x,L_joint_16_y,L_joint_16_z,L_joint_17_x,L_joint_17_y,L_joint_17_z,L_joint_18_x,L_joint_18_y,L_joint_18_z,L_joint_19_x,L_joint_19_y,L_joint_19_z,L_joint_20_x,L_joint_20_y,L_joint_20_z
1784047786.153256,0.7023805975914001,0.9699279069900513,1.9982289245490392e-07,0.6550691723823547,0.9306333065032959,-0.022264380007982254,0.6256309151649475,0.8323266506195068,-0.02579183131456375,0.6538512706756592,0.7455867528915405,-0.026086149737238884,0.689489483833313,0.684475302696228,-0.0266525000333786,0.6309459209442139,0.6741419434547424,-0.007103159558027983,0.6003039479255676,0.5669371485710144,-0.014410373754799366,0.5858110189437866,0.49955958127975464,-0.022119369357824326,0.5751883387565613,0.43647295236587524,-0.03074796497821808,0.668929398059845,0.6566276550292969,-0.013221022672951221,0.6573319435119629,0.5175831913948059,-0.022599708288908005,0.6549360156059265,0.43610072135925293,-0.032585509121418,0.6549661755561829,0.3657482862472534,-0.039849959313869476,0.7021677494049072,0.6737271547317505,-0.023898202925920486,0.7085338830947876,0.5408216714859009,-0.04942568764090538,0.7068327069282532,0.46371129155158997,-0.07094433158636093,0.7067918181419373,0.38806501030921936,-0.0847887247800827,0.7360182404518127,0.7258156538009644,-0.03550507128238678,0.7256432771682739,0.646639347076416,-0.06493180245161057,0.7104731798171997,0.7061886787414551,-0.07053416967391968,0.7008470892906189,0.7722796201705933,-0.07296859472990036,0.0,0.0,0.0,0.0,0.0,0.0,0.0,0.0,0.0,0.0,0.0,0.0,0.0,0.0,0.0,0.0,0.0,0.0,0.0,0.0,0.0,0.0,0.0,0.0,0.0,0.0,0.0,0.0,0.0,0.0,0.0,0.0,0.0,0.0,0.0,0.0,0.0,0.0,0.0,0.0,0.0,0.0,0.0,0.0,0.0,0.0,0.0,0.0,0.0,0.0,0.0,0.0,0.0,0.0,0.0,0.0,0.0,0.0,0.0,0.0,0.0,0.0,0.0
1784047786.285293,0.7041120529174805,0.9703913927078247,1.6218582743476873e-07,0.6567349433898926,0.9304134845733643,-0.02420854941010475,0.627646267414093,0.8354750871658325,-0.027377009391784668,0.6554640531539917,0.7514132857322693,-0.02642887458205223,0.6910409331321716,0.6922845244407654,-0.024953728541731834,0.6298379898071289,0.6744182705879211,-0.010113425552845001,0.5975174307823181,0.5648648142814636,-0.01815626583993435,0.5812639594078064,0.49811553955078125,-0.0259341262280941,0.5692555904388428,0.43468576669692993,-0.034267596900463104,0.6682279109954834,0.6552333831787109,-0.015583867207169533,0.6535607576370239,0.5163482427597046,-0.023210518062114716,0.6492778062820435,0.43720218539237976,-0.031907692551612854,0.6472806930541992,0.36790379881858826,-0.0387558676302433,0.7020532488822937,0.6712535619735718,-0.0260316114872694,0.7069542407989502,0.5397202372550964,-0.04959511384367943,0.7049210071563721,0.4602183699607849,-0.07100392132997513,0.7028307318687439,0.3795282244682312,-0.08532927930355072,0.7365739345550537,0.7258636951446533,-0.037768829613924026,0.727455198764801,0.6473325490951538,-0.06427434831857681,0.7109429836273193,0.701541006565094,-0.06905468553304672,0.6968199610710144,0.766331136226654,-0.0716184750199318,0.0,0.0,0.0,0.0,0.0,0.0,0.0,0.0,0.0,0.0,0.0,0.0,0.0,0.0,0.0,0.0,0.0,0.0,0.0,0.0,0.0,0.0,0.0,0.0,0.0,0.0,0.0,0.0,0.0,0.0,0.0,0.0,0.0,0.0,0.0,0.0,0.0,0.0,0.0,0.0,0.0,0.0,0.0,0.0,0.0,0.0,0.0,0.0,0.0,0.0,0.0,0.0,0.0,0.0,0.0,0.0,0.0,0.0,0.0,0.0,0.0,0.0,0.0
1784047786.419759,0.7055822610855103,0.9643464088439941,1.5624637228484062e-07,0.6591419577598572,0.9275749921798706,-0.02375040017068386,0.627720057964325,0.8282166123390198,-0.027957700192928314,0.6535844206809998,0.7416857481002808,-0.028449928387999535,0.6893590092658997,0.681414008140564,-0.02917397767305374,0.6290722489356995,0.6704961061477661,-0.011404507793486118,0.5966082215309143,0.5633708834648132,-0.0197360310703516,0.579439640045166,0.4963015615940094,-0.028164196759462357,0.5664981603622437,0.43261995911598206,-0.03743835538625717,0.6669420003890991,0.6487831473350525,-0.017009202390909195,0.6517105102539062,0.511926531791687,-0.023522572591900826,0.6477961540222168,0.432584673166275,-0.031948041170835495,0.6456015706062317,0.3644040822982788,-0.03940163180232048,0.7014060616493225,0.6631065607070923,-0.027393130585551262,0.7061508893966675,0.530349612236023,-0.05073561146855354,0.7051015496253967,0.44982850551605225,-0.07251571118831635,0.7034686207771301,0.37044182419776917,-0.08805137127637863,0.7367686629295349,0.7133620977401733,-0.03893955796957016,0.7274565696716309,0.6415793895721436,-0.06868589669466019,0.7114648222923279,0.6999123692512512,-0.07582221925258636,0.6974615454673767,0.7647366523742676,-0.0801096111536026,0.0,0.0,0.0,0.0,0.0,0.0,0.0,0.0,0.0,0.0,0.0,0.0,0.0,0.0,0.0,0.0,0.0,0.0,0.0,0.0,0.0,0.0,0.0,0.0,0.0,0.0,0.0,0.0,0.0,0.0,0.0,0.0,0.0,0.0,0.0,0.0,0.0,0.0,0.0,0.0,0.0,0.0,0.0,0.0,0.0,0.0,0.0,0.0,0.0,0.0,0.0,0.0,0.0,0.0,0.0,0.0,0.0,0.0,0.0,0.0,0.0,0.0,0.0
1784047786.5535412,0.7042704820632935,0.9614535570144653,1.7519688810807565e-07,0.6579909324645996,0.9234301447868347,-0.023497728630900383,0.6277933120727539,0.8245841264724731,-0.02757231891155243,0.6547079086303711,0.7395675182342529,-0.028206584975123405,0.6904493570327759,0.6805554032325745,-0.02887357771396637,0.6290455460548401,0.6664742231369019,-0.009509806521236897,0.5952775478363037,0.5611275434494019,-0.017405908554792404,0.578076958656311,0.49485379457473755,-0.02550978772342205,0.5652880668640137,0.432457834482193,-0.03438693657517433,0.6670596599578857,0.645311713218689,-0.015113716945052147,0.6519553065299988,0.509990930557251,-0.02142038755118847,0.6481472849845886,0.4309753477573395,-0.029776176437735558,0.6461681723594666,0.36284369230270386,-0.03690996393561363,0.7016814351081848,0.6609400510787964,-0.025588802993297577,0.7059275507926941,0.5303342342376709,-0.04846161603927612,0.7053479552268982,0.4500788748264313,-0.06979235261678696,0.704647421836853,0.3707582652568817,-0.08466292917728424,0.7369011640548706,0.7125523686408997,-0.037279557436704636,0.7269099354743958,0.6389434337615967,-0.065555140376091,0.7105387449264526,0.6953744292259216,-0.07173392176628113,0.6969378590583801,0.7597413063049316,-0.07531622797250748,0.0,0.0,0.0,0.0,0.0,0.0,0.0,0.0,0.0,0.0,0.0,0.0,0.0,0.0,0.0,0.0,0.0,0.0,0.0,0.0,0.0,0.0,0.0,0.0,0.0,0.0,0.0,0.0,0.0,0.0,0.0,0.0,0.0,0.0,0.0,0.0,0.0,0.0,0.0,0.0,0.0,0.0,0.0,0.0,0.0,0.0,0.0,0.0,0.0,0.0,0.0,0.0,0.0,0.0,0.0,0.0,0.0,0.0,0.0,0.0,0.0,0.0,0.0
1784047786.689528,0.7081625461578369,0.9592418074607849,1.7941238183993846e-07,0.6621182560920715,0.9237606525421143,-0.0237441286444664,0.6311091780662537,0.8265869617462158,-0.02797788195312023,0.6572842001914978,0.7418769598007202,-0.028711115941405296,0.6936128735542297,0.6831960082054138,-0.029382837936282158,0.6309525966644287,0.664965808391571,-0.01014240738004446,0.5973279476165771,0.5598590970039368,-0.01775910146534443,0.5799081921577454,0.4930739998817444,-0.025498537346720695,0.5671592950820923,0.43097707629203796,-0.034244827926158905,0.6694352030754089,0.643008828163147,-0.015741609036922455,0.6538482308387756,0.5074484944343567,-0.022100334987044334,0.6500670313835144,0.42852917313575745,-0.030498424544930458,0.648604154586792,0.36136430501937866,-0.03773652762174606,0.7045593857765198,0.6590589880943298,-0.026145514100790024,0.7112075090408325,0.527714729309082,-0.04946323484182358,0.7112690806388855,0.4470655918121338,-0.07130953669548035,0.7112421989440918,0.36907538771629333,-0.0865374505519867,0.7397192716598511,0.7117624878883362,-0.03767455741763115,0.7311633825302124,0.6386535167694092,-0.06639266759157181,0.714323103427887,0.6944804787635803,-0.07303345203399658,0.7002097368240356,0.759284257888794,-0.07700552046298981,0.0,0.0,0.0,0.0,0.0,0.0,0.0,0.0,0.0,0.0,0.0,0.0,0.0,0.0,0.0,0.0,0.0,0.0,0.0,0.0,0.0,0.0,0.0,0.0,0.0,0.0,0.0,0.0,0.0,0.0,0.0,0.0,0.0,0.0,0.0,0.0,0.0,0.0,0.0,0.0,0.0,0.0,0.0,0.0,0.0,0.0,0.0,0.0,0.0,0.0,0.0,0.0,0.0,0.0,0.0,0.0,0.0,0.0,0.0,0.0,0.0,0.0,0.0
1784047786.8238878,0.7113950252532959,0.9617993831634521,1.848390382974685e-07,0.6652446985244751,0.9196124076843262,-0.0242462195456028,0.6366145610809326,0.8231745958328247,-0.027864564210176468,0.6652755737304688,0.738325834274292,-0.027699220925569534,0.7027827501296997,0.6824211478233337,-0.02677198499441147,0.6382660865783691,0.6614538431167603,-0.00852961279451847,0.6044978499412537,0.5549182295799255,-0.015285523608326912,0.5867900848388672,0.4889451563358307,-0.022409573197364807,0.5735529661178589,0.4273659884929657,-0.030490053817629814,0.6771892309188843,0.642521858215332,-0.013975821435451508,0.6628502011299133,0.5065901875495911,-0.020385799929499626,0.6593599915504456,0.4291464388370514,-0.029263731092214584,0.6583070755004883,0.3624535799026489,-0.03651297837495804,0.7118130922317505,0.6606176495552063,-0.024285662919282913,0.721276581287384,0.5276906490325928,-0.047076139599084854,0.7230991721153259,0.4467235505580902,-0.06805098056793213,0.7248375415802002,0.36702898144721985,-0.08204028755426407,0.746236264705658,0.7167945504188538,-0.0358474999666214,0.7391757965087891,0.6347276568412781,-0.06054513528943062,0.7237861156463623,0.6868809461593628,-0.06397004425525665,0.711134135723114,0.751348078250885,-0.06590498238801956,0.0,0.0,0.0,0.0,0.0,0.0,0.0,0.0,0.0,0.0,0.0,0.0,0.0,0.0,0.0,0.0,0.0,0.0,0.0,0.0,0.0,0.0,0.0,0.0,0.0,0.0,0.0,0.0,0.0,0.0,0.0,0.0,0.0,0.0,0.0,0.0,0.0,0.0,0.0,0.0,0.0,0.0,0.0,0.0,0.0,0.0,0.0,0.0,0.0,0.0,0.0,0.0,0.0,0.0,0.0,0.0,0.0,0.0,0.0,0.0,0.0,0.0,0.0
1784047786.960664,0.7170723080635071,0.965234637260437,1.5180887658061692e-07,0.6710309982299805,0.9232925176620483,-0.0260687954723835,0.642869234085083,0.8289308547973633,-0.029602451249957085,0.6709373593330383,0.7450973987579346,-0.028542060405015945,0.7082145810127258,0.6880216002464294,-0.026069529354572296,0.6424216032028198,0.6658474802970886,-0.010489379055798054,0.606499433517456,0.5573549270629883,-0.01799728348851204,0.588280200958252,0.49175113439559937,-0.02519533410668373,0.5755060911178589,0.42968106269836426,-0.03287653625011444,0.6813579797744751,0.6461575627326965,-0.015344902873039246,0.6629691123962402,0.5084694623947144,-0.021443475037813187,0.657187819480896,0.43081364035606384,-0.029429970309138298,0.6556146740913391,0.36440184712409973,-0.03581157326698303,0.7164181470870972,0.6633166670799255,-0.025363828986883163,0.7262729406356812,0.5307446718215942,-0.04827742651104927,0.729171633720398,0.44970375299453735,-0.06906670331954956,0.7323248982429504,0.3700513541698456,-0.08267165720462799,0.7526791095733643,0.7205770611763,-0.03683091327548027,0.7480655312538147,0.640077531337738,-0.06090071424841881,0.73355633020401,0.6933183670043945,-0.06324024498462677,0.7209059596061707,0.7608538269996643,-0.06424850225448608,0.0,0.0,0.0,0.0,0.0,0.0,0.0,0.0,0.0,0.0,0.0,0.0,0.0,0.0,0.0,0.0,0.0,0.0,0.0,0.0,0.0,0.0,0.0,0.0,0.0,0.0,0.0,0.0,0.0,0.0,0.0,0.0,0.0,0.0,0.0,0.0,0.0,0.0,0.0,0.0,0.0,0.0,0.0,0.0,0.0,0.0,0.0,0.0,0.0,0.0,0.0,0.0,0.0,0.0,0.0,0.0,0.0,0.0,0.0,0.0,0.0,0.0,0.0
1784047787.1312408,0.7233514785766602,0.9667818546295166,1.6808409952773218e-07,0.677294135093689,0.9269362092018127,-0.026227859780192375,0.6481931805610657,0.8359920978546143,-0.030801454558968544,0.6744433641433716,0.7538536787033081,-0.030957279726862907,0.7115956544876099,0.6968725323677063,-0.029801566153764725,0.64730304479599,0.6673405766487122,-0.011068967171013355,0.6105546951293945,0.5586163997650146,-0.019130375236272812,0.5918293595314026,0.49270373582839966,-0.02645878493785858,0.5791076421737671,0.4305632710456848,-0.034303855150938034,0.686192512512207,0.6466911435127258,-0.016140973195433617,0.6670225262641907,0.5085268020629883,-0.023639129474759102,0.6612460017204285,0.42938539385795593,-0.03197476640343666,0.659761369228363,0.3626402020454407,-0.038339924067258835,0.7218269109725952,0.6629812717437744,-0.026387257501482964,0.7310234308242798,0.529533863067627,-0.05067367106676102,0.7343526482582092,0.44817274808883667,-0.07137103378772736,0.7375757694244385,0.36905577778816223,-0.0847012847661972,0.7592363953590393,0.7190999388694763,-0.03804025426506996,0.7537846565246582,0.6395782232284546,-0.06362178176641464,0.7396948337554932,0.6955501437187195,-0.06630735099315643,0.7275025248527527,0.7647952437400818,-0.06729737669229507,0.0,0.0,0.0,0.0,0.0,0.0,0.0,0.0,0.0,0.0,0.0,0.0,0.0,0.0,0.0,0.0,0.0,0.0,0.0,0.0,0.0,0.0,0.0,0.0,0.0,0.0,0.0,0.0,0.0,0.0,0.0,0.0,0.0,0.0,0.0,0.0,0.0,0.0,0.0,0.0,0.0,0.0,0.0,0.0,0.0,0.0,0.0,0.0,0.0,0.0,0.0,0.0,0.0,0.0,0.0,0.0,0.0,0.0,0.0,0.0,0.0,0.0,0.0
1784047787.29807,0.7266975045204163,0.9656902551651001,1.8603591911414696e-07,0.6819574236869812,0.9257317781448364,-0.02534360997378826,0.6520828604698181,0.8306723833084106,-0.030082469806075096,0.6791002750396729,0.747174084186554,-0.030501296743750572,0.7167555689811707,0.6901536583900452,-0.03018903359770775,0.6503611207008362,0.6654489040374756,-0.013621225021779537,0.6131788492202759,0.5557470917701721,-0.021941309794783592,0.5949342250823975,0.48852211236953735,-0.02917410619556904,0.5821508169174194,0.4251566529273987,-0.03703787922859192,0.6902393698692322,0.6446378827095032,-0.01902640610933304,0.6730810403823853,0.5046933889389038,-0.026769382879137993,0.6678265929222107,0.42543843388557434,-0.035354577004909515,0.6659075021743774,0.35759884119033813,-0.041979167610406876,0.72652667760849,0.6612088084220886,-0.029127975925803185,0.7360782623291016,0.5262045860290527,-0.053745485842227936,0.7387070655822754,0.44449204206466675,-0.07475779950618744,0.7409519553184509,0.3642323911190033,-0.08849337697029114,0.7639965415000916,0.7169347405433655,-0.04036104306578636,0.7589698433876038,0.6394132971763611,-0.06712666153907776,0.7443680167198181,0.6957310438156128,-0.07043592631816864,0.7315247058868408,0.7630811333656311,-0.07180795073509216,0.0,0.0,0.0,0.0,0.0,0.0,0.0,0.0,0.0,0.0,0.0,0.0,0.0,0.0,0.0,0.0,0.0,0.0,0.0,0.0,0.0,0.0,0.0,0.0,0.0,0.0,0.0,0.0,0.0,0.0,0.0,0.0,0.0,0.0,0.0,0.0,0.0,0.0,0.0,0.0,0.0,0.0,0.0,0.0,0.0,0.0,0.0,0.0,0.0,0.0,0.0,0.0,0.0,0.0,0.0,0.0,0.0,0.0,0.0,0.0,0.0,0.0,0.0
1784047787.490516,0.7262727618217468,0.9648338556289673,1.8543006774507376e-07,0.6814724206924438,0.9251757860183716,-0.025298694148659706,0.6516961455345154,0.8288918137550354,-0.029766010120511055,0.6811206340789795,0.7450756430625916,-0.0301585104316473,0.7205572128295898,0.6902816295623779,-0.030082477256655693,0.6507143974304199,0.6645983457565308,-0.01252936851233244,0.6136829853057861,0.5559768676757812,-0.020854873582720757,0.5953664779663086,0.4882822334766388,-0.028284916654229164,0.5817301869392395,0.4249853789806366,-0.03640560060739517,0.6912055611610413,0.6432287096977234,-0.017876513302326202,0.6755121946334839,0.5043235421180725,-0.025660717859864235,0.6709603071212769,0.42427510023117065,-0.03398853540420532,0.6691933274269104,0.35515254735946655,-0.04049094766378403,0.7279238700866699,0.6598097085952759,-0.028083436191082,0.7369222640991211,0.5273449420928955,-0.0527716688811779,0.7387202382087708,0.4459473490715027,-0.07363623380661011,0.7400873899459839,0.3647559583187103,-0.08727362751960754,0.7651333808898926,0.7151802182197571,-0.03953519091010094,0.7590808868408203,0.6380309462547302,-0.06693761795759201,0.7437790036201477,0.6955541372299194,-0.07066355645656586,0.7307446002960205,0.7624578475952148,-0.07227270305156708,0.0,0.0,0.0,0.0,0.0,0.0,0.0,0.0,0.0,0.0,0.0,0.0,0.0,0.0,0.0,0.0,0.0,0.0,0.0,0.0,0.0,0.0,0.0,0.0,0.0,0.0,0.0,0.0,0.0,0.0,0.0,0.0,0.0,0.0,0.0,0.0,0.0,0.0,0.0,0.0,0.0,0.0,0.0,0.0,0.0,0.0,0.0,0.0,0.0,0.0,0.0,0.0,0.0,0.0,0.0,0.0,0.0,0.0,0.0,0.0,0.0,0.0,0.0
1784047787.716504,0.7281431555747986,0.9625133275985718,1.85976787747677e-07,0.6823516488075256,0.921928882598877,-0.025636959820985794,0.6529768705368042,0.8293633460998535,-0.02924019657075405,0.6818234324455261,0.7454306483268738,-0.02811235561966896,0.7206298112869263,0.6905109286308289,-0.02583613619208336,0.6517003774642944,0.6631729602813721,-0.013353750109672546,0.614069938659668,0.552985668182373,-0.021860988810658455,0.5953335762023926,0.48638588190078735,-0.02896922081708908,0.5820006132125854,0.4227914810180664,-0.036324359476566315,0.6921883225440979,0.6421884894371033,-0.018380772322416306,0.6768888235092163,0.5006459951400757,-0.02606807090342045,0.6721859574317932,0.4209105670452118,-0.03363079950213432,0.6706390976905823,0.35142195224761963,-0.03919614478945732,0.7282346487045288,0.6593474745750427,-0.02833675406873226,0.7378731966018677,0.5261399149894714,-0.05215366184711456,0.7396954894065857,0.44454479217529297,-0.0722740888595581,0.7406600117683411,0.3616776466369629,-0.08494589477777481,0.7648952007293701,0.7184563279151917,-0.03962194174528122,0.7600527405738831,0.6358240842819214,-0.06336882710456848,0.7448768019676208,0.6883167028427124,-0.06464088708162308,0.7310867309570312,0.7551093697547913,-0.06467471271753311,0.0,0.0,0.0,0.0,0.0,0.0,0.0,0.0,0.0,0.0,0.0,0.0,0.0,0.0,0.0,0.0,0.0,0.0,0.0,0.0,0.0,0.0,0.0,0.0,0.0,0.0,0.0,0.0,0.0,0.0,0.0,0.0,0.0,0.0,0.0,0.0,0.0,0.0,0.0,0.0,0.0,0.0,0.0,0.0,0.0,0.0,0.0,0.0,0.0,0.0,0.0,0.0,0.0,0.0,0.0,0.0,0.0,0.0,0.0,0.0,0.0,0.0,0.0
1784047787.919851,0.728552520275116,0.9568738341331482,1.8742670704341435e-07,0.6831089854240417,0.9171339273452759,-0.026038900017738342,0.6535142660140991,0.8215043544769287,-0.029342902824282646,0.6832898855209351,0.7372225522994995,-0.027838069945573807,0.7225170731544495,0.6844989657402039,-0.02527136541903019,0.6517974734306335,0.6579232215881348,-0.0137314572930336,0.6144440770149231,0.5486510992050171,-0.02210085652768612,0.5960168242454529,0.4822402596473694,-0.029285963624715805,0.5827071666717529,0.41938450932502747,-0.03680657595396042,0.6923571228981018,0.6368066072463989,-0.01854909211397171,0.6772143244743347,0.49588510394096375,-0.025126155465841293,0.6730092167854309,0.4167112410068512,-0.032141052186489105,0.672004759311676,0.34863483905792236,-0.03767065703868866,0.7283722162246704,0.6542274355888367,-0.028427286073565483,0.737747311592102,0.5209231376647949,-0.05168690159916878,0.7397511005401611,0.4401065707206726,-0.07198618352413177,0.7411149144172668,0.3582153618335724,-0.08509193360805511,0.765163242816925,0.7125152349472046,-0.039721209555864334,0.759692370891571,0.6318157315254211,-0.06417407840490341,0.743882954120636,0.6839534044265747,-0.06638836860656738,0.7292254567146301,0.7498651146888733,-0.0671943873167038,0.0,0.0,0.0,0.0,0.0,0.0,0.0,0.0,0.0,0.0,0.0,0.0,0.0,0.0,0.0,0.0,0.0,0.0,0.0,0.0,0.0,0.0,0.0,0.0,0.0,0.0,0.0,0.0,0.0,0.0,0.0,0.0,0.0,0.0,0.0,0.0,0.0,0.0,0.0,0.0,0.0,0.0,0.0,0.0,0.0,0.0,0.0,0.0,0.0,0.0,0.0,0.0,0.0,0.0,0.0,0.0,0.0,0.0,0.0,0.0,0.0,0.0,0.0
1784047788.1259258,0.728391706943512,0.9533427953720093,1.7307827704371448e-07,0.6818737387657166,0.9113827347755432,-0.02446439303457737,0.652674674987793,0.8154440522193909,-0.026231642812490463,0.6830318570137024,0.7302180528640747,-0.023403702303767204,0.7222872972488403,0.6769172549247742,-0.019312409684062004,0.6511442065238953,0.6541294455528259,-0.01065799780189991,0.6145783066749573,0.5442517995834351,-0.01803882233798504,0.596635103225708,0.478765070438385,-0.02439211867749691,0.5837668180465698,0.41716107726097107,-0.03125481680035591,0.6916210055351257,0.632523238658905,-0.01574847847223282,0.6775891780853271,0.4919925332069397,-0.02193080633878708,0.6735275387763977,0.4136170446872711,-0.028572216629981995,0.6727138161659241,0.3460782766342163,-0.033653125166893005,0.7273672223091125,0.6489218473434448,-0.025921758264303207,0.7365913391113281,0.5164155960083008,-0.048246342688798904,0.737872838973999,0.43669742345809937,-0.0683073177933693,0.7385842800140381,0.3549520969390869,-0.08117102086544037,0.7636964321136475,0.7075332403182983,-0.037475354969501495,0.7579271197319031,0.6266176700592041,-0.06030082330107689,0.7416271567344666,0.6773756146430969,-0.06210815906524658,0.7267065048217773,0.7429192066192627,-0.06272026896476746,0.0,0.0,0.0,0.0,0.0,0.0,0.0,0.0,0.0,0.0,0.0,0.0,0.0,0.0,0.0,0.0,0.0,0.0,0.0,0.0,0.0,0.0,0.0,0.0,0.0,0.0,0.0,0.0,0.0,0.0,0.0,0.0,0.0,0.0,0.0,0.0,0.0,0.0,0.0,0.0,0.0,0.0,0.0,0.0,0.0,0.0,0.0,0.0,0.0,0.0,0.0,0.0,0.0,0.0,0.0,0.0,0.0,0.0,0.0,0.0,0.0,0.0,0.0
1784047788.353885,0.7293625473976135,0.9489192962646484,1.6736090913127555e-07,0.6809253692626953,0.9050588011741638,-0.023805053904652596,0.6519882082939148,0.8141193985939026,-0.023913202807307243,0.6818466782569885,0.7291749715805054,-0.019102031365036964,0.7207460999488831,0.6787346601486206,-0.012141615152359009,0.6524912118911743,0.6512030363082886,-0.008694459684193134,0.6145642399787903,0.5407207608222961,-0.01660727523267269,0.5961592793464661,0.47751232981681824,-0.02305213361978531,0.5829718112945557,0.41619980335235596,-0.02920464240014553,0.6925833225250244,0.6313244104385376,-0.013818437233567238,0.6796683669090271,0.4886017441749573,-0.02025696448981762,0.6754893660545349,0.4102906584739685,-0.026099633425474167,0.674839973449707,0.3401143550872803,-0.03005596436560154,0.7272274494171143,0.6488746404647827,-0.024331118911504745,0.7359541058540344,0.5179446339607239,-0.045709043741226196,0.7371214032173157,0.4387384057044983,-0.06501742452383041,0.7376048564910889,0.3533937931060791,-0.07654279470443726,0.76218581199646,0.7125965356826782,-0.036321625113487244,0.757111668586731,0.6220635175704956,-0.05325838550925255,0.7408331036567688,0.6664785146713257,-0.05145224928855896,0.726195752620697,0.7318989038467407,-0.050007350742816925,0.0,0.0,0.0,0.0,0.0,0.0,0.0,0.0,0.0,0.0,0.0,0.0,0.0,0.0,0.0,0.0,0.0,0.0,0.0,0.0,0.0,0.0,0.0,0.0,0.0,0.0,0.0,0.0,0.0,0.0,0.0,0.0,0.0,0.0,0.0,0.0,0.0,0.0,0.0,0.0,0.0,0.0,0.0,0.0,0.0,0.0,0.0,0.0,0.0,0.0,0.0,0.0,0.0,0.0,0.0,0.0,0.0,0.0,0.0,0.0,0.0,0.0,0.0
1784047788.5490718,0.7277013063430786,0.9472452402114868,1.709608739020041e-07,0.6808908581733704,0.9049363732337952,-0.02472035028040409,0.651731550693512,0.8094019889831543,-0.025700759142637253,0.6817767024040222,0.7248088121414185,-0.021890733391046524,0.7211428880691528,0.6740431785583496,-0.016499191522598267,0.6518325209617615,0.6485845446586609,-0.010349774733185768,0.6140115261077881,0.5402565598487854,-0.018198812380433083,0.5952780246734619,0.4755955636501312,-0.024909254163503647,0.581835925579071,0.41388994455337524,-0.031736284494400024,0.6920979619026184,0.6281447410583496,-0.015324809588491917,0.6784250736236572,0.48744821548461914,-0.021862201392650604,0.6741641163825989,0.40898212790489197,-0.028637263923883438,0.6732009649276733,0.33977481722831726,-0.033593617379665375,0.7269302606582642,0.6449036002159119,-0.02554672211408615,0.7359034419059753,0.5143845677375793,-0.04770293086767197,0.7369599938392639,0.43517109751701355,-0.06787891685962677,0.7373573780059814,0.3526444435119629,-0.08037078380584717,0.7623938918113708,0.7050740718841553,-0.03727695345878601,0.7566623687744141,0.6198919415473938,-0.05770205706357956,0.7405278086662292,0.6676744818687439,-0.05830363184213638,0.7258397340774536,0.7333280444145203,-0.05827012658119202,0.0,0.0,0.0,0.0,0.0,0.0,0.0,0.0,0.0,0.0,0.0,0.0,0.0,0.0,0.0,0.0,0.0,0.0,0.0,0.0,0.0,0.0,0.0,0.0,0.0,0.0,0.0,0.0,0.0,0.0,0.0,0.0,0.0,0.0,0.0,0.0,0.0,0.0,0.0,0.0,0.0,0.0,0.0,0.0,0.0,0.0,0.0,0.0,0.0,0.0,0.0,0.0,0.0,0.0,0.0,0.0,0.0,0.0,0.0,0.0,0.0,0.0,0.0
1784047788.7351072,0.7268970608711243,0.9491547346115112,1.665010245233134e-07,0.6800692677497864,0.9058240056037903,-0.02406485006213188,0.6519262194633484,0.8088453412055969,-0.02470187284052372,0.6818655729293823,0.7240206599235535,-0.020686481148004532,0.7208607792854309,0.6728377342224121,-0.015174129977822304,0.6506457328796387,0.647975742816925,-0.009045574814081192,0.6134018301963806,0.53857421875,-0.01644662581384182,0.5949797630310059,0.4735555648803711,-0.023059196770191193,0.5815889835357666,0.4114307761192322,-0.02986043505370617,0.6912136673927307,0.6275067329406738,-0.014407169073820114,0.6778116822242737,0.48636990785598755,-0.020198950543999672,0.6735774874687195,0.4074145555496216,-0.02684720791876316,0.6724984645843506,0.3380710780620575,-0.031789381057024,0.7263136506080627,0.6443958282470703,-0.025002947077155113,0.7349680066108704,0.5128154158592224,-0.046647198498249054,0.7356629371643066,0.43288421630859375,-0.06686796993017197,0.735766589641571,0.3498697876930237,-0.0795489028096199,0.7620627880096436,0.7045550346374512,-0.03707179054617882,0.756476879119873,0.6197686791419983,-0.057725939899683,0.7402966022491455,0.6676940321922302,-0.05845104530453682,0.725448489189148,0.7334776520729065,-0.058423954993486404,0.0,0.0,0.0,0.0,0.0,0.0,0.0,0.0,0.0,0.0,0.0,0.0,0.0,0.0,0.0,0.0,0.0,0.0,0.0,0.0,0.0,0.0,0.0,0.0,0.0,0.0,0.0,0.0,0.0,0.0,0.0,0.0,0.0,0.0,0.0,0.0,0.0,0.0,0.0,0.0,0.0,0.0,0.0,0.0,0.0,0.0,0.0,0.0,0.0,0.0,0.0,0.0,0.0,0.0,0.0,0.0,0.0,0.0,0.0,0.0,0.0,0.0,0.0
1784047788.927854,0.7276638746261597,0.9502739310264587,1.61038059331986e-07,0.6807023882865906,0.9080457091331482,-0.024241436272859573,0.6515409350395203,0.8113662600517273,-0.025142202153801918,0.6802282333374023,0.7272821664810181,-0.02137952670454979,0.7184804081916809,0.6754983067512512,-0.01614977791905403,0.6499776840209961,0.64680415391922,-0.00928786676377058,0.6127204298973083,0.5380897521972656,-0.016872888430953026,0.5943540334701538,0.4729892611503601,-0.023762308061122894,0.5808103084564209,0.41093021631240845,-0.03077133744955063,0.6905930638313293,0.6262962222099304,-0.014631436206400394,0.6770957708358765,0.4857333302497864,-0.020335091277956963,0.6730664968490601,0.40729159116744995,-0.026764612644910812,0.6719819903373718,0.33817195892333984,-0.03158984333276749,0.725910484790802,0.6439353823661804,-0.02525372989475727,0.7337293028831482,0.512308657169342,-0.04703898727893829,0.7345243096351624,0.4322386384010315,-0.06702914088964462,0.7346717715263367,0.3487122058868408,-0.07957910001277924,0.7619202136993408,0.7049655318260193,-0.03735394775867462,0.7564552426338196,0.6189849376678467,-0.058415476232767105,0.7400029301643372,0.6669977307319641,-0.0591031014919281,0.7246143817901611,0.7328866720199585,-0.05900835618376732,0.0,0.0,0.0,0.0,0.0,0.0,0.0,0.0,0.0,0.0,0.0,0.0,0.0,0.0,0.0,0.0,0.0,0.0,0.0,0.0,0.0,0.0,0.0,0.0,0.0,0.0,0.0,0.0,0.0,0.0,0.0,0.0,0.0,0.0,0.0,0.0,0.0,0.0,0.0,0.0,0.0,0.0,0.0,0.0,0.0,0.0,0.0,0.0,0.0,0.0,0.0,0.0,0.0,0.0,0.0,0.0,0.0,0.0,0.0,0.0,0.0,0.0,0.0
1784047789.1374521,0.7271147966384888,0.9513261318206787,1.7040640898358106e-07,0.6807386875152588,0.9085490703582764,-0.02459072321653366,0.651604175567627,0.8114081621170044,-0.025590576231479645,0.6807628870010376,0.7264381647109985,-0.021915538236498833,0.7198924422264099,0.6758361458778381,-0.0169061329215765,0.6511904001235962,0.6490036845207214,-0.01052816491574049,0.6130285263061523,0.5395462512969971,-0.01872897706925869,0.5940303802490234,0.4738115668296814,-0.025736892595887184,0.5799483060836792,0.41094261407852173,-0.03278370574116707,0.6916798949241638,0.6291182637214661,-0.015858054161071777,0.6781711578369141,0.4865870773792267,-0.023195905610919,0.674297034740448,0.4064037501811981,-0.030439890921115875,0.6733995676040649,0.3349526524543762,-0.03553563356399536,0.726712167263031,0.6466557383537292,-0.02636856958270073,0.7348162531852722,0.5150358080863953,-0.0496009886264801,0.7356836199760437,0.4348659813404083,-0.07010672986507416,0.7357458472251892,0.3507659137248993,-0.08255808800458908,0.7626069188117981,0.7073447704315186,-0.0383138470351696,0.7563971877098083,0.6204957365989685,-0.059756144881248474,0.7400037050247192,0.669580340385437,-0.06037888303399086,0.7251229882240295,0.735975980758667,-0.06015768647193909,0.0,0.0,0.0,0.0,0.0,0.0,0.0,0.0,0.0,0.0,0.0,0.0,0.0,0.0,0.0,0.0,0.0,0.0,0.0,0.0,0.0,0.0,0.0,0.0,0.0,0.0,0.0,0.0,0.0,0.0,0.0,0.0,0.0,0.0,0.0,0.0,0.0,0.0,0.0,0.0,0.0,0.0,0.0,0.0,0.0,0.0,0.0,0.0,0.0,0.0,0.0,0.0,0.0,0.0,0.0,0.0,0.0,0.0,0.0,0.0,0.0,0.0,0.0
1784047789.333955,0.7286879420280457,0.9525020718574524,1.6730017193822277e-07,0.6819733381271362,0.9111500382423401,-0.02404411882162094,0.6516532301902771,0.8115568161010742,-0.025579912588000298,0.680232048034668,0.7261191606521606,-0.02288336679339409,0.7192882895469666,0.6757252216339111,-0.0192238949239254,0.6509566903114319,0.6486647725105286,-0.00982986856251955,0.6126953959465027,0.5406502485275269,-0.017474545165896416,0.5935268402099609,0.47421789169311523,-0.024518514052033424,0.5789961814880371,0.41142964363098145,-0.03200017660856247,0.6912230849266052,0.6278452277183533,-0.015368836931884289,0.6772485375404358,0.48723578453063965,-0.021913737058639526,0.6734101176261902,0.40698328614234924,-0.029171185567975044,0.6722241640090942,0.336965411901474,-0.03465815261006355,0.7267824411392212,0.6451648473739624,-0.025947334244847298,0.7347754836082458,0.5145053267478943,-0.04866213724017143,0.7355362176895142,0.43322837352752686,-0.06923776865005493,0.7357622981071472,0.3504571318626404,-0.08231618255376816,0.7629121541976929,0.7036997675895691,-0.037921447306871414,0.75652015209198,0.6210101842880249,-0.06117101013660431,0.7395724654197693,0.6715601086616516,-0.06321404129266739,0.7242079973220825,0.7373299598693848,-0.0639272928237915,0.0,0.0,0.0,0.0,0.0,0.0,0.0,0.0,0.0,0.0,0.0,0.0,0.0,0.0,0.0,0.0,0.0,0.0,0.0,0.0,0.0,0.0,0.0,0.0,0.0,0.0,0.0,0.0,0.0,0.0,0.0,0.0,0.0,0.0,0.0,0.0,0.0,0.0,0.0,0.0,0.0,0.0,0.0,0.0,0.0,0.0,0.0,0.0,0.0,0.0,0.0,0.0,0.0,0.0,0.0,0.0,0.0,0.0,0.0,0.0,0.0,0.0,0.0
