ciel274/research-hand-sign/data/raw/hiragana/sign_language_ra_1.csv
timestamp,R_joint_0_x,R_joint_0_y,R_joint_0_z,R_joint_1_x,R_joint_1_y,R_joint_1_z,R_joint_2_x,R_joint_2_y,R_joint_2_z,R_joint_3_x,R_joint_3_y,R_joint_3_z,R_joint_4_x,R_joint_4_y,R_joint_4_z,R_joint_5_x,R_joint_5_y,R_joint_5_z,R_joint_6_x,R_joint_6_y,R_joint_6_z,R_joint_7_x,R_joint_7_y,R_joint_7_z,R_joint_8_x,R_joint_8_y,R_joint_8_z,R_joint_9_x,R_joint_9_y,R_joint_9_z,R_joint_10_x,R_joint_10_y,R_joint_10_z,R_joint_11_x,R_joint_11_y,R_joint_11_z,R_joint_12_x,R_joint_12_y,R_joint_12_z,R_joint_13_x,R_joint_13_y,R_joint_13_z,R_joint_14_x,R_joint_14_y,R_joint_14_z,R_joint_15_x,R_joint_15_y,R_joint_15_z,R_joint_16_x,R_joint_16_y,R_joint_16_z,R_joint_17_x,R_joint_17_y,R_joint_17_z,R_joint_18_x,R_joint_18_y,R_joint_18_z,R_joint_19_x,R_joint_19_y,R_joint_19_z,R_joint_20_x,R_joint_20_y,R_joint_20_z,L_joint_0_x,L_joint_0_y,L_joint_0_z,L_joint_1_x,L_joint_1_y,L_joint_1_z,L_joint_2_x,L_joint_2_y,L_joint_2_z,L_joint_3_x,L_joint_3_y,L_joint_3_z,L_joint_4_x,L_joint_4_y,L_joint_4_z,L_joint_5_x,L_joint_5_y,L_joint_5_z,L_joint_6_x,L_joint_6_y,L_joint_6_z,L_joint_7_x,L_joint_7_y,L_joint_7_z,L_joint_8_x,L_joint_8_y,L_joint_8_z,L_joint_9_x,L_joint_9_y,L_joint_9_z,L_joint_10_x,L_joint_10_y,L_joint_10_z,L_joint_11_x,L_joint_11_y,L_joint_11_z,L_joint_12_x,L_joint_12_y,L_joint_12_z,L_joint_13_x,L_joint_13_y,L_joint_13_z,L_joint_14_x,L_joint_14_y,L_joint_14_z,L_joint_15_x,L_joint_15_y,L_joint_15_z,L_joint_16_x,L_joint_16_y,L_joint_16_z,L_joint_17_x,L_joint_17_y,L_joint_17_z,L_joint_18_x,L_joint_18_y,L_joint_18_z,L_joint_19_x,L_joint_19_y,L_joint_19_z,L_joint_20_x,L_joint_20_y,L_joint_20_z
1784047028.573156,0.6735252737998962,0.9469019174575806,2.876286657738092e-07,0.618610680103302,0.8851604461669922,-0.013771235942840576,0.5987625122070312,0.7713618874549866,-0.0191595871001482,0.6212281584739685,0.6786971688270569,-0.029973726719617844,0.6497436165809631,0.6148719191551208,-0.0397651270031929,0.6291826963424683,0.6562513113021851,0.00983580481261015,0.6255066394805908,0.5544877648353577,-0.0059289769269526005,0.6281493902206421,0.4800410568714142,-0.019758407026529312,0.6371188759803772,0.4108668863773346,-0.030921177938580513,0.6596899628639221,0.644574761390686,0.0006779731484130025,0.6450762152671814,0.5168907642364502,-0.02174915187060833,0.6274993419647217,0.44646188616752625,-0.03868215158581734,0.6229758262634277,0.3856026828289032,-0.04917711019515991,0.6896664500236511,0.658379316329956,-0.012436103075742722,0.6951329708099365,0.5435765385627747,-0.04548263177275658,0.6710231304168701,0.6162214279174805,-0.049391008913517,0.6590051651000977,0.6862748861312866,-0.04312105104327202,0.7211050391197205,0.6917523145675659,-0.027340436354279518,0.719655454158783,0.6015682220458984,-0.05034680664539337,0.6964820623397827,0.6409966945648193,-0.04913965240120888,0.6816332340240479,0.6991705298423767,-0.04338540509343147,0.0,0.0,0.0,0.0,0.0,0.0,0.0,0.0,0.0,0.0,0.0,0.0,0.0,0.0,0.0,0.0,0.0,0.0,0.0,0.0,0.0,0.0,0.0,0.0,0.0,0.0,0.0,0.0,0.0,0.0,0.0,0.0,0.0,0.0,0.0,0.0,0.0,0.0,0.0,0.0,0.0,0.0,0.0,0.0,0.0,0.0,0.0,0.0,0.0,0.0,0.0,0.0,0.0,0.0,0.0,0.0,0.0,0.0,0.0,0.0,0.0,0.0,0.0
1784047028.7066429,0.6728092432022095,0.9532155394554138,2.880158547213796e-07,0.619766116142273,0.8868604898452759,-0.01574290357530117,0.6003095507621765,0.7758932113647461,-0.022556908428668976,0.6217595934867859,0.6837314963340759,-0.03464280441403389,0.6497154831886292,0.6180296540260315,-0.04610895365476608,0.6288806200027466,0.6676852703094482,0.00921347551047802,0.6256203651428223,0.5590621829032898,-0.008014596998691559,0.6284216642379761,0.48466604948043823,-0.022955598309636116,0.637201189994812,0.41419705748558044,-0.0343007929623127,0.6589332222938538,0.6550115942955017,0.0011644297046586871,0.6455502510070801,0.5233486294746399,-0.020547496154904366,0.627805233001709,0.4519117474555969,-0.03828483447432518,0.6217923760414124,0.38924282789230347,-0.0494416318833828,0.6897021532058716,0.666362464427948,-0.011241144500672817,0.6964268088340759,0.546174943447113,-0.04586465284228325,0.672020435333252,0.6144367456436157,-0.05452466756105423,0.659224808216095,0.6856186985969543,-0.051205407828092575,0.7220478057861328,0.696128249168396,-0.025254063308238983,0.721238911151886,0.6060526967048645,-0.051064882427453995,0.6980818510055542,0.6431915760040283,-0.05354633554816246,0.6825301051139832,0.7013788223266602,-0.05004780367016792,0.0,0.0,0.0,0.0,0.0,0.0,0.0,0.0,0.0,0.0,0.0,0.0,0.0,0.0,0.0,0.0,0.0,0.0,0.0,0.0,0.0,0.0,0.0,0.0,0.0,0.0,0.0,0.0,0.0,0.0,0.0,0.0,0.0,0.0,0.0,0.0,0.0,0.0,0.0,0.0,0.0,0.0,0.0,0.0,0.0,0.0,0.0,0.0,0.0,0.0,0.0,0.0,0.0,0.0,0.0,0.0,0.0,0.0,0.0,0.0,0.0,0.0,0.0
1784047028.8392088,0.6734510660171509,0.9503571391105652,2.883231502437411e-07,0.6198738813400269,0.8858194351196289,-0.013799323700368404,0.6013643145561218,0.772965669631958,-0.019237132743000984,0.6256448030471802,0.6831215620040894,-0.03020317666232586,0.6546601057052612,0.6204535961151123,-0.04039579629898071,0.6312386989593506,0.6589124202728271,0.011030119843780994,0.6287857890129089,0.5570982694625854,-0.00492027448490262,0.6316795945167542,0.48308295011520386,-0.019027505069971085,0.6403383612632751,0.4132760763168335,-0.030164703726768494,0.6622044444084167,0.6468694806098938,0.001798054901883006,0.6477887630462646,0.5196875333786011,-0.020182767882943153,0.6297445297241211,0.44904226064682007,-0.03727946802973747,0.623360276222229,0.3875058591365814,-0.0475899875164032,0.693473219871521,0.6606920957565308,-0.011591092683374882,0.6989459991455078,0.5471662282943726,-0.04657086357474327,0.6753310561180115,0.6193500757217407,-0.05356992781162262,0.6626291275024414,0.6901798248291016,-0.048700541257858276,0.725824773311615,0.694641649723053,-0.02647867612540722,0.7242689728736877,0.6075994968414307,-0.05204753950238228,0.6998759508132935,0.6475447416305542,-0.05310078337788582,0.6830477118492126,0.706600546836853,-0.04837946966290474,0.0,0.0,0.0,0.0,0.0,0.0,0.0,0.0,0.0,0.0,0.0,0.0,0.0,0.0,0.0,0.0,0.0,0.0,0.0,0.0,0.0,0.0,0.0,0.0,0.0,0.0,0.0,0.0,0.0,0.0,0.0,0.0,0.0,0.0,0.0,0.0,0.0,0.0,0.0,0.0,0.0,0.0,0.0,0.0,0.0,0.0,0.0,0.0,0.0,0.0,0.0,0.0,0.0,0.0,0.0,0.0,0.0,0.0,0.0,0.0,0.0,0.0,0.0
1784047028.974723,0.6737022399902344,0.9544190168380737,2.89063592617822e-07,0.6208855509757996,0.8880637288093567,-0.014760042540729046,0.6022193431854248,0.7753431797027588,-0.020738152787089348,0.6251110434532166,0.684615433216095,-0.03235999867320061,0.6540480852127075,0.6213357448577881,-0.043034233152866364,0.6326498985290527,0.6641527414321899,0.010830176062881947,0.6307547092437744,0.5580175518989563,-0.006129699759185314,0.6346305012702942,0.48300328850746155,-0.020757386460900307,0.644239604473114,0.4127926826477051,-0.03203153982758522,0.6630073189735413,0.6519230604171753,0.0019548104610294104,0.6490143537521362,0.522537112236023,-0.020848523825407028,0.6309982538223267,0.4506446421146393,-0.03864576667547226,0.62493497133255,0.3889114558696747,-0.04939354211091995,0.6936496496200562,0.6655789613723755,-0.011257432401180267,0.6993844509124756,0.5497490167617798,-0.04662713408470154,0.6765019297599792,0.6213600635528564,-0.05336286127567291,0.6645304560661316,0.6926359534263611,-0.048176053911447525,0.7257158756256104,0.6988981366157532,-0.026149515062570572,0.7259070873260498,0.6093984246253967,-0.051978494971990585,0.7021629214286804,0.6471599340438843,-0.053075626492500305,0.6851816177368164,0.7053791284561157,-0.04826628044247627,0.0,0.0,0.0,0.0,0.0,0.0,0.0,0.0,0.0,0.0,0.0,0.0,0.0,0.0,0.0,0.0,0.0,0.0,0.0,0.0,0.0,0.0,0.0,0.0,0.0,0.0,0.0,0.0,0.0,0.0,0.0,0.0,0.0,0.0,0.0,0.0,0.0,0.0,0.0,0.0,0.0,0.0,0.0,0.0,0.0,0.0,0.0,0.0,0.0,0.0,0.0,0.0,0.0,0.0,0.0,0.0,0.0,0.0,0.0,0.0,0.0,0.0,0.0
1784047029.107989,0.6764999628067017,0.9556694030761719,2.697925935990497e-07,0.6237170100212097,0.8909823894500732,-0.014913703314960003,0.604881227016449,0.7760568857192993,-0.02064450830221176,0.6287606954574585,0.6846508383750916,-0.03179232403635979,0.6584373712539673,0.6231318712234497,-0.04225985333323479,0.6361209154129028,0.6618346571922302,0.010076615959405899,0.6343259811401367,0.5551248788833618,-0.0057892645709216595,0.636384904384613,0.4824146628379822,-0.01962903141975403,0.6437234878540039,0.41420406103134155,-0.030408525839447975,0.6663193702697754,0.6512731313705444,0.0014903281116858125,0.6542872786521912,0.5221603512763977,-0.019887728616595268,0.6367903351783752,0.4505056142807007,-0.037234921008348465,0.6302993297576904,0.38842472434043884,-0.047739606350660324,0.6971114277839661,0.6658201217651367,-0.011300239711999893,0.7033759355545044,0.5516825318336487,-0.04587903246283531,0.6801150441169739,0.623575747013092,-0.05338095501065254,0.6676986813545227,0.6950603723526001,-0.048902545124292374,0.7292714715003967,0.6992754340171814,-0.0256357379257679,0.7282262444496155,0.6111654043197632,-0.05128223076462746,0.7046346664428711,0.6508769989013672,-0.05254009738564491,0.6884660720825195,0.7098336219787598,-0.04786248505115509,0.0,0.0,0.0,0.0,0.0,0.0,0.0,0.0,0.0,0.0,0.0,0.0,0.0,0.0,0.0,0.0,0.0,0.0,0.0,0.0,0.0,0.0,0.0,0.0,0.0,0.0,0.0,0.0,0.0,0.0,0.0,0.0,0.0,0.0,0.0,0.0,0.0,0.0,0.0,0.0,0.0,0.0,0.0,0.0,0.0,0.0,0.0,0.0,0.0,0.0,0.0,0.0,0.0,0.0,0.0,0.0,0.0,0.0,0.0,0.0,0.0,0.0,0.0
1784047029.239294,0.6771371364593506,0.9610553979873657,2.7458722229312116e-07,0.6244162917137146,0.8940556645393372,-0.014646862633526325,0.6071243286132812,0.7770822644233704,-0.020217126235365868,0.6319793462753296,0.6845220327377319,-0.03136863932013512,0.6622914671897888,0.6212053298950195,-0.04166526719927788,0.6372854709625244,0.6662806868553162,0.01122108194977045,0.6358749270439148,0.5596321225166321,-0.004860121291130781,0.6396985650062561,0.48524409532546997,-0.018868649378418922,0.6491705179214478,0.4155549705028534,-0.02978384494781494,0.6684252619743347,0.6541652679443359,0.0025245831348001957,0.6555612087249756,0.5257662534713745,-0.019690148532390594,0.6378222107887268,0.45356032252311707,-0.037395235151052475,0.6315396428108215,0.3915223479270935,-0.048047710210084915,0.6994976997375488,0.6678159832954407,-0.01043742150068283,0.7060100436210632,0.553206741809845,-0.04521060362458229,0.6822928786277771,0.6244580745697021,-0.05217352882027626,0.6694101095199585,0.6954259872436523,-0.04721887409687042,0.7315585017204285,0.7007763385772705,-0.025015834718942642,0.7310587763786316,0.6114553213119507,-0.050141096115112305,0.7073442339897156,0.6502015590667725,-0.050900910049676895,0.6908887624740601,0.7093874216079712,-0.04589160904288292,0.0,0.0,0.0,0.0,0.0,0.0,0.0,0.0,0.0,0.0,0.0,0.0,0.0,0.0,0.0,0.0,0.0,0.0,0.0,0.0,0.0,0.0,0.0,0.0,0.0,0.0,0.0,0.0,0.0,0.0,0.0,0.0,0.0,0.0,0.0,0.0,0.0,0.0,0.0,0.0,0.0,0.0,0.0,0.0,0.0,0.0,0.0,0.0,0.0,0.0,0.0,0.0,0.0,0.0,0.0,0.0,0.0,0.0,0.0,0.0,0.0,0.0,0.0
1784047029.3753548,0.6794836521148682,0.9583374261856079,2.7590743911787285e-07,0.6259675621986389,0.8938749432563782,-0.014342593029141426,0.6086782217025757,0.7763652801513672,-0.019321758300065994,0.6342248916625977,0.6848730444908142,-0.029809536412358284,0.6645968556404114,0.6226402521133423,-0.03925361484289169,0.6398309469223022,0.6639750003814697,0.011353039182722569,0.6387515664100647,0.5595493316650391,-0.004321741871535778,0.6425352096557617,0.485243558883667,-0.0181454848498106,0.6518093943595886,0.416161447763443,-0.029208917170763016,0.6711194515228271,0.6524118185043335,0.002445375081151724,0.6581472754478455,0.5247520208358765,-0.019863536581397057,0.6406067609786987,0.45236510038375854,-0.03739428520202637,0.6345800757408142,0.39042389392852783,-0.0480152927339077,0.7021227478981018,0.6665551066398621,-0.010660841129720211,0.7083139419555664,0.5538654327392578,-0.04537070915102959,0.6848904490470886,0.6267617344856262,-0.05122683569788933,0.6720036864280701,0.6977723240852356,-0.04564421623945236,0.7344349026679993,0.7005457878112793,-0.02546367421746254,0.7340624332427979,0.6138970851898193,-0.05058416724205017,0.7102685570716858,0.6534333229064941,-0.05081549286842346,0.6934719681739807,0.711898922920227,-0.04552983120083809,0.0,0.0,0.0,0.0,0.0,0.0,0.0,0.0,0.0,0.0,0.0,0.0,0.0,0.0,0.0,0.0,0.0,0.0,0.0,0.0,0.0,0.0,0.0,0.0,0.0,0.0,0.0,0.0,0.0,0.0,0.0,0.0,0.0,0.0,0.0,0.0,0.0,0.0,0.0,0.0,0.0,0.0,0.0,0.0,0.0,0.0,0.0,0.0,0.0,0.0,0.0,0.0,0.0,0.0,0.0,0.0,0.0,0.0,0.0,0.0,0.0,0.0,0.0
1784047029.512836,0.6798801422119141,0.9601650238037109,2.7700434657162987e-07,0.6276172399520874,0.8907304406166077,-0.01460836362093687,0.6108366250991821,0.7755265235900879,-0.019992344081401825,0.6369593739509583,0.6843176484107971,-0.031015245243906975,0.6674113273620605,0.6228886842727661,-0.041432350873947144,0.642799973487854,0.6679455637931824,0.011541689746081829,0.6422946453094482,0.5595910549163818,-0.004598051309585571,0.6455135941505432,0.4853423237800598,-0.01864677481353283,0.6539700627326965,0.41586628556251526,-0.029515987262129784,0.6736459136009216,0.6565978527069092,0.0027953346725553274,0.6617650389671326,0.5259271860122681,-0.018962152302265167,0.6449005603790283,0.45293641090393066,-0.036492712795734406,0.6390320062637329,0.38943028450012207,-0.047037314623594284,0.7046253681182861,0.6704654693603516,-0.010302014648914337,0.7119293212890625,0.5553309917449951,-0.04568967595696449,0.6886360049247742,0.6270015835762024,-0.053625013679265976,0.6757721304893494,0.6989029049873352,-0.049122702330350876,0.7366360425949097,0.703261137008667,-0.024924200028181076,0.7368666529655457,0.6143625378608704,-0.05110839381814003,0.7132316827774048,0.6528776288032532,-0.05270831286907196,0.696285605430603,0.7114909291267395,-0.048163753002882004,0.0,0.0,0.0,0.0,0.0,0.0,0.0,0.0,0.0,0.0,0.0,0.0,0.0,0.0,0.0,0.0,0.0,0.0,0.0,0.0,0.0,0.0,0.0,0.0,0.0,0.0,0.0,0.0,0.0,0.0,0.0,0.0,0.0,0.0,0.0,0.0,0.0,0.0,0.0,0.0,0.0,0.0,0.0,0.0,0.0,0.0,0.0,0.0,0.0,0.0,0.0,0.0,0.0,0.0,0.0,0.0,0.0,0.0,0.0,0.0,0.0,0.0,0.0
1784047029.63989,0.6811479330062866,0.9624167084693909,2.893881685395172e-07,0.6287746429443359,0.8938245177268982,-0.015512882731854916,0.6112145185470581,0.7791061401367188,-0.021651828661561012,0.636302649974823,0.6868149042129517,-0.033137790858745575,0.6670805811882019,0.622905969619751,-0.04372050613164902,0.6423124670982361,0.6682925820350647,0.010669655166566372,0.6418774127960205,0.558983564376831,-0.0056542884558439255,0.6464735269546509,0.48448389768600464,-0.01981058157980442,0.6563376784324646,0.4146302342414856,-0.0306968092918396,0.6736395359039307,0.6571582555770874,0.0023554384242743254,0.6614593863487244,0.5251235365867615,-0.019141828641295433,0.6450456976890564,0.45239025354385376,-0.036195289343595505,0.6397239565849304,0.3895922303199768,-0.04652942344546318,0.7049976587295532,0.671286404132843,-0.010407883673906326,0.7127789258956909,0.554715633392334,-0.04567570611834526,0.6891128420829773,0.6262421011924744,-0.05340471863746643,0.6756042242050171,0.6986180543899536,-0.048863232135772705,0.7374294996261597,0.7046359777450562,-0.024771366268396378,0.7389484643936157,0.615253746509552,-0.050956688821315765,0.7150160670280457,0.6533094048500061,-0.05260966345667839,0.6969337463378906,0.7124223709106445,-0.048148781061172485,0.0,0.0,0.0,0.0,0.0,0.0,0.0,0.0,0.0,0.0,0.0,0.0,0.0,0.0,0.0,0.0,0.0,0.0,0.0,0.0,0.0,0.0,0.0,0.0,0.0,0.0,0.0,0.0,0.0,0.0,0.0,0.0,0.0,0.0,0.0,0.0,0.0,0.0,0.0,0.0,0.0,0.0,0.0,0.0,0.0,0.0,0.0,0.0,0.0,0.0,0.0,0.0,0.0,0.0,0.0,0.0,0.0,0.0,0.0,0.0,0.0,0.0,0.0
1784047029.773201,0.684626579284668,0.9640949964523315,2.7632199817162473e-07,0.6311715245246887,0.8938325047492981,-0.014295431785285473,0.6144412755966187,0.7778515219688416,-0.019078297540545464,0.6409971714019775,0.6859815120697021,-0.029506931081414223,0.6711090207099915,0.6225276589393616,-0.03896087035536766,0.6466934084892273,0.6646867990493774,0.013948540203273296,0.6463104486465454,0.5574756264686584,-0.0013644631253555417,0.6501219272613525,0.4830923080444336,-0.015084371902048588,0.659054160118103,0.41391170024871826,-0.025962796062231064,0.6780004501342773,0.6542422771453857,0.004867408890277147,0.665492594242096,0.5253942608833313,-0.01709192804992199,0.6485474109649658,0.4534260332584381,-0.03495251387357712,0.6427985429763794,0.3909498453140259,-0.045650407671928406,0.7091894745826721,0.6688976883888245,-0.008659860119223595,0.7157394886016846,0.5561057329177856,-0.04409182071685791,0.6932812333106995,0.6286883354187012,-0.051314372569322586,0.6812925934791565,0.6996676921844482,-0.04622664675116539,0.7415916323661804,0.7038648724555969,-0.023794803768396378,0.7411244511604309,0.6151309013366699,-0.049508512020111084,0.7182009816169739,0.6555541753768921,-0.050224386155605316,0.7025090456008911,0.715395987033844,-0.04500383883714676,0.0,0.0,0.0,0.0,0.0,0.0,0.0,0.0,0.0,0.0,0.0,0.0,0.0,0.0,0.0,0.0,0.0,0.0,0.0,0.0,0.0,0.0,0.0,0.0,0.0,0.0,0.0,0.0,0.0,0.0,0.0,0.0,0.0,0.0,0.0,0.0,0.0,0.0,0.0,0.0,0.0,0.0,0.0,0.0,0.0,0.0,0.0,0.0,0.0,0.0,0.0,0.0,0.0,0.0,0.0,0.0,0.0,0.0,0.0,0.0,0.0,0.0,0.0
1784047029.9064069,0.6868146657943726,0.9624909162521362,2.8355196945994976e-07,0.6333680748939514,0.8942211866378784,-0.015444296412169933,0.6164448857307434,0.7768462300300598,-0.020681867375969887,0.6436807513237,0.6848165988922119,-0.03131942078471184,0.6742147207260132,0.6222327351570129,-0.041064318269491196,0.6478970646858215,0.6631651520729065,0.012800373136997223,0.6478253602981567,0.5548526048660278,-0.0024291612207889557,0.6521142721176147,0.4814024567604065,-0.01613091491162777,0.6613869667053223,0.4127420485019684,-0.026938214898109436,0.6793040633201599,0.6530170440673828,0.004488077946007252,0.6679244637489319,0.5236155986785889,-0.016163310036063194,0.6516198515892029,0.4519059658050537,-0.0334119088947773,0.6460695862770081,0.39026105403900146,-0.04401063919067383,0.7105234861373901,0.6680882573127747,-0.008427525870501995,0.7182201147079468,0.5552340745925903,-0.04307619482278824,0.695066511631012,0.6270995140075684,-0.05120471119880676,0.6821563243865967,0.6988178491592407,-0.047138046473264694,0.7426174879074097,0.7025732398033142,-0.023008650168776512,0.7435728311538696,0.6153513193130493,-0.04891666769981384,0.7201122641563416,0.6551550030708313,-0.050760798156261444,0.703192412853241,0.7144749164581299,-0.0465506985783577,0.0,0.0,0.0,0.0,0.0,0.0,0.0,0.0,0.0,0.0,0.0,0.0,0.0,0.0,0.0,0.0,0.0,0.0,0.0,0.0,0.0,0.0,0.0,0.0,0.0,0.0,0.0,0.0,0.0,0.0,0.0,0.0,0.0,0.0,0.0,0.0,0.0,0.0,0.0,0.0,0.0,0.0,0.0,0.0,0.0,0.0,0.0,0.0,0.0,0.0,0.0,0.0,0.0,0.0,0.0,0.0,0.0,0.0,0.0,0.0,0.0,0.0,0.0
1784047030.040542,0.6869847774505615,0.9620875120162964,2.753036767444428e-07,0.6330981850624084,0.8919761776924133,-0.013931294903159142,0.6174309849739075,0.7744534015655518,-0.018411951139569283,0.6450923681259155,0.6835793852806091,-0.028654994443058968,0.6765672564506531,0.6223410964012146,-0.037893373519182205,0.650877058506012,0.661704957485199,0.014435959048569202,0.6508805155754089,0.5574735403060913,-0.0006357418606057763,0.6550106406211853,0.4839212894439697,-0.014162319712340832,0.6647486686706543,0.41581133008003235,-0.025026096031069756,0.6823921203613281,0.6519137024879456,0.005217953119426966,0.6709666848182678,0.5249871015548706,-0.01713794283568859,0.653365433216095,0.45380812883377075,-0.03516070544719696,0.6474912166595459,0.3926369845867157,-0.045927103608846664,0.7133702039718628,0.667397141456604,-0.008408571593463421,0.721579372882843,0.5554146766662598,-0.04348455369472504,0.6968337297439575,0.6280031800270081,-0.05015126243233681,0.6832839846611023,0.6982265710830688,-0.04480494186282158,0.7453482151031494,0.7033584117889404,-0.023697100579738617,0.745642900466919,0.6153997182846069,-0.04861897602677345,0.7215372323989868,0.6550214886665344,-0.048944346606731415,0.7050381302833557,0.7135597467422485,-0.043595727533102036,0.0,0.0,0.0,0.0,0.0,0.0,0.0,0.0,0.0,0.0,0.0,0.0,0.0,0.0,0.0,0.0,0.0,0.0,0.0,0.0,0.0,0.0,0.0,0.0,0.0,0.0,0.0,0.0,0.0,0.0,0.0,0.0,0.0,0.0,0.0,0.0,0.0,0.0,0.0,0.0,0.0,0.0,0.0,0.0,0.0,0.0,0.0,0.0,0.0,0.0,0.0,0.0,0.0,0.0,0.0,0.0,0.0,0.0,0.0,0.0,0.0,0.0,0.0
1784047030.175663,0.6891085505485535,0.9646027088165283,2.898176774124295e-07,0.6353403925895691,0.8909053802490234,-0.0164747666567564,0.6187443137168884,0.7785584330558777,-0.02291707508265972,0.6460696458816528,0.6864666938781738,-0.03446458280086517,0.6773568391799927,0.6222333312034607,-0.04517856985330582,0.6508489847183228,0.6692278981208801,0.010806184262037277,0.6502984762191772,0.5570459961891174,-0.005108471494168043,0.6540985107421875,0.48299336433410645,-0.01927982270717621,0.6629498600959778,0.4132085144519806,-0.030260920524597168,0.6822397112846375,0.6586396098136902,0.0032093925401568413,0.6717484593391418,0.5266916155815125,-0.018016628921031952,0.6555816531181335,0.4532027840614319,-0.03582071140408516,0.6500135064125061,0.38880249857902527,-0.04685801640152931,0.7132879495620728,0.6729989051818848,-0.008989923633635044,0.722370982170105,0.5574588179588318,-0.0439612939953804,0.6978592872619629,0.625917911529541,-0.0535612627863884,0.6837171912193298,0.6968114972114563,-0.050462059676647186,0.7453537583351135,0.7065914273262024,-0.022819722071290016,0.747573733329773,0.6167482137680054,-0.04885488376021385,0.7234214544296265,0.6529654860496521,-0.05172019451856613,0.705272376537323,0.711283266544342,-0.048269592225551605,0.0,0.0,0.0,0.0,0.0,0.0,0.0,0.0,0.0,0.0,0.0,0.0,0.0,0.0,0.0,0.0,0.0,0.0,0.0,0.0,0.0,0.0,0.0,0.0,0.0,0.0,0.0,0.0,0.0,0.0,0.0,0.0,0.0,0.0,0.0,0.0,0.0,0.0,0.0,0.0,0.0,0.0,0.0,0.0,0.0,0.0,0.0,0.0,0.0,0.0,0.0,0.0,0.0,0.0,0.0,0.0,0.0,0.0,0.0,0.0,0.0,0.0,0.0
1784047030.3080902,0.6890035271644592,0.9609445333480835,3.030727384611964e-07,0.6360127329826355,0.8883506059646606,-0.015517462976276875,0.6201760172843933,0.7743573784828186,-0.021514344960451126,0.6479545831680298,0.6846494674682617,-0.03280527517199516,0.67830491065979,0.6219721436500549,-0.04311295226216316,0.6517463326454163,0.6621034145355225,0.0116457249969244,0.651329517364502,0.5547311305999756,-0.004464947152882814,0.6561614871025085,0.4820322096347809,-0.018742918968200684,0.6663693189620972,0.41379252076148987,-0.029678834602236748,0.6831303834915161,0.6528388261795044,0.003408899065107107,0.6716597676277161,0.5228162407875061,-0.0178403090685606,0.6558082103729248,0.4510997533798218,-0.035010434687137604,0.6512136459350586,0.3886590003967285,-0.04546758159995079,0.714097261428833,0.6688950061798096,-0.009428922086954117,0.7231000661849976,0.5543720126152039,-0.044105734676122665,0.6995442509651184,0.626914381980896,-0.051696859300136566,0.6863014101982117,0.6991416811943054,-0.04714750498533249,0.7459801435470581,0.704375147819519,-0.023982608690857887,0.7486265897750854,0.615562379360199,-0.049497734755277634,0.7244665622711182,0.6536813974380493,-0.051059022545814514,0.7059698104858398,0.711785078048706,-0.04663107544183731,0.0,0.0,0.0,0.0,0.0,0.0,0.0,0.0,0.0,0.0,0.0,0.0,0.0,0.0,0.0,0.0,0.0,0.0,0.0,0.0,0.0,0.0,0.0,0.0,0.0,0.0,0.0,0.0,0.0,0.0,0.0,0.0,0.0,0.0,0.0,0.0,0.0,0.0,0.0,0.0,0.0,0.0,0.0,0.0,0.0,0.0,0.0,0.0,0.0,0.0,0.0,0.0,0.0,0.0,0.0,0.0,0.0,0.0,0.0,0.0,0.0,0.0,0.0
1784047030.440435,0.6896770000457764,0.9601092338562012,2.9753078933936195e-07,0.6365509629249573,0.8886545300483704,-0.016299692913889885,0.6188477873802185,0.7764945030212402,-0.022832810878753662,0.64601069688797,0.6863532662391663,-0.03435386344790459,0.6765933632850647,0.6230455636978149,-0.04489364102482796,0.6514379978179932,0.6616383194923401,0.009481036104261875,0.6511453986167908,0.552372932434082,-0.006595209706574678,0.6553093791007996,0.4779388904571533,-0.020761050283908844,0.6647710204124451,0.40761658549308777,-0.03186831995844841,0.6827720999717712,0.6519039273262024,0.00145768653601408,0.6708686351776123,0.5206104516983032,-0.019913597032427788,0.6544445753097534,0.4495850205421448,-0.03661856800317764,0.6496752500534058,0.3870035409927368,-0.04685433208942413,0.7137802839279175,0.6685695648193359,-0.011084980331361294,0.7225674390792847,0.5535525679588318,-0.04612604156136513,0.6992444396018982,0.6253620386123657,-0.05344581976532936,0.6867033243179321,0.6975066661834717,-0.04874217137694359,0.7453694343566895,0.7060871720314026,-0.025351254269480705,0.7479806542396545,0.6145322918891907,-0.05131760239601135,0.7240623831748962,0.6525744795799255,-0.05271026864647865,0.706514835357666,0.7117711305618286,-0.048159535974264145,0.0,0.0,0.0,0.0,0.0,0.0,0.0,0.0,0.0,0.0,0.0,0.0,0.0,0.0,0.0,0.0,0.0,0.0,0.0,0.0,0.0,0.0,0.0,0.0,0.0,0.0,0.0,0.0,0.0,0.0,0.0,0.0,0.0,0.0,0.0,0.0,0.0,0.0,0.0,0.0,0.0,0.0,0.0,0.0,0.0,0.0,0.0,0.0,0.0,0.0,0.0,0.0,0.0,0.0,0.0,0.0,0.0,0.0,0.0,0.0,0.0,0.0,0.0
1784047030.5748858,0.6898527145385742,0.9593697786331177,2.985967739732587e-07,0.6368351578712463,0.8881199359893799,-0.016391895711421967,0.6185528635978699,0.7757107019424438,-0.023215457797050476,0.6449821591377258,0.6855176687240601,-0.035196151584386826,0.6758729815483093,0.6222958564758301,-0.04626401141285896,0.6517376899719238,0.6606942415237427,0.009794235229492188,0.6511218547821045,0.5522670745849609,-0.0068881576880812645,0.655419111251831,0.4781452417373657,-0.021680258214473724,0.6650242805480957,0.40844812989234924,-0.03318805992603302,0.6831637620925903,0.6512449383735657,0.0015507214702665806,0.67083740234375,0.5201423168182373,-0.020170100033283234,0.6547327637672424,0.4480760097503662,-0.03754835203289986,0.650042712688446,0.38511213660240173,-0.048329245299100876,0.7142852544784546,0.6680608987808228,-0.011304720304906368,0.7222663164138794,0.5526837110519409,-0.046735674142837524,0.698966920375824,0.6245389580726624,-0.05451028421521187,0.686122715473175,0.6968784332275391,-0.05018056929111481,0.7462457418441772,0.7049777507781982,-0.02590869925916195,0.7482425570487976,0.6143444776535034,-0.05259173735976219,0.7243927717208862,0.652330756187439,-0.054556071758270264,0.7064641714096069,0.710898756980896,-0.05038470774888992,0.0,0.0,0.0,0.0,0.0,0.0,0.0,0.0,0.0,0.0,0.0,0.0,0.0,0.0,0.0,0.0,0.0,0.0,0.0,0.0,0.0,0.0,0.0,0.0,0.0,0.0,0.0,0.0,0.0,0.0,0.0,0.0,0.0,0.0,0.0,0.0,0.0,0.0,0.0,0.0,0.0,0.0,0.0,0.0,0.0,0.0,0.0,0.0,0.0,0.0,0.0,0.0,0.0,0.0,0.0,0.0,0.0,0.0,0.0,0.0,0.0,0.0,0.0
1784047030.707614,0.6895003914833069,0.9587501883506775,3.003068513862672e-07,0.6350023746490479,0.8878294229507446,-0.016216721385717392,0.6170587539672852,0.7757980227470398,-0.022239262238144875,0.6446628570556641,0.6856016516685486,-0.033350199460983276,0.6752579212188721,0.6223082542419434,-0.043333690613508224,0.6505900025367737,0.6576990485191345,0.011175713501870632,0.6505197882652283,0.5498859286308289,-0.004423959646373987,0.6547468304634094,0.47438156604766846,-0.01825004443526268,0.6640377044677734,0.40392759442329407,-0.02916896715760231,0.6821547150611877,0.6471107006072998,0.0031442574691027403,0.669670820236206,0.518301248550415,-0.01854165829718113,0.6524654626846313,0.44754716753959656,-0.03513786941766739,0.6467360854148865,0.3865668773651123,-0.0450536385178566,0.7128281593322754,0.6629443764686584,-0.00956673827022314,0.7210739850997925,0.5499043464660645,-0.044948454946279526,0.6985722184181213,0.6228778958320618,-0.05178726464509964,0.6864794492721558,0.6950441598892212,-0.04643115773797035,0.7439112067222595,0.7003039121627808,-0.024066349491477013,0.7460716962814331,0.6093469858169556,-0.049956850707530975,0.7225080728530884,0.6484413146972656,-0.05101415887475014,0.705157458782196,0.7085348963737488,-0.046050775796175,0.0,0.0,0.0,0.0,0.0,0.0,0.0,0.0,0.0,0.0,0.0,0.0,0.0,0.0,0.0,0.0,0.0,0.0,0.0,0.0,0.0,0.0,0.0,0.0,0.0,0.0,0.0,0.0,0.0,0.0,0.0,0.0,0.0,0.0,0.0,0.0,0.0,0.0,0.0,0.0,0.0,0.0,0.0,0.0,0.0,0.0,0.0,0.0,0.0,0.0,0.0,0.0,0.0,0.0,0.0,0.0,0.0,0.0,0.0,0.0,0.0,0.0,0.0
1784047030.839882,0.6898168325424194,0.9597407579421997,2.812637092119985e-07,0.6348221302032471,0.8894255757331848,-0.014762865379452705,0.6178213953971863,0.7751860022544861,-0.019828028976917267,0.6451191902160645,0.6833080053329468,-0.03019629418849945,0.6754692196846008,0.6211119294166565,-0.039630793035030365,0.6494005918502808,0.6617740392684937,0.012248435989022255,0.6480571627616882,0.5541387796401978,-0.0026525992434471846,0.6514970064163208,0.48043161630630493,-0.01612662337720394,0.6605424284934998,0.41182130575180054,-0.026871560141444206,0.6811501383781433,0.6513587832450867,0.003949497360736132,0.6693548560142517,0.5213667154312134,-0.017077025026082993,0.6529398560523987,0.4494965076446533,-0.03407543897628784,0.648302435874939,0.38727498054504395,-0.0445292666554451,0.7118605375289917,0.6668405532836914,-0.008775807917118073,0.7206972241401672,0.5515875816345215,-0.04256612807512283,0.6963905692100525,0.6209801435470581,-0.04993781819939613,0.683120846748352,0.6909216642379761,-0.04559383913874626,0.7432470321655273,0.7023999691009521,-0.023158535361289978,0.7448180317878723,0.611266553401947,-0.04775909706950188,0.7207757830619812,0.6483098864555359,-0.049071792513132095,0.7037540078163147,0.7065150141716003,-0.04473230242729187,0.0,0.0,0.0,0.0,0.0,0.0,0.0,0.0,0.0,0.0,0.0,0.0,0.0,0.0,0.0,0.0,0.0,0.0,0.0,0.0,0.0,0.0,0.0,0.0,0.0,0.0,0.0,0.0,0.0,0.0,0.0,0.0,0.0,0.0,0.0,0.0,0.0,0.0,0.0,0.0,0.0,0.0,0.0,0.0,0.0,0.0,0.0,0.0,0.0,0.0,0.0,0.0,0.0,0.0,0.0,0.0,0.0,0.0,0.0,0.0,0.0,0.0,0.0
1784047030.975368,0.689782977104187,0.9545530676841736,3.019767405021412e-07,0.6344204545021057,0.885059118270874,-0.014824854210019112,0.6180291771888733,0.7710002064704895,-0.019615421071648598,0.6459841132164001,0.6795388460159302,-0.029514361172914505,0.6754543781280518,0.6182031035423279,-0.03841468691825867,0.6484439969062805,0.6569061875343323,0.011398670263588428,0.647533118724823,0.5490294694900513,-0.0033167856745421886,0.651542067527771,0.4756667912006378,-0.016518257558345795,0.6605308055877686,0.40709787607192993,-0.02698802389204502,0.6802102327346802,0.6459997296333313,0.003224594285711646,0.6690936088562012,0.5155653357505798,-0.01768510416150093,0.6531810164451599,0.44483885169029236,-0.03415147215127945,0.6485539078712463,0.3829684257507324,-0.04397930949926376,0.710745096206665,0.6611971855163574,-0.009283533319830894,0.7195391654968262,0.5484781861305237,-0.042703647166490555,0.6962578296661377,0.6213698983192444,-0.04880548641085625,0.6836228370666504,0.6921982169151306,-0.04333120584487915,0.7414242029190063,0.6974573135375977,-0.02352024056017399,0.7433735132217407,0.606457531452179,-0.04730398580431938,0.7197138667106628,0.6452910900115967,-0.04738982021808624,0.7025575637817383,0.7043343782424927,-0.04206830635666847,0.0,0.0,0.0,0.0,0.0,0.0,0.0,0.0,0.0,0.0,0.0,0.0,0.0,0.0,0.0,0.0,0.0,0.0,0.0,0.0,0.0,0.0,0.0,0.0,0.0,0.0,0.0,0.0,0.0,0.0,0.0,0.0,0.0,0.0,0.0,0.0,0.0,0.0,0.0,0.0,0.0,0.0,0.0,0.0,0.0,0.0,0.0,0.0,0.0,0.0,0.0,0.0,0.0,0.0,0.0,0.0,0.0,0.0,0.0,0.0,0.0,0.0,0.0
1784047031.1084218,0.6885257959365845,0.9520556330680847,2.982720275213069e-07,0.6336067914962769,0.8883888125419617,-0.014725485816597939,0.615597665309906,0.7706642150878906,-0.01906776987016201,0.6431306600570679,0.6789036393165588,-0.028455480933189392,0.6726956963539124,0.6182957887649536,-0.03679592162370682,0.6463018655776978,0.6493439078330994,0.011883478611707687,0.6462332010269165,0.5443483591079712,-0.0022306537721306086,0.6509851813316345,0.47090309858322144,-0.014925616793334484,0.661049485206604,0.40355566143989563,-0.025151794776320457,0.6781101226806641,0.6398212909698486,0.0035365521907806396,0.6664209365844727,0.5122263431549072,-0.01709602214396,0.6509502530097961,0.4417116641998291,-0.03327838331460953,0.6467806100845337,0.38138845562934875,-0.0428832583129406,0.7090290188789368,0.6568700671195984,-0.009178997948765755,0.7177467942237854,0.5478461980819702,-0.04292020946741104,0.6946077346801758,0.6193634271621704,-0.049595292657613754,0.6817021369934082,0.6884211301803589,-0.04459715262055397,0.7399333119392395,0.6942359209060669,-0.023523923009634018,0.7411416172981262,0.6059525609016418,-0.048202794045209885,0.7176606059074402,0.6460762619972229,-0.04896370694041252,0.7013087272644043,0.7043940424919128,-0.04408116638660431,0.0,0.0,0.0,0.0,0.0,0.0,0.0,0.0,0.0,0.0,0.0,0.0,0.0,0.0,0.0,0.0,0.0,0.0,0.0,0.0,0.0,0.0,0.0,0.0,0.0,0.0,0.0,0.0,0.0,0.0,0.0,0.0,0.0,0.0,0.0,0.0,0.0,0.0,0.0,0.0,0.0,0.0,0.0,0.0,0.0,0.0,0.0,0.0,0.0,0.0,0.0,0.0,0.0,0.0,0.0,0.0,0.0,0.0,0.0,0.0,0.0,0.0,0.0
1784047031.2427342,0.6867597103118896,0.956595242023468,3.112056674581254e-07,0.6317130327224731,0.8937616944313049,-0.014849483035504818,0.6153450012207031,0.7722198963165283,-0.019783413037657738,0.6409523487091064,0.6786786317825317,-0.030031371861696243,0.6689079403877258,0.6161441206932068,-0.039099980145692825,0.6457812190055847,0.6522969603538513,0.009809487499296665,0.6439748406410217,0.5456569194793701,-0.006580309476703405,0.6477845907211304,0.47243350744247437,-0.020770804956555367,0.6576893329620361,0.4062514007091522,-0.03203620761632919,0.6779674291610718,0.643825113773346,0.0006569562829099596,0.6684913039207458,0.5126630067825317,-0.022388886660337448,0.656261682510376,0.4392396807670593,-0.04124632850289345,0.6565578579902649,0.37525394558906555,-0.052932191640138626,0.7086617350578308,0.6626038551330566,-0.012589517049491405,0.7165688872337341,0.5515917539596558,-0.04649566113948822,0.6909752488136292,0.6253920793533325,-0.05160414054989815,0.6771106719970703,0.6933891773223877,-0.04595120996236801,0.7401647567749023,0.7003042697906494,-0.02769189141690731,0.740052342414856,0.6126646399497986,-0.05264339968562126,0.7166175842285156,0.6523146629333496,-0.05272701755166054,0.7002237439155579,0.707138180732727,-0.04743770509958267,0.0,0.0,0.0,0.0,0.0,0.0,0.0,0.0,0.0,0.0,0.0,0.0,0.0,0.0,0.0,0.0,0.0,0.0,0.0,0.0,0.0,0.0,0.0,0.0,0.0,0.0,0.0,0.0,0.0,0.0,0.0,0.0,0.0,0.0,0.0,0.0,0.0,0.0,0.0,0.0,0.0,0.0,0.0,0.0,0.0,0.0,0.0,0.0,0.0,0.0,0.0,0.0,0.0,0.0,0.0,0.0,0.0,0.0,0.0,0.0,0.0,0.0,0.0
1784047031.374306,0.6866834163665771,0.966327965259552,3.34725115180845e-07,0.6325629949569702,0.8975474834442139,-0.015492106787860394,0.6164031028747559,0.7805360555648804,-0.02171453833580017,0.6388061046600342,0.6832966208457947,-0.03320958837866783,0.66423100233078,0.6182736158370972,-0.043865956366062164,0.6466793417930603,0.6598799228668213,0.007942873984575272,0.6407259702682495,0.5443712472915649,-0.008614561520516872,0.6401099562644958,0.47456225752830505,-0.023298991844058037,0.6444323062896729,0.4131007492542267,-0.034894414246082306,0.6797605156898499,0.6537166237831116,-0.001338458270765841,0.6788012981414795,0.5159766674041748,-0.023202449083328247,0.6722790598869324,0.4367468059062958,-0.0441918782889843,0.6752462983131409,0.37042924761772156,-0.05856670066714287,0.7101867198944092,0.6741349101066589,-0.01463407464325428,0.7203273177146912,0.5541152954101562,-0.04675816372036934,0.693004310131073,0.6204419136047363,-0.05460339039564133,0.6771957874298096,0.686708390712738,-0.05236314609646797,0.7405771613121033,0.7117531895637512,-0.02970145083963871,0.7393794655799866,0.6202536821365356,-0.05528613179922104,0.7166510224342346,0.6593089699745178,-0.057609155774116516,0.7009380459785461,0.7151532173156738,-0.05455612763762474,0.0,0.0,0.0,0.0,0.0,0.0,0.0,0.0,0.0,0.0,0.0,0.0,0.0,0.0,0.0,0.0,0.0,0.0,0.0,0.0,0.0,0.0,0.0,0.0,0.0,0.0,0.0,0.0,0.0,0.0,0.0,0.0,0.0,0.0,0.0,0.0,0.0,0.0,0.0,0.0,0.0,0.0,0.0,0.0,0.0,0.0,0.0,0.0,0.0,0.0,0.0,0.0,0.0,0.0,0.0,0.0,0.0,0.0,0.0,0.0,0.0,0.0,0.0
1784047031.509471,0.6881076097488403,0.9732496738433838,3.110920090421132e-07,0.6333414316177368,0.9051671624183655,-0.01775347627699375,0.6165922284126282,0.788268506526947,-0.02470543421804905,0.6384325623512268,0.6916716694831848,-0.03655485808849335,0.662858247756958,0.6240401864051819,-0.04760891571640968,0.6493051052093506,0.6641290187835693,0.0070966375060379505,0.6437258720397949,0.5503913164138794,-0.010444233193993568,0.6426600217819214,0.4802839756011963,-0.026043323799967766,0.646841287612915,0.4175233542919159,-0.03830311819911003,0.681956946849823,0.6586475372314453,-0.0016547116683796048,0.6802272200584412,0.5219861268997192,-0.024723578244447708,0.6726800203323364,0.4429899752140045,-0.047008927911520004,0.6742646098136902,0.37577852606773376,-0.06214276701211929,0.7123363018035889,0.6798319816589355,-0.014707699418067932,0.7218932509422302,0.56166672706604,-0.049690939486026764,0.6947504281997681,0.627996027469635,-0.06013316661119461,0.6787719130516052,0.6940841674804688,-0.059033289551734924,0.7431082129478455,0.7183594107627869,-0.029484985396265984,0.7408602833747864,0.6286681294441223,-0.057853661477565765,0.717710554599762,0.6684303283691406,-0.061871618032455444,0.701633632183075,0.7244963645935059,-0.05960872024297714,0.0,0.0,0.0,0.0,0.0,0.0,0.0,0.0,0.0,0.0,0.0,0.0,0.0,0.0,0.0,0.0,0.0,0.0,0.0,0.0,0.0,0.0,0.0,0.0,0.0,0.0,0.0,0.0,0.0,0.0,0.0,0.0,0.0,0.0,0.0,0.0,0.0,0.0,0.0,0.0,0.0,0.0,0.0,0.0,0.0,0.0,0.0,0.0,0.0,0.0,0.0,0.0,0.0,0.0,0.0,0.0,0.0,0.0,0.0,0.0,0.0,0.0,0.0
